<?xml version="1.0" encoding="UTF-8"?>
<map version="1.9" tiledversion="1.9.2" orientation="orthogonal" renderorder="right-down" width="32" height="32" tilewidth="32" tileheight="32" infinite="1" nextlayerid="14" nextobjectid="8">
 <tileset firstgid="1" source="0_TimeTravel_Dungeon.tsx"/>
 <tileset firstgid="257" source="0_TimeTravel_Rov.tsx"/>
 <tileset firstgid="275" source="0_TimeTravel_DecorDurable.tsx"/>
 <tileset firstgid="375" source="0_TimeTravel_DecorFragile.tsx"/>
 <tileset firstgid="475" source="0_TimeTravel_Chest.tsx"/>
 <tileset firstgid="481" source="../BasicTiles/0_Dark.tsx"/>
 <tileset firstgid="511" source="0_TimeTravel_DecorWood.tsx"/>
 <tileset firstgid="651" source="0_TimeTravel_Stones.tsx"/>
 <tileset firstgid="663" source="0_TimeTravel_Barrels.tsx"/>
 <tileset firstgid="679" source="0_InvisibleWall.tsx"/>
 <layer id="10" name="Ditch" width="32" height="32">
  <data encoding="csv">
   <chunk x="0" y="0" width="16" height="16">
0,0,0,0,0,0,0,0,0,0,0,0,0,0,0,0,
0,0,0,0,0,0,0,0,0,0,0,0,0,0,0,0,
0,0,0,0,0,0,0,0,0,0,0,0,0,0,0,0,
0,0,0,0,0,0,0,0,0,0,0,0,0,0,0,0,
0,0,0,0,0,0,0,0,0,0,0,0,0,0,0,0,
0,0,0,0,0,0,0,0,104,2147483751,0,0,0,0,0,0,
0,0,0,0,0,0,0,104,0,0,0,2147483753,0,0,0,0,
0,0,0,0,0,0,0,0,0,103,0,104,2147483753,0,0,0,
0,0,0,0,106,0,0,104,0,0,0,0,103,0,0,0,
0,0,0,0,104,88,90,0,2147483751,105,104,0,0,0,0,0,
0,0,0,0,0,103,0,104,0,2147483753,0,104,0,0,0,0,
0,0,0,0,0,0,0,2147483751,0,0,0,0,0,0,0,0,
0,0,0,0,0,0,0,0,0,0,0,0,0,0,0,0,
0,0,0,0,0,0,0,0,0,0,0,0,0,0,0,0,
0,0,0,0,0,0,0,0,0,0,0,0,0,0,0,0,
0,0,0,0,0,0,0,0,0,0,0,0,0,0,0,0
</chunk>
  </data>
 </layer>
 <layer id="1" name="Floor" width="32" height="32">
  <data encoding="csv">
   <chunk x="0" y="0" width="16" height="16">
0,0,0,0,0,0,0,0,0,0,0,0,0,0,0,0,
0,0,0,0,0,0,0,0,0,0,0,0,0,0,0,0,
0,0,0,0,0,0,0,0,0,0,0,0,0,0,0,0,
0,0,0,0,0,0,0,0,0,0,0,0,0,0,0,0,
0,0,0,0,0,0,0,0,0,0,0,0,0,0,0,0,
0,0,0,0,0,97,109,0,0,0,0,0,0,0,0,0,
0,0,0,0,97,129,101,0,0,0,0,0,0,0,0,0,
0,0,0,0,129,117,114,0,0,0,0,0,0,0,0,0,
0,0,0,0,0,114,114,0,0,0,0,0,0,0,0,0,
0,0,0,0,0,0,0,0,0,0,0,0,0,0,0,0,
0,0,0,0,0,0,0,0,0,0,0,0,0,0,0,0,
0,0,0,0,0,0,0,0,0,0,0,0,0,0,0,0,
0,0,0,0,0,0,0,0,0,0,0,0,0,0,0,0,
0,0,0,0,0,0,0,0,0,0,0,0,0,0,0,0,
0,0,0,0,0,0,0,0,0,0,0,0,0,0,0,0,
0,0,0,0,0,0,0,0,0,0,0,0,0,0,0,0
</chunk>
  </data>
 </layer>
 <layer id="9" name="FloorDitch" width="32" height="32">
  <data encoding="csv">
   <chunk x="0" y="0" width="16" height="16">
0,0,0,0,0,0,0,0,0,0,0,0,0,0,0,0,
0,0,0,0,0,0,0,0,0,0,0,0,0,0,0,0,
0,0,0,0,0,0,0,0,0,0,0,0,0,0,0,0,
0,0,0,0,0,0,0,0,0,0,0,0,0,0,0,0,
0,0,0,0,0,0,0,0,0,0,0,0,0,0,0,0,
0,0,0,0,0,0,0,135,0,0,0,0,0,0,0,0,
0,0,0,0,0,0,0,135,0,0,0,0,0,0,0,0,
0,0,0,0,0,0,0,135,0,0,0,0,0,0,0,0,
0,0,0,0,121,0,0,135,0,0,0,0,0,0,0,0,
0,0,0,0,0,120,120,0,0,0,0,0,0,0,0,0,
0,0,0,0,0,0,0,0,0,0,0,0,0,0,0,0,
0,0,0,0,0,0,0,0,0,0,0,0,0,0,0,0,
0,0,0,0,0,0,0,0,0,0,0,0,0,0,0,0,
0,0,0,0,0,0,0,0,0,0,0,0,0,0,0,0,
0,0,0,0,0,0,0,0,0,0,0,0,0,0,0,0,
0,0,0,0,0,0,0,0,0,0,0,0,0,0,0,0
</chunk>
  </data>
 </layer>
 <layer id="11" name="Shadow" width="32" height="32">
  <data encoding="csv">
   <chunk x="0" y="0" width="16" height="16">
0,0,0,0,0,0,0,0,0,0,0,0,0,0,0,0,
0,0,0,0,0,0,0,0,0,0,0,0,0,0,0,0,
0,0,0,0,0,0,0,0,0,0,0,0,0,0,0,0,
0,0,0,0,0,0,0,0,0,0,0,0,0,0,0,0,
0,0,0,0,0,0,0,0,0,0,0,0,0,0,0,0,
0,0,0,0,0,0,0,2147484143,0,0,0,0,0,0,0,0,
0,0,0,0,0,0,0,0,0,0,0,0,0,0,0,0,
0,0,0,0,0,0,0,0,0,0,0,0,0,0,0,0,
0,0,0,0,0,0,0,0,0,0,0,0,0,0,0,0,
0,0,0,0,0,0,0,0,0,0,0,0,0,0,0,0,
0,0,0,0,0,0,0,0,0,0,0,0,0,0,0,0,
0,0,0,0,0,0,0,0,0,0,0,0,0,0,0,0,
0,0,0,0,0,0,0,0,0,0,0,0,0,0,0,0,
0,0,0,0,0,0,0,0,0,0,0,0,0,0,0,0,
0,0,0,0,0,0,0,0,0,0,0,0,0,0,0,0,
0,0,0,0,0,0,0,0,0,0,0,0,0,0,0,0
</chunk>
  </data>
 </layer>
 <layer id="2" name="Wall" width="32" height="32">
  <data encoding="csv">
   <chunk x="0" y="0" width="16" height="16">
0,0,0,0,0,0,0,0,0,0,0,0,0,0,0,0,
0,0,0,0,0,0,0,0,0,0,0,0,0,0,0,0,
0,0,0,0,0,257,257,257,257,257,0,0,0,0,0,0,
0,0,0,0,257,257,257,257,257,257,257,257,0,0,0,0,
0,0,0,0,257,263,263,263,263,263,257,257,257,0,0,0,
0,0,0,0,263,0,0,0,0,0,263,263,257,257,0,0,
0,0,0,0,0,0,0,0,0,0,0,0,263,257,0,0,
0,0,0,0,0,0,0,0,0,0,0,0,0,263,0,0,
0,0,0,0,0,0,0,0,0,0,0,0,0,0,0,0,
0,0,0,0,0,0,0,0,0,0,0,0,0,0,0,0,
0,0,0,0,0,0,0,0,0,0,0,0,0,0,0,0,
0,0,0,0,0,0,0,0,0,0,0,0,0,0,0,0,
0,0,0,0,0,0,0,0,0,0,0,0,0,0,0,0,
0,0,0,0,0,0,0,0,0,0,0,0,0,0,0,0,
0,0,0,0,0,0,0,0,0,0,0,0,0,0,0,0,
0,0,0,0,0,0,0,0,0,0,0,0,0,0,0,0
</chunk>
  </data>
 </layer>
 <objectgroup id="12" name="Objects">
  <object id="1" template="StoneStaircaseDown.tx" x="128" y="192"/>
  <object id="4" template="Stalagmite1.tx" x="192" y="288"/>
  <object id="5" template="Stalagmite2.tx" x="192" y="256"/>
  <object id="6" template="Stalagmite2.tx" gid="2147484303" x="160" y="288" rotation="0"/>
  <object id="7" template="WoodenBarrelTar.tx" x="160" y="192"/>
 </objectgroup>
 <layer id="3" name="Roof" width="32" height="32">
  <data encoding="csv">
   <chunk x="0" y="0" width="16" height="16">
0,0,0,0,0,0,0,0,0,0,0,0,0,0,0,0,
0,0,0,0,260,261,261,261,261,261,262,0,0,0,0,0,
0,0,0,260,265,0,0,0,0,0,264,261,262,0,0,0,
0,0,0,266,0,0,0,0,0,0,0,0,264,262,0,0,
0,0,0,266,0,0,0,0,0,0,0,0,0,264,262,0,
0,0,0,266,0,0,0,0,0,0,0,0,0,0,268,0,
0,0,0,266,0,0,0,0,0,0,0,0,0,0,268,0,
0,0,0,266,0,0,0,0,0,0,0,0,0,0,268,0,
0,0,0,266,0,0,0,0,0,0,0,0,0,258,274,0,
0,0,0,266,0,0,0,0,0,0,0,0,0,268,0,0,
0,0,0,272,259,0,0,0,0,0,0,0,258,274,0,0,
0,0,0,0,272,273,259,0,0,0,258,273,274,0,0,0,
0,0,0,0,0,0,272,273,273,273,274,0,0,0,0,0,
0,0,0,0,0,0,0,0,0,0,0,0,0,0,0,0,
0,0,0,0,0,0,0,0,0,0,0,0,0,0,0,0,
0,0,0,0,0,0,0,0,0,0,0,0,0,0,0,0
</chunk>
  </data>
 </layer>
 <layer id="13" name="Border" width="32" height="32" opacity="0">
  <data encoding="csv">
   <chunk x="0" y="0" width="16" height="16">
0,0,0,0,0,0,0,0,0,0,0,0,0,0,0,0,
0,0,0,0,0,0,0,0,0,0,0,0,0,0,0,0,
0,0,0,0,0,0,0,0,0,0,0,0,0,0,0,0,
0,0,0,0,0,0,0,0,0,0,0,0,0,0,0,0,
0,0,0,0,0,0,0,0,0,0,0,0,0,0,0,0,
0,0,0,0,0,0,0,680,0,0,0,0,0,0,0,0,
0,0,0,0,0,0,0,680,0,0,0,0,0,0,0,0,
0,0,0,0,0,0,0,680,0,0,0,0,0,0,0,0,
0,0,0,0,680,0,0,680,0,0,0,0,0,0,0,0,
0,0,0,0,0,680,680,0,0,0,0,0,0,0,0,0,
0,0,0,0,0,0,0,0,0,0,0,0,0,0,0,0,
0,0,0,0,0,0,0,0,0,0,0,0,0,0,0,0,
0,0,0,0,0,0,0,0,0,0,0,0,0,0,0,0,
0,0,0,0,0,0,0,0,0,0,0,0,0,0,0,0,
0,0,0,0,0,0,0,0,0,0,0,0,0,0,0,0,
0,0,0,0,0,0,0,0,0,0,0,0,0,0,0,0
</chunk>
  </data>
 </layer>
</map>
