<?xml version="1.0" encoding="UTF-8"?>
<map version="1.9" tiledversion="1.9.2" orientation="orthogonal" renderorder="right-down" width="32" height="32" tilewidth="32" tileheight="32" infinite="1" nextlayerid="13" nextobjectid="7">
 <tileset firstgid="1" source="0_TimeTravel_Dungeon.tsx"/>
 <tileset firstgid="257" source="0_TimeTravel_Rov.tsx"/>
 <tileset firstgid="275" source="0_TimeTravel_DecorDurable.tsx"/>
 <tileset firstgid="375" source="0_TimeTravel_DecorFragile.tsx"/>
 <tileset firstgid="475" source="0_TimeTravel_Chest.tsx"/>
 <tileset firstgid="481" source="../BasicTiles/0_Dark.tsx"/>
 <tileset firstgid="511" source="0_TimeTravel_DecorWood.tsx"/>
 <tileset firstgid="651" source="0_TimeTravel_FlimsyDecor.tsx"/>
 <layer id="1" name="Floor" width="32" height="32">
  <data encoding="csv">
   <chunk x="0" y="0" width="16" height="16">
0,0,0,0,0,0,0,0,0,0,0,0,0,0,0,0,
0,0,0,0,0,0,0,0,0,0,0,0,0,0,0,0,
0,0,0,0,0,0,0,0,0,0,0,0,0,0,0,0,
0,0,0,0,0,0,0,0,0,0,0,0,0,0,0,0,
0,0,0,0,0,0,97,98,99,0,0,0,0,0,0,0,
0,0,0,0,0,97,129,132,131,99,0,0,0,0,0,0,
0,0,0,0,0,113,117,114,114,115,0,0,0,0,0,0,
0,0,0,0,0,0,130,116,134,0,0,0,0,0,0,0,
0,0,0,0,0,0,0,0,0,0,0,0,0,0,0,0,
0,0,0,0,0,0,0,0,0,0,0,0,0,0,0,0,
0,0,0,0,0,0,0,0,0,0,0,0,0,0,0,0,
0,0,0,0,0,0,0,0,0,0,0,0,0,0,0,0,
0,0,0,0,0,0,0,0,0,0,0,0,0,0,0,0,
0,0,0,0,0,0,0,0,0,0,0,0,0,0,0,0,
0,0,0,0,0,0,0,0,0,0,0,0,0,0,0,0,
0,0,0,0,0,0,0,0,0,0,0,0,0,0,0,0
</chunk>
  </data>
 </layer>
 <layer id="2" name="Wall" width="32" height="32">
  <data encoding="csv">
   <chunk x="0" y="0" width="16" height="16">
0,0,0,0,0,0,0,0,0,0,0,0,0,0,0,0,
0,0,0,0,0,0,257,257,257,0,0,0,0,0,0,0,
0,0,0,0,0,257,257,257,257,257,0,0,0,0,0,0,
0,0,0,0,0,257,263,263,263,257,0,0,0,0,0,0,
0,0,0,0,0,263,0,0,0,263,0,0,0,0,0,0,
0,0,0,0,0,0,0,0,0,0,0,0,0,0,0,0,
0,0,0,0,0,0,0,0,0,0,0,0,0,0,0,0,
0,0,0,0,0,0,0,0,0,0,0,0,0,0,0,0,
0,0,0,0,0,0,0,0,0,0,0,0,0,0,0,0,
0,0,0,0,0,0,0,0,0,0,0,0,0,0,0,0,
0,0,0,0,0,0,0,0,0,0,0,0,0,0,0,0,
0,0,0,0,0,0,0,0,0,0,0,0,0,0,0,0,
0,0,0,0,0,0,0,0,0,0,0,0,0,0,0,0,
0,0,0,0,0,0,0,0,0,0,0,0,0,0,0,0,
0,0,0,0,0,0,0,0,0,0,0,0,0,0,0,0,
0,0,0,0,0,0,0,0,0,0,0,0,0,0,0,0
</chunk>
  </data>
 </layer>
 <objectgroup id="12" name="Objects">
  <object id="1" template="StoneStaircaseDown.tx" x="160" y="160"/>
  <object id="4" template="KeeperDoll.tx" class="KeeperDoll" x="224" y="160"/>
 </objectgroup>
 <layer id="3" name="Roof" width="32" height="32">
  <data encoding="csv">
   <chunk x="0" y="0" width="16" height="16">
0,0,0,0,0,260,261,261,261,262,0,0,0,0,0,0,
0,0,0,0,260,265,0,0,0,264,262,0,0,0,0,0,
0,0,0,0,266,0,0,0,0,0,268,0,0,0,0,0,
0,0,0,0,266,0,0,0,0,0,268,0,0,0,0,0,
0,0,0,0,266,0,0,0,0,0,268,0,0,0,0,0,
0,0,0,0,266,0,0,0,0,0,268,0,0,0,0,0,
0,0,0,0,266,0,0,0,0,0,268,0,0,0,0,0,
0,0,0,0,272,259,0,0,0,258,274,0,0,0,0,0,
0,0,0,0,0,272,273,273,273,274,0,0,0,0,0,0,
0,0,0,0,0,0,0,0,0,0,0,0,0,0,0,0,
0,0,0,0,0,0,0,0,0,0,0,0,0,0,0,0,
0,0,0,0,0,0,0,0,0,0,0,0,0,0,0,0,
0,0,0,0,0,0,0,0,0,0,0,0,0,0,0,0,
0,0,0,0,0,0,0,0,0,0,0,0,0,0,0,0,
0,0,0,0,0,0,0,0,0,0,0,0,0,0,0,0,
0,0,0,0,0,0,0,0,0,0,0,0,0,0,0,0
</chunk>
  </data>
 </layer>
</map>
