<?xml version="1.0" encoding="UTF-8"?>
<map version="1.9" tiledversion="1.9.2" orientation="orthogonal" renderorder="right-down" width="32" height="32" tilewidth="32" tileheight="32" infinite="1" nextlayerid="120" nextobjectid="2574">
 <editorsettings>
  <export target="../../TimeTravel_Dungeon.tmx" format="tmx"/>
 </editorsettings>
 <tileset firstgid="1" source="0_TimeTravel_Dungeon.tsx"/>
 <tileset firstgid="257" source="0_TimeTravel_DungeonDoors.tsx"/>
 <tileset firstgid="491" source="../BasicTiles/0_Dark.tsx"/>
 <tileset firstgid="521" source="1_TimeTravel_Spinis.tsx"/>
 <tileset firstgid="557" source="fireLight.tsx"/>
 <tileset firstgid="665" source="0_TimeTravel_DecorDurable.tsx"/>
 <tileset firstgid="765" source="0_TimeTravel_DecorOther.tsx"/>
 <tileset firstgid="865" source="0_TimeTravel_DecorFragile.tsx"/>
 <tileset firstgid="965" source="0_TimeTravel_DecorWood.tsx"/>
 <tileset firstgid="1105" source="0_TimeTravel_Wreckage.tsx"/>
 <tileset firstgid="1205" source="0_TimeTravel_Chest.tsx"/>
 <tileset firstgid="1211" source="0_TimeTravel_WoodenTablet.tsx"/>
 <tileset firstgid="1223" source="0_TimeTravel_WoodenFlag.tsx"/>
 <tileset firstgid="1243" source="0_TimeTravel_Crossbow.tsx"/>
 <tileset firstgid="1270" source="0_TimeTravel_CrossbowStand.tsx"/>
 <tileset firstgid="1273" source="0_TimeTravel_MovingRock.tsx"/>
 <tileset firstgid="1277" source="0_TimeTravel_AutoCrossbowStand.tsx"/>
 <tileset firstgid="1280" source="0_TimeTravel_AutoCrossbow.tsx"/>
 <tileset firstgid="1289" source="0_TimeTravel_SwingingBall.tsx"/>
 <tileset firstgid="1331" source="0_TimeTravel_WoodenChainsaw.tsx"/>
 <tileset firstgid="1341" source="rat.tsx"/>
 <tileset firstgid="1357" source="0_TimeTravel_GiantTorch.tsx"/>
 <tileset firstgid="1361" source="fireLightGiant.tsx"/>
 <tileset firstgid="1365" source="0_TimeTravel_StoneThorns.tsx"/>
 <tileset firstgid="1370" source="mertvetsUznik_smert.tsx"/>
 <tileset firstgid="1490" source="0_TimeTravel_Chains.tsx"/>
 <tileset firstgid="1501" source="0_TimeTravel_AccessoriesOfStones.tsx"/>
 <tileset firstgid="1504" source="0_TimeTravel_ArchitectsSubjects.tsx"/>
 <tileset firstgid="1507" source="0_TimeTravel_ArrowStatue.tsx"/>
 <tileset firstgid="1508" source="0_TimeTravel_BabyPuppet.tsx"/>
 <tileset firstgid="1509" source="0_TimeTravel_BagOfBalls.tsx"/>
 <tileset firstgid="1511" source="0_TimeTravel_Ball.tsx"/>
 <tileset firstgid="1512" source="0_TimeTravel_Banners.tsx"/>
 <tileset firstgid="1522" source="0_TimeTravel_BarrelDrum.tsx"/>
 <tileset firstgid="1523" source="0_TimeTravel_BarrelOfWeapon.tsx"/>
 <tileset firstgid="1524" source="0_TimeTravel_Barrels.tsx"/>
 <tileset firstgid="1540" source="0_TimeTravel_BasketWithSpikes.tsx"/>
 <tileset firstgid="1541" source="0_TimeTravel_BoardGame.tsx"/>
 <tileset firstgid="1542" source="0_TimeTravel_Bones.tsx"/>
 <tileset firstgid="1549" source="0_TimeTravel_CardsOnTable.tsx"/>
 <tileset firstgid="1551" source="0_TimeTravel_ChangesAreInevitable.tsx"/>
 <tileset firstgid="1552" source="0_TimeTravel_FakeStones.tsx"/>
 <tileset firstgid="1556" source="0_TimeTravel_FlimsyDecor.tsx"/>
 <tileset firstgid="1559" source="0_TimeTravel_Food.tsx"/>
 <tileset firstgid="1562" source="0_TimeTravel_Grass.tsx"/>
 <tileset firstgid="1564" source="0_TimeTravel_GuardsWeapon.tsx"/>
 <tileset firstgid="1565" source="0_TimeTravel_Lever.tsx"/>
 <tileset firstgid="1568" source="0_TimeTravel_LikeShapedStatue.tsx"/>
 <tileset firstgid="1569" source="0_TimeTravel_Lute.tsx"/>
 <tileset firstgid="1570" source="0_TimeTravel_Mannequin.tsx"/>
 <tileset firstgid="1576" source="0_TimeTravel_Moss.tsx"/>
 <tileset firstgid="1577" source="0_TimeTravel_Note.tsx"/>
 <tileset firstgid="1578" source="0_TimeTravel_PedestalWithPotatoe.tsx"/>
 <tileset firstgid="1580" source="0_TimeTravel_PuppetsOnPoles.tsx"/>
 <tileset firstgid="1584" source="0_TimeTravel_RatsHouses.tsx"/>
 <tileset firstgid="1586" source="0_TimeTravel_RatsWheel.tsx"/>
 <tileset firstgid="1588" source="0_TimeTravel_Ropes.tsx"/>
 <tileset firstgid="1596" source="0_TimeTravel_Rov.tsx"/>
 <tileset firstgid="1614" source="0_TimeTravel_SmallDecor.tsx"/>
 <tileset firstgid="1626" source="0_TimeTravel_SpikyLog.tsx"/>
 <tileset firstgid="1627" source="0_TimeTravel_Stones.tsx"/>
 <tileset firstgid="1639" source="0_TimeTravel_StoneStatues.tsx"/>
 <tileset firstgid="1642" source="0_TimeTravel_Stool.tsx"/>
 <tileset firstgid="1643" source="0_TimeTravel_SwingingBalls.tsx"/>
 <tileset firstgid="1647" source="0_TimeTravel_SwingingBallsChains.tsx"/>
 <tileset firstgid="1653" source="0_TimeTravel_TableTiles.tsx"/>
 <tileset firstgid="1665" source="0_TimeTravel_Torch.tsx"/>
 <tileset firstgid="1675" source="0_TimeTravel_TrollStatue.tsx"/>
 <tileset firstgid="1676" source="0_TimeTravel_Vases.tsx"/>
 <tileset firstgid="1682" source="0_TimeTravel_WoodenLounger.tsx"/>
 <tileset firstgid="1684" source="0_TimeTravel_Woods.tsx"/>
 <tileset firstgid="1693" source="0_TimeTravel_WallDecor.tsx"/>
 <tileset firstgid="1703" source="0_TimeTravel_WoodenTable1.tsx"/>
 <tileset firstgid="1704" source="0_TimeTravel_WoodenTable2.tsx"/>
 <tileset firstgid="1705" source="0_TimeTravel_WoodenTablets.tsx"/>
 <tileset firstgid="1709" source="0_TimeTravel_Flags.tsx"/>
 <tileset firstgid="1725" source="TimeMachine.tsx"/>
 <tileset firstgid="1726" source="0_TimeTravel_WoodenTable3.tsx"/>
 <tileset firstgid="1727" source="0_InvisibleWall.tsx"/>
 <tileset firstgid="1730" source="0_TimeTravel_ShakyFloor.tsx"/>
 <layer id="1" name="Dark" width="32" height="32">
  <data encoding="csv">
   <chunk x="-112" y="-80" width="16" height="16">
491,491,491,491,491,491,491,491,491,491,491,491,491,491,491,491,
491,491,491,491,491,491,491,491,491,491,491,491,491,491,491,491,
491,491,491,491,491,491,491,491,491,491,491,491,491,491,491,491,
491,491,491,491,491,491,491,491,491,491,491,491,491,491,491,491,
491,491,491,491,491,491,491,491,491,491,491,491,491,491,491,491,
491,491,491,491,491,491,491,491,491,491,491,491,491,491,491,491,
491,491,491,491,491,491,491,491,491,491,491,491,491,491,491,491,
491,491,491,491,491,491,491,491,491,491,491,491,491,491,491,491,
491,491,491,491,491,491,491,491,491,491,491,491,491,491,491,491,
491,491,491,491,491,491,491,491,491,491,491,491,491,491,491,491,
491,491,491,491,491,491,491,491,491,491,491,491,491,491,491,491,
491,491,491,491,491,491,491,491,491,491,491,491,491,491,491,491,
491,491,491,491,491,491,491,491,491,491,491,491,491,491,491,491,
491,491,491,491,491,491,491,491,491,491,491,491,491,491,491,491,
491,491,491,491,491,491,491,491,491,491,491,491,491,491,491,491,
491,491,491,491,491,491,491,491,491,491,491,491,491,491,491,491
</chunk>
   <chunk x="-96" y="-80" width="16" height="16">
491,491,491,491,491,491,491,491,491,491,491,491,491,491,491,491,
491,491,491,491,491,491,491,491,491,491,491,491,491,491,491,491,
491,491,491,491,491,491,491,491,491,491,491,491,491,491,491,491,
491,491,491,491,491,491,491,491,491,491,491,491,491,491,491,491,
491,491,491,491,491,491,491,491,491,491,491,491,491,491,491,491,
491,491,491,491,491,491,491,491,491,491,491,491,491,491,491,491,
491,491,491,491,491,491,491,491,491,491,491,491,491,491,491,491,
491,491,491,491,491,491,491,491,491,491,491,491,491,491,491,491,
491,491,491,491,491,491,491,491,491,491,491,491,491,491,491,491,
491,491,491,491,491,491,491,491,491,491,491,491,491,491,491,491,
491,491,491,491,491,491,491,491,491,491,491,491,491,491,491,491,
491,491,491,491,491,491,491,491,491,491,491,491,491,491,491,491,
491,491,491,491,491,491,491,491,491,491,491,491,491,491,491,491,
491,491,491,491,491,491,491,491,491,491,491,491,491,491,491,491,
491,491,491,491,491,491,491,491,491,491,491,491,491,491,491,491,
491,491,491,491,491,491,491,491,491,491,491,491,491,491,491,491
</chunk>
   <chunk x="-80" y="-80" width="16" height="16">
491,491,491,491,491,491,491,491,491,491,491,491,491,491,491,491,
491,491,491,491,491,491,491,491,491,491,491,491,491,491,491,491,
491,491,491,491,491,491,491,491,491,491,491,491,491,491,491,491,
491,491,491,491,491,491,491,491,491,491,491,491,491,491,491,491,
491,491,491,491,491,491,491,491,491,491,491,491,491,491,491,491,
491,491,491,491,491,491,491,491,491,491,491,491,491,491,491,491,
491,491,491,491,491,491,491,491,491,491,491,491,491,491,491,491,
491,491,491,491,491,491,491,491,491,491,491,491,491,491,491,491,
491,491,491,491,491,491,491,491,491,491,491,491,491,491,491,491,
491,491,491,491,491,491,491,491,491,491,491,491,491,491,491,491,
491,491,491,491,491,491,491,491,491,491,491,491,491,491,491,491,
491,491,491,491,491,491,491,491,491,491,491,491,491,491,491,491,
491,491,491,491,491,491,491,491,491,491,491,491,491,491,491,491,
491,491,491,491,491,491,491,491,491,491,491,491,491,491,491,491,
491,491,491,491,491,491,491,491,491,491,491,491,491,491,491,491,
491,491,491,491,491,491,491,491,491,491,491,491,491,491,491,491
</chunk>
   <chunk x="-64" y="-80" width="16" height="16">
491,491,491,491,491,491,491,491,491,491,491,491,491,491,491,491,
491,491,491,491,491,491,491,491,491,491,491,491,491,491,491,491,
491,491,491,491,491,491,491,491,491,491,491,491,491,491,491,491,
491,491,491,491,491,491,491,491,491,491,491,491,491,491,491,491,
491,491,491,491,491,491,491,491,491,491,491,491,491,491,491,491,
491,491,491,491,491,491,491,491,491,491,491,491,491,491,491,491,
491,491,491,491,491,491,491,491,491,491,491,491,491,491,491,491,
491,491,491,491,491,491,491,491,491,491,491,491,491,491,491,491,
491,491,491,491,491,491,491,491,491,491,491,491,491,491,491,491,
491,491,491,491,491,491,491,491,491,491,491,491,491,491,491,491,
491,491,491,491,491,491,491,491,491,491,491,491,491,491,491,491,
491,491,491,491,491,491,491,491,491,491,491,491,491,491,491,491,
491,491,491,491,491,491,491,491,491,491,491,491,491,491,491,491,
491,491,491,491,491,491,491,491,491,491,491,491,491,491,491,491,
491,491,491,491,491,491,491,491,491,491,491,491,491,491,491,491,
491,491,491,491,491,491,491,491,491,491,491,491,491,491,491,491
</chunk>
   <chunk x="-48" y="-80" width="16" height="16">
491,491,491,491,491,491,491,491,491,491,491,491,491,491,491,491,
491,491,491,491,491,491,491,491,491,491,491,491,491,491,491,491,
491,491,491,491,491,491,491,491,491,491,491,491,491,491,491,491,
491,491,491,491,491,491,491,491,491,491,491,491,491,491,491,491,
491,491,491,491,491,491,491,491,491,491,491,491,491,491,491,491,
491,491,491,491,491,491,491,491,491,491,491,491,491,491,491,491,
491,491,491,491,491,491,491,491,491,491,491,491,491,491,491,491,
491,491,491,491,491,491,491,491,491,491,491,491,491,491,491,491,
491,491,491,491,491,491,491,491,491,491,491,491,491,491,491,491,
491,491,491,491,491,491,491,491,491,491,491,491,491,491,491,491,
491,491,491,491,491,491,491,491,491,491,491,491,491,491,491,491,
491,491,491,491,491,491,491,491,491,491,491,491,491,491,491,491,
491,491,491,491,491,491,491,491,491,491,491,491,491,491,491,491,
491,491,491,491,491,491,491,491,491,491,491,491,491,491,491,491,
491,491,491,491,491,491,491,491,491,491,491,491,491,491,491,491,
491,491,491,491,491,491,491,491,491,491,491,491,491,491,491,491
</chunk>
   <chunk x="-32" y="-80" width="16" height="16">
491,491,491,491,491,491,491,491,491,491,491,491,491,491,491,491,
491,491,491,491,491,491,491,491,491,491,491,491,491,491,491,491,
491,491,491,491,491,491,491,491,491,491,491,491,491,491,491,491,
491,491,491,491,491,491,491,491,491,491,491,491,491,491,491,491,
491,491,491,491,491,491,491,491,491,491,491,491,491,491,491,491,
491,491,491,491,491,491,491,491,491,491,491,491,491,491,491,491,
491,491,491,491,491,491,491,491,491,491,491,491,491,491,491,491,
491,491,491,491,491,491,491,491,491,491,491,491,491,491,491,491,
491,491,491,491,491,491,491,491,491,491,491,491,491,491,491,491,
491,491,491,491,491,491,491,491,491,491,491,491,491,491,491,491,
491,491,491,491,491,491,491,491,491,491,491,491,491,491,491,491,
491,491,491,491,491,491,491,491,491,491,491,491,491,491,491,491,
491,491,491,491,491,491,491,491,491,491,491,491,491,491,491,491,
491,491,491,491,491,491,491,491,491,491,491,491,491,491,491,491,
491,491,491,491,491,491,491,491,491,491,491,491,491,491,491,491,
491,491,491,491,491,491,491,491,491,491,491,491,491,491,491,491
</chunk>
   <chunk x="-16" y="-80" width="16" height="16">
491,491,491,491,491,491,491,491,491,491,491,491,491,491,491,491,
491,491,491,491,491,491,491,491,491,491,491,491,491,491,491,491,
491,491,491,491,491,491,491,491,491,491,491,491,491,491,491,491,
491,491,491,491,491,491,491,491,491,491,491,491,491,491,491,491,
491,491,491,491,491,491,491,491,491,491,491,491,491,491,491,491,
491,491,491,491,491,491,491,491,491,491,491,491,491,491,491,491,
491,491,491,491,491,491,491,491,491,491,491,491,491,491,491,491,
491,491,491,491,491,491,491,491,491,491,491,491,491,491,491,491,
491,491,491,491,491,491,491,491,491,491,491,491,491,491,491,491,
491,491,491,491,491,491,491,491,491,491,491,491,491,491,491,491,
491,491,491,491,491,491,491,491,491,491,491,491,491,491,491,491,
491,491,491,491,491,491,491,491,491,491,491,491,491,491,491,491,
491,491,491,491,491,491,491,491,491,491,491,491,491,491,491,491,
491,491,491,491,491,491,491,491,491,491,491,491,491,491,491,491,
491,491,491,491,491,491,491,491,491,491,491,491,491,491,491,491,
491,491,491,491,491,491,491,491,491,491,491,491,491,491,491,491
</chunk>
   <chunk x="0" y="-80" width="16" height="16">
491,491,491,491,491,491,491,491,491,491,491,491,491,491,491,491,
491,491,491,491,491,491,491,491,491,491,491,491,491,491,491,491,
491,491,491,491,491,491,491,491,491,491,491,491,491,491,491,491,
491,491,491,491,491,491,491,491,491,491,491,491,491,491,491,491,
491,491,491,491,491,491,491,491,491,491,491,491,491,491,491,491,
491,491,491,491,491,491,491,491,491,491,491,491,491,491,491,491,
491,491,491,491,491,491,491,491,491,491,491,491,491,491,491,491,
491,491,491,491,491,491,491,491,491,491,491,491,491,491,491,491,
491,491,491,491,491,491,491,491,491,491,491,491,491,491,491,491,
491,491,491,491,491,491,491,491,491,491,491,491,491,491,491,491,
491,491,491,491,491,491,491,491,491,491,491,491,491,491,491,491,
491,491,491,491,491,491,491,491,491,491,491,491,491,491,491,491,
491,491,491,491,491,491,491,491,491,491,491,491,491,491,491,491,
491,491,491,491,491,491,491,491,491,491,491,491,491,491,491,491,
491,491,491,491,491,491,491,491,491,491,491,491,491,491,491,491,
491,491,491,491,491,491,491,491,491,491,491,491,491,491,491,491
</chunk>
   <chunk x="16" y="-80" width="16" height="16">
491,491,491,491,491,491,491,491,491,491,491,491,491,491,491,491,
491,491,491,491,491,491,491,491,491,491,491,491,491,491,491,491,
491,491,491,491,491,491,491,491,491,491,491,491,491,491,491,491,
491,491,491,491,491,491,491,491,491,491,491,491,491,491,491,491,
491,491,491,491,491,491,491,491,491,491,491,491,491,491,491,491,
491,491,491,491,491,491,491,491,491,491,491,491,491,491,491,491,
491,491,491,491,491,491,491,491,491,491,491,491,491,491,491,491,
491,491,491,491,491,491,491,491,491,491,491,491,491,491,491,491,
491,491,491,491,491,491,491,491,491,491,491,491,491,491,491,491,
491,491,491,491,491,491,491,491,491,491,491,491,491,491,491,491,
491,491,491,491,491,491,491,491,491,491,491,491,491,491,491,491,
491,491,491,491,491,491,491,491,491,491,491,491,491,491,491,491,
491,491,491,491,491,491,491,491,491,491,491,491,491,491,491,491,
491,491,491,491,491,491,491,491,491,491,491,491,491,491,491,491,
491,491,491,491,491,491,491,491,491,491,491,491,491,491,491,491,
491,491,491,491,491,491,491,491,491,491,491,491,491,491,491,491
</chunk>
   <chunk x="32" y="-80" width="16" height="16">
491,491,491,491,491,491,491,491,491,491,491,491,491,491,491,491,
491,491,491,491,491,491,491,491,491,491,491,491,491,491,491,491,
491,491,491,491,491,491,491,491,491,491,491,491,491,491,491,491,
491,491,491,491,491,491,491,491,491,491,491,491,491,491,491,491,
491,491,491,491,491,491,491,491,491,491,491,491,491,491,491,491,
491,491,491,491,491,491,491,491,491,491,491,491,491,491,491,491,
491,491,491,491,491,491,491,491,491,491,491,491,491,491,491,491,
491,491,491,491,491,491,491,491,491,491,491,491,491,491,491,491,
491,491,491,491,491,491,491,491,491,491,491,491,491,491,491,491,
491,491,491,491,491,491,491,491,491,491,491,491,491,491,491,491,
491,491,491,491,491,491,491,491,491,491,491,491,491,491,491,491,
491,491,491,491,491,491,491,491,491,491,491,491,491,491,491,491,
491,491,491,491,491,491,491,491,491,491,491,491,491,491,491,491,
491,491,491,491,491,491,491,491,491,491,491,491,491,491,491,491,
491,491,491,491,491,491,491,491,491,491,491,491,491,491,491,491,
491,491,491,491,491,491,491,491,491,491,491,491,491,491,491,491
</chunk>
   <chunk x="-112" y="-64" width="16" height="16">
491,491,491,491,491,491,491,491,491,491,491,491,491,491,491,491,
491,491,491,491,491,491,491,491,491,491,491,491,491,491,491,491,
491,491,491,491,491,491,491,491,491,491,491,491,491,491,491,491,
491,491,491,491,491,491,491,491,491,491,491,491,491,491,491,491,
491,491,491,491,491,491,491,491,491,491,491,491,491,491,491,491,
491,491,491,491,491,491,491,491,491,491,491,491,491,491,491,491,
491,491,491,491,491,491,491,491,491,491,491,491,491,491,491,491,
491,491,491,491,491,491,491,491,491,491,491,491,491,491,491,491,
491,491,491,491,491,491,491,491,491,491,491,491,491,491,491,491,
491,491,491,491,491,491,491,491,491,491,491,491,491,491,491,491,
491,491,491,491,491,491,491,491,491,491,491,491,491,491,491,491,
491,491,491,491,491,491,491,491,491,491,491,491,491,491,491,491,
491,491,491,491,491,491,491,491,491,491,491,491,491,491,491,491,
491,491,491,491,491,491,491,491,491,491,491,491,491,491,491,491,
491,491,491,491,491,491,491,491,491,491,491,491,491,491,491,491,
491,491,491,491,491,491,491,491,491,491,491,491,491,491,491,491
</chunk>
   <chunk x="-96" y="-64" width="16" height="16">
491,491,491,491,491,491,491,491,491,491,491,491,491,491,491,491,
491,491,491,491,491,491,491,491,491,491,491,491,491,491,491,491,
491,491,491,491,491,491,491,491,491,491,491,491,491,491,491,491,
491,491,491,491,491,491,491,491,491,491,491,491,491,491,491,491,
491,491,491,491,491,491,491,491,491,491,491,491,491,491,491,491,
491,491,491,491,491,491,491,491,491,491,491,491,491,491,491,491,
491,491,491,491,491,491,491,491,491,491,491,491,491,491,491,491,
491,491,491,491,491,491,491,491,491,491,491,491,491,491,491,491,
491,491,491,491,491,491,491,491,491,491,491,491,491,491,491,491,
491,491,491,491,491,491,491,491,491,491,491,491,491,491,491,491,
491,491,491,491,491,491,491,491,491,491,491,491,491,491,491,491,
491,491,491,491,491,491,491,491,491,491,491,491,491,491,491,491,
491,491,491,491,491,491,491,491,491,491,491,491,491,491,491,491,
491,491,491,491,491,491,491,491,491,491,491,491,491,491,491,491,
491,491,491,491,491,491,491,491,491,491,491,491,491,491,491,491,
491,491,491,491,491,491,491,491,491,491,491,491,491,491,491,491
</chunk>
   <chunk x="-80" y="-64" width="16" height="16">
491,491,491,491,491,491,491,491,491,491,491,491,491,491,491,491,
491,491,491,491,491,491,491,491,491,491,491,491,491,491,491,491,
491,491,491,491,491,491,491,491,491,491,491,491,491,491,491,491,
491,491,491,491,491,491,491,491,491,491,491,491,491,491,491,491,
491,491,491,491,491,491,491,491,491,491,491,491,491,491,491,491,
491,491,491,491,491,491,491,491,491,491,491,491,491,491,491,491,
491,491,491,491,491,491,491,491,491,491,491,491,491,491,491,491,
491,491,491,491,491,491,491,491,491,491,491,491,491,491,491,491,
491,491,491,491,491,491,491,491,491,491,491,491,491,491,491,491,
491,491,491,491,491,491,491,491,491,491,491,491,491,491,491,491,
491,491,491,491,491,491,491,491,491,491,491,491,491,491,491,491,
491,491,491,491,491,491,491,491,491,491,491,491,491,491,491,491,
491,491,491,491,491,491,491,491,491,491,491,491,491,491,491,491,
491,491,491,491,491,491,491,491,491,491,491,491,491,491,491,491,
491,491,491,491,491,491,491,491,491,491,491,491,491,491,491,491,
491,491,491,491,491,491,491,491,491,491,491,491,491,491,491,491
</chunk>
   <chunk x="-64" y="-64" width="16" height="16">
491,491,491,491,491,491,491,491,491,491,491,491,491,491,491,491,
491,491,491,491,491,491,491,491,491,491,491,491,491,491,491,491,
491,491,491,491,491,491,491,491,491,491,491,491,491,491,491,491,
491,491,491,491,491,491,491,491,491,491,491,491,491,491,491,491,
491,491,491,491,491,491,491,491,491,491,491,491,491,491,491,491,
491,491,491,491,491,491,491,491,491,491,491,491,491,491,491,491,
491,491,491,491,491,491,491,491,491,491,491,491,491,491,491,491,
491,491,491,491,491,491,491,491,491,491,491,491,491,491,491,491,
491,491,491,491,491,491,491,491,491,491,491,491,491,491,491,491,
491,491,491,491,491,491,491,491,491,491,491,491,491,491,491,491,
491,491,491,491,491,491,491,491,491,491,491,491,491,491,491,491,
491,491,491,491,491,491,491,491,491,491,491,491,491,491,491,491,
491,491,491,491,491,491,491,491,491,491,491,491,491,491,491,491,
491,491,491,491,491,491,491,491,491,491,491,491,491,491,491,491,
491,491,491,491,491,491,491,491,491,491,491,491,491,491,491,491,
491,491,491,491,491,491,491,491,491,491,491,491,491,491,491,491
</chunk>
   <chunk x="-48" y="-64" width="16" height="16">
491,491,491,491,491,491,491,491,491,491,491,491,491,491,491,491,
491,491,491,491,491,491,491,491,491,491,491,491,491,491,491,491,
491,491,491,491,491,491,491,491,491,491,491,491,491,491,491,491,
491,491,491,491,491,491,491,491,491,491,491,491,491,491,491,491,
491,491,491,491,491,491,491,491,491,491,491,491,491,491,491,491,
491,491,491,491,491,491,491,491,491,491,491,491,491,491,491,491,
491,491,491,491,491,491,491,491,491,491,491,491,491,491,491,491,
491,491,491,491,491,491,491,491,491,491,491,491,491,491,491,491,
491,491,491,491,491,491,491,491,491,491,491,491,491,491,491,491,
491,491,491,491,491,491,491,491,491,491,491,491,491,491,491,491,
491,491,491,491,491,491,491,491,491,491,491,491,491,491,491,491,
491,491,491,491,491,491,491,491,491,491,491,491,491,491,491,491,
491,491,491,491,491,491,491,491,491,491,491,491,491,491,491,491,
491,491,491,491,491,491,491,491,491,491,491,491,491,491,491,491,
491,491,491,491,491,491,491,491,491,491,491,491,491,491,491,491,
491,491,491,491,491,491,491,491,491,491,491,491,491,491,491,491
</chunk>
   <chunk x="-32" y="-64" width="16" height="16">
491,491,491,491,491,491,491,491,491,491,491,491,491,491,491,491,
491,491,491,491,491,491,491,491,491,491,491,491,491,491,491,491,
491,491,491,491,491,491,491,491,491,491,491,491,491,491,491,491,
491,491,491,491,491,491,491,491,491,491,491,491,491,491,491,491,
491,491,491,491,491,491,491,491,491,491,491,491,491,491,491,491,
491,491,491,491,491,491,491,491,491,491,491,491,491,491,491,491,
491,491,491,491,491,491,491,491,491,491,491,491,491,491,491,491,
491,491,491,491,491,491,491,491,491,491,491,491,491,491,491,491,
491,491,491,491,491,491,491,491,491,491,491,491,491,491,491,491,
491,491,491,491,491,491,491,491,491,491,491,491,491,491,491,491,
491,491,491,491,491,491,491,491,491,491,491,491,491,491,491,491,
491,491,491,491,491,491,491,491,491,491,491,491,491,491,491,491,
491,491,491,491,491,491,491,491,491,491,491,491,491,491,491,491,
491,491,491,491,491,491,491,491,491,491,491,491,491,491,491,491,
491,491,491,491,491,491,491,491,491,491,491,491,491,491,491,491,
491,491,491,491,491,491,491,491,491,491,491,491,491,491,491,491
</chunk>
   <chunk x="-16" y="-64" width="16" height="16">
491,491,491,491,491,491,491,491,491,491,491,491,491,491,491,491,
491,491,491,491,491,491,491,491,491,491,491,491,491,491,491,491,
491,491,491,491,491,491,491,491,491,491,491,491,491,491,491,491,
491,491,491,491,491,491,491,491,491,491,491,491,491,491,491,491,
491,491,491,491,491,491,491,491,491,491,491,491,491,491,491,491,
491,491,491,491,491,491,491,491,491,491,491,491,491,491,491,491,
491,491,491,491,491,491,491,491,491,491,491,491,491,491,491,491,
491,491,491,491,491,491,491,491,491,491,491,491,491,491,491,491,
491,491,491,491,491,491,491,491,491,491,491,491,491,491,491,491,
491,491,491,491,491,491,491,491,491,491,491,491,491,491,491,491,
491,491,491,491,491,491,491,491,491,491,491,491,491,491,491,491,
491,491,491,491,491,491,491,491,491,491,491,491,491,491,491,491,
491,491,491,491,491,491,491,491,491,491,491,491,491,491,491,491,
491,491,491,491,491,491,491,491,491,491,491,491,491,491,491,491,
491,491,491,491,491,491,491,491,491,491,491,491,491,491,491,491,
491,491,491,491,491,491,491,491,491,491,491,491,491,491,491,491
</chunk>
   <chunk x="0" y="-64" width="16" height="16">
491,491,491,491,491,491,491,491,491,491,491,491,491,491,491,491,
491,491,491,491,491,491,491,491,491,491,491,491,491,491,491,491,
491,491,491,491,491,491,491,491,491,491,491,491,491,491,491,491,
491,491,491,491,491,491,491,491,491,491,491,491,491,491,491,491,
491,491,491,491,491,491,491,491,491,491,491,491,491,491,491,491,
491,491,491,491,491,491,491,491,491,491,491,491,491,491,491,491,
491,491,491,491,491,491,491,491,491,491,491,491,491,491,491,491,
491,491,491,491,491,491,491,491,491,491,491,491,491,491,491,491,
491,491,491,491,491,491,491,491,491,491,491,491,491,491,491,491,
491,491,491,491,491,491,491,491,491,491,491,491,491,491,491,491,
491,491,491,491,491,491,491,491,491,491,491,491,491,491,491,491,
491,491,491,491,491,491,491,491,491,491,491,491,491,491,491,491,
491,491,491,491,491,491,491,491,491,491,491,491,491,491,491,491,
491,491,491,491,491,491,491,491,491,491,491,491,491,491,491,491,
491,491,491,491,491,491,491,491,491,491,491,491,491,491,491,491,
491,491,491,491,491,491,491,491,491,491,491,491,491,491,491,491
</chunk>
   <chunk x="16" y="-64" width="16" height="16">
491,491,491,491,491,491,491,491,491,491,491,491,491,491,491,491,
491,491,491,491,491,491,491,491,491,491,491,491,491,491,491,491,
491,491,491,491,491,491,491,491,491,491,491,491,491,491,491,491,
491,491,491,491,491,491,491,491,491,491,491,491,491,491,491,491,
491,491,491,491,491,491,491,491,491,491,491,491,491,491,491,491,
491,491,491,491,491,491,491,491,491,491,491,491,491,491,491,491,
491,491,491,491,491,491,491,491,491,491,491,491,491,491,491,491,
491,491,491,491,491,491,491,491,491,491,491,491,491,491,491,491,
491,491,491,491,491,491,491,491,491,491,491,491,491,491,491,491,
491,491,491,491,491,491,491,491,491,491,491,491,491,491,491,491,
491,491,491,491,491,491,491,491,491,491,491,491,491,491,491,491,
491,491,491,491,491,491,491,491,491,491,491,491,491,491,491,491,
491,491,491,491,491,491,491,491,491,491,491,491,491,491,491,491,
491,491,491,491,491,491,491,491,491,491,491,491,491,491,491,491,
491,491,491,491,491,491,491,491,491,491,491,491,491,491,491,491,
491,491,491,491,491,491,491,491,491,491,491,491,491,491,491,491
</chunk>
   <chunk x="32" y="-64" width="16" height="16">
491,491,491,491,491,491,491,491,491,491,491,491,491,491,491,491,
491,491,491,491,491,491,491,491,491,491,491,491,491,491,491,491,
491,491,491,491,491,491,491,491,491,491,491,491,491,491,491,491,
491,491,491,491,491,491,491,491,491,491,491,491,491,491,491,491,
491,491,491,491,491,491,491,491,491,491,491,491,491,491,491,491,
491,491,491,491,491,491,491,491,491,491,491,491,491,491,491,491,
491,491,491,491,491,491,491,491,491,491,491,491,491,491,491,491,
491,491,491,491,491,491,491,491,491,491,491,491,491,491,491,491,
491,491,491,491,491,491,491,491,491,491,491,491,491,491,491,491,
491,491,491,491,491,491,491,491,491,491,491,491,491,491,491,491,
491,491,491,491,491,491,491,491,491,491,491,491,491,491,491,491,
491,491,491,491,491,491,491,491,491,491,491,491,491,491,491,491,
491,491,491,491,491,491,491,491,491,491,491,491,491,491,491,491,
491,491,491,491,491,491,491,491,491,491,491,491,491,491,491,491,
491,491,491,491,491,491,491,491,491,491,491,491,491,491,491,491,
491,491,491,491,491,491,491,491,491,491,491,491,491,491,491,491
</chunk>
   <chunk x="-112" y="-48" width="16" height="16">
491,491,491,491,491,491,491,491,491,491,491,491,491,491,491,491,
491,491,491,491,491,491,491,491,491,491,491,491,491,491,491,491,
491,491,491,491,491,491,491,491,491,491,491,491,491,491,491,491,
491,491,491,491,491,491,491,491,491,491,491,491,491,491,491,491,
491,491,491,491,491,491,491,491,491,491,491,491,491,491,491,491,
491,491,491,491,491,491,491,491,491,491,491,491,491,491,491,491,
491,491,491,491,491,491,491,491,491,491,491,491,491,491,491,491,
491,491,491,491,491,491,491,491,491,491,491,491,491,491,491,491,
491,491,491,491,491,491,491,491,491,491,491,491,491,491,491,491,
491,491,491,491,491,491,491,491,491,491,491,491,491,491,491,491,
491,491,491,491,491,491,491,491,491,491,491,491,491,491,491,491,
491,491,491,491,491,491,491,491,491,491,491,491,491,491,491,491,
491,491,491,491,491,491,491,491,491,491,491,491,491,491,491,491,
491,491,491,491,491,491,491,491,491,491,491,491,491,491,491,491,
491,491,491,491,491,491,491,491,491,491,491,491,491,491,491,491,
491,491,491,491,491,491,491,491,491,491,491,491,491,491,491,491
</chunk>
   <chunk x="-96" y="-48" width="16" height="16">
491,491,491,491,491,491,491,491,491,491,491,491,491,491,491,491,
491,491,491,491,491,491,491,491,491,491,491,491,491,491,491,491,
491,491,491,491,491,491,491,491,491,491,491,491,491,491,491,491,
491,491,491,491,491,491,491,491,491,491,491,491,491,491,491,491,
491,491,491,491,491,491,491,491,491,491,491,491,491,491,491,491,
491,491,491,491,491,491,491,491,491,491,491,491,491,491,491,491,
491,491,491,491,491,491,491,491,491,491,491,491,491,491,491,491,
491,491,491,491,491,491,491,491,491,491,491,491,491,491,491,491,
491,491,491,491,491,491,491,491,491,491,491,491,491,491,491,491,
491,491,491,491,491,491,491,491,491,491,491,491,491,491,491,491,
491,491,491,491,491,491,491,491,491,491,491,491,491,491,491,491,
491,491,491,491,491,491,491,491,491,491,491,491,491,491,491,491,
491,491,491,491,491,491,491,491,491,491,491,491,491,491,491,491,
491,491,491,491,491,491,491,491,491,491,491,491,491,491,491,491,
491,491,491,491,491,491,491,491,491,491,491,491,491,491,491,491,
491,491,491,491,491,491,491,491,491,491,491,491,491,491,491,491
</chunk>
   <chunk x="-80" y="-48" width="16" height="16">
491,491,491,491,491,491,491,491,491,491,491,491,491,491,491,491,
491,491,491,491,491,491,491,491,491,491,491,491,491,491,491,491,
491,491,491,491,491,491,491,491,491,491,491,491,491,491,491,491,
491,491,491,491,491,491,491,491,491,491,491,491,491,491,491,491,
491,491,491,491,491,491,491,491,491,491,491,491,491,491,491,491,
491,491,491,491,491,491,491,491,491,491,491,491,491,491,491,491,
491,491,491,491,491,491,491,491,491,491,491,491,491,491,491,491,
491,491,491,491,491,491,491,491,491,491,491,491,491,491,491,491,
491,491,491,491,491,491,491,491,491,491,491,491,491,491,491,491,
491,491,491,491,491,491,491,491,491,491,491,491,491,491,491,491,
491,491,491,491,491,491,491,491,491,491,491,491,491,491,491,491,
491,491,491,491,491,491,491,491,491,491,491,491,491,491,491,491,
491,491,491,491,491,491,491,491,491,491,491,491,491,491,491,491,
491,491,491,491,491,491,491,491,491,491,491,491,491,491,491,491,
491,491,491,491,491,491,491,491,491,491,491,491,491,491,491,491,
491,491,491,491,491,491,491,491,491,491,491,491,491,491,491,491
</chunk>
   <chunk x="-64" y="-48" width="16" height="16">
491,491,491,491,491,491,491,491,491,491,491,491,491,491,491,491,
491,491,491,491,491,491,491,491,491,491,491,491,491,491,491,491,
491,491,491,491,491,491,491,491,491,491,491,491,491,491,491,491,
491,491,491,491,491,491,491,491,491,491,491,491,491,491,491,491,
491,491,491,491,491,491,491,491,491,491,491,491,491,491,491,491,
491,491,491,491,491,491,491,491,491,491,491,491,491,491,491,491,
491,491,491,491,491,491,491,491,491,491,491,491,491,491,491,491,
491,491,491,491,491,491,491,491,491,491,491,491,491,491,491,491,
491,491,491,491,491,491,491,491,491,491,491,491,491,491,491,491,
491,491,491,491,491,491,491,491,491,491,491,491,491,491,491,491,
491,491,491,491,491,491,491,491,491,491,491,491,491,491,491,491,
491,491,491,491,491,491,491,491,491,491,491,491,491,491,491,491,
491,491,491,491,491,491,491,491,491,491,491,491,491,491,491,491,
491,491,491,491,491,491,491,491,491,491,491,491,491,491,491,491,
491,491,491,491,491,491,491,491,491,491,491,491,491,491,491,491,
491,491,491,491,491,491,491,491,491,491,491,491,491,491,491,491
</chunk>
   <chunk x="-48" y="-48" width="16" height="16">
491,491,491,491,491,491,491,491,491,491,491,491,491,491,491,491,
491,491,491,491,491,491,491,491,491,491,491,491,491,491,491,491,
491,491,491,491,491,491,491,491,491,491,491,491,491,491,491,491,
491,491,491,491,491,491,491,491,491,491,491,491,491,491,491,491,
491,491,491,491,491,491,491,491,491,491,491,491,491,491,491,491,
491,491,491,491,491,491,491,491,491,491,491,491,491,491,491,491,
491,491,491,491,491,491,491,491,491,491,491,491,491,491,491,491,
491,491,491,491,491,491,491,491,491,491,491,491,491,491,491,491,
491,491,491,491,491,491,491,491,491,491,491,491,491,491,491,491,
491,491,491,491,491,491,491,491,491,491,491,491,491,491,491,491,
491,491,491,491,491,491,491,491,491,491,491,491,491,491,491,491,
491,491,491,491,491,491,491,491,491,491,491,491,491,491,491,491,
491,491,491,491,491,491,491,491,491,491,491,491,491,491,491,491,
491,491,491,491,491,491,491,491,491,491,491,491,491,491,491,491,
491,491,491,491,491,491,491,491,491,491,491,491,491,491,491,491,
491,491,491,491,491,491,491,491,491,491,491,491,491,491,491,491
</chunk>
   <chunk x="-32" y="-48" width="16" height="16">
491,491,491,491,491,491,491,491,491,491,491,491,491,491,491,491,
491,491,491,491,491,491,491,491,491,491,491,491,491,491,491,491,
491,491,491,491,491,491,491,491,491,491,491,491,491,491,491,491,
491,491,491,491,491,491,491,491,491,491,491,491,491,491,491,491,
491,491,491,491,491,491,491,491,491,491,491,491,491,491,491,491,
491,491,491,491,491,491,491,491,491,491,491,491,491,491,491,491,
491,491,491,491,491,491,491,491,491,491,491,491,491,491,491,491,
491,491,491,491,491,491,491,491,491,491,491,491,491,491,491,491,
491,491,491,491,491,491,491,491,491,491,491,491,491,491,491,491,
491,491,491,491,491,491,491,491,491,491,491,491,491,491,491,491,
491,491,491,491,491,491,491,491,491,491,491,491,491,491,491,491,
491,491,491,491,491,491,491,491,491,491,491,491,491,491,491,491,
491,491,491,491,491,491,491,491,491,491,491,491,491,491,491,491,
491,491,491,491,491,491,491,491,491,491,491,491,491,491,491,491,
491,491,491,491,491,491,491,491,491,491,491,491,491,491,491,491,
491,491,491,491,491,491,491,491,491,491,491,491,491,491,491,491
</chunk>
   <chunk x="-16" y="-48" width="16" height="16">
491,491,491,491,491,491,491,491,491,491,491,491,491,491,491,491,
491,491,491,491,491,491,491,491,491,491,491,491,491,491,491,491,
491,491,491,491,491,491,491,491,491,491,491,491,491,491,491,491,
491,491,491,491,491,491,491,491,491,491,491,491,491,491,491,491,
491,491,491,491,491,491,491,491,491,491,491,491,491,491,491,491,
491,491,491,491,491,491,491,491,491,491,491,491,491,491,491,491,
491,491,491,491,491,491,491,491,491,491,491,491,491,491,491,491,
491,491,491,491,491,491,491,491,491,491,491,491,491,491,491,491,
491,491,491,491,491,491,491,491,491,491,491,491,491,491,491,491,
491,491,491,491,491,491,491,491,491,491,491,491,491,491,491,491,
491,491,491,491,491,491,491,491,491,491,491,491,491,491,491,491,
491,491,491,491,491,491,491,491,491,491,491,491,491,491,491,491,
491,491,491,491,491,491,491,491,491,491,491,491,491,491,491,491,
491,491,491,491,491,491,491,491,491,491,491,491,491,491,491,491,
491,491,491,491,491,491,491,491,491,491,491,491,491,491,491,491,
491,491,491,491,491,491,491,491,491,491,491,491,491,491,491,491
</chunk>
   <chunk x="0" y="-48" width="16" height="16">
491,491,491,491,491,491,491,491,491,491,491,491,491,491,491,491,
491,491,491,491,491,491,491,491,491,491,491,491,491,491,491,491,
491,491,491,491,491,491,491,491,491,491,491,491,491,491,491,491,
491,491,491,491,491,491,491,491,491,491,491,491,491,491,491,491,
491,491,491,491,491,491,491,491,491,491,491,491,491,491,491,491,
491,491,491,491,491,491,491,491,491,491,491,491,491,491,491,491,
491,491,491,491,491,491,491,491,491,491,491,491,491,491,491,491,
491,491,491,491,491,491,491,491,491,491,491,491,491,491,491,491,
491,491,491,491,491,491,491,491,491,491,491,491,491,491,491,491,
491,491,491,491,491,491,491,491,491,491,491,491,491,491,491,491,
491,491,491,491,491,491,491,491,491,491,491,491,491,491,491,491,
491,491,491,491,491,491,491,491,491,491,491,491,491,491,491,491,
491,491,491,491,491,491,491,491,491,491,491,491,491,491,491,491,
491,491,491,491,491,491,491,491,491,491,491,491,491,491,491,491,
491,491,491,491,491,491,491,491,491,491,491,491,491,491,491,491,
491,491,491,491,491,491,491,491,491,491,491,491,491,491,491,491
</chunk>
   <chunk x="16" y="-48" width="16" height="16">
491,491,491,491,491,491,491,491,491,491,491,491,491,491,491,491,
491,491,491,491,491,491,491,491,491,491,491,491,491,491,491,491,
491,491,491,491,491,491,491,491,491,491,491,491,491,491,491,491,
491,491,491,491,491,491,491,491,491,491,491,491,491,491,491,491,
491,491,491,491,491,491,491,491,491,491,491,491,491,491,491,491,
491,491,491,491,491,491,491,491,491,491,491,491,491,491,491,491,
491,491,491,491,491,491,491,491,491,491,491,491,491,491,491,491,
491,491,491,491,491,491,491,491,491,491,491,491,491,491,491,491,
491,491,491,491,491,491,491,491,491,491,491,491,491,491,491,491,
491,491,491,491,491,491,491,491,491,491,491,491,491,491,491,491,
491,491,491,491,491,491,491,491,491,491,491,491,491,491,491,491,
491,491,491,491,491,491,491,491,491,491,491,491,491,491,491,491,
491,491,491,491,491,491,491,491,491,491,491,491,491,491,491,491,
491,491,491,491,491,491,491,491,491,491,491,491,491,491,491,491,
491,491,491,491,491,491,491,491,491,491,491,491,491,491,491,491,
491,491,491,491,491,491,491,491,491,491,491,491,491,491,491,491
</chunk>
   <chunk x="32" y="-48" width="16" height="16">
491,491,491,491,491,491,491,491,491,491,491,491,491,491,491,491,
491,491,491,491,491,491,491,491,491,491,491,491,491,491,491,491,
491,491,491,491,491,491,491,491,491,491,491,491,491,491,491,491,
491,491,491,491,491,491,491,491,491,491,491,491,491,491,491,491,
491,491,491,491,491,491,491,491,491,491,491,491,491,491,491,491,
491,491,491,491,491,491,491,491,491,491,491,491,491,491,491,491,
491,491,491,491,491,491,491,491,491,491,491,491,491,491,491,491,
491,491,491,491,491,491,491,491,491,491,491,491,491,491,491,491,
491,491,491,491,491,491,491,491,491,491,491,491,491,491,491,491,
491,491,491,491,491,491,491,491,491,491,491,491,491,491,491,491,
491,491,491,491,491,491,491,491,491,491,491,491,491,491,491,491,
491,491,491,491,491,491,491,491,491,491,491,491,491,491,491,491,
491,491,491,491,491,491,491,491,491,491,491,491,491,491,491,491,
491,491,491,491,491,491,491,491,491,491,491,491,491,491,491,491,
491,491,491,491,491,491,491,491,491,491,491,491,491,491,491,491,
491,491,491,491,491,491,491,491,491,491,491,491,491,491,491,491
</chunk>
   <chunk x="-112" y="-32" width="16" height="16">
491,491,491,491,491,491,491,491,491,491,491,491,491,491,491,491,
491,491,491,491,491,491,491,491,491,491,491,491,491,491,491,491,
491,491,491,491,491,491,491,491,491,491,491,491,491,491,491,491,
491,491,491,491,491,491,491,491,491,491,491,491,491,491,491,491,
491,491,491,491,491,491,491,491,491,491,491,491,491,491,491,491,
491,491,491,491,491,491,491,491,491,491,491,491,491,491,491,491,
491,491,491,491,491,491,491,491,491,491,491,491,491,491,491,491,
491,491,491,491,491,491,491,491,491,491,491,491,491,491,491,491,
491,491,491,491,491,491,491,491,491,491,491,491,491,491,491,491,
491,491,491,491,491,491,491,491,491,491,491,491,491,491,491,491,
491,491,491,491,491,491,491,491,491,491,491,491,491,491,491,491,
491,491,491,491,491,491,491,491,491,491,491,491,491,491,491,491,
491,491,491,491,491,491,491,491,491,491,491,491,491,491,491,491,
491,491,491,491,491,491,491,491,491,491,491,491,491,491,491,491,
491,491,491,491,491,491,491,491,491,491,491,491,491,491,491,491,
491,491,491,491,491,491,491,491,491,491,491,491,491,491,491,491
</chunk>
   <chunk x="-96" y="-32" width="16" height="16">
491,491,491,491,491,491,491,491,491,491,491,491,491,491,491,491,
491,491,491,491,491,491,491,491,491,491,491,491,491,491,491,491,
491,491,491,491,491,491,491,491,491,491,491,491,491,491,491,491,
491,491,491,491,491,491,491,491,491,491,491,491,491,491,491,491,
491,491,491,491,491,491,491,491,491,491,491,491,491,491,491,491,
491,491,491,491,491,491,491,491,491,491,491,491,491,491,491,491,
491,491,491,491,491,491,491,491,491,491,491,491,491,491,491,491,
491,491,491,491,491,491,491,491,491,491,491,491,491,491,491,491,
491,491,491,491,491,491,491,491,491,491,491,491,491,491,491,491,
491,491,491,491,491,491,491,491,491,491,491,491,491,491,491,491,
491,491,491,491,491,491,491,491,491,491,491,491,491,491,491,491,
491,491,491,491,491,491,491,491,491,491,491,491,491,491,491,491,
491,491,491,491,491,491,491,491,491,491,491,491,491,491,491,491,
491,491,491,491,491,491,491,491,491,491,491,491,491,491,491,491,
491,491,491,491,491,491,491,491,491,491,491,491,491,491,491,491,
491,491,491,491,491,491,491,491,491,491,491,491,491,491,491,491
</chunk>
   <chunk x="-80" y="-32" width="16" height="16">
491,491,491,491,491,491,491,491,491,491,491,491,491,491,491,491,
491,491,491,491,491,491,491,491,491,491,491,491,491,491,491,491,
491,491,491,491,491,491,491,491,491,491,491,491,491,491,491,491,
491,491,491,491,491,491,491,491,491,491,491,491,491,491,491,491,
491,491,491,491,491,491,491,491,491,491,491,491,491,491,491,491,
491,491,491,491,491,491,491,491,491,491,491,491,491,491,491,491,
491,491,491,491,491,491,491,491,491,491,491,491,491,491,491,491,
491,491,491,491,491,491,491,491,491,491,491,491,491,491,491,491,
491,491,491,491,491,491,491,491,491,491,491,491,491,491,491,491,
491,491,491,491,491,491,491,491,491,491,491,491,491,491,491,491,
491,491,491,491,491,491,491,491,491,491,491,491,491,491,491,491,
491,491,491,491,491,491,491,491,491,491,491,491,491,491,491,491,
491,491,491,491,491,491,491,491,491,491,491,491,491,491,491,491,
491,491,491,491,491,491,491,491,491,491,491,491,491,491,491,491,
491,491,491,491,491,491,491,491,491,491,491,491,491,491,491,491,
491,491,491,491,491,491,491,491,491,491,491,491,491,491,491,491
</chunk>
   <chunk x="-64" y="-32" width="16" height="16">
491,491,491,491,491,491,491,491,491,491,491,491,491,491,491,491,
491,491,491,491,491,491,491,491,491,491,491,491,491,491,491,491,
491,491,491,491,491,491,491,491,491,491,491,491,491,491,491,491,
491,491,491,491,491,491,491,491,491,491,491,491,491,491,491,491,
491,491,491,491,491,491,491,491,491,491,491,491,491,491,491,491,
491,491,491,491,491,491,491,491,491,491,491,491,491,491,491,491,
491,491,491,491,491,491,491,491,491,491,491,491,491,491,491,491,
491,491,491,491,491,491,491,491,491,491,491,491,491,491,491,491,
491,491,491,491,491,491,491,491,491,491,491,491,491,491,491,491,
491,491,491,491,491,491,491,491,491,491,491,491,491,491,491,491,
491,491,491,491,491,491,491,491,491,491,491,491,491,491,491,491,
491,491,491,491,491,491,491,491,491,491,491,491,491,491,491,491,
491,491,491,491,491,491,491,491,491,491,491,491,491,491,491,491,
491,491,491,491,491,491,491,491,491,491,491,491,491,491,491,491,
491,491,491,491,491,491,491,491,491,491,491,491,491,491,491,491,
491,491,491,491,491,491,491,491,491,491,491,491,491,491,491,491
</chunk>
   <chunk x="-48" y="-32" width="16" height="16">
491,491,491,491,491,491,491,491,491,491,491,491,491,491,491,491,
491,491,491,491,491,491,491,491,491,491,491,491,491,491,491,491,
491,491,491,491,491,491,491,491,491,491,491,491,491,491,491,491,
491,491,491,491,491,491,491,491,491,491,491,491,491,491,491,491,
491,491,491,491,491,491,491,491,491,491,491,491,491,491,491,491,
491,491,491,491,491,491,491,491,491,491,491,491,491,491,491,491,
491,491,491,491,491,491,491,491,491,491,491,491,491,491,491,491,
491,491,491,491,491,491,491,491,491,491,491,491,491,491,491,491,
491,491,491,491,491,491,491,491,491,491,491,491,491,491,491,491,
491,491,491,491,491,491,491,491,491,491,491,491,491,491,491,491,
491,491,491,491,491,491,491,491,491,491,491,491,491,491,491,491,
491,491,491,491,491,491,491,491,491,491,491,491,491,491,491,491,
491,491,491,491,491,491,491,491,491,491,491,491,491,491,491,491,
491,491,491,491,491,491,491,491,491,491,491,491,491,491,491,491,
491,491,491,491,491,491,491,491,491,491,491,491,491,491,491,491,
491,491,491,491,491,491,491,491,491,491,491,491,491,491,491,491
</chunk>
   <chunk x="-32" y="-32" width="16" height="16">
491,491,491,491,491,491,491,491,491,491,491,491,491,491,491,491,
491,491,491,491,491,491,491,491,491,491,491,491,491,491,491,491,
491,491,491,491,491,491,491,491,491,491,491,491,491,491,491,491,
491,491,491,491,491,491,491,491,491,491,491,491,491,491,491,491,
491,491,491,491,491,491,491,491,491,491,491,491,491,491,491,491,
491,491,491,491,491,491,491,491,491,491,491,491,491,491,491,491,
491,491,491,491,491,491,491,491,491,491,491,491,491,491,491,491,
491,491,491,491,491,491,491,491,491,491,491,491,491,491,491,491,
491,491,491,491,491,491,491,491,491,491,491,491,491,491,491,491,
491,491,491,491,491,491,491,491,491,491,491,491,491,491,491,491,
491,491,491,491,491,491,491,491,491,491,491,491,491,491,491,491,
491,491,491,491,491,491,491,491,491,491,491,491,491,491,491,491,
491,491,491,491,491,491,491,491,491,491,491,491,491,491,491,491,
491,491,491,491,491,491,491,491,491,491,491,491,491,491,491,491,
491,491,491,491,491,491,491,491,491,491,491,491,491,491,491,491,
491,491,491,491,491,491,491,491,491,491,491,491,491,491,491,491
</chunk>
   <chunk x="-16" y="-32" width="16" height="16">
491,491,491,491,491,491,491,491,491,491,491,491,491,491,491,491,
491,491,491,491,491,491,491,491,491,491,491,491,491,491,491,491,
491,491,491,491,491,491,491,491,491,491,491,491,491,491,491,491,
491,491,491,491,491,491,491,491,491,491,491,491,491,491,491,491,
491,491,491,491,491,491,491,491,491,491,491,491,491,491,491,491,
491,491,491,491,491,491,491,491,491,491,491,491,491,491,491,491,
491,491,491,491,491,491,491,491,491,491,491,491,491,491,491,491,
491,491,491,491,491,491,491,491,491,491,491,491,491,491,491,491,
491,491,491,491,491,491,491,491,491,491,491,491,491,491,491,491,
491,491,491,491,491,491,491,491,491,491,491,491,491,491,491,491,
491,491,491,491,491,491,491,491,491,491,491,491,491,491,491,491,
491,491,491,491,491,491,491,491,491,491,491,491,491,491,491,491,
491,491,491,491,491,491,491,491,491,491,491,491,491,491,491,491,
491,491,491,491,491,491,491,491,491,491,491,491,491,491,491,491,
491,491,491,491,491,491,491,491,491,491,491,491,491,491,491,491,
491,491,491,491,491,491,491,491,491,491,491,491,491,491,491,491
</chunk>
   <chunk x="0" y="-32" width="16" height="16">
491,491,491,491,491,491,491,491,491,491,491,491,491,491,491,491,
491,491,491,491,491,491,491,491,491,491,491,491,491,491,491,491,
491,491,491,491,491,491,491,491,491,491,491,491,491,491,491,491,
491,491,491,491,491,491,491,491,491,491,491,491,491,491,491,491,
491,491,491,491,491,491,491,491,491,491,491,491,491,491,491,491,
491,491,491,491,491,491,491,491,491,491,491,491,491,491,491,491,
491,491,491,491,491,491,491,491,491,491,491,491,491,491,491,491,
491,491,491,491,491,491,491,491,491,491,491,491,491,491,491,491,
491,491,491,491,491,491,491,491,491,491,491,491,491,491,491,491,
491,491,491,491,491,491,491,491,491,491,491,491,491,491,491,491,
491,491,491,491,491,491,491,491,491,491,491,491,491,491,491,491,
491,491,491,491,491,491,491,491,491,491,491,491,491,491,491,491,
491,491,491,491,491,491,491,491,491,491,491,491,491,491,491,491,
491,491,491,491,491,491,491,491,491,491,491,491,491,491,491,491,
491,491,491,491,491,491,491,491,491,491,491,491,491,491,491,491,
491,491,491,491,491,491,491,491,491,491,491,491,491,491,491,491
</chunk>
   <chunk x="16" y="-32" width="16" height="16">
491,491,491,491,491,491,491,491,491,491,491,491,491,491,491,491,
491,491,491,491,491,491,491,491,491,491,491,491,491,491,491,491,
491,491,491,491,491,491,491,491,491,491,491,491,491,491,491,491,
491,491,491,491,491,491,491,491,491,491,491,491,491,491,491,491,
491,491,491,491,491,491,491,491,491,491,491,491,491,491,491,491,
491,491,491,491,491,491,491,491,491,491,491,491,491,491,491,491,
491,491,491,491,491,491,491,491,491,491,491,491,491,491,491,491,
491,491,491,491,491,491,491,491,491,491,491,491,491,491,491,491,
491,491,491,491,491,491,491,491,491,491,491,491,491,491,491,491,
491,491,491,491,491,491,491,491,491,491,491,491,491,491,491,491,
491,491,491,491,491,491,491,491,491,491,491,491,491,491,491,491,
491,491,491,491,491,491,491,491,491,491,491,491,491,491,491,491,
491,491,491,491,491,491,491,491,491,491,491,491,491,491,491,491,
491,491,491,491,491,491,491,491,491,491,491,491,491,491,491,491,
491,491,491,491,491,491,491,491,491,491,491,491,491,491,491,491,
491,491,491,491,491,491,491,491,491,491,491,491,491,491,491,491
</chunk>
   <chunk x="32" y="-32" width="16" height="16">
491,491,491,491,491,491,491,491,491,491,491,491,491,491,491,491,
491,491,491,491,491,491,491,491,491,491,491,491,491,491,491,491,
491,491,491,491,491,491,491,491,491,491,491,491,491,491,491,491,
491,491,491,491,491,491,491,491,491,491,491,491,491,491,491,491,
491,491,491,491,491,491,491,491,491,491,491,491,491,491,491,491,
491,491,491,491,491,491,491,491,491,491,491,491,491,491,491,491,
491,491,491,491,491,491,491,491,491,491,491,491,491,491,491,491,
491,491,491,491,491,491,491,491,491,491,491,491,491,491,491,491,
491,491,491,491,491,491,491,491,491,491,491,491,491,491,491,491,
491,491,491,491,491,491,491,491,491,491,491,491,491,491,491,491,
491,491,491,491,491,491,491,491,491,491,491,491,491,491,491,491,
491,491,491,491,491,491,491,491,491,491,491,491,491,491,491,491,
491,491,491,491,491,491,491,491,491,491,491,491,491,491,491,491,
491,491,491,491,491,491,491,491,491,491,491,491,491,491,491,491,
491,491,491,491,491,491,491,491,491,491,491,491,491,491,491,491,
491,491,491,491,491,491,491,491,491,491,491,491,491,491,491,491
</chunk>
   <chunk x="-112" y="-16" width="16" height="16">
491,491,491,491,491,491,491,491,491,491,491,491,491,491,491,491,
491,491,491,491,491,491,491,491,491,491,491,491,491,491,491,491,
491,491,491,491,491,491,491,491,491,491,491,491,491,491,491,491,
491,491,491,491,491,491,491,491,491,491,491,491,491,491,491,491,
491,491,491,491,491,491,491,491,491,491,491,491,491,491,491,491,
491,491,491,491,491,491,491,491,491,491,491,491,491,491,491,491,
491,491,491,491,491,491,491,491,491,491,491,491,491,491,491,491,
491,491,491,491,491,491,491,491,491,491,491,491,491,491,491,491,
491,491,491,491,491,491,491,491,491,491,491,491,491,491,491,491,
491,491,491,491,491,491,491,491,491,491,491,491,491,491,491,491,
491,491,491,491,491,491,491,491,491,491,491,491,491,491,491,491,
491,491,491,491,491,491,491,491,491,491,491,491,491,491,491,491,
491,491,491,491,491,491,491,491,491,491,491,491,491,491,491,491,
491,491,491,491,491,491,491,491,491,491,491,491,491,491,491,491,
491,491,491,491,491,491,491,491,491,491,491,491,491,491,491,491,
491,491,491,491,491,491,491,491,491,491,491,491,491,491,491,491
</chunk>
   <chunk x="-96" y="-16" width="16" height="16">
491,491,491,491,491,491,491,491,491,491,491,491,491,491,491,491,
491,491,491,491,491,491,491,491,491,491,491,491,491,491,491,491,
491,491,491,491,491,491,491,491,491,491,491,491,491,491,491,491,
491,491,491,491,491,491,491,491,491,491,491,491,491,491,491,491,
491,491,491,491,491,491,491,491,491,491,491,491,491,491,491,491,
491,491,491,491,491,491,491,491,491,491,491,491,491,491,491,491,
491,491,491,491,491,491,491,491,491,491,491,491,491,491,491,491,
491,491,491,491,491,491,491,491,491,491,491,491,491,491,491,491,
491,491,491,491,491,491,491,491,491,491,491,491,491,491,491,491,
491,491,491,491,491,491,491,491,491,491,491,491,491,491,491,491,
491,491,491,491,491,491,491,491,491,491,491,491,491,491,491,491,
491,491,491,491,491,491,491,491,491,491,491,491,491,491,491,491,
491,491,491,491,491,491,491,491,491,491,491,491,491,491,491,491,
491,491,491,491,491,491,491,491,491,491,491,491,491,491,491,491,
491,491,491,491,491,491,491,491,491,491,491,491,491,491,491,491,
491,491,491,491,491,491,491,491,491,491,491,491,491,491,491,491
</chunk>
   <chunk x="-80" y="-16" width="16" height="16">
491,491,491,491,491,491,491,491,491,491,491,491,491,491,491,491,
491,491,491,491,491,491,491,491,491,491,491,491,491,491,491,491,
491,491,491,491,491,491,491,491,491,491,491,491,491,491,491,491,
491,491,491,491,491,491,491,491,491,491,491,491,491,491,491,491,
491,491,491,491,491,491,491,491,491,491,491,491,491,491,491,491,
491,491,491,491,491,491,491,491,491,491,491,491,491,491,491,491,
491,491,491,491,491,491,491,491,491,491,491,491,491,491,491,491,
491,491,491,491,491,491,491,491,491,491,491,491,491,491,491,491,
491,491,491,491,491,491,491,491,491,491,491,491,491,491,491,491,
491,491,491,491,491,491,491,491,491,491,491,491,491,491,491,491,
491,491,491,491,491,491,491,491,491,491,491,491,491,491,491,491,
491,491,491,491,491,491,491,491,491,491,491,491,491,491,491,491,
491,491,491,491,491,491,491,491,491,491,491,491,491,491,491,491,
491,491,491,491,491,491,491,491,491,491,491,491,491,491,491,491,
491,491,491,491,491,491,491,491,491,491,491,491,491,491,491,491,
491,491,491,491,491,491,491,491,491,491,491,491,491,491,491,491
</chunk>
   <chunk x="-64" y="-16" width="16" height="16">
491,491,491,491,491,491,491,491,491,491,491,491,491,491,491,491,
491,491,491,491,491,491,491,491,491,491,491,491,491,491,491,491,
491,491,491,491,491,491,491,491,491,491,491,491,491,491,491,491,
491,491,491,491,491,491,491,491,491,491,491,491,491,491,491,491,
491,491,491,491,491,491,491,491,491,491,491,491,491,491,491,491,
491,491,491,491,491,491,491,491,491,491,491,491,491,491,491,491,
491,491,491,491,491,491,491,491,491,491,491,491,491,491,491,491,
491,491,491,491,491,491,491,491,491,491,491,491,491,491,491,491,
491,491,491,491,491,491,491,491,491,491,491,491,491,491,491,491,
491,491,491,491,491,491,491,491,491,491,491,491,491,491,491,491,
491,491,491,491,491,491,491,491,491,491,491,491,491,491,491,491,
491,491,491,491,491,491,491,491,491,491,491,491,491,491,491,491,
491,491,491,491,491,491,491,491,491,491,491,491,491,491,491,491,
491,491,491,491,491,491,491,491,491,491,491,491,491,491,491,491,
491,491,491,491,491,491,491,491,491,491,491,491,491,491,491,491,
491,491,491,491,491,491,491,491,491,491,491,491,491,491,491,491
</chunk>
   <chunk x="-48" y="-16" width="16" height="16">
491,491,491,491,491,491,491,491,491,491,491,491,491,491,491,491,
491,491,491,491,491,491,491,491,491,491,491,491,491,491,491,491,
491,491,491,491,491,491,491,491,491,491,491,491,491,491,491,491,
491,491,491,491,491,491,491,491,491,491,491,491,491,491,491,491,
491,491,491,491,491,491,491,491,491,491,491,491,491,491,491,491,
491,491,491,491,491,491,491,491,491,491,491,491,491,491,491,491,
491,491,491,491,491,491,491,491,491,491,491,491,491,491,491,491,
491,491,491,491,491,491,491,491,491,491,491,491,491,491,491,491,
491,491,491,491,491,491,491,491,491,491,491,491,491,491,491,491,
491,491,491,491,491,491,491,491,491,491,491,491,491,491,491,491,
491,491,491,491,491,491,491,491,491,491,491,491,491,491,491,491,
491,491,491,491,491,491,491,491,491,491,491,491,491,491,491,491,
491,491,491,491,491,491,491,491,491,491,491,491,491,491,491,491,
491,491,491,491,491,491,491,491,491,491,491,491,491,491,491,491,
491,491,491,491,491,491,491,491,491,491,491,491,491,491,491,491,
491,491,491,491,491,491,491,491,491,491,491,491,491,491,491,491
</chunk>
   <chunk x="-32" y="-16" width="16" height="16">
491,491,491,491,491,491,491,491,491,491,491,491,491,491,491,491,
491,491,491,491,491,491,491,491,491,491,491,491,491,491,491,491,
491,491,491,491,491,491,491,491,491,491,491,491,491,491,491,491,
491,491,491,491,491,491,491,491,491,491,491,491,491,491,491,491,
491,491,491,491,491,491,491,491,491,491,491,491,491,491,491,491,
491,491,491,491,491,491,491,491,491,491,491,491,491,491,491,491,
491,491,491,491,491,491,491,491,491,491,491,491,491,491,491,491,
491,491,491,491,491,491,491,491,491,491,491,491,491,491,491,491,
491,491,491,491,491,491,491,491,491,491,491,491,491,491,491,491,
491,491,491,491,491,491,491,491,491,491,491,491,491,491,491,491,
491,491,491,491,491,491,491,491,491,491,491,491,491,491,491,491,
491,491,491,491,491,491,491,491,491,491,491,491,491,491,491,491,
491,491,491,491,491,491,491,491,491,491,491,491,491,491,491,491,
491,491,491,491,491,491,491,491,491,491,491,491,491,491,491,491,
491,491,491,491,491,491,491,491,491,491,491,491,491,491,491,491,
491,491,491,491,491,491,491,491,491,491,491,491,491,491,491,491
</chunk>
   <chunk x="-16" y="-16" width="16" height="16">
491,491,491,491,491,491,491,491,491,491,491,491,491,491,491,491,
491,491,491,491,491,491,491,491,491,491,491,491,491,491,491,491,
491,491,491,491,491,491,491,491,491,491,491,491,491,491,491,491,
491,491,491,491,491,491,491,491,491,491,491,491,491,491,491,491,
491,491,491,491,491,491,491,491,491,491,491,491,491,491,491,491,
491,491,491,491,491,491,491,491,491,491,491,491,491,491,491,491,
491,491,491,491,491,491,491,491,491,491,491,491,491,491,491,491,
491,491,491,491,491,491,491,491,491,491,491,491,491,491,491,491,
491,491,491,491,491,491,491,491,491,491,491,491,491,491,491,491,
491,491,491,491,491,491,491,491,491,491,491,491,491,491,491,491,
491,491,491,491,491,491,491,491,491,491,491,491,491,491,491,491,
491,491,491,491,491,491,491,491,491,491,491,491,491,491,491,491,
491,491,491,491,491,1491,491,491,491,491,491,491,491,491,491,491,
491,491,491,491,491,491,491,491,491,491,491,491,491,491,491,491,
491,491,491,491,491,491,491,491,491,491,491,491,491,491,491,491,
491,491,491,491,491,491,491,491,491,491,491,491,491,491,491,491
</chunk>
   <chunk x="0" y="-16" width="16" height="16">
491,491,491,491,491,491,491,491,491,491,491,491,491,491,491,491,
491,491,491,491,491,491,491,491,491,491,491,491,491,491,491,491,
491,491,491,491,491,491,491,491,491,491,491,491,491,491,491,491,
491,491,491,491,491,491,491,491,491,491,491,491,491,491,491,491,
491,491,491,491,491,491,491,491,491,491,491,491,491,491,491,491,
491,491,491,491,491,491,491,491,491,491,491,491,491,491,491,491,
491,491,491,491,491,491,491,491,491,491,491,491,491,491,491,491,
491,491,491,491,491,491,491,491,491,491,491,491,491,491,491,491,
491,491,491,491,491,491,491,491,491,491,491,491,491,491,491,491,
491,491,491,491,491,491,491,491,491,491,491,491,491,491,491,491,
491,491,491,491,491,491,491,491,491,491,491,491,491,491,491,491,
491,491,491,491,491,491,491,491,491,491,491,491,491,491,491,491,
491,491,491,491,491,491,491,491,491,491,491,491,491,491,491,491,
491,491,491,491,491,491,491,491,491,491,491,491,491,491,491,491,
491,491,491,491,491,491,491,491,491,491,491,491,491,491,491,491,
491,491,491,491,491,491,491,491,491,491,491,491,491,491,491,491
</chunk>
   <chunk x="16" y="-16" width="16" height="16">
491,491,491,491,491,491,491,491,491,491,491,491,491,491,491,491,
491,491,491,491,491,491,491,491,491,491,491,491,491,491,491,491,
491,491,491,491,491,491,491,491,491,491,491,491,491,491,491,491,
491,491,491,491,491,491,491,491,491,491,491,491,491,491,491,491,
491,491,491,491,491,491,491,491,491,491,491,491,491,491,491,491,
491,491,491,491,491,491,491,491,491,491,491,491,491,491,491,491,
491,491,491,491,491,491,491,491,491,491,491,491,491,491,491,491,
491,491,491,491,491,491,491,491,491,491,491,491,491,491,491,491,
491,491,491,491,491,491,491,491,491,491,491,491,491,491,491,491,
491,491,491,491,491,491,491,491,491,491,491,491,491,491,491,491,
491,491,491,491,491,491,491,491,491,491,491,491,491,491,491,491,
491,491,491,491,491,491,491,491,491,491,491,491,491,491,491,491,
491,491,491,491,491,491,491,491,491,491,491,491,491,491,491,491,
491,491,491,491,491,491,491,491,491,491,491,491,491,491,491,491,
491,491,491,491,491,491,491,491,491,491,491,491,491,491,491,491,
491,491,491,491,491,491,491,491,491,491,491,491,491,491,491,491
</chunk>
   <chunk x="32" y="-16" width="16" height="16">
491,491,491,491,491,491,491,491,491,491,491,491,491,491,491,491,
491,491,491,491,491,491,491,491,491,491,491,491,491,491,491,491,
491,491,491,491,491,491,491,491,491,491,491,491,491,491,491,491,
491,491,491,491,491,491,491,491,491,491,491,491,491,491,491,491,
491,491,491,491,491,491,491,491,491,491,491,491,491,491,491,491,
491,491,491,491,491,491,491,491,491,491,491,491,491,491,491,491,
491,491,491,491,491,491,491,491,491,491,491,491,491,491,491,491,
491,491,491,491,491,491,491,491,491,491,491,491,491,491,491,491,
491,491,491,491,491,491,491,491,491,491,491,491,491,491,491,491,
491,491,491,491,491,491,491,491,491,491,491,491,491,491,491,491,
491,491,491,491,491,491,491,491,491,491,491,491,491,491,491,491,
491,491,491,491,491,491,491,491,491,491,491,491,491,491,491,491,
491,491,491,491,491,491,491,491,491,491,491,491,491,491,491,491,
491,491,491,491,491,491,491,491,491,491,491,491,491,491,491,491,
491,491,491,491,491,491,491,491,491,491,491,491,491,491,491,491,
491,491,491,491,491,491,491,491,491,491,491,491,491,491,491,491
</chunk>
   <chunk x="-112" y="0" width="16" height="16">
491,491,491,491,491,491,491,491,491,491,491,491,491,491,491,491,
491,491,491,491,491,491,491,491,491,491,491,491,491,491,491,491,
491,491,491,491,491,491,491,491,491,491,491,491,491,491,491,491,
491,491,491,491,491,491,491,491,491,491,491,491,491,491,491,491,
491,491,491,491,491,491,491,491,491,491,491,491,491,491,491,491,
491,491,491,491,491,491,491,491,491,491,491,491,491,491,491,491,
491,491,491,491,491,491,491,491,491,491,491,491,491,491,491,491,
491,491,491,491,491,491,491,491,491,491,491,491,491,491,491,491,
491,491,491,491,491,491,491,491,491,491,491,491,491,491,491,491,
491,491,491,491,491,491,491,491,491,491,491,491,491,491,491,491,
491,491,491,491,491,491,491,491,491,491,491,491,491,491,491,491,
491,491,491,491,491,491,491,491,491,491,491,491,491,491,491,491,
491,491,491,491,491,491,491,491,491,491,491,491,491,491,491,491,
491,491,491,491,491,491,491,491,491,491,491,491,491,491,491,491,
491,491,491,491,491,491,491,491,491,491,491,491,491,491,491,491,
491,491,491,491,491,491,491,491,491,491,491,491,491,491,491,491
</chunk>
   <chunk x="-96" y="0" width="16" height="16">
491,491,491,491,491,491,491,491,491,491,491,491,491,491,491,491,
491,491,491,491,491,491,491,491,491,491,491,491,491,491,491,491,
491,491,491,491,491,491,491,491,491,491,491,491,491,491,491,491,
491,491,491,491,491,491,491,491,491,491,491,491,491,491,491,491,
491,491,491,491,491,491,491,491,491,491,491,491,491,491,491,491,
491,491,491,491,491,491,491,491,491,491,491,491,491,491,491,491,
491,491,491,491,491,491,491,491,491,491,491,491,491,491,491,491,
491,491,491,491,491,491,491,491,491,491,491,491,491,491,491,491,
491,491,491,491,491,491,491,491,491,491,491,491,491,491,491,491,
491,491,491,491,491,491,491,491,491,491,491,491,491,491,491,491,
491,491,491,491,491,491,491,491,491,491,491,491,491,491,491,491,
491,491,491,491,491,491,491,491,491,491,491,491,491,491,491,491,
491,491,491,491,491,491,491,491,491,491,491,491,491,491,491,491,
491,491,491,491,491,491,491,491,491,491,491,491,491,491,491,491,
491,491,491,491,491,491,491,491,491,491,491,491,491,491,491,491,
491,491,491,491,491,491,491,491,491,491,491,491,491,491,491,491
</chunk>
   <chunk x="-80" y="0" width="16" height="16">
491,491,491,491,491,491,491,491,491,491,491,491,491,491,491,491,
491,491,491,491,491,491,491,491,491,491,491,491,491,491,491,491,
491,491,491,491,491,491,491,491,491,491,491,491,491,491,491,491,
491,491,491,491,491,491,491,491,491,491,491,491,491,491,491,491,
491,491,491,491,491,491,491,491,491,491,491,491,491,491,491,491,
491,491,491,491,491,491,491,491,491,491,491,491,491,491,491,491,
491,491,491,491,491,491,491,491,491,491,491,491,491,491,491,491,
491,491,491,491,491,491,491,491,491,491,491,491,491,491,491,491,
491,491,491,491,491,491,491,491,491,491,491,491,491,491,491,491,
491,491,491,491,491,491,491,491,491,491,491,491,491,491,491,491,
491,491,491,491,491,491,491,491,491,491,491,491,491,491,491,491,
491,491,491,491,491,491,491,491,491,491,491,491,491,491,491,491,
491,491,491,491,491,491,491,491,491,491,491,491,491,491,491,491,
491,491,491,491,491,491,491,491,491,491,491,491,491,491,491,491,
491,491,491,491,491,491,491,491,491,491,491,491,491,491,491,491,
491,491,491,491,491,491,491,491,491,491,491,491,491,491,491,491
</chunk>
   <chunk x="-64" y="0" width="16" height="16">
491,491,491,491,491,491,491,491,491,491,491,491,491,491,491,491,
491,491,491,491,491,491,491,491,491,491,491,491,491,491,491,491,
491,491,491,491,491,491,491,491,491,491,491,491,491,491,491,491,
491,491,491,491,491,491,491,491,491,491,491,491,491,491,491,491,
491,491,491,491,491,491,491,491,491,491,491,491,491,491,491,491,
491,491,491,491,491,491,491,491,491,491,491,491,491,491,491,491,
491,491,491,491,491,491,491,491,491,491,491,491,491,491,491,491,
491,491,491,491,491,491,491,491,491,491,491,491,491,491,491,491,
491,491,491,491,491,491,491,491,491,491,491,491,491,491,491,491,
491,491,491,491,491,491,491,491,491,491,491,491,491,491,491,491,
491,491,491,491,491,491,491,491,491,491,491,491,491,491,491,491,
491,491,491,491,491,491,491,491,491,491,491,491,491,491,491,491,
491,491,491,491,491,491,491,491,491,491,491,491,491,491,491,491,
491,491,491,491,491,491,491,491,491,491,491,491,491,491,491,491,
491,491,491,491,491,491,491,491,491,491,491,491,491,491,491,491,
491,491,491,491,491,491,491,491,491,491,491,491,491,491,491,491
</chunk>
   <chunk x="-48" y="0" width="16" height="16">
491,491,491,491,491,491,491,491,491,491,491,491,491,491,491,491,
491,491,491,491,491,491,491,491,491,491,491,491,491,491,491,491,
491,491,491,491,491,491,491,491,491,491,491,491,491,491,491,491,
491,491,491,491,491,491,491,491,491,491,491,491,491,491,491,491,
491,491,491,491,491,491,491,491,491,491,491,491,491,491,491,491,
491,491,491,491,491,491,491,491,491,491,491,491,491,491,491,491,
491,491,491,491,491,491,491,491,491,491,491,491,491,491,491,491,
491,491,491,491,491,491,491,491,491,491,491,491,491,491,491,491,
491,491,491,491,491,491,491,491,491,491,491,491,491,491,491,491,
491,491,491,491,491,491,491,491,491,491,491,491,491,491,491,491,
491,491,491,491,491,491,491,491,491,491,491,491,491,491,491,491,
491,491,491,491,491,491,491,491,491,491,491,491,491,491,491,491,
491,491,491,491,491,491,491,491,491,491,491,491,491,491,491,491,
491,491,491,491,491,491,491,491,491,491,491,491,491,491,491,491,
491,491,491,491,491,491,491,491,491,491,491,491,491,491,491,491,
491,491,491,491,491,491,491,491,491,491,491,491,491,491,491,491
</chunk>
   <chunk x="-32" y="0" width="16" height="16">
491,491,491,491,491,491,491,491,491,491,491,491,491,491,491,491,
491,491,491,491,491,491,491,491,491,491,491,491,491,491,491,491,
491,491,491,491,491,491,491,491,491,491,491,491,491,491,491,491,
491,491,491,491,491,491,491,491,491,491,491,491,491,491,491,491,
491,491,491,491,491,491,491,491,491,491,491,491,491,491,491,491,
491,491,491,491,491,491,491,491,491,491,491,491,491,491,491,491,
491,491,491,491,491,491,491,491,491,491,491,491,491,491,491,491,
491,491,491,491,491,491,491,491,491,491,491,491,491,491,491,491,
491,491,491,491,491,491,491,491,491,491,491,491,491,491,491,491,
491,491,491,491,491,491,491,491,491,491,491,491,491,491,491,491,
491,491,491,491,491,491,491,491,491,491,491,491,491,491,491,491,
491,491,491,491,491,491,491,491,491,491,491,491,491,491,491,491,
491,491,491,491,491,491,491,491,491,491,491,491,491,491,491,491,
491,491,491,491,491,491,491,491,491,491,491,491,491,491,491,491,
491,491,491,491,491,491,491,491,491,491,491,491,491,491,491,491,
491,491,491,491,491,491,491,491,491,491,491,491,491,491,491,491
</chunk>
   <chunk x="-16" y="0" width="16" height="16">
491,491,491,491,491,491,491,491,491,491,491,491,491,491,491,491,
491,491,491,491,491,491,491,491,491,491,491,491,491,491,491,491,
491,491,491,491,491,491,491,491,491,491,491,491,491,491,491,491,
491,491,491,491,491,491,491,491,491,491,491,491,491,491,491,491,
491,491,491,491,491,491,491,491,491,491,491,491,491,491,491,491,
491,491,491,491,491,491,491,491,491,491,491,491,491,491,491,491,
491,491,491,491,491,491,491,491,491,491,491,491,491,491,491,491,
491,491,491,491,491,491,491,491,491,491,491,491,491,491,491,491,
491,491,491,491,491,491,491,491,491,491,491,491,491,491,491,491,
491,491,491,491,491,491,491,491,491,491,491,491,491,491,491,491,
491,491,491,491,491,491,491,491,491,491,491,491,491,491,491,491,
491,491,491,491,491,491,491,491,491,491,491,491,491,491,491,491,
491,491,491,491,491,491,491,491,491,491,491,491,491,491,491,491,
491,491,491,491,491,491,491,491,491,491,491,491,491,491,491,491,
491,491,491,491,491,491,491,491,491,491,491,491,491,491,491,491,
491,491,491,491,491,491,491,491,491,491,491,491,491,491,491,491
</chunk>
   <chunk x="0" y="0" width="16" height="16">
491,491,491,491,491,491,491,491,491,491,491,491,491,491,491,491,
491,491,491,491,491,491,491,491,491,491,491,491,491,491,491,491,
491,491,491,491,491,491,491,491,491,491,491,491,491,491,491,491,
491,491,491,491,491,491,491,491,491,491,491,491,491,491,491,491,
491,491,491,491,491,491,491,491,491,491,491,491,491,491,491,491,
491,491,491,491,491,491,491,491,491,491,491,491,491,491,491,491,
491,491,491,491,491,491,491,491,491,491,491,491,491,491,491,491,
491,491,491,491,491,491,491,491,491,491,491,491,491,491,491,491,
491,491,491,491,491,491,491,491,491,491,491,491,491,491,491,491,
491,491,491,491,491,491,491,491,491,491,491,491,491,491,491,491,
491,491,491,491,491,491,491,491,491,491,491,491,491,491,491,491,
491,491,491,491,491,491,491,491,491,491,491,491,491,491,491,491,
491,491,491,491,491,491,491,491,491,491,491,491,491,491,491,491,
491,491,491,491,491,491,491,491,491,491,491,491,491,491,491,491,
491,491,491,491,491,491,491,491,491,491,491,491,491,491,491,491,
491,491,491,491,491,491,491,491,491,491,491,491,491,491,491,491
</chunk>
   <chunk x="16" y="0" width="16" height="16">
491,491,491,491,491,491,491,491,491,491,491,491,491,491,491,491,
491,491,491,491,491,491,491,491,491,491,491,491,491,491,491,491,
491,491,491,491,491,491,491,491,491,491,491,491,491,491,491,491,
491,491,491,491,491,491,491,491,491,491,491,491,491,491,491,491,
491,491,491,491,491,491,491,491,491,491,491,491,491,491,491,491,
491,491,491,491,491,491,491,491,491,491,491,491,491,491,491,491,
491,491,491,491,491,491,491,491,491,491,491,491,491,491,491,491,
491,491,491,491,491,491,491,491,491,491,491,491,491,491,491,491,
491,491,491,491,491,491,491,491,491,491,491,491,491,491,491,491,
491,491,491,491,491,491,491,491,491,491,491,491,491,491,491,491,
491,491,491,491,491,491,491,491,491,491,491,491,491,491,491,491,
491,491,491,491,491,491,491,491,491,491,491,491,491,491,491,491,
491,491,491,491,491,491,491,491,491,491,491,491,491,491,491,491,
491,491,491,491,491,491,491,491,491,491,491,491,491,491,491,491,
491,491,491,491,491,491,491,491,491,491,491,491,491,491,491,491,
491,491,491,491,491,491,491,491,491,491,491,491,491,491,491,491
</chunk>
   <chunk x="32" y="0" width="16" height="16">
491,491,491,491,491,491,491,491,491,491,491,491,491,491,491,491,
491,491,491,491,491,491,491,491,491,491,491,491,491,491,491,491,
491,491,491,491,491,491,491,491,491,491,491,491,491,491,491,491,
491,491,491,491,491,491,491,491,491,491,491,491,491,491,491,491,
491,491,491,491,491,491,491,491,491,491,491,491,491,491,491,491,
491,491,491,491,491,491,491,491,491,491,491,491,491,491,491,491,
491,491,491,491,491,491,491,491,491,491,491,491,491,491,491,491,
491,491,491,491,491,491,491,491,491,491,491,491,491,491,491,491,
491,491,491,491,491,491,491,491,491,491,491,491,491,491,491,491,
491,491,491,491,491,491,491,491,491,491,491,491,491,491,491,491,
491,491,491,491,491,491,491,491,491,491,491,491,491,491,491,491,
491,491,491,491,491,491,491,491,491,491,491,491,491,491,491,491,
491,491,491,491,491,491,491,491,491,491,491,491,491,491,491,491,
491,491,491,491,491,491,491,491,491,491,491,491,491,491,491,491,
491,491,491,491,491,491,491,491,491,491,491,491,491,491,491,491,
491,491,491,491,491,491,491,491,491,491,491,491,491,491,491,491
</chunk>
   <chunk x="-112" y="16" width="16" height="16">
491,491,491,491,491,491,491,491,491,491,491,491,491,491,491,491,
491,491,491,491,491,491,491,491,491,491,491,491,491,491,491,491,
491,491,491,491,491,491,491,491,491,491,491,491,491,491,491,491,
491,491,491,491,491,491,491,491,491,491,491,491,491,491,491,491,
491,491,491,491,491,491,491,491,491,491,491,491,491,491,491,491,
491,491,491,491,491,491,491,491,491,491,491,491,491,491,491,491,
491,491,491,491,491,491,491,491,491,491,491,491,491,491,491,491,
491,491,491,491,491,491,491,491,491,491,491,491,491,491,491,491,
491,491,491,491,491,491,491,491,491,491,491,491,491,491,491,491,
491,491,491,491,491,491,491,491,491,491,491,491,491,491,491,491,
491,491,491,491,491,491,491,491,491,491,491,491,491,491,491,491,
491,491,491,491,491,491,491,491,491,491,491,491,491,491,491,491,
491,491,491,491,491,491,491,491,491,491,491,491,491,491,491,491,
491,491,491,491,491,491,491,491,491,491,491,491,491,491,491,491,
491,491,491,491,491,491,491,491,491,491,491,491,491,491,491,491,
491,491,491,491,491,491,491,491,491,491,491,491,491,491,491,491
</chunk>
   <chunk x="-96" y="16" width="16" height="16">
491,491,491,491,491,491,491,491,491,491,491,491,491,491,491,491,
491,491,491,491,491,491,491,491,491,491,491,491,491,491,491,491,
491,491,491,491,491,491,491,491,491,491,491,491,491,491,491,491,
491,491,491,491,491,491,491,491,491,491,491,491,491,491,491,491,
491,491,491,491,491,491,491,491,491,491,491,491,491,491,491,491,
491,491,491,491,491,491,491,491,491,491,491,491,491,491,491,491,
491,491,491,491,491,491,491,491,491,491,491,491,491,491,491,491,
491,491,491,491,491,491,491,491,491,491,491,491,491,491,491,491,
491,491,491,491,491,491,491,491,491,491,491,491,491,491,491,491,
491,491,491,491,491,491,491,491,491,491,491,491,491,491,491,491,
491,491,491,491,491,491,491,491,491,491,491,491,491,491,491,491,
491,491,491,491,491,491,491,491,491,491,491,491,491,491,491,491,
491,491,491,491,491,491,491,491,491,491,491,491,491,491,491,491,
491,491,491,491,491,491,491,491,491,491,491,491,491,491,491,491,
491,491,491,491,491,491,491,491,491,491,491,491,491,491,491,491,
491,491,491,491,491,491,491,491,491,491,491,491,491,491,491,491
</chunk>
   <chunk x="-80" y="16" width="16" height="16">
491,491,491,491,491,491,491,491,491,491,491,491,491,491,491,491,
491,491,491,491,491,491,491,491,491,491,491,491,491,491,491,491,
491,491,491,491,491,491,491,491,491,491,491,491,491,491,491,491,
491,491,491,491,491,491,491,491,491,491,491,491,491,491,491,491,
491,491,491,491,491,491,491,491,491,491,491,491,491,491,491,491,
491,491,491,491,491,491,491,491,491,491,491,491,491,491,491,491,
491,491,491,491,491,491,491,491,491,491,491,491,491,491,491,491,
491,491,491,491,491,491,491,491,491,491,491,491,491,491,491,491,
491,491,491,491,491,491,491,491,491,491,491,491,491,491,491,491,
491,491,491,491,491,491,491,491,491,491,491,491,491,491,491,491,
491,491,491,491,491,491,491,491,491,491,491,491,491,491,491,491,
491,491,491,491,491,491,491,491,491,491,491,491,491,491,491,491,
491,491,491,491,491,491,491,491,491,491,491,491,491,491,491,491,
491,491,491,491,491,491,491,491,491,491,491,491,491,491,491,491,
491,491,491,491,491,491,491,491,491,491,491,491,491,491,491,491,
491,491,491,491,491,491,491,491,491,491,491,491,491,491,491,491
</chunk>
   <chunk x="-64" y="16" width="16" height="16">
491,491,491,491,491,491,491,491,491,491,491,491,491,491,491,491,
491,491,491,491,491,491,491,491,491,491,491,491,491,491,491,491,
491,491,491,491,491,491,491,491,491,491,491,491,491,491,491,491,
491,491,491,491,491,491,491,491,491,491,491,491,491,491,491,491,
491,491,491,491,491,491,491,491,491,491,491,491,491,491,491,491,
491,491,491,491,491,491,491,491,491,491,491,491,491,491,491,491,
491,491,491,491,491,491,491,491,491,491,491,491,491,491,491,491,
491,491,491,491,491,491,491,491,491,491,491,491,491,491,491,491,
491,491,491,491,491,491,491,491,491,491,491,491,491,491,491,491,
491,491,491,491,491,491,491,491,491,491,491,491,491,491,491,491,
491,491,491,491,491,491,491,491,491,491,491,491,491,491,491,491,
491,491,491,491,491,491,491,491,491,491,491,491,491,491,491,491,
491,491,491,491,491,491,491,491,491,491,491,491,491,491,491,491,
491,491,491,491,491,491,491,491,491,491,491,491,491,491,491,491,
491,491,491,491,491,491,491,491,491,491,491,491,491,491,491,491,
491,491,491,491,491,491,491,491,491,491,491,491,491,491,491,491
</chunk>
   <chunk x="-48" y="16" width="16" height="16">
491,491,491,491,491,491,491,491,491,491,491,491,491,491,491,491,
491,491,491,491,491,491,491,491,491,491,491,491,491,491,491,491,
491,491,491,491,491,491,491,491,491,491,491,491,491,491,491,491,
491,491,491,491,491,491,491,491,491,491,491,491,491,491,491,491,
491,491,491,491,491,491,491,491,491,491,491,491,491,491,491,491,
491,491,491,491,491,491,491,491,491,491,491,491,491,491,491,491,
491,491,491,491,491,491,491,491,491,491,491,491,491,491,491,491,
491,491,491,491,491,491,491,491,491,491,491,491,491,491,491,491,
491,491,491,491,491,491,491,491,491,491,491,491,491,491,491,491,
491,491,491,491,491,491,491,491,491,491,491,491,491,491,491,491,
491,491,491,491,491,491,491,491,491,491,491,491,491,491,491,491,
491,491,491,491,491,491,491,491,491,491,491,491,491,491,491,491,
491,491,491,491,491,491,491,491,491,491,491,491,491,491,491,491,
491,491,491,491,491,491,491,491,491,491,491,491,491,491,491,491,
491,491,491,491,491,491,491,491,491,491,491,491,491,491,491,491,
491,491,491,491,491,491,491,491,491,491,491,491,491,491,491,491
</chunk>
   <chunk x="-32" y="16" width="16" height="16">
491,491,491,491,491,491,491,491,491,491,491,491,491,491,491,491,
491,491,491,491,491,491,491,491,491,491,491,491,491,491,491,491,
491,491,491,491,491,491,491,491,491,491,491,491,491,491,491,491,
491,491,491,491,491,491,491,491,491,491,491,491,491,491,491,491,
491,491,491,491,491,491,491,491,491,491,491,491,491,491,491,491,
491,491,491,491,491,491,491,491,491,491,491,491,491,491,491,491,
491,491,491,491,491,491,491,491,491,491,491,491,491,491,491,491,
491,491,491,491,491,491,491,491,491,491,491,491,491,491,491,491,
491,491,491,491,491,491,491,491,491,491,491,491,491,491,491,491,
491,491,491,491,491,491,491,491,491,491,491,491,491,491,491,491,
491,491,491,491,491,491,491,491,491,491,491,491,491,491,491,491,
491,491,491,491,491,491,491,491,491,491,491,491,491,491,491,491,
491,491,491,491,491,491,491,491,491,491,491,491,491,491,491,491,
491,491,491,491,491,491,491,491,491,491,491,491,491,491,491,491,
491,491,491,491,491,491,491,491,491,491,491,491,491,491,491,491,
491,491,491,491,491,491,491,491,491,491,491,491,491,491,491,491
</chunk>
   <chunk x="-16" y="16" width="16" height="16">
491,491,491,491,491,491,491,491,491,491,491,491,491,491,491,491,
491,491,491,491,491,491,491,491,491,491,491,491,491,491,491,491,
491,491,491,491,491,491,491,491,491,491,491,491,491,491,491,491,
491,491,491,491,491,491,491,491,491,491,491,491,491,491,491,491,
491,491,491,491,491,491,491,491,491,491,491,491,491,491,491,491,
491,491,491,491,491,491,491,491,491,491,491,491,491,491,491,491,
491,491,491,491,491,491,491,491,491,491,491,491,491,491,491,491,
491,491,491,491,491,491,491,491,491,491,491,491,491,491,491,491,
491,491,491,491,491,491,491,491,491,491,491,491,491,491,491,491,
491,491,491,491,491,491,491,491,491,491,491,491,491,491,491,491,
491,491,491,491,491,491,491,491,491,491,491,491,491,491,491,491,
491,491,491,491,491,491,491,491,491,491,491,491,491,491,491,491,
491,491,491,491,491,491,491,491,491,491,491,491,491,491,491,491,
491,491,491,491,491,491,491,491,491,491,491,491,491,491,491,491,
491,491,491,491,491,491,491,491,491,491,491,491,491,491,491,491,
491,491,491,491,491,491,491,491,491,491,491,491,491,491,491,491
</chunk>
   <chunk x="0" y="16" width="16" height="16">
491,491,491,491,491,491,491,491,491,491,491,491,491,491,491,491,
491,491,491,491,491,491,491,491,491,491,491,491,491,491,491,491,
491,491,491,491,491,491,491,491,491,491,491,491,491,491,491,491,
491,491,491,491,491,491,491,491,491,491,491,491,491,491,491,491,
491,491,491,491,491,491,491,491,491,491,491,491,491,491,491,491,
491,491,491,491,491,491,491,491,491,491,491,491,491,491,491,491,
491,491,491,491,491,491,491,491,491,491,491,491,491,491,491,491,
491,491,491,491,491,491,491,491,491,491,491,491,491,491,491,491,
491,491,491,491,491,491,491,491,491,491,491,491,491,491,491,491,
491,491,491,491,491,491,491,491,491,491,491,491,491,491,491,491,
491,491,491,491,491,491,491,491,491,491,491,491,491,491,491,491,
491,491,491,491,491,491,491,491,491,491,491,491,491,491,491,491,
491,491,491,491,491,491,491,491,491,491,491,491,491,491,491,491,
491,491,491,491,491,491,491,491,491,491,491,491,491,491,491,491,
491,491,491,491,491,491,491,491,491,491,491,491,491,491,491,491,
491,491,491,491,491,491,491,491,491,491,491,491,491,491,491,491
</chunk>
   <chunk x="16" y="16" width="16" height="16">
491,491,491,491,491,491,491,491,491,491,491,491,491,491,491,491,
491,491,491,491,491,491,491,491,491,491,491,491,491,491,491,491,
491,491,491,491,491,491,491,491,491,491,491,491,491,491,491,491,
491,491,491,491,491,491,491,491,491,491,491,491,491,491,491,491,
491,491,491,491,491,491,491,491,491,491,491,491,491,491,491,491,
491,491,491,491,491,491,491,491,491,491,491,491,491,491,491,491,
491,491,491,491,491,491,491,491,491,491,491,491,491,491,491,491,
491,491,491,491,491,491,491,491,491,491,491,491,491,491,491,491,
491,491,491,491,491,491,491,491,491,491,491,491,491,491,491,491,
491,491,491,491,491,491,491,491,491,491,491,491,491,491,491,491,
491,491,491,491,491,491,491,491,491,491,491,491,491,491,491,491,
491,491,491,491,491,491,491,491,491,491,491,491,491,491,491,491,
491,491,491,491,491,491,491,491,491,491,491,491,491,491,491,491,
491,491,491,491,491,491,491,491,491,491,491,491,491,491,491,491,
491,491,491,491,491,491,491,491,491,491,491,491,491,491,491,491,
491,491,491,491,491,491,491,491,491,491,491,491,491,491,491,491
</chunk>
   <chunk x="32" y="16" width="16" height="16">
491,491,491,491,491,491,491,491,491,491,491,491,491,491,491,491,
491,491,491,491,491,491,491,491,491,491,491,491,491,491,491,491,
491,491,491,491,491,491,491,491,491,491,491,491,491,491,491,491,
491,491,491,491,491,491,491,491,491,491,491,491,491,491,491,491,
491,491,491,491,491,491,491,491,491,491,491,491,491,491,491,491,
491,491,491,491,491,491,491,491,491,491,491,491,491,491,491,491,
491,491,491,491,491,491,491,491,491,491,491,491,491,491,491,491,
491,491,491,491,491,491,491,491,491,491,491,491,491,491,491,491,
491,491,491,491,491,491,491,491,491,491,491,491,491,491,491,491,
491,491,491,491,491,491,491,491,491,491,491,491,491,491,491,491,
491,491,491,491,491,491,491,491,491,491,491,491,491,491,491,491,
491,491,491,491,491,491,491,491,491,491,491,491,491,491,491,491,
491,491,491,491,491,491,491,491,491,491,491,491,491,491,491,491,
491,491,491,491,491,491,491,491,491,491,491,491,491,491,491,491,
491,491,491,491,491,491,491,491,491,491,491,491,491,491,491,491,
491,491,491,491,491,491,491,491,491,491,491,491,491,491,491,491
</chunk>
   <chunk x="-112" y="32" width="16" height="16">
491,491,491,491,491,491,491,491,491,491,491,491,491,491,491,491,
491,491,491,491,491,491,491,491,491,491,491,491,491,491,491,491,
491,491,491,491,491,491,491,491,491,491,491,491,491,491,491,491,
491,491,491,491,491,491,491,491,491,491,491,491,491,491,491,491,
491,491,491,491,491,491,491,491,491,491,491,491,491,491,491,491,
491,491,491,491,491,491,491,491,491,491,491,491,491,491,491,491,
491,491,491,491,491,491,491,491,491,491,491,491,491,491,491,491,
491,491,491,491,491,491,491,491,491,491,491,491,491,491,491,491,
491,491,491,491,491,491,491,491,491,491,491,491,491,491,491,491,
491,491,491,491,491,491,491,491,491,491,491,491,491,491,491,491,
491,491,491,491,491,491,491,491,491,491,491,491,491,491,491,491,
491,491,491,491,491,491,491,491,491,491,491,491,491,491,491,491,
491,491,491,491,491,491,491,491,491,491,491,491,491,491,491,491,
491,491,491,491,491,491,491,491,491,491,491,491,491,491,491,491,
491,491,491,491,491,491,491,491,491,491,491,491,491,491,491,491,
491,491,491,491,491,491,491,491,491,491,491,491,491,491,491,491
</chunk>
   <chunk x="-96" y="32" width="16" height="16">
491,491,491,491,491,491,491,491,491,491,491,491,491,491,491,491,
491,491,491,491,491,491,491,491,491,491,491,491,491,491,491,491,
491,491,491,491,491,491,491,491,491,491,491,491,491,491,491,491,
491,491,491,491,491,491,491,491,491,491,491,491,491,491,491,491,
491,491,491,491,491,491,491,491,491,491,491,491,491,491,491,491,
491,491,491,491,491,491,491,491,491,491,491,491,491,491,491,491,
491,491,491,491,491,491,491,491,491,491,491,491,491,491,491,491,
491,491,491,491,491,491,491,491,491,491,491,491,491,491,491,491,
491,491,491,491,491,491,491,491,491,491,491,491,491,491,491,491,
491,491,491,491,491,491,491,491,491,491,491,491,491,491,491,491,
491,491,491,491,491,491,491,491,491,491,491,491,491,491,491,491,
491,491,491,491,491,491,491,491,491,491,491,491,491,491,491,491,
491,491,491,491,491,491,491,491,491,491,491,491,491,491,491,491,
491,491,491,491,491,491,491,491,491,491,491,491,491,491,491,491,
491,491,491,491,491,491,491,491,491,491,491,491,491,491,491,491,
491,491,491,491,491,491,491,491,491,491,491,491,491,491,491,491
</chunk>
   <chunk x="-80" y="32" width="16" height="16">
491,491,491,491,491,491,491,491,491,491,491,491,491,491,491,491,
491,491,491,491,491,491,491,491,491,491,491,491,491,491,491,491,
491,491,491,491,491,491,491,491,491,491,491,491,491,491,491,491,
491,491,491,491,491,491,491,491,491,491,491,491,491,491,491,491,
491,491,491,491,491,491,491,491,491,491,491,491,491,491,491,491,
491,491,491,491,491,491,491,491,491,491,491,491,491,491,491,491,
491,491,491,491,491,491,491,491,491,491,491,491,491,491,491,491,
491,491,491,491,491,491,491,491,491,491,491,491,491,491,491,491,
491,491,491,491,491,491,491,491,491,491,491,491,491,491,491,491,
491,491,491,491,491,491,491,491,491,491,491,491,491,491,491,491,
491,491,491,491,491,491,491,491,491,491,491,491,491,491,491,491,
491,491,491,491,491,491,491,491,491,491,491,491,491,491,491,491,
491,491,491,491,491,491,491,491,491,491,491,491,491,491,491,491,
491,491,491,491,491,491,491,491,491,491,491,491,491,491,491,491,
491,491,491,491,491,491,491,491,491,491,491,491,491,491,491,491,
491,491,491,491,491,491,491,491,491,491,491,491,491,491,491,491
</chunk>
   <chunk x="-64" y="32" width="16" height="16">
491,491,491,491,491,491,491,491,491,491,491,491,491,491,491,491,
491,491,491,491,491,491,491,491,491,491,491,491,491,491,491,491,
491,491,491,491,491,491,491,491,491,491,491,491,491,491,491,491,
491,491,491,491,491,491,491,491,491,491,491,491,491,491,491,491,
491,491,491,491,491,491,491,491,491,491,491,491,491,491,491,491,
491,491,491,491,491,491,491,491,491,491,491,491,491,491,491,491,
491,491,491,491,491,491,491,491,491,491,491,491,491,491,491,491,
491,491,491,491,491,491,491,491,491,491,491,491,491,491,491,491,
491,491,491,491,491,491,491,491,491,491,491,491,491,491,491,491,
491,491,491,491,491,491,491,491,491,491,491,491,491,491,491,491,
491,491,491,491,491,491,491,491,491,491,491,491,491,491,491,491,
491,491,491,491,491,491,491,491,491,491,491,491,491,491,491,491,
491,491,491,491,491,491,491,491,491,491,491,491,491,491,491,491,
491,491,491,491,491,491,491,491,491,491,491,491,491,491,491,491,
491,491,491,491,491,491,491,491,491,491,491,491,491,491,491,491,
491,491,491,491,491,491,491,491,491,491,491,491,491,491,491,491
</chunk>
   <chunk x="-48" y="32" width="16" height="16">
491,491,491,491,491,491,491,491,491,491,491,491,491,491,491,491,
491,491,491,491,491,491,491,491,491,491,491,491,491,491,491,491,
491,491,491,491,491,491,491,491,491,491,491,491,491,491,491,491,
491,491,491,491,491,491,491,491,491,491,491,491,491,491,491,491,
491,491,491,491,491,491,491,491,491,491,491,491,491,491,491,491,
491,491,491,491,491,491,491,491,491,491,491,491,491,491,491,491,
491,491,491,491,491,491,491,491,491,491,491,491,491,491,491,491,
491,491,491,491,491,491,491,491,491,491,491,491,491,491,491,491,
491,491,491,491,491,491,491,491,491,491,491,491,491,491,491,491,
491,491,491,491,491,491,491,491,491,491,491,491,491,491,491,491,
491,491,491,491,491,491,491,491,491,491,491,491,491,491,491,491,
491,491,491,491,491,491,491,491,491,491,491,491,491,491,491,491,
491,491,491,491,491,491,491,491,491,491,491,491,491,491,491,491,
491,491,491,491,491,491,491,491,491,491,491,491,491,491,491,491,
491,491,491,491,491,491,491,491,491,491,491,491,491,491,491,491,
491,491,491,491,491,491,491,491,491,491,491,491,491,491,491,491
</chunk>
   <chunk x="-32" y="32" width="16" height="16">
491,491,491,491,491,491,491,491,491,491,491,491,491,491,491,491,
491,491,491,491,491,491,491,491,491,491,491,491,491,491,491,491,
491,491,491,491,491,491,491,491,491,491,491,491,491,491,491,491,
491,491,491,491,491,491,491,491,491,491,491,491,491,491,491,491,
491,491,491,491,491,491,491,491,491,491,491,491,491,491,491,491,
491,491,491,491,491,491,491,491,491,491,491,491,491,491,491,491,
491,491,491,491,491,491,491,491,491,491,491,491,491,491,491,491,
491,491,491,491,491,491,491,491,491,491,491,491,491,491,491,491,
491,491,491,491,491,491,491,491,491,491,491,491,491,491,491,491,
491,491,491,491,491,491,491,491,491,491,491,491,491,491,491,491,
491,491,491,491,491,491,491,491,491,491,491,491,491,491,491,491,
491,491,491,491,491,491,491,491,491,491,491,491,491,491,491,491,
491,491,491,491,491,491,491,491,491,491,491,491,491,491,491,491,
491,491,491,491,491,491,491,491,491,491,491,491,491,491,491,491,
491,491,491,491,491,491,491,491,491,491,491,491,491,491,491,491,
491,491,491,491,491,491,491,491,491,491,491,491,491,491,491,491
</chunk>
   <chunk x="-16" y="32" width="16" height="16">
491,491,491,491,491,491,491,491,491,491,491,491,491,491,491,491,
491,491,491,491,491,491,491,491,491,491,491,491,491,491,491,491,
491,491,491,491,491,491,491,491,491,491,491,491,491,491,491,491,
491,491,491,491,491,491,491,491,491,491,491,491,491,491,491,491,
491,491,491,491,491,491,491,491,491,491,491,491,491,491,491,491,
491,491,491,491,491,491,491,491,491,491,491,491,491,491,491,491,
491,491,491,491,491,491,491,491,491,491,491,491,491,491,491,491,
491,491,491,491,491,491,491,491,491,491,491,491,491,491,491,491,
491,491,491,491,491,491,491,491,491,491,491,491,491,491,491,491,
491,491,491,491,491,491,491,491,491,491,491,491,491,491,491,491,
491,491,491,491,491,491,491,491,491,491,491,491,491,491,491,491,
491,491,491,491,491,491,491,491,491,491,491,491,491,491,491,491,
491,491,491,491,491,491,491,491,491,491,491,491,491,491,491,491,
491,491,491,491,491,491,491,491,491,491,491,491,491,491,491,491,
491,491,491,491,491,491,491,491,491,491,491,491,491,491,491,491,
491,491,491,491,491,491,491,491,491,491,491,491,491,491,491,491
</chunk>
   <chunk x="0" y="32" width="16" height="16">
491,491,491,491,491,491,491,491,491,491,491,491,491,491,491,491,
491,491,491,491,491,491,491,491,491,491,491,491,491,491,491,491,
491,491,491,491,491,491,491,491,491,491,491,491,491,491,491,491,
491,491,491,491,491,491,491,491,491,491,491,491,491,491,491,491,
491,491,491,491,491,491,491,491,491,491,491,491,491,491,491,491,
491,491,491,491,491,491,491,491,491,491,491,491,491,491,491,491,
491,491,491,491,491,491,491,491,491,491,491,491,491,491,491,491,
491,491,491,491,491,491,491,491,491,491,491,491,491,491,491,491,
491,491,491,491,491,491,491,491,491,491,491,491,491,491,491,491,
491,491,491,491,491,491,491,491,491,491,491,491,491,491,491,491,
491,491,491,491,491,491,491,491,491,491,491,491,491,491,491,491,
491,491,491,491,491,491,491,491,491,491,491,491,491,491,491,491,
491,491,491,491,491,491,491,491,491,491,491,491,491,491,491,491,
491,491,491,491,491,491,491,491,491,491,491,491,491,491,491,491,
491,491,491,491,491,491,491,491,491,491,491,491,491,491,491,491,
491,491,491,491,491,491,491,491,491,491,491,491,491,491,491,491
</chunk>
   <chunk x="16" y="32" width="16" height="16">
491,491,491,491,491,491,491,491,491,491,491,491,491,491,491,491,
491,491,491,491,491,491,491,491,491,491,491,491,491,491,491,491,
491,491,491,491,491,491,491,491,491,491,491,491,491,491,491,491,
491,491,491,491,491,491,491,491,491,491,491,491,491,491,491,491,
491,491,491,491,491,491,491,491,491,491,491,491,491,491,491,491,
491,491,491,491,491,491,491,491,491,491,491,491,491,491,491,491,
491,491,491,491,491,491,491,491,491,491,491,491,491,491,491,491,
491,491,491,491,491,491,491,491,491,491,491,491,491,491,491,491,
491,491,491,491,491,491,491,491,491,491,491,491,491,491,491,491,
491,491,491,491,491,491,491,491,491,491,491,491,491,491,491,491,
491,491,491,491,491,491,491,491,491,491,491,491,491,491,491,491,
491,491,491,491,491,491,491,491,491,491,491,491,491,491,491,491,
491,491,491,491,491,491,491,491,491,491,491,491,491,491,491,491,
491,491,491,491,491,491,491,491,491,491,491,491,491,491,491,491,
491,491,491,491,491,491,491,491,491,491,491,491,491,491,491,491,
491,491,491,491,491,491,491,491,491,491,491,491,491,491,491,491
</chunk>
   <chunk x="32" y="32" width="16" height="16">
491,491,491,491,491,491,491,491,491,491,491,491,491,491,491,491,
491,491,491,491,491,491,491,491,491,491,491,491,491,491,491,491,
491,491,491,491,491,491,491,491,491,491,491,491,491,491,491,491,
491,491,491,491,491,491,491,491,491,491,491,491,491,491,491,491,
491,491,491,491,491,491,491,491,491,491,491,491,491,491,491,491,
491,491,491,491,491,491,491,491,491,491,491,491,491,491,491,491,
491,491,491,491,491,491,491,491,491,491,491,491,491,491,491,491,
491,491,491,491,491,491,491,491,491,491,491,491,491,491,491,491,
491,491,491,491,491,491,491,491,491,491,491,491,491,491,491,491,
491,491,491,491,491,491,491,491,491,491,491,491,491,491,491,491,
491,491,491,491,491,491,491,491,491,491,491,491,491,491,491,491,
491,491,491,491,491,491,491,491,491,491,491,491,491,491,491,491,
491,491,491,491,491,491,491,491,491,491,491,491,491,491,491,491,
491,491,491,491,491,491,491,491,491,491,491,491,491,491,491,491,
491,491,491,491,491,491,491,491,491,491,491,491,491,491,491,491,
491,491,491,491,491,491,491,491,491,491,491,491,491,491,491,491
</chunk>
   <chunk x="-112" y="48" width="16" height="16">
491,491,491,491,491,491,491,491,491,491,491,491,491,491,491,491,
491,491,491,491,491,491,491,491,491,491,491,491,491,491,491,491,
491,491,491,491,491,491,491,491,491,491,491,491,491,491,491,491,
491,491,491,491,491,491,491,491,491,491,491,491,491,491,491,491,
491,491,491,491,491,491,491,491,491,491,491,491,491,491,491,491,
491,491,491,491,491,491,491,491,491,491,491,491,491,491,491,491,
491,491,491,491,491,491,491,491,491,491,491,491,491,491,491,491,
491,491,491,491,491,491,491,491,491,491,491,491,491,491,491,491,
491,491,491,491,491,491,491,491,491,491,491,491,491,491,491,491,
491,491,491,491,491,491,491,491,491,491,491,491,491,491,491,491,
491,491,491,491,491,491,491,491,491,491,491,491,491,491,491,491,
491,491,491,491,491,491,491,491,491,491,491,491,491,491,491,491,
491,491,491,491,491,491,491,491,491,491,491,491,491,491,491,491,
491,491,491,491,491,491,491,491,491,491,491,491,491,491,491,491,
491,491,491,491,491,491,491,491,491,491,491,491,491,491,491,491,
491,491,491,491,491,491,491,491,491,491,491,491,491,491,491,491
</chunk>
   <chunk x="-96" y="48" width="16" height="16">
491,491,491,491,491,491,491,491,491,491,491,491,491,491,491,491,
491,491,491,491,491,491,491,491,491,491,491,491,491,491,491,491,
491,491,491,491,491,491,491,491,491,491,491,491,491,491,491,491,
491,491,491,491,491,491,491,491,491,491,491,491,491,491,491,491,
491,491,491,491,491,491,491,491,491,491,491,491,491,491,491,491,
491,491,491,491,491,491,491,491,491,491,491,491,491,491,491,491,
491,491,491,491,491,491,491,491,491,491,491,491,491,491,491,491,
491,491,491,491,491,491,491,491,491,491,491,491,491,491,491,491,
491,491,491,491,491,491,491,491,491,491,491,491,491,491,491,491,
491,491,491,491,491,491,491,491,491,491,491,491,491,491,491,491,
491,491,491,491,491,491,491,491,491,491,491,491,491,491,491,491,
491,491,491,491,491,491,491,491,491,491,491,491,491,491,491,491,
491,491,491,491,491,491,491,491,491,491,491,491,491,491,491,491,
491,491,491,491,491,491,491,491,491,491,491,491,491,491,491,491,
491,491,491,491,491,491,491,491,491,491,491,491,491,491,491,491,
491,491,491,491,491,491,491,491,491,491,491,491,491,491,491,491
</chunk>
   <chunk x="-80" y="48" width="16" height="16">
491,491,491,491,491,491,491,491,491,491,491,491,491,491,491,491,
491,491,491,491,491,491,491,491,491,491,491,491,491,491,491,491,
491,491,491,491,491,491,491,491,491,491,491,491,491,491,491,491,
491,491,491,491,491,491,491,491,491,491,491,491,491,491,491,491,
491,491,491,491,491,491,491,491,491,491,491,491,491,491,491,491,
491,491,491,491,491,491,491,491,491,491,491,491,491,491,491,491,
491,491,491,491,491,491,491,491,491,491,491,491,491,491,491,491,
491,491,491,491,491,491,491,491,491,491,491,491,491,491,491,491,
491,491,491,491,491,491,491,491,491,491,491,491,491,491,491,491,
491,491,491,491,491,491,491,491,491,491,491,491,491,491,491,491,
491,491,491,491,491,491,491,491,491,491,491,491,491,491,491,491,
491,491,491,491,491,491,491,491,491,491,491,491,491,491,491,491,
491,491,491,491,491,491,491,491,491,491,491,491,491,491,491,491,
491,491,491,491,491,491,491,491,491,491,491,491,491,491,491,491,
491,491,491,491,491,491,491,491,491,491,491,491,491,491,491,491,
491,491,491,491,491,491,491,491,491,491,491,491,491,491,491,491
</chunk>
   <chunk x="-64" y="48" width="16" height="16">
491,491,491,491,491,491,491,491,491,491,491,491,491,491,491,491,
491,491,491,491,491,491,491,491,491,491,491,491,491,491,491,491,
491,491,491,491,491,491,491,491,491,491,491,491,491,491,491,491,
491,491,491,491,491,491,491,491,491,491,491,491,491,491,491,491,
491,491,491,491,491,491,491,491,491,491,491,491,491,491,491,491,
491,491,491,491,491,491,491,491,491,491,491,491,491,491,491,491,
491,491,491,491,491,491,491,491,491,491,491,491,491,491,491,491,
491,491,491,491,491,491,491,491,491,491,491,491,491,491,491,491,
491,491,491,491,491,491,491,491,491,491,491,491,491,491,491,491,
491,491,491,491,491,491,491,491,491,491,491,491,491,491,491,491,
491,491,491,491,491,491,491,491,491,491,491,491,491,491,491,491,
491,491,491,491,491,491,491,491,491,491,491,491,491,491,491,491,
491,491,491,491,491,491,491,491,491,491,491,491,491,491,491,491,
491,491,491,491,491,491,491,491,491,491,491,491,491,491,491,491,
491,491,491,491,491,491,491,491,491,491,491,491,491,491,491,491,
491,491,491,491,491,491,491,491,491,491,491,491,491,491,491,491
</chunk>
   <chunk x="-48" y="48" width="16" height="16">
491,491,491,491,491,491,491,491,491,491,491,491,491,491,491,491,
491,491,491,491,491,491,491,491,491,491,491,491,491,491,491,491,
491,491,491,491,491,491,491,491,491,491,491,491,491,491,491,491,
491,491,491,491,491,491,491,491,491,491,491,491,491,491,491,491,
491,491,491,491,491,491,491,491,491,491,491,491,491,491,491,491,
491,491,491,491,491,491,491,491,491,491,491,491,491,491,491,491,
491,491,491,491,491,491,491,491,491,491,491,491,491,491,491,491,
491,491,491,491,491,491,491,491,491,491,491,491,491,491,491,491,
491,491,491,491,491,491,491,491,491,491,491,491,491,491,491,491,
491,491,491,491,491,491,491,491,491,491,491,491,491,491,491,491,
491,491,491,491,491,491,491,491,491,491,491,491,491,491,491,491,
491,491,491,491,491,491,491,491,491,491,491,491,491,491,491,491,
491,491,491,491,491,491,491,491,491,491,491,491,491,491,491,491,
491,491,491,491,491,491,491,491,491,491,491,491,491,491,491,491,
491,491,491,491,491,491,491,491,491,491,491,491,491,491,491,491,
491,491,491,491,491,491,491,491,491,491,491,491,491,491,491,491
</chunk>
   <chunk x="-32" y="48" width="16" height="16">
491,491,491,491,491,491,491,491,491,491,491,491,491,491,491,491,
491,491,491,491,491,491,491,491,491,491,491,491,491,491,491,491,
491,491,491,491,491,491,491,491,491,491,491,491,491,491,491,491,
491,491,491,491,491,491,491,491,491,491,491,491,491,491,491,491,
491,491,491,491,491,491,491,491,491,491,491,491,491,491,491,491,
491,491,491,491,491,491,491,491,491,491,491,491,491,491,491,491,
491,491,491,491,491,491,491,491,491,491,491,491,491,491,491,491,
491,491,491,491,491,491,491,491,491,491,491,491,491,491,491,491,
491,491,491,491,491,491,491,491,491,491,491,491,491,491,491,491,
491,491,491,491,491,491,491,491,491,491,491,491,491,491,491,491,
491,491,491,491,491,491,491,491,491,491,491,491,491,491,491,491,
491,491,491,491,491,491,491,491,491,491,491,491,491,491,491,491,
491,491,491,491,491,491,491,491,491,491,491,491,491,491,491,491,
491,491,491,491,491,491,491,491,491,491,491,491,491,491,491,491,
491,491,491,491,491,491,491,491,491,491,491,491,491,491,491,491,
491,491,491,491,491,491,491,491,491,491,491,491,491,491,491,491
</chunk>
   <chunk x="-16" y="48" width="16" height="16">
491,491,491,491,491,491,491,491,491,491,491,491,491,491,491,491,
491,491,491,491,491,491,491,491,491,491,491,491,491,491,491,491,
491,491,491,491,491,491,491,491,491,491,491,491,491,491,491,491,
491,491,491,491,491,491,491,491,491,491,491,491,491,491,491,491,
491,491,491,491,491,491,491,491,491,491,491,491,491,491,491,491,
491,491,491,491,491,491,491,491,491,491,491,491,491,491,491,491,
491,491,491,491,491,491,491,491,491,491,491,491,491,491,491,491,
491,491,491,491,491,491,491,491,491,491,491,491,491,491,491,491,
491,491,491,491,491,491,491,491,491,491,491,491,491,491,491,491,
491,491,491,491,491,491,491,491,491,491,491,491,491,491,491,491,
491,491,491,491,491,491,491,491,491,491,491,491,491,491,491,491,
491,491,491,491,491,491,491,491,491,491,491,491,491,491,491,491,
491,491,491,491,491,491,491,491,491,491,491,491,491,491,491,491,
491,491,491,491,491,491,491,491,491,491,491,491,491,491,491,491,
491,491,491,491,491,491,491,491,491,491,491,491,491,491,491,491,
491,491,491,491,491,491,491,491,491,491,491,491,491,491,491,491
</chunk>
   <chunk x="0" y="48" width="16" height="16">
491,491,491,491,491,491,491,491,491,491,491,491,491,491,491,491,
491,491,491,491,491,491,491,491,491,491,491,491,491,491,491,491,
491,491,491,491,491,491,491,491,491,491,491,491,491,491,491,491,
491,491,491,491,491,491,491,491,491,491,491,491,491,491,491,491,
491,491,491,491,491,491,491,491,491,491,491,491,491,491,491,491,
491,491,491,491,491,491,491,491,491,491,491,491,491,491,491,491,
491,491,491,491,491,491,491,491,491,491,491,491,491,491,491,491,
491,491,491,491,491,491,491,491,491,491,491,491,491,491,491,491,
491,491,491,491,491,491,491,491,491,491,491,491,491,491,491,491,
491,491,491,491,491,491,491,491,491,491,491,491,491,491,491,491,
491,491,491,491,491,491,491,491,491,491,491,491,491,491,491,491,
491,491,491,491,491,491,491,491,491,491,491,491,491,491,491,491,
491,491,491,491,491,491,491,491,491,491,491,491,491,491,491,491,
491,491,491,491,491,491,491,491,491,491,491,491,491,491,491,491,
491,491,491,491,491,491,491,491,491,491,491,491,491,491,491,491,
491,491,491,491,491,491,491,491,491,491,491,491,491,491,491,491
</chunk>
   <chunk x="16" y="48" width="16" height="16">
491,491,491,491,491,491,491,491,491,491,491,491,491,491,491,491,
491,491,491,491,491,491,491,491,491,491,491,491,491,491,491,491,
491,491,491,491,491,491,491,491,491,491,491,491,491,491,491,491,
491,491,491,491,491,491,491,491,491,491,491,491,491,491,491,491,
491,491,491,491,491,491,491,491,491,491,491,491,491,491,491,491,
491,491,491,491,491,491,491,491,491,491,491,491,491,491,491,491,
491,491,491,491,491,491,491,491,491,491,491,491,491,491,491,491,
491,491,491,491,491,491,491,491,491,491,491,491,491,491,491,491,
491,491,491,491,491,491,491,491,491,491,491,491,491,491,491,491,
491,491,491,491,491,491,491,491,491,491,491,491,491,491,491,491,
491,491,491,491,491,491,491,491,491,491,491,491,491,491,491,491,
491,491,491,491,491,491,491,491,491,491,491,491,491,491,491,491,
491,491,491,491,491,491,491,491,491,491,491,491,491,491,491,491,
491,491,491,491,491,491,491,491,491,491,491,491,491,491,491,491,
491,491,491,491,491,491,491,491,491,491,491,491,491,491,491,491,
491,491,491,491,491,491,491,491,491,491,491,491,491,491,491,491
</chunk>
   <chunk x="32" y="48" width="16" height="16">
491,491,491,491,491,491,491,491,491,491,491,491,491,491,491,491,
491,491,491,491,491,491,491,491,491,491,491,491,491,491,491,491,
491,491,491,491,491,491,491,491,491,491,491,491,491,491,491,491,
491,491,491,491,491,491,491,491,491,491,491,491,491,491,491,491,
491,491,491,491,491,491,491,491,491,491,491,491,491,491,491,491,
491,491,491,491,491,491,491,491,491,491,491,491,491,491,491,491,
491,491,491,491,491,491,491,491,491,491,491,491,491,491,491,491,
491,491,491,491,491,491,491,491,491,491,491,491,491,491,491,491,
491,491,491,491,491,491,491,491,491,491,491,491,491,491,491,491,
491,491,491,491,491,491,491,491,491,491,491,491,491,491,491,491,
491,491,491,491,491,491,491,491,491,491,491,491,491,491,491,491,
491,491,491,491,491,491,491,491,491,491,491,491,491,491,491,491,
491,491,491,491,491,491,491,491,491,491,491,491,491,491,491,491,
491,491,491,491,491,491,491,491,491,491,491,491,491,491,491,491,
491,491,491,491,491,491,491,491,491,491,491,491,491,491,491,491,
491,491,491,491,491,491,491,491,491,491,491,491,491,491,491,491
</chunk>
   <chunk x="-112" y="64" width="16" height="16">
491,491,491,491,491,491,491,491,491,491,491,491,491,491,491,491,
491,491,491,491,491,491,491,491,491,491,491,491,491,491,491,491,
491,491,491,491,491,491,491,491,491,491,491,491,491,491,491,491,
491,491,491,491,491,491,491,491,491,491,491,491,491,491,491,491,
491,491,491,491,491,491,491,491,491,491,491,491,491,491,491,491,
491,491,491,491,491,491,491,491,491,491,491,491,491,491,491,491,
491,491,491,491,491,491,491,491,491,491,491,491,491,491,491,491,
491,491,491,491,491,491,491,491,491,491,491,491,491,491,491,491,
491,491,491,491,491,491,491,491,491,491,491,491,491,491,491,491,
491,491,491,491,491,491,491,491,491,491,491,491,491,491,491,491,
491,491,491,491,491,491,491,491,491,491,491,491,491,491,491,491,
491,491,491,491,491,491,491,491,491,491,491,491,491,491,491,491,
491,491,491,491,491,491,491,491,491,491,491,491,491,491,491,491,
491,491,491,491,491,491,491,491,491,491,491,491,491,491,491,491,
491,491,491,491,491,491,491,491,491,491,491,491,491,491,491,491,
491,491,491,491,491,491,491,491,491,491,491,491,491,491,491,491
</chunk>
   <chunk x="-96" y="64" width="16" height="16">
491,491,491,491,491,491,491,491,491,491,491,491,491,491,491,491,
491,491,491,491,491,491,491,491,491,491,491,491,491,491,491,491,
491,491,491,491,491,491,491,491,491,491,491,491,491,491,491,491,
491,491,491,491,491,491,491,491,491,491,491,491,491,491,491,491,
491,491,491,491,491,491,491,491,491,491,491,491,491,491,491,491,
491,491,491,491,491,491,491,491,491,491,491,491,491,491,491,491,
491,491,491,491,491,491,491,491,491,491,491,491,491,491,491,491,
491,491,491,491,491,491,491,491,491,491,491,491,491,491,491,491,
491,491,491,491,491,491,491,491,491,491,491,491,491,491,491,491,
491,491,491,491,491,491,491,491,491,491,491,491,491,491,491,491,
491,491,491,491,491,491,491,491,491,491,491,491,491,491,491,491,
491,491,491,491,491,491,491,491,491,491,491,491,491,491,491,491,
491,491,491,491,491,491,491,491,491,491,491,491,491,491,491,491,
491,491,491,491,491,491,491,491,491,491,491,491,491,491,491,491,
491,491,491,491,491,491,491,491,491,491,491,491,491,491,491,491,
491,491,491,491,491,491,491,491,491,491,491,491,491,491,491,491
</chunk>
   <chunk x="-80" y="64" width="16" height="16">
491,491,491,491,491,491,491,491,491,491,491,491,491,491,491,491,
491,491,491,491,491,491,491,491,491,491,491,491,491,491,491,491,
491,491,491,491,491,491,491,491,491,491,491,491,491,491,491,491,
491,491,491,491,491,491,491,491,491,491,491,491,491,491,491,491,
491,491,491,491,491,491,491,491,491,491,491,491,491,491,491,491,
491,491,491,491,491,491,491,491,491,491,491,491,491,491,491,491,
491,491,491,491,491,491,491,491,491,491,491,491,491,491,491,491,
491,491,491,491,491,491,491,491,491,491,491,491,491,491,491,491,
491,491,491,491,491,491,491,491,491,491,491,491,491,491,491,491,
491,491,491,491,491,491,491,491,491,491,491,491,491,491,491,491,
491,491,491,491,491,491,491,491,491,491,491,491,491,491,491,491,
491,491,491,491,491,491,491,491,491,491,491,491,491,491,491,491,
491,491,491,491,491,491,491,491,491,491,491,491,491,491,491,491,
491,491,491,491,491,491,491,491,491,491,491,491,491,491,491,491,
491,491,491,491,491,491,491,491,491,491,491,491,491,491,491,491,
491,491,491,491,491,491,491,491,491,491,491,491,491,491,491,491
</chunk>
   <chunk x="-64" y="64" width="16" height="16">
491,491,491,491,491,491,491,491,491,491,491,491,491,491,491,491,
491,491,491,491,491,491,491,491,491,491,491,491,491,491,491,491,
491,491,491,491,491,491,491,491,491,491,491,491,491,491,491,491,
491,491,491,491,491,491,491,491,491,491,491,491,491,491,491,491,
491,491,491,491,491,491,491,491,491,491,491,491,491,491,491,491,
491,491,491,491,491,491,491,491,491,491,491,491,491,491,491,491,
491,491,491,491,491,491,491,491,491,491,491,491,491,491,491,491,
491,491,491,491,491,491,491,491,491,491,491,491,491,491,491,491,
491,491,491,491,491,491,491,491,491,491,491,491,491,491,491,491,
491,491,491,491,491,491,491,491,491,491,491,491,491,491,491,491,
491,491,491,491,491,491,491,491,491,491,491,491,491,491,491,491,
491,491,491,491,491,491,491,491,491,491,491,491,491,491,491,491,
491,491,491,491,491,491,491,491,491,491,491,491,491,491,491,491,
491,491,491,491,491,491,491,491,491,491,491,491,491,491,491,491,
491,491,491,491,491,491,491,491,491,491,491,491,491,491,491,491,
491,491,491,491,491,491,491,491,491,491,491,491,491,491,491,491
</chunk>
   <chunk x="-48" y="64" width="16" height="16">
491,491,491,491,491,491,491,491,491,491,491,491,491,491,491,491,
491,491,491,491,491,491,491,491,491,491,491,491,491,491,491,491,
491,491,491,491,491,491,491,491,491,491,491,491,491,491,491,491,
491,491,491,491,491,491,491,491,491,491,491,491,491,491,491,491,
491,491,491,491,491,491,491,491,491,491,491,491,491,491,491,491,
491,491,491,491,491,491,491,491,491,491,491,491,491,491,491,491,
491,491,491,491,491,491,491,491,491,491,491,491,491,491,491,491,
491,491,491,491,491,491,491,491,491,491,491,491,491,491,491,491,
491,491,491,491,491,491,491,491,491,491,491,491,491,491,491,491,
491,491,491,491,491,491,491,491,491,491,491,491,491,491,491,491,
491,491,491,491,491,491,491,491,491,491,491,491,491,491,491,491,
491,491,491,491,491,491,491,491,491,491,491,491,491,491,491,491,
491,491,491,491,491,491,491,491,491,491,491,491,491,491,491,491,
491,491,491,491,491,491,491,491,491,491,491,491,491,491,491,491,
491,491,491,491,491,491,491,491,491,491,491,491,491,491,491,491,
491,491,491,491,491,491,491,491,491,491,491,491,491,491,491,491
</chunk>
   <chunk x="-32" y="64" width="16" height="16">
491,491,491,491,491,491,491,491,491,491,491,491,491,491,491,491,
491,491,491,491,491,491,491,491,491,491,491,491,491,491,491,491,
491,491,491,491,491,491,491,491,491,491,491,491,491,491,491,491,
491,491,491,491,491,491,491,491,491,491,491,491,491,491,491,491,
491,491,491,491,491,491,491,491,491,491,491,491,491,491,491,491,
491,491,491,491,491,491,491,491,491,491,491,491,491,491,491,491,
491,491,491,491,491,491,491,491,491,491,491,491,491,491,491,491,
491,491,491,491,491,491,491,491,491,491,491,491,491,491,491,491,
491,491,491,491,491,491,491,491,491,491,491,491,491,491,491,491,
491,491,491,491,491,491,491,491,491,491,491,491,491,491,491,491,
491,491,491,491,491,491,491,491,491,491,491,491,491,491,491,491,
491,491,491,491,491,491,491,491,491,491,491,491,491,491,491,491,
491,491,491,491,491,491,491,491,491,491,491,491,491,491,491,491,
491,491,491,491,491,491,491,491,491,491,491,491,491,491,491,491,
491,491,491,491,491,491,491,491,491,491,491,491,491,491,491,491,
491,491,491,491,491,491,491,491,491,491,491,491,491,491,491,491
</chunk>
   <chunk x="-16" y="64" width="16" height="16">
491,491,491,491,491,491,491,491,491,491,491,491,491,491,491,491,
491,491,491,491,491,491,491,491,491,491,491,491,491,491,491,491,
491,491,491,491,491,491,491,491,491,491,491,491,491,491,491,491,
491,491,491,491,491,491,491,491,491,491,491,491,491,491,491,491,
491,491,491,491,491,491,491,491,491,491,491,491,491,491,491,491,
491,491,491,491,491,491,491,491,491,491,491,491,491,491,491,491,
491,491,491,491,491,491,491,491,491,491,491,491,491,491,491,491,
491,491,491,491,491,491,491,491,491,491,491,491,491,491,491,491,
491,491,491,491,491,491,491,491,491,491,491,491,491,491,491,491,
491,491,491,491,491,491,491,491,491,491,491,491,491,491,491,491,
491,491,491,491,491,491,491,491,491,491,491,491,491,491,491,491,
491,491,491,491,491,491,491,491,491,491,491,491,491,491,491,491,
491,491,491,491,491,491,491,491,491,491,491,491,491,491,491,491,
491,491,491,491,491,491,491,491,491,491,491,491,491,491,491,491,
491,491,491,491,491,491,491,491,491,491,491,491,491,491,491,491,
491,491,491,491,491,491,491,491,491,491,491,491,491,491,491,491
</chunk>
   <chunk x="0" y="64" width="16" height="16">
491,491,491,491,491,491,491,491,491,491,491,491,491,491,491,491,
491,491,491,491,491,491,491,491,491,491,491,491,491,491,491,491,
491,491,491,491,491,491,491,491,491,491,491,491,491,491,491,491,
491,491,491,491,491,491,491,491,491,491,491,491,491,491,491,491,
491,491,491,491,491,491,491,491,491,491,491,491,491,491,491,491,
491,491,491,491,491,491,491,491,491,491,491,491,491,491,491,491,
491,491,491,491,491,491,491,491,491,491,491,491,491,491,491,491,
491,491,491,491,491,491,491,491,491,491,491,491,491,491,491,491,
491,491,491,491,491,491,491,491,491,491,491,491,491,491,491,491,
491,491,491,491,491,491,491,491,491,491,491,491,491,491,491,491,
491,491,491,491,491,491,491,491,491,491,491,491,491,491,491,491,
491,491,491,491,491,491,491,491,491,491,491,491,491,491,491,491,
491,491,491,491,491,491,491,491,491,491,491,491,491,491,491,491,
491,491,491,491,491,491,491,491,491,491,491,491,491,491,491,491,
491,491,491,491,491,491,491,491,491,491,491,491,491,491,491,491,
491,491,491,491,491,491,491,491,491,491,491,491,491,491,491,491
</chunk>
   <chunk x="16" y="64" width="16" height="16">
491,491,491,491,491,491,491,491,491,491,491,491,491,491,491,491,
491,491,491,491,491,491,491,491,491,491,491,491,491,491,491,491,
491,491,491,491,491,491,491,491,491,491,491,491,491,491,491,491,
491,491,491,491,491,491,491,491,491,491,491,491,491,491,491,491,
491,491,491,491,491,491,491,491,491,491,491,491,491,491,491,491,
491,491,491,491,491,491,491,491,491,491,491,491,491,491,491,491,
491,491,491,491,491,491,491,491,491,491,491,491,491,491,491,491,
491,491,491,491,491,491,491,491,491,491,491,491,491,491,491,491,
491,491,491,491,491,491,491,491,491,491,491,491,491,491,491,491,
491,491,491,491,491,491,491,491,491,491,491,491,491,491,491,491,
491,491,491,491,491,491,491,491,491,491,491,491,491,491,491,491,
491,491,491,491,491,491,491,491,491,491,491,491,491,491,491,491,
491,491,491,491,491,491,491,491,491,491,491,491,491,491,491,491,
491,491,491,491,491,491,491,491,491,491,491,491,491,491,491,491,
491,491,491,491,491,491,491,491,491,491,491,491,491,491,491,491,
491,491,491,491,491,491,491,491,491,491,491,491,491,491,491,491
</chunk>
   <chunk x="32" y="64" width="16" height="16">
491,491,491,491,491,491,491,491,491,491,491,491,491,491,491,491,
491,491,491,491,491,491,491,491,491,491,491,491,491,491,491,491,
491,491,491,491,491,491,491,491,491,491,491,491,491,491,491,491,
491,491,491,491,491,491,491,491,491,491,491,491,491,491,491,491,
491,491,491,491,491,491,491,491,491,491,491,491,491,491,491,491,
491,491,491,491,491,491,491,491,491,491,491,491,491,491,491,491,
491,491,491,491,491,491,491,491,491,491,491,491,491,491,491,491,
491,491,491,491,491,491,491,491,491,491,491,491,491,491,491,491,
491,491,491,491,491,491,491,491,491,491,491,491,491,491,491,491,
491,491,491,491,491,491,491,491,491,491,491,491,491,491,491,491,
491,491,491,491,491,491,491,491,491,491,491,491,491,491,491,491,
491,491,491,491,491,491,491,491,491,491,491,491,491,491,491,491,
491,491,491,491,491,491,491,491,491,491,491,491,491,491,491,491,
491,491,491,491,491,491,491,491,491,491,491,491,491,491,491,491,
491,491,491,491,491,491,491,491,491,491,491,491,491,491,491,491,
491,491,491,491,491,491,491,491,491,491,491,491,491,491,491,491
</chunk>
   <chunk x="-112" y="80" width="16" height="16">
491,491,491,491,491,491,491,491,491,491,491,491,491,491,491,491,
491,491,491,491,491,491,491,491,491,491,491,491,491,491,491,491,
491,491,491,491,491,491,491,491,491,491,491,491,491,491,491,491,
491,491,491,491,491,491,491,491,491,491,491,491,491,491,491,491,
491,491,491,491,491,491,491,491,491,491,491,491,491,491,491,491,
491,491,491,491,491,491,491,491,491,491,491,491,491,491,491,491,
491,491,491,491,491,491,491,491,491,491,491,491,491,491,491,491,
491,491,491,491,491,491,491,491,491,491,491,491,491,491,491,491,
491,491,491,491,491,491,491,491,491,491,491,491,491,491,491,491,
491,491,491,491,491,491,491,491,491,491,491,491,491,491,491,491,
491,491,491,491,491,491,491,491,491,491,491,491,491,491,491,491,
491,491,491,491,491,491,491,491,491,491,491,491,491,491,491,491,
491,491,491,491,491,491,491,491,491,491,491,491,491,491,491,491,
491,491,491,491,491,491,491,491,491,491,491,491,491,491,491,491,
491,491,491,491,491,491,491,491,491,491,491,491,491,491,491,491,
491,491,491,491,491,491,491,491,491,491,491,491,491,491,491,491
</chunk>
   <chunk x="-96" y="80" width="16" height="16">
491,491,491,491,491,491,491,491,491,491,491,491,491,491,491,491,
491,491,491,491,491,491,491,491,491,491,491,491,491,491,491,491,
491,491,491,491,491,491,491,491,491,491,491,491,491,491,491,491,
491,491,491,491,491,491,491,491,491,491,491,491,491,491,491,491,
491,491,491,491,491,491,491,491,491,491,491,491,491,491,491,491,
491,491,491,491,491,491,491,491,491,491,491,491,491,491,491,491,
491,491,491,491,491,491,491,491,491,491,491,491,491,491,491,491,
491,491,491,491,491,491,491,491,491,491,491,491,491,491,491,491,
491,491,491,491,491,491,491,491,491,491,491,491,491,491,491,491,
491,491,491,491,491,491,491,491,491,491,491,491,491,491,491,491,
491,491,491,491,491,491,491,491,491,491,491,491,491,491,491,491,
491,491,491,491,491,491,491,491,491,491,491,491,491,491,491,491,
491,491,491,491,491,491,491,491,491,491,491,491,491,491,491,491,
491,491,491,491,491,491,491,491,491,491,491,491,491,491,491,491,
491,491,491,491,491,491,491,491,491,491,491,491,491,491,491,491,
491,491,491,491,491,491,491,491,491,491,491,491,491,491,491,491
</chunk>
   <chunk x="-80" y="80" width="16" height="16">
491,491,491,491,491,491,491,491,491,491,491,491,491,491,491,491,
491,491,491,491,491,491,491,491,491,491,491,491,491,491,491,491,
491,491,491,491,491,491,491,491,491,491,491,491,491,491,491,491,
491,491,491,491,491,491,491,491,491,491,491,491,491,491,491,491,
491,491,491,491,491,491,491,491,491,491,491,491,491,491,491,491,
491,491,491,491,491,491,491,491,491,491,491,491,491,491,491,491,
491,491,491,491,491,491,491,491,491,491,491,491,491,491,491,491,
491,491,491,491,491,491,491,491,491,491,491,491,491,491,491,491,
491,491,491,491,491,491,491,491,491,491,491,491,491,491,491,491,
491,491,491,491,491,491,491,491,491,491,491,491,491,491,491,491,
491,491,491,491,491,491,491,491,491,491,491,491,491,491,491,491,
491,491,491,491,491,491,491,491,491,491,491,491,491,491,491,491,
491,491,491,491,491,491,491,491,491,491,491,491,491,491,491,491,
491,491,491,491,491,491,491,491,491,491,491,491,491,491,491,491,
491,491,491,491,491,491,491,491,491,491,491,491,491,491,491,491,
491,491,491,491,491,491,491,491,491,491,491,491,491,491,491,491
</chunk>
   <chunk x="-64" y="80" width="16" height="16">
491,491,491,491,491,491,491,491,491,491,491,491,491,491,491,491,
491,491,491,491,491,491,491,491,491,491,491,491,491,491,491,491,
491,491,491,491,491,491,491,491,491,491,491,491,491,491,491,491,
491,491,491,491,491,491,491,491,491,491,491,491,491,491,491,491,
491,491,491,491,491,491,491,491,491,491,491,491,491,491,491,491,
491,491,491,491,491,491,491,491,491,491,491,491,491,491,491,491,
491,491,491,491,491,491,491,491,491,491,491,491,491,491,491,491,
491,491,491,491,491,491,491,491,491,491,491,491,491,491,491,491,
491,491,491,491,491,491,491,491,491,491,491,491,491,491,491,491,
491,491,491,491,491,491,491,491,491,491,491,491,491,491,491,491,
491,491,491,491,491,491,491,491,491,491,491,491,491,491,491,491,
491,491,491,491,491,491,491,491,491,491,491,491,491,491,491,491,
491,491,491,491,491,491,491,491,491,491,491,491,491,491,491,491,
491,491,491,491,491,491,491,491,491,491,491,491,491,491,491,491,
491,491,491,491,491,491,491,491,491,491,491,491,491,491,491,491,
491,491,491,491,491,491,491,491,491,491,491,491,491,491,491,491
</chunk>
   <chunk x="-48" y="80" width="16" height="16">
491,491,491,491,491,491,491,491,491,491,491,491,491,491,491,491,
491,491,491,491,491,491,491,491,491,491,491,491,491,491,491,491,
491,491,491,491,491,491,491,491,491,491,491,491,491,491,491,491,
491,491,491,491,491,491,491,491,491,491,491,491,491,491,491,491,
491,491,491,491,491,491,491,491,491,491,491,491,491,491,491,491,
491,491,491,491,491,491,491,491,491,491,491,491,491,491,491,491,
491,491,491,491,491,491,491,491,491,491,491,491,491,491,491,491,
491,491,491,491,491,491,491,491,491,491,491,491,491,491,491,491,
491,491,491,491,491,491,491,491,491,491,491,491,491,491,491,491,
491,491,491,491,491,491,491,491,491,491,491,491,491,491,491,491,
491,491,491,491,491,491,491,491,491,491,491,491,491,491,491,491,
491,491,491,491,491,491,491,491,491,491,491,491,491,491,491,491,
491,491,491,491,491,491,491,491,491,491,491,491,491,491,491,491,
491,491,491,491,491,491,491,491,491,491,491,491,491,491,491,491,
491,491,491,491,491,491,491,491,491,491,491,491,491,491,491,491,
491,491,491,491,491,491,491,491,491,491,491,491,491,491,491,491
</chunk>
   <chunk x="-32" y="80" width="16" height="16">
491,491,491,491,491,491,491,491,491,491,491,491,491,491,491,491,
491,491,491,491,491,491,491,491,491,491,491,491,491,491,491,491,
491,491,491,491,491,491,491,491,491,491,491,491,491,491,491,491,
491,491,491,491,491,491,491,491,491,491,491,491,491,491,491,491,
491,491,491,491,491,491,491,491,491,491,491,491,491,491,491,491,
491,491,491,491,491,491,491,491,491,491,491,491,491,491,491,491,
491,491,491,491,491,491,491,491,491,491,491,491,491,491,491,491,
491,491,491,491,491,491,491,491,491,491,491,491,491,491,491,491,
491,491,491,491,491,491,491,491,491,491,491,491,491,491,491,491,
491,491,491,491,491,491,491,491,491,491,491,491,491,491,491,491,
491,491,491,491,491,491,491,491,491,491,491,491,491,491,491,491,
491,491,491,491,491,491,491,491,491,491,491,491,491,491,491,491,
491,491,491,491,491,491,491,491,491,491,491,491,491,491,491,491,
491,491,491,491,491,491,491,491,491,491,491,491,491,491,491,491,
491,491,491,491,491,491,491,491,491,491,491,491,491,491,491,491,
491,491,491,491,491,491,491,491,491,491,491,491,491,491,491,491
</chunk>
   <chunk x="-16" y="80" width="16" height="16">
491,491,491,491,491,491,491,491,491,491,491,491,491,491,491,491,
491,491,491,491,491,491,491,491,491,491,491,491,491,491,491,491,
491,491,491,491,491,491,491,491,491,491,491,491,491,491,491,491,
491,491,491,491,491,491,491,491,491,491,491,491,491,491,491,491,
491,491,491,491,491,491,491,491,491,491,491,491,491,491,491,491,
491,491,491,491,491,491,491,491,491,491,491,491,491,491,491,491,
491,491,491,491,491,491,491,491,491,491,491,491,491,491,491,491,
491,491,491,491,491,491,491,491,491,491,491,491,491,491,491,491,
491,491,491,491,491,491,491,491,491,491,491,491,491,491,491,491,
491,491,491,491,491,491,491,491,491,491,491,491,491,491,491,491,
491,491,491,491,491,491,491,491,491,491,491,491,491,491,491,491,
491,491,491,491,491,491,491,491,491,491,491,491,491,491,491,491,
491,491,491,491,491,491,491,491,491,491,491,491,491,491,491,491,
491,491,491,491,491,491,491,491,491,491,491,491,491,491,491,491,
491,491,491,491,491,491,491,491,491,491,491,491,491,491,491,491,
491,491,491,491,491,491,491,491,491,491,491,491,491,491,491,491
</chunk>
   <chunk x="0" y="80" width="16" height="16">
491,491,491,491,491,491,491,491,491,491,491,491,491,491,491,491,
491,491,491,491,491,491,491,491,491,491,491,491,491,491,491,491,
491,491,491,491,491,491,491,491,491,491,491,491,491,491,491,491,
491,491,491,491,491,491,491,491,491,491,491,491,491,491,491,491,
491,491,491,491,491,491,491,491,491,491,491,491,491,491,491,491,
491,491,491,491,491,491,491,491,491,491,491,491,491,491,491,491,
491,491,491,491,491,491,491,491,491,491,491,491,491,491,491,491,
491,491,491,491,491,491,491,491,491,491,491,491,491,491,491,491,
491,491,491,491,491,491,491,491,491,491,491,491,491,491,491,491,
491,491,491,491,491,491,491,491,491,491,491,491,491,491,491,491,
491,491,491,491,491,491,491,491,491,491,491,491,491,491,491,491,
491,491,491,491,491,491,491,491,491,491,491,491,491,491,491,491,
491,491,491,491,491,491,491,491,491,491,491,491,491,491,491,491,
491,491,491,491,491,491,491,491,491,491,491,491,491,491,491,491,
491,491,491,491,491,491,491,491,491,491,491,491,491,491,491,491,
491,491,491,491,491,491,491,491,491,491,491,491,491,491,491,491
</chunk>
   <chunk x="16" y="80" width="16" height="16">
491,491,491,491,491,491,491,491,491,491,491,491,491,491,491,491,
491,491,491,491,491,491,491,491,491,491,491,491,491,491,491,491,
491,491,491,491,491,491,491,491,491,491,491,491,491,491,491,491,
491,491,491,491,491,491,491,491,491,491,491,491,491,491,491,491,
491,491,491,491,491,491,491,491,491,491,491,491,491,491,491,491,
491,491,491,491,491,491,491,491,491,491,491,491,491,491,491,491,
491,491,491,491,491,491,491,491,491,491,491,491,491,491,491,491,
491,491,491,491,491,491,491,491,491,491,491,491,491,491,491,491,
491,491,491,491,491,491,491,491,491,491,491,491,491,491,491,491,
491,491,491,491,491,491,491,491,491,491,491,491,491,491,491,491,
491,491,491,491,491,491,491,491,491,491,491,491,491,491,491,491,
491,491,491,491,491,491,491,491,491,491,491,491,491,491,491,491,
491,491,491,491,491,491,491,491,491,491,491,491,491,491,491,491,
491,491,491,491,491,491,491,491,491,491,491,491,491,491,491,491,
491,491,491,491,491,491,491,491,491,491,491,491,491,491,491,491,
491,491,491,491,491,491,491,491,491,491,491,491,491,491,491,491
</chunk>
   <chunk x="32" y="80" width="16" height="16">
491,491,491,491,491,491,491,491,491,491,491,491,491,491,491,491,
491,491,491,491,491,491,491,491,491,491,491,491,491,491,491,491,
491,491,491,491,491,491,491,491,491,491,491,491,491,491,491,491,
491,491,491,491,491,491,491,491,491,491,491,491,491,491,491,491,
491,491,491,491,491,491,491,491,491,491,491,491,491,491,491,491,
491,491,491,491,491,491,491,491,491,491,491,491,491,491,491,491,
491,491,491,491,491,491,491,491,491,491,491,491,491,491,491,491,
491,491,491,491,491,491,491,491,491,491,491,491,491,491,491,491,
491,491,491,491,491,491,491,491,491,491,491,491,491,491,491,491,
491,491,491,491,491,491,491,491,491,491,491,491,491,491,491,491,
491,491,491,491,491,491,491,491,491,491,491,491,491,491,491,491,
491,491,491,491,491,491,491,491,491,491,491,491,491,491,491,491,
491,491,491,491,491,491,491,491,491,491,491,491,491,491,491,491,
491,491,491,491,491,491,491,491,491,491,491,491,491,491,491,491,
491,491,491,491,491,491,491,491,491,491,491,491,491,491,491,491,
491,491,491,491,491,491,491,491,491,491,491,491,491,491,491,491
</chunk>
  </data>
 </layer>
 <layer id="21" name="Ditch" width="32" height="32">
  <data encoding="csv">
   <chunk x="16" y="-64" width="16" height="16">
0,0,0,0,0,0,0,0,0,0,0,0,0,0,0,0,
0,0,0,0,0,0,0,0,0,0,0,0,0,0,0,0,
0,0,0,0,0,0,0,0,0,0,0,0,0,0,0,0,
0,0,0,0,0,0,0,0,0,0,0,0,0,0,0,0,
0,0,0,0,0,0,0,0,0,0,0,0,0,0,0,0,
0,0,0,0,0,0,0,0,0,0,0,0,0,0,0,0,
0,0,0,0,0,0,0,0,0,0,0,0,0,0,0,0,
0,0,0,0,0,0,0,0,0,106,0,106,0,0,0,0,
0,0,0,0,0,0,0,0,0,0,0,0,0,0,0,0,
0,0,0,0,0,0,0,0,0,0,0,0,0,0,0,0,
0,0,0,0,0,0,0,0,0,0,0,0,0,0,0,0,
0,0,0,0,0,0,0,0,0,0,0,0,0,0,0,0,
0,0,0,0,0,0,0,0,0,0,0,0,0,0,0,0,
0,0,0,0,0,0,0,0,0,0,0,0,0,0,0,0,
0,0,0,0,0,0,0,0,0,0,0,0,0,0,0,0,
0,0,0,0,0,0,0,0,0,0,0,0,0,0,0,0
</chunk>
   <chunk x="-48" y="-48" width="16" height="16">
0,0,0,0,0,0,0,0,0,0,0,0,0,0,0,0,
0,0,0,0,0,0,0,0,0,0,0,0,0,0,0,0,
0,0,0,0,0,0,0,0,0,0,0,0,0,0,0,0,
0,0,0,0,0,0,0,0,0,0,0,0,0,0,0,0,
0,0,0,0,0,0,0,0,0,0,0,0,0,0,0,0,
0,0,0,0,0,0,0,0,0,0,0,0,0,0,0,0,
0,0,0,0,0,0,0,0,0,0,0,0,0,0,0,0,
0,0,0,0,0,0,0,0,0,0,0,0,0,0,0,0,
0,0,0,0,0,0,0,0,0,0,0,0,0,0,0,0,
0,0,0,0,0,0,0,0,0,0,0,0,0,0,0,0,
0,0,0,0,0,0,0,0,0,0,0,0,0,0,0,0,
0,0,0,0,0,0,0,0,0,0,0,0,0,0,0,0,
0,0,0,0,0,0,0,0,0,0,0,0,0,0,0,0,
0,0,0,0,0,0,0,0,0,0,0,0,0,0,0,0,
0,0,0,0,0,0,0,0,0,0,0,0,0,0,103,0,
0,0,0,0,0,0,0,0,0,0,0,103,0,0,0,0
</chunk>
   <chunk x="-32" y="-48" width="16" height="16">
0,0,0,0,0,0,0,0,0,0,0,0,0,0,0,0,
0,0,0,0,0,0,0,0,0,0,0,0,0,0,0,0,
0,0,0,0,0,0,0,0,0,0,0,0,0,0,0,0,
0,0,0,0,0,0,0,0,0,0,0,0,0,0,0,0,
0,0,0,0,0,0,0,0,0,0,0,0,0,0,0,0,
0,0,0,0,0,0,0,0,0,0,0,0,0,0,0,0,
0,0,0,0,0,0,0,0,0,0,0,0,0,0,0,0,
0,0,0,0,0,0,0,0,0,0,0,0,0,0,0,0,
0,0,0,0,0,0,0,0,0,0,0,0,0,0,0,0,
0,0,0,0,0,0,0,0,0,0,0,0,0,0,0,0,
0,0,0,0,0,0,0,0,0,0,0,0,0,0,0,0,
0,0,0,0,0,0,0,0,0,0,0,0,0,0,0,0,
0,0,0,0,0,0,0,0,0,0,0,0,0,0,0,0,
0,0,0,0,0,103,0,0,0,0,0,0,0,0,0,0,
0,0,105,0,104,0,0,0,0,0,0,0,0,0,0,0,
0,0,0,0,0,0,0,103,0,0,0,0,0,0,0,0
</chunk>
   <chunk x="16" y="-48" width="16" height="16">
0,0,0,0,0,0,0,0,0,0,0,0,0,0,0,0,
0,0,0,0,0,0,0,0,0,0,0,0,0,0,0,0,
0,0,0,0,0,0,0,0,0,0,0,0,0,0,0,0,
0,0,0,0,0,0,0,0,0,0,0,0,0,0,0,0,
0,0,0,0,0,0,0,0,0,0,0,0,0,0,0,0,
0,0,0,0,0,0,0,0,106,0,0,0,106,0,0,0,
0,0,0,0,0,0,0,0,0,0,0,0,0,0,0,0,
0,0,0,0,0,0,0,0,0,0,0,0,0,0,0,0,
0,0,0,0,0,0,0,0,0,0,0,0,0,0,0,0,
0,0,0,0,0,0,0,0,0,0,0,0,0,0,0,0,
0,0,0,0,0,0,0,0,0,0,0,0,0,0,0,0,
0,0,0,0,0,0,0,0,0,0,0,0,0,0,0,0,
0,0,0,0,0,0,0,0,0,0,0,0,0,0,0,0,
0,0,0,0,0,0,0,0,0,0,0,0,0,0,0,0,
0,0,0,0,0,0,0,0,0,0,0,0,0,0,0,0,
0,0,0,0,0,0,0,0,0,0,0,0,0,0,0,0
</chunk>
   <chunk x="-80" y="-32" width="16" height="16">
0,0,0,0,0,0,0,0,0,0,0,0,0,0,0,0,
0,0,0,0,0,0,0,0,0,0,0,0,0,0,0,0,
0,0,0,0,0,0,0,0,0,0,0,0,0,0,0,0,
0,0,0,0,0,0,0,0,0,0,0,0,0,0,0,0,
0,0,0,0,0,0,0,0,0,0,0,0,0,0,0,0,
0,0,0,0,0,0,0,0,0,0,0,0,0,0,0,0,
0,0,0,0,0,0,0,0,0,0,0,0,0,0,103,0,
0,0,0,0,0,0,0,0,0,0,0,0,0,0,0,0,
0,0,0,0,0,0,0,0,0,0,0,0,0,0,0,0,
0,0,0,0,0,106,0,0,0,106,0,0,0,0,0,0,
0,0,0,0,0,103,88,89,90,104,0,0,106,0,0,106,
0,0,0,0,0,0,105,0,0,0,0,0,0,0,0,0,
0,0,0,0,0,0,0,0,0,0,0,0,0,0,0,104,
0,0,0,0,0,0,0,0,0,0,0,105,0,0,0,0,
0,0,0,0,106,103,0,0,0,0,0,0,0,0,0,0,
0,0,0,0,0,0,0,0,0,0,0,0,0,0,0,0
</chunk>
   <chunk x="-64" y="-32" width="16" height="16">
0,0,0,0,0,0,0,0,0,0,0,0,0,0,0,0,
0,0,0,0,0,0,0,0,0,0,0,0,0,0,0,0,
0,0,0,0,0,0,0,0,0,0,0,0,0,0,0,0,
0,0,0,0,0,0,0,0,0,0,0,0,0,0,88,89,
0,0,0,0,0,0,0,0,0,0,0,0,103,0,0,0,
0,0,0,0,0,0,0,0,0,0,0,0,0,0,0,0,
0,0,0,103,0,0,0,0,103,0,0,104,0,0,0,0,
0,0,0,0,0,0,0,0,0,0,0,0,0,0,0,0,
0,0,0,0,0,0,0,0,0,0,0,0,0,0,0,88,
88,89,89,89,89,90,0,0,0,0,0,106,0,0,0,0,
103,0,0,0,0,0,88,89,89,90,90,0,106,0,0,0,
0,0,0,103,0,0,0,103,0,104,0,105,0,0,0,0,
0,0,0,0,0,103,0,0,0,0,0,0,0,106,0,0,
0,0,104,0,0,0,0,0,103,0,0,0,0,103,88,89,
106,0,0,106,0,0,0,0,0,0,0,0,0,0,0,0,
104,0,103,0,106,0,0,103,0,0,105,0,0,0,106,0
</chunk>
   <chunk x="-48" y="-32" width="16" height="16">
0,0,0,0,0,0,0,0,0,0,0,0,0,0,0,0,
0,0,0,0,0,0,0,0,0,0,0,0,0,88,89,89,
0,0,0,0,0,0,0,0,0,0,103,0,0,0,0,103,
89,90,0,88,89,89,90,103,0,0,0,103,0,0,0,0,
0,0,0,0,0,0,0,0,0,0,104,0,0,0,106,0,
0,0,0,0,0,0,0,0,0,103,0,103,0,0,103,0,
0,0,0,0,0,0,0,0,0,0,0,0,0,0,0,104,
0,0,0,0,0,0,0,0,0,0,88,89,90,0,0,0,
89,89,89,89,89,89,90,0,0,0,104,105,0,0,0,0,
0,0,0,0,0,0,0,0,0,0,103,0,0,0,0,0,
0,0,0,0,0,0,0,0,106,0,0,0,0,0,0,0,
0,0,0,0,0,0,0,106,0,88,89,90,0,103,0,0,
0,0,0,0,0,0,0,103,0,0,103,0,0,0,0,0,
89,89,89,89,89,89,90,0,104,0,0,104,0,0,0,0,
0,0,0,0,0,0,0,0,105,0,0,0,88,89,90,0,
0,0,0,0,0,0,106,0,0,0,0,0,0,0,0,0
</chunk>
   <chunk x="-32" y="-32" width="16" height="16">
0,0,0,0,0,0,0,0,105,0,0,0,0,0,0,0,
90,0,106,0,88,90,0,0,0,0,0,0,0,0,0,0,
0,0,0,106,0,103,0,104,0,0,0,0,0,0,106,0,
0,0,0,0,0,0,0,0,0,0,0,103,106,0,0,0,
0,0,0,0,106,0,0,0,104,105,0,0,0,106,0,106,
88,89,90,0,105,0,0,0,0,0,0,0,0,0,0,0,
0,0,0,0,0,0,0,0,0,0,0,0,0,88,89,89,
0,0,0,0,0,0,88,89,90,0,0,0,0,0,0,0,
0,0,104,0,0,105,0,103,104,0,0,0,106,104,0,105,
0,0,0,0,0,0,0,0,0,0,0,0,0,0,0,103,
0,0,0,0,2147483751,0,0,0,0,0,106,0,0,0,0,0,
0,0,103,0,0,2147483752,0,88,89,90,0,106,0,0,0,0,
0,0,0,0,0,0,0,0,2147483752,0,0,0,106,0,0,0,
0,0,0,0,0,0,0,0,0,0,0,2147483752,103,88,89,89,
106,0,0,0,88,89,90,0,0,0,0,0,0,105,0,0,
103,0,106,0,0,0,104,0,0,0,0,0,0,0,0,103
</chunk>
   <chunk x="-16" y="-32" width="16" height="16">
0,0,0,0,0,0,0,0,0,0,0,0,0,0,0,0,
0,104,0,0,0,0,0,0,0,0,0,0,0,0,0,0,
0,0,0,0,0,0,0,0,0,0,0,0,0,0,0,0,
106,0,0,0,2147483753,0,0,0,0,0,0,0,0,0,0,0,
0,103,0,0,0,103,0,0,0,0,0,0,0,0,0,0,
0,0,0,0,0,0,0,104,0,104,0,28,29,29,29,30,
89,90,0,0,88,90,0,0,0,0,0,103,0,0,0,0,
0,0,0,0,103,0,0,0,0,0,0,0,0,0,103,0,
88,89,89,90,105,0,0,0,0,0,0,0,0,0,0,0,
0,0,103,0,0,104,0,0,0,0,0,106,0,0,0,88,
0,0,0,0,0,0,0,88,89,89,90,0,88,89,90,0,
0,0,0,0,0,0,0,104,0,105,0,0,103,0,0,0,
0,0,0,0,0,88,90,0,0,0,0,0,0,0,0,0,
89,89,89,90,0,103,0,0,0,0,0,0,0,0,0,0,
0,105,0,0,106,0,0,0,0,0,0,0,0,0,0,0,
0,0,0,104,0,0,0,0,0,0,0,0,0,0,0,0
</chunk>
   <chunk x="0" y="-32" width="16" height="16">
0,0,0,0,0,0,0,0,0,0,0,0,0,0,0,0,
0,0,0,0,0,0,0,0,0,0,0,0,0,0,0,0,
0,0,0,0,0,0,0,0,0,0,0,0,0,0,0,0,
0,0,0,0,0,0,0,0,0,0,0,0,0,0,0,0,
0,0,0,0,0,0,0,0,0,0,0,0,0,0,0,0,
0,0,0,0,0,0,0,0,0,0,0,0,0,0,0,0,
0,105,0,0,0,0,0,0,0,105,0,0,2147483751,0,0,0,
0,0,2147483751,0,0,0,0,103,0,0,0,0,0,0,0,103,
0,0,0,0,0,0,0,0,0,0,0,0,0,0,0,0,
89,89,89,89,89,89,89,90,0,88,89,89,89,89,89,89,
0,104,103,0,0,104,0,0,0,0,0,0,104,0,105,103,
0,0,0,0,0,0,0,0,106,0,0,0,0,2147483751,0,0,
0,0,0,0,0,0,0,0,0,0,0,0,0,0,0,0,
0,0,0,0,0,0,0,0,0,0,0,0,0,0,0,0,
0,0,0,0,0,0,0,0,0,0,0,0,0,0,0,0,
0,0,0,0,0,0,0,0,0,0,0,0,0,0,0,0
</chunk>
   <chunk x="16" y="-32" width="16" height="16">
0,0,0,0,0,0,0,104,0,0,0,105,0,0,0,0,
0,0,0,0,0,0,0,0,0,0,0,0,0,0,0,0,
0,0,0,0,0,0,0,0,0,0,0,104,0,0,0,0,
0,0,0,0,0,0,0,0,103,0,0,0,0,0,0,0,
0,0,0,0,0,0,0,0,0,0,0,0,0,0,0,0,
0,0,0,0,0,0,0,0,0,0,0,0,0,0,0,0,
0,0,0,0,0,0,0,105,0,0,0,103,0,0,0,0,
0,0,0,0,0,0,0,0,0,0,0,0,0,0,0,0,
0,0,0,0,0,0,2147483752,0,0,0,104,0,0,0,0,0,
89,89,90,0,0,0,0,103,0,0,0,0,0,0,0,0,
0,0,0,0,0,0,0,0,0,0,0,105,0,0,0,0,
0,0,0,0,0,0,0,88,89,90,0,0,0,0,0,0,
0,0,0,0,0,0,0,0,0,0,0,0,0,0,0,0,
0,0,0,0,0,0,0,0,0,0,0,0,0,0,0,0,
0,0,0,0,0,0,0,0,0,0,0,0,0,0,0,0,
0,0,0,0,0,0,0,0,0,0,0,0,0,0,0,0
</chunk>
   <chunk x="-80" y="-16" width="16" height="16">
0,0,0,0,0,0,0,0,0,0,88,90,0,0,0,103,
0,0,0,0,0,0,0,0,0,0,104,0,0,0,0,0,
0,0,0,0,0,0,0,0,0,0,0,0,104,0,0,0,
0,0,0,0,0,0,0,0,0,0,0,0,0,88,89,89,
0,0,0,0,0,0,0,0,0,0,0,0,0,0,0,104,
0,0,0,0,0,0,0,0,0,0,0,0,0,0,0,0,
0,0,0,0,0,0,0,0,0,0,0,0,0,0,0,103,
0,0,0,0,0,0,0,0,0,0,0,0,0,0,0,0,
0,0,0,0,0,0,0,0,0,0,0,0,0,0,0,0,
0,0,0,0,0,0,0,0,0,0,0,0,0,0,0,0,
0,0,0,0,0,0,0,0,0,0,0,0,0,0,0,0,
0,0,0,0,0,0,0,0,0,0,0,0,0,0,0,0,
0,0,0,0,0,0,0,0,0,0,0,0,0,0,0,0,
0,0,0,0,0,0,0,0,0,0,0,0,0,0,0,0,
0,0,0,0,0,0,0,0,0,0,0,0,0,0,0,0,
0,0,0,0,0,0,0,0,0,0,0,0,0,0,0,0
</chunk>
   <chunk x="-64" y="-16" width="16" height="16">
0,0,0,0,0,0,0,0,0,103,0,0,103,0,0,88,
0,0,0,0,0,0,0,0,0,0,0,0,0,0,0,0,
0,0,0,0,0,0,0,0,0,0,0,0,0,0,0,0,
90,0,0,0,0,0,0,0,0,88,89,90,0,0,0,105,
103,88,89,89,89,89,89,89,90,2147483751,0,0,0,0,0,0,
0,0,0,0,0,103,105,0,0,0,106,104,0,0,0,106,
0,0,0,0,0,0,0,0,0,0,103,0,0,0,103,0,
0,0,0,0,0,0,0,0,2147483753,0,0,0,0,0,0,0,
106,0,0,0,0,0,0,0,0,0,0,0,88,90,0,0,
0,88,89,90,0,0,0,0,0,0,0,106,104,0,106,0,
103,105,0,0,0,0,105,0,0,0,106,2147483752,103,105,105,106,
0,0,0,0,0,0,0,0,0,0,0,103,0,103,2147483751,0,
0,0,0,0,0,0,0,2147483751,0,0,0,0,0,104,0,0,
0,0,0,0,0,0,0,0,0,0,0,0,103,0,0,0,
0,0,0,0,0,2147483751,88,90,103,106,0,0,0,0,0,0,
0,0,0,0,0,0,0,0,0,103,88,90,0,0,88,90
</chunk>
   <chunk x="-48" y="-16" width="16" height="16">
89,89,89,89,89,90,104,103,0,0,0,0,105,0,0,0,
0,0,103,0,105,0,0,0,0,0,0,0,0,0,103,106,
0,0,0,0,0,0,0,0,0,0,0,0,0,0,0,0,
0,0,0,0,0,0,0,0,0,0,0,0,0,0,0,0,
0,0,0,0,0,0,0,0,0,0,0,0,0,0,0,0,
105,0,0,0,0,0,0,0,0,0,0,0,0,0,0,0,
0,0,0,0,0,0,0,0,0,0,0,0,0,0,0,0,
0,0,106,0,0,0,0,0,0,0,0,0,0,0,0,0,
0,103,0,106,0,0,0,0,0,0,0,0,0,0,0,0,
0,0,0,0,0,0,0,0,0,0,0,0,0,0,0,0,
0,0,0,2147483753,0,0,0,0,0,0,0,0,0,0,0,0,
0,0,104,0,0,0,0,0,0,0,0,0,0,0,0,0,
0,0,0,0,0,0,0,0,0,0,0,0,0,0,0,0,
0,0,0,0,0,0,0,0,0,0,0,0,0,0,0,0,
106,2147483751,88,90,0,0,0,0,0,0,0,0,0,0,0,0,
0,0,105,0,0,0,0,0,0,0,0,0,0,0,0,0
</chunk>
   <chunk x="-32" y="-16" width="16" height="16">
0,0,0,106,0,0,0,0,0,0,0,0,0,0,0,0,
0,106,0,0,105,0,0,0,0,0,0,0,0,0,0,0,
0,0,0,0,0,0,0,0,0,0,0,0,0,0,0,0,
0,0,0,0,0,0,0,0,0,0,0,0,0,0,0,0,
0,0,0,0,0,0,0,0,0,0,0,0,0,0,0,0,
0,0,0,0,0,0,0,0,0,0,0,0,0,0,0,0,
0,0,0,0,0,0,0,0,0,0,0,0,0,0,0,0,
0,0,0,0,0,0,0,0,0,0,0,0,0,0,0,0,
0,0,0,0,0,0,0,0,0,0,0,0,0,0,0,0,
0,0,0,0,0,0,0,0,0,0,0,0,0,0,0,0,
0,0,0,0,0,0,0,0,0,0,0,0,0,0,0,0,
0,0,0,0,0,0,0,0,0,0,0,0,0,0,0,0,
0,0,0,0,0,0,0,0,0,0,0,0,0,0,0,0,
0,0,0,0,0,0,0,0,0,0,0,0,0,0,0,0,
0,0,0,0,0,0,0,0,0,0,0,0,0,0,0,0,
0,0,0,0,0,0,0,0,0,0,0,0,0,0,0,0
</chunk>
   <chunk x="-96" y="0" width="16" height="16">
0,0,0,0,0,0,0,0,0,0,0,0,0,0,0,0,
0,0,0,0,0,0,0,0,0,0,0,0,0,0,0,0,
0,0,0,0,0,0,0,0,0,0,0,0,0,0,0,0,
0,0,0,0,0,0,0,0,0,0,0,0,0,0,0,0,
0,0,0,0,0,0,0,0,0,0,0,0,0,0,0,0,
0,0,0,0,0,0,0,0,0,0,0,0,0,0,0,0,
0,0,0,0,0,0,0,0,0,0,0,0,0,0,0,0,
0,0,0,0,0,0,0,0,0,0,0,0,0,0,0,0,
0,0,0,0,0,0,0,0,0,0,0,0,0,0,0,0,
0,0,0,0,0,0,0,0,0,0,0,0,0,0,0,0,
0,0,0,0,0,0,0,0,0,0,0,0,0,0,0,0,
0,0,0,0,0,0,0,0,0,0,0,0,0,0,0,0,
0,0,0,0,0,0,0,0,0,0,0,105,103,104,0,0,
0,0,0,0,0,0,0,0,0,0,0,103,0,0,0,0,
0,0,0,0,0,0,0,0,0,0,0,0,0,0,0,0,
0,0,0,0,0,0,0,0,0,0,0,0,0,0,0,0
</chunk>
   <chunk x="-80" y="0" width="16" height="16">
0,0,0,0,0,0,0,0,0,0,0,0,0,0,0,0,
0,0,0,0,0,0,0,0,0,0,0,0,0,0,0,0,
0,0,0,0,0,0,0,0,0,0,0,0,0,0,0,0,
0,0,0,0,0,0,0,0,0,0,0,0,0,0,0,0,
0,0,0,0,0,0,0,0,0,0,0,0,0,0,0,0,
0,0,0,0,0,0,0,0,0,0,0,0,0,0,0,0,
0,0,0,0,0,0,0,0,0,0,0,0,0,0,0,0,
0,0,0,0,0,0,0,0,0,0,0,0,0,0,0,88,
0,0,0,0,0,0,0,0,0,0,0,0,0,0,0,0,
0,0,0,0,0,0,0,0,0,0,0,0,0,0,0,0,
0,0,0,0,0,0,0,0,0,0,0,0,0,0,0,0,
0,0,0,0,0,0,0,0,0,0,0,0,0,0,0,0,
0,0,0,0,0,0,0,0,0,0,0,0,0,0,0,0,
0,0,0,0,0,0,0,0,0,0,0,0,0,0,0,0,
0,0,0,0,0,0,0,0,0,0,0,0,0,0,0,0,
0,0,0,0,0,0,0,0,0,0,0,0,0,0,0,0
</chunk>
   <chunk x="-64" y="0" width="16" height="16">
0,0,0,0,0,0,0,0,0,0,0,0,0,0,0,0,
0,0,0,0,0,0,0,104,0,0,106,0,0,0,0,106,
0,0,0,0,88,89,90,0,0,0,103,0,0,0,103,0,
0,0,0,0,0,103,0,0,0,0,0,0,0,0,104,0,
103,0,0,0,0,0,0,0,88,89,89,89,89,90,0,0,
0,0,0,0,0,0,0,0,103,0,105,0,0,104,105,0,
0,88,90,0,103,0,0,0,0,104,0,0,0,0,0,0,
90,103,0,0,0,0,103,0,103,0,0,103,0,0,0,0,
0,0,0,0,0,105,0,0,0,0,0,0,0,0,0,0,
0,0,0,0,0,0,0,88,89,90,0,0,0,0,0,0,
0,0,0,0,0,0,0,0,0,103,0,0,0,0,0,103,
0,0,0,0,0,0,0,105,0,0,0,0,0,0,0,0,
0,0,0,0,0,0,0,0,104,0,0,0,0,0,0,0,
0,0,0,0,0,0,0,0,0,0,0,0,0,106,0,0,
0,0,0,0,0,0,0,0,0,0,0,0,0,0,88,90,
0,0,0,0,0,0,0,0,0,0,0,0,0,0,0,0
</chunk>
   <chunk x="-48" y="0" width="16" height="16">
0,0,0,0,0,0,0,0,0,0,0,0,0,0,0,0,
105,0,0,0,0,0,0,0,0,0,0,0,0,0,0,0,
0,0,0,0,0,0,0,0,0,0,0,0,0,0,0,0,
0,0,0,0,0,0,0,0,0,0,0,0,0,0,0,0,
0,0,0,0,0,0,0,0,0,0,0,0,0,0,0,0,
0,0,0,0,0,0,0,0,0,0,0,0,0,0,0,0,
0,0,0,0,0,0,0,0,0,0,0,0,0,0,0,0,
0,0,0,0,0,0,0,0,0,0,0,0,0,0,0,0,
0,0,0,0,0,0,0,0,0,0,0,0,0,0,0,0,
0,0,0,0,0,0,0,0,0,0,0,0,0,0,0,0,
0,0,0,0,0,0,0,0,0,0,0,0,0,0,0,0,
0,0,0,0,0,0,0,0,0,0,0,0,0,0,0,0,
0,0,104,0,0,0,0,0,0,0,0,0,0,0,0,0,
88,90,0,0,0,0,0,0,0,0,0,0,0,0,0,0,
0,105,0,0,0,0,0,0,0,0,0,0,0,0,0,0,
0,0,0,0,0,0,0,0,0,0,0,0,0,0,0,0
</chunk>
   <chunk x="-96" y="16" width="16" height="16">
0,0,0,104,0,105,0,88,90,0,0,0,0,0,0,0,
0,0,103,0,0,0,105,0,0,0,0,0,0,0,106,0,
0,0,104,0,0,0,0,0,106,0,0,0,0,0,0,0,
105,2147483752,0,0,0,0,0,103,0,0,0,0,0,0,0,0,
0,104,0,0,0,0,103,104,106,0,0,0,0,0,0,0,
0,0,105,0,0,104,104,0,0,0,0,0,0,0,0,0,
0,0,0,0,104,104,0,105,106,0,88,89,89,89,89,90,
0,0,0,105,0,0,0,0,0,0,0,103,0,103,105,0,
0,0,104,0,0,0,0,0,0,0,2147483752,0,106,0,0,0,
0,0,0,0,0,0,0,0,0,0,0,0,0,0,0,0,
0,0,0,0,0,0,0,0,0,106,0,0,0,0,0,0,
0,0,0,0,0,0,0,0,0,2147483751,0,0,0,0,0,0,
104,0,0,106,0,0,0,0,0,103,0,0,0,0,0,0,
0,0,105,0,0,0,0,0,0,0,0,0,0,0,0,0,
0,0,0,103,106,0,0,0,0,0,0,0,0,0,0,0,
0,0,0,0,0,0,0,0,0,106,0,0,0,0,0,0
</chunk>
   <chunk x="-80" y="16" width="16" height="16">
103,0,0,0,0,0,0,0,0,0,0,0,0,0,0,0,
0,0,0,0,0,0,0,0,0,0,0,0,0,0,0,0,
0,105,0,0,0,0,0,0,0,0,0,0,0,0,0,0,
0,0,0,0,0,0,0,0,0,0,0,0,0,0,0,0,
0,0,0,0,0,0,0,0,0,0,0,0,0,0,0,0,
88,89,0,0,0,0,0,0,0,0,0,0,0,0,0,0,
103,0,0,0,0,0,0,0,0,0,0,0,0,0,0,0,
0,0,0,0,0,0,0,0,0,0,0,0,0,0,0,0,
0,0,0,0,0,0,0,0,0,0,0,0,0,0,0,0,
0,0,0,0,0,0,0,0,0,0,0,0,0,0,0,0,
0,0,0,0,0,0,0,0,0,0,0,0,0,0,0,0,
0,0,0,0,0,0,0,0,0,0,0,0,0,0,0,0,
0,0,0,0,0,0,0,0,0,0,0,0,0,0,0,0,
0,0,0,0,0,0,0,0,0,0,0,0,0,0,0,0,
0,0,0,0,0,0,0,0,0,0,0,0,0,0,0,0,
0,0,0,0,0,0,0,0,0,0,0,0,0,0,0,0
</chunk>
   <chunk x="-96" y="32" width="16" height="16">
0,0,0,0,0,0,0,0,0,0,0,0,0,0,0,0,
0,0,0,0,0,0,0,0,0,0,0,0,0,0,0,0,
0,0,0,0,0,0,0,0,0,106,0,0,0,0,0,0,
0,0,0,0,0,0,0,0,0,0,0,0,0,0,0,0,
0,0,0,0,0,0,0,0,0,0,0,0,0,0,0,0,
0,0,0,0,0,0,0,0,0,0,0,0,0,0,0,0,
0,0,0,0,0,0,0,0,0,0,0,0,0,0,0,0,
0,0,0,0,0,0,0,0,0,0,0,0,0,0,0,0,
0,0,0,0,0,0,0,0,0,0,0,0,0,0,0,0,
0,0,0,0,0,0,0,0,0,0,0,0,0,0,0,0,
0,0,0,0,0,0,0,0,0,0,0,0,0,0,0,0,
0,0,0,0,0,0,0,0,0,0,0,0,0,0,0,0,
0,0,0,0,0,0,0,0,0,0,0,0,0,0,0,0,
0,0,0,0,104,0,0,0,105,0,0,0,0,0,0,0,
0,0,0,0,0,0,103,0,0,0,103,0,0,0,0,0,
0,0,0,0,0,0,0,0,0,0,0,0,0,0,0,0
</chunk>
   <chunk x="-32" y="32" width="16" height="16">
0,0,0,0,0,0,0,0,0,0,0,0,0,0,0,0,
0,0,0,0,0,0,0,0,0,0,0,0,0,0,0,0,
0,0,0,0,0,0,0,0,0,0,0,0,0,0,0,0,
0,0,0,0,0,0,0,0,0,0,0,0,0,0,0,0,
0,0,0,0,0,0,0,0,0,0,0,0,0,0,0,0,
0,0,0,0,0,0,0,88,90,0,0,0,0,0,0,0,
0,0,0,0,0,0,106,0,103,0,0,0,0,0,0,0,
0,0,0,0,0,0,0,104,0,106,0,0,0,0,0,0,
0,0,0,0,0,106,0,0,2147483753,103,0,0,0,0,0,0,
0,0,0,0,0,0,105,104,2147483753,0,0,0,0,0,0,0,
0,0,0,0,0,103,0,103,0,104,0,0,0,0,0,0,
0,0,0,0,0,0,0,0,2147483751,0,0,0,0,0,0,0,
0,0,0,0,0,0,0,104,0,0,0,0,0,0,0,0,
0,0,0,0,0,0,0,0,0,0,0,0,0,0,0,0,
0,0,0,0,0,0,0,0,0,0,0,0,0,0,0,0,
0,0,0,0,0,0,0,0,0,0,0,0,0,0,0,0
</chunk>
   <chunk x="-16" y="32" width="16" height="16">
0,0,0,0,0,0,0,0,0,0,0,0,0,0,0,0,
0,0,0,0,0,0,0,0,0,0,0,0,0,0,0,0,
0,0,0,0,0,0,0,0,0,0,0,0,0,0,0,0,
0,0,0,0,0,0,0,0,0,0,0,0,0,0,0,0,
0,0,0,0,0,0,0,0,0,0,0,0,0,0,0,0,
0,0,0,0,0,0,0,0,0,0,0,0,0,0,0,0,
0,0,0,0,0,0,0,0,0,0,0,0,0,0,0,0,
0,0,0,0,0,0,0,0,0,0,0,0,0,0,0,0,
0,105,0,0,0,0,0,0,0,0,0,0,0,103,0,0,
0,0,103,0,0,0,0,0,0,0,0,0,0,0,0,0,
0,0,0,0,0,0,0,103,0,0,0,0,0,0,0,0,
0,0,0,0,0,0,0,0,0,0,0,0,88,90,0,0,
0,0,0,0,0,0,0,0,0,0,0,0,103,0,0,0,
0,0,0,0,106,0,0,0,88,90,0,0,0,0,0,0,
0,0,0,106,104,88,89,90,2147483751,0,106,0,0,0,0,106,
0,0,106,0,2147483751,0,105,103,0,0,104,0,0,88,90,0
</chunk>
   <chunk x="0" y="32" width="16" height="16">
0,0,0,0,0,0,0,0,0,0,0,0,0,0,0,0,
0,0,0,0,0,0,0,0,0,0,0,0,0,0,0,0,
0,0,0,0,0,0,0,0,0,0,0,90,0,0,0,103,
0,0,0,0,0,0,0,0,0,0,0,0,106,0,106,0,
0,0,0,0,0,0,0,0,0,0,0,0,0,0,0,104,
0,0,0,0,0,0,0,0,0,0,0,103,0,0,0,0,
0,0,0,0,0,0,0,0,0,0,0,0,0,0,0,0,
0,0,0,0,0,0,0,0,0,0,0,0,0,0,0,0,
0,0,0,0,0,0,0,0,0,0,0,0,0,0,0,0,
0,0,0,0,0,0,0,0,0,0,2147483753,0,0,0,0,0,
0,0,0,0,0,0,0,0,0,0,0,0,0,0,0,0,
103,0,0,0,0,0,0,0,0,0,0,106,0,0,0,106,
0,0,0,0,0,0,0,0,0,0,0,0,0,0,0,0,
0,0,0,0,0,0,0,0,0,0,0,103,0,0,0,0,
0,0,0,0,0,0,0,0,0,0,0,0,0,0,0,2147483752,
0,0,0,0,0,0,0,0,0,0,0,0,0,0,0,0
</chunk>
   <chunk x="16" y="32" width="16" height="16">
0,0,0,0,0,0,0,0,0,0,0,0,0,0,0,0,
0,0,0,0,0,0,0,0,0,0,0,0,0,0,0,0,
0,0,0,0,0,0,0,0,0,0,0,0,0,0,0,0,
0,0,0,0,0,0,0,0,0,0,0,0,0,0,0,0,
0,0,0,0,0,0,0,0,0,0,0,0,0,0,0,0,
0,0,0,0,0,0,0,0,0,0,0,0,0,0,0,0,
103,0,0,0,0,0,0,0,0,0,0,0,0,0,0,0,
0,0,0,0,0,0,0,0,0,0,0,0,0,0,0,0,
0,0,0,0,0,0,0,0,0,0,0,0,0,0,0,0,
104,0,0,0,0,0,0,0,0,0,0,0,0,0,0,0,
0,0,0,0,0,0,0,0,0,0,0,0,0,0,0,0,
0,0,0,0,0,0,0,0,0,0,0,0,0,0,0,0,
0,0,0,0,0,0,0,0,0,0,0,0,0,0,0,0,
103,0,0,0,0,0,0,0,0,0,0,0,0,0,0,0,
0,0,0,0,0,0,0,0,0,0,0,0,0,0,0,0,
0,0,0,0,0,0,0,0,0,0,0,0,0,0,0,0
</chunk>
   <chunk x="-96" y="48" width="16" height="16">
0,0,0,89,90,0,0,106,0,0,0,0,0,0,0,0,
0,0,0,103,0,106,0,0,0,106,0,0,0,0,0,0,
0,0,0,0,0,0,0,0,0,0,0,0,0,0,0,0,
0,0,0,0,0,106,0,0,0,106,0,0,0,0,0,0,
0,0,0,0,0,0,0,106,0,0,0,0,0,0,0,0,
0,0,0,0,0,0,0,0,0,0,0,0,0,0,0,0,
0,0,0,0,0,0,0,0,0,0,0,0,0,0,0,0,
0,0,0,0,0,0,0,0,0,0,0,0,0,0,0,0,
0,0,0,0,0,0,0,0,0,0,0,0,0,0,0,0,
0,0,0,0,0,0,0,0,0,0,0,0,0,0,0,0,
0,0,0,0,0,0,0,0,0,0,0,0,0,0,0,0,
0,0,0,0,0,0,0,0,0,0,0,0,0,0,0,0,
0,0,0,0,0,0,0,0,0,0,0,0,0,0,0,0,
0,0,0,0,0,0,0,0,0,0,0,0,0,0,0,0,
0,0,0,0,0,0,0,0,0,0,0,0,0,0,0,0,
0,0,0,0,0,0,0,0,0,0,0,0,0,0,0,0
</chunk>
   <chunk x="-64" y="48" width="16" height="16">
0,0,0,0,0,0,0,0,0,0,0,0,0,0,0,0,
0,0,0,0,0,0,0,0,0,0,0,0,0,0,0,0,
0,0,0,0,0,0,0,0,0,0,0,0,0,0,0,0,
0,0,0,0,0,106,0,0,0,0,0,0,0,0,0,0,
0,0,0,0,0,0,0,0,0,0,0,0,0,0,0,0,
0,0,0,0,0,0,0,0,0,0,0,0,0,0,0,0,
0,0,0,0,0,0,0,0,0,0,0,0,0,0,0,0,
0,0,0,0,0,0,0,0,0,0,0,0,0,0,0,0,
0,0,0,0,0,0,0,0,0,0,0,0,0,0,0,0,
0,0,0,0,0,0,0,0,0,0,0,0,0,0,0,0,
0,0,0,0,0,0,0,0,0,0,0,0,0,0,0,0,
0,0,0,0,0,0,0,0,0,0,0,0,0,0,0,0,
0,0,0,0,0,0,0,0,0,0,0,0,0,0,0,0,
0,0,0,0,106,0,106,0,0,0,0,0,0,0,0,106,
0,0,0,0,0,0,104,0,0,0,0,0,0,0,0,0,
0,0,0,0,0,0,0,0,0,0,0,0,0,0,0,0
</chunk>
   <chunk x="-48" y="48" width="16" height="16">
0,0,0,0,0,0,0,0,0,0,0,0,0,0,0,0,
0,0,0,0,0,0,0,0,0,0,0,0,0,0,0,0,
0,0,0,0,0,0,0,0,0,0,0,0,0,0,0,0,
0,0,0,0,0,0,0,0,0,0,0,0,0,0,0,0,
0,0,0,0,0,0,0,0,0,0,0,0,0,0,0,0,
0,0,0,0,0,0,0,0,0,0,0,0,0,0,0,0,
0,0,0,0,0,0,0,0,0,0,0,0,0,0,0,0,
0,0,0,0,0,0,0,0,0,0,0,0,0,0,0,0,
0,0,0,0,0,0,0,0,0,0,0,104,0,0,0,0,
0,0,0,0,0,0,0,0,0,0,0,0,0,0,0,0,
0,0,105,0,0,0,0,0,0,0,0,0,0,0,0,0,
0,0,0,0,0,0,0,0,0,0,0,0,0,0,0,0,
88,89,89,89,90,0,0,0,0,0,0,0,0,0,0,0,
2147483753,0,104,0,0,88,89,89,90,0,88,89,89,89,89,89,
0,0,0,0,0,2147483752,0,0,0,0,0,0,0,0,104,0,
0,0,0,103,0,0,0,0,0,0,0,2147483752,0,0,0,0
</chunk>
   <chunk x="-32" y="48" width="16" height="16">
0,0,0,0,0,0,0,0,0,0,0,0,0,0,0,0,
0,0,0,0,0,0,0,0,0,0,0,0,0,0,0,0,
0,0,0,0,0,0,0,0,0,0,0,0,0,0,0,0,
0,0,0,0,0,0,0,0,0,0,0,0,0,0,0,0,
0,0,0,0,0,0,0,0,0,0,0,0,0,0,0,0,
0,0,0,0,0,0,0,0,0,0,0,0,0,0,0,0,
0,0,0,0,0,0,0,0,0,0,0,0,0,0,0,0,
0,0,0,0,0,0,0,0,0,0,0,0,0,0,0,0,
2147483752,0,0,105,0,104,0,0,0,0,0,0,0,0,0,0,
0,0,0,0,0,0,0,0,0,0,0,0,0,0,0,0,
0,0,0,0,0,0,0,0,0,0,2147483752,0,0,0,0,0,
0,0,0,0,0,0,0,0,0,0,0,0,0,0,0,0,
0,0,0,0,0,0,0,0,0,0,0,0,0,0,0,0,
89,89,89,89,89,89,90,0,0,0,105,0,2147483751,0,0,0,
103,0,0,0,104,0,0,0,0,0,0,0,0,0,0,0,
0,0,0,0,0,0,0,0,0,0,0,0,0,0,0,0
</chunk>
   <chunk x="-16" y="48" width="16" height="16">
0,0,0,0,0,0,0,0,0,103,0,0,0,0,0,0,
0,0,0,0,0,0,0,0,0,0,0,0,0,0,0,0,
0,0,0,0,0,0,0,0,0,0,2147483752,88,89,89,89,89,
0,0,0,0,0,0,0,0,0,0,0,0,104,103,0,2147483753,
0,0,0,0,0,0,0,0,0,0,0,0,0,0,0,104,
0,0,0,0,0,0,0,0,0,0,0,0,0,0,0,0,
0,0,0,0,0,0,0,0,0,0,0,0,0,0,0,0,
0,0,0,0,0,0,0,0,0,0,0,0,0,0,0,0,
0,0,0,0,0,0,0,0,0,0,0,0,0,0,0,0,
0,0,0,0,0,0,0,0,0,0,0,0,0,0,0,0,
0,0,0,0,0,0,0,0,0,0,0,0,0,0,0,0,
0,0,0,0,0,0,0,0,0,0,0,0,0,0,0,0,
0,0,0,0,0,0,0,0,0,0,0,0,0,0,0,0,
0,0,0,0,0,0,0,0,0,0,0,0,0,0,0,0,
0,0,0,0,0,0,0,0,0,0,0,0,0,0,0,0,
0,0,0,0,0,0,0,0,0,0,0,0,0,0,0,0
</chunk>
   <chunk x="0" y="48" width="16" height="16">
0,0,0,0,0,0,0,0,0,0,0,0,0,0,0,105,
0,0,0,0,0,0,0,0,0,0,0,0,0,88,90,0,
89,89,90,0,0,0,0,0,0,0,88,89,90,104,103,0,
2147483752,0,103,0,0,0,0,0,0,0,0,2147483751,0,105,0,0,
0,0,0,0,0,0,0,0,0,0,0,0,2147483753,0,0,0,
0,2147483751,104,0,88,90,0,0,0,0,0,0,0,0,2147483751,0,
0,0,2147483753,0,0,103,0,0,0,0,0,0,104,0,0,0,
0,0,0,0,0,0,0,0,0,0,0,0,0,0,0,0,
0,0,2147483752,88,89,89,89,89,90,0,0,106,0,0,0,0,
0,0,0,104,0,0,0,103,0,0,0,104,0,0,0,103,
0,0,0,0,0,0,0,0,0,0,0,0,0,2147483751,0,0,
0,0,0,0,0,0,0,88,89,89,90,103,0,0,0,0,
0,0,103,0,0,0,0,0,103,0,0,0,103,0,0,2147483751,
0,0,0,0,0,0,0,0,0,0,0,0,0,0,0,0,
0,0,0,0,88,89,89,89,90,0,88,90,0,0,0,0,
0,0,0,0,0,0,0,0,0,0,0,0,0,0,0,104
</chunk>
   <chunk x="16" y="48" width="16" height="16">
0,0,0,0,0,0,0,0,0,0,0,0,0,0,0,0,
0,0,0,0,0,0,0,0,0,0,0,0,0,0,0,0,
0,0,0,0,0,0,0,0,0,0,0,0,0,0,0,0,
0,0,0,0,0,0,0,0,0,0,0,0,0,0,0,0,
0,0,0,0,0,0,0,0,0,0,0,0,0,0,0,0,
0,0,0,0,0,0,0,0,0,0,0,0,0,0,0,0,
0,0,0,0,0,0,0,0,0,0,0,0,0,0,0,0,
0,0,0,0,0,0,0,0,0,0,0,0,0,0,0,0,
0,0,0,0,0,0,0,0,0,0,0,0,0,0,0,0,
0,0,0,0,0,0,0,0,0,0,0,0,0,0,0,0,
0,0,0,0,0,0,0,0,0,0,0,0,0,0,0,0,
0,0,0,0,0,0,0,0,0,0,0,0,0,0,0,0,
0,0,0,0,0,0,0,0,0,0,0,0,0,0,0,0,
0,0,0,0,0,0,0,0,0,0,0,0,0,0,0,0,
0,0,0,0,0,0,0,0,0,0,0,0,0,0,0,0,
105,0,0,0,0,0,0,0,0,0,0,0,0,0,0,0
</chunk>
   <chunk x="-64" y="64" width="16" height="16">
0,0,0,0,106,0,0,0,0,0,0,0,0,0,0,0,
0,0,0,0,0,0,0,0,0,0,0,0,0,0,0,0,
0,0,0,0,104,0,0,103,0,0,0,0,0,0,0,0,
0,0,0,103,0,0,106,0,0,0,0,0,0,0,0,0,
0,0,0,0,0,0,2147483751,0,0,0,0,0,0,0,0,0,
0,0,0,0,0,0,0,0,0,0,0,0,0,0,0,0,
0,0,0,0,0,0,0,103,0,0,0,0,0,0,0,0,
0,0,0,104,0,0,0,0,0,0,0,0,0,0,0,0,
0,0,0,0,88,89,90,0,0,0,0,0,0,0,0,0,
0,0,0,0,0,0,105,0,0,0,0,0,0,0,0,0,
0,0,0,0,103,0,0,0,0,0,0,0,0,0,0,0,
0,0,0,0,0,0,0,0,0,0,0,0,0,0,0,0,
0,0,0,0,0,0,0,0,0,0,0,0,0,0,0,0,
0,0,0,0,0,0,0,0,0,0,0,0,0,0,0,0,
0,0,0,0,0,0,0,0,0,0,0,0,0,0,0,0,
0,0,0,0,0,0,0,0,0,0,0,0,0,0,0,0
</chunk>
   <chunk x="-48" y="64" width="16" height="16">
0,0,0,0,0,0,0,0,0,0,0,0,0,0,0,0,
0,0,0,0,0,0,0,0,0,0,0,0,0,105,0,104,
0,0,0,0,0,0,0,0,0,0,0,0,0,0,0,0,
0,0,0,104,0,0,0,0,0,0,0,0,0,0,0,0,
0,0,0,0,0,0,0,0,0,0,0,0,0,0,0,0,
0,0,0,0,88,89,90,0,0,0,0,0,88,89,90,0,
0,0,0,0,0,2147483752,0,106,0,0,0,106,0,0,2147483752,0,
0,0,0,0,0,0,0,0,0,0,0,0,0,105,0,0,
0,0,0,0,0,0,105,0,0,0,0,0,104,0,0,0,
0,0,0,0,0,0,0,0,88,89,90,0,0,0,0,0,
0,0,0,0,0,0,0,0,0,0,0,0,0,0,0,0,
0,0,0,0,0,0,0,0,0,0,0,0,0,0,0,0,
0,0,0,0,0,0,0,0,0,0,0,0,0,0,0,0,
0,0,0,0,0,0,0,0,0,0,0,0,0,0,0,0,
0,0,0,0,0,0,0,0,0,0,0,0,0,0,0,0,
0,0,0,0,0,0,0,0,0,0,0,0,0,0,0,0
</chunk>
   <chunk x="-32" y="64" width="16" height="16">
0,0,0,0,105,0,0,0,0,0,0,104,0,0,0,0,
0,0,104,0,0,0,0,0,0,0,0,0,0,0,0,0,
0,0,0,0,0,0,0,0,0,0,0,0,0,0,0,0,
0,0,0,0,105,0,0,0,0,0,0,0,0,0,0,0,
0,0,2147483751,0,0,104,0,0,0,0,0,2147483751,0,0,0,0,
0,0,0,0,0,0,106,0,0,106,0,0,0,0,0,0,
0,0,0,0,0,0,0,0,0,0,0,0,0,0,0,0,
0,0,0,0,0,0,2147483752,0,0,0,0,0,0,88,90,0,
0,0,0,0,0,0,0,0,0,0,0,0,0,0,104,0,
0,0,0,0,0,0,0,88,89,90,0,0,106,2147483752,0,0,
0,0,0,0,2147483751,0,0,0,0,0,0,0,0,0,0,0,
0,0,0,0,0,0,0,0,0,0,0,0,0,0,2147483752,0,
0,0,0,0,0,0,0,0,88,90,0,0,0,105,0,106,
0,0,0,0,0,0,0,0,0,0,0,0,0,0,0,2147483752,
0,0,0,0,0,104,0,0,0,0,0,0,0,0,0,0,
0,0,0,0,0,0,0,0,0,0,0,0,104,0,106,0
</chunk>
   <chunk x="-16" y="64" width="16" height="16">
0,0,0,0,0,0,0,0,0,0,0,0,0,0,0,0,
0,0,0,0,0,0,0,0,0,0,0,0,0,0,0,0,
0,0,0,0,0,0,0,0,0,0,0,0,0,0,0,0,
0,0,0,0,0,0,0,0,0,0,0,0,0,0,0,0,
0,0,0,0,0,0,0,0,0,0,0,0,0,106,0,0,
0,0,0,0,0,0,0,0,0,0,0,0,2147483751,0,0,0,
0,103,0,0,0,0,0,0,0,103,0,0,0,104,106,0,
0,0,0,0,0,0,0,104,0,0,0,0,0,0,0,0,
0,104,0,0,103,0,0,0,0,0,0,0,0,0,0,0,
0,0,0,105,0,0,0,0,0,0,0,0,0,0,0,0,
0,0,0,0,0,0,0,0,0,0,88,89,89,89,89,89,
0,0,2147483752,0,0,2147483751,106,0,0,0,2147483752,0,0,0,0,104,
0,0,2147483751,0,0,0,0,0,0,0,0,0,0,0,0,0,
0,0,0,0,0,0,0,0,0,0,0,0,0,0,0,0,
106,0,0,0,0,0,0,0,0,106,0,106,104,0,0,0,
104,88,89,89,89,89,89,89,90,104,0,0,0,0,0,0
</chunk>
   <chunk x="0" y="64" width="16" height="16">
0,0,0,0,0,0,2147483751,0,88,90,0,104,0,0,0,0,
0,0,0,88,90,0,0,0,103,0,0,0,106,0,106,0,
0,0,0,0,0,0,0,0,0,2147483752,0,0,0,0,0,0,
0,0,0,0,0,88,89,90,0,2147483751,106,0,0,0,103,106,
0,0,106,0,0,0,103,0,0,0,0,0,0,0,0,0,
0,0,0,103,0,105,0,0,0,2147483753,0,0,88,90,0,0,
0,106,0,0,0,0,0,2147483751,0,0,0,106,104,0,0,0,
0,0,0,104,0,0,0,0,0,0,0,0,0,0,0,0,
0,0,103,0,103,0,0,0,0,0,0,0,0,0,0,0,
0,0,0,0,0,0,0,0,0,0,0,0,0,0,0,0,
89,90,0,2147483752,0,0,0,0,0,0,0,0,0,0,0,0,
0,0,2147483751,0,0,0,0,0,0,0,0,0,0,0,0,0,
103,0,0,0,0,0,0,0,0,0,0,0,0,0,0,0,
0,0,0,0,0,0,0,0,0,0,0,0,0,0,0,0,
0,0,0,0,0,0,0,0,0,0,0,0,0,0,0,0,
0,0,0,0,0,0,0,0,0,0,0,0,0,0,0,0
</chunk>
   <chunk x="16" y="64" width="16" height="16">
2147483752,0,0,0,0,0,0,0,0,0,0,0,0,0,0,0,
0,0,0,0,0,0,0,0,0,0,0,0,0,0,0,0,
0,0,0,0,0,0,0,0,0,0,0,0,0,0,0,0,
0,0,0,0,0,0,0,0,0,0,0,0,0,0,0,0,
0,0,0,0,0,0,0,0,0,0,0,0,0,0,0,0,
0,0,0,0,0,0,0,0,0,0,0,0,0,0,0,0,
0,0,0,0,0,0,0,0,0,0,0,0,0,0,0,0,
0,0,0,0,0,0,0,0,0,0,0,0,0,0,0,0,
0,0,0,0,0,0,0,0,0,0,0,0,0,0,0,0,
0,0,0,0,0,0,0,0,0,0,0,0,0,0,0,0,
0,0,0,0,0,0,0,0,0,0,0,0,0,0,0,0,
0,0,0,0,0,0,0,0,0,0,0,0,0,0,0,0,
0,0,0,0,0,0,0,0,0,0,0,0,0,0,0,0,
0,0,0,0,0,0,0,0,0,0,0,0,0,0,0,0,
0,0,0,0,0,0,0,0,0,0,0,0,0,0,0,0,
0,0,0,0,0,0,0,0,0,0,0,0,0,0,0,0
</chunk>
   <chunk x="-32" y="80" width="16" height="16">
0,0,0,0,0,0,88,89,89,89,89,90,0,0,0,0,
0,0,0,0,0,0,0,2147483752,0,0,105,0,0,0,0,0,
0,0,0,0,0,0,0,0,0,0,0,0,0,0,0,0,
0,0,0,0,0,0,0,0,0,0,0,0,0,0,0,0,
0,0,0,0,0,0,0,0,0,0,0,0,0,0,0,0,
0,0,0,0,0,0,0,0,0,0,0,0,0,0,0,0,
0,0,0,0,0,0,0,0,0,0,0,0,0,0,0,0,
0,0,0,0,0,0,0,0,0,0,0,0,0,0,0,0,
0,0,0,0,0,0,0,0,0,0,0,0,0,0,0,0,
0,0,0,0,0,0,0,0,0,0,0,0,0,0,0,0,
0,0,0,0,0,0,0,0,0,0,0,0,0,0,0,0,
0,0,0,0,0,0,0,0,0,0,0,0,0,0,0,0,
0,0,0,0,0,0,0,0,0,0,0,0,0,0,0,0,
0,0,0,0,0,0,0,0,0,0,0,0,0,0,0,0,
0,0,0,0,0,0,0,0,0,0,0,0,0,0,0,0,
0,0,0,0,0,0,0,0,0,0,0,0,0,0,0,0
</chunk>
   <chunk x="-16" y="80" width="16" height="16">
0,0,105,0,0,2147483752,0,0,0,0,0,0,0,0,0,0,
0,0,0,0,0,0,0,0,0,0,0,0,0,0,0,0,
0,0,0,0,0,0,0,0,0,0,0,0,0,0,0,0,
0,0,0,0,0,0,0,0,0,0,0,0,0,0,0,0,
0,0,0,0,0,0,0,0,0,0,0,0,0,0,0,0,
0,0,0,0,0,0,0,0,0,0,0,0,0,0,0,0,
0,0,0,0,0,0,0,0,0,0,0,0,0,0,0,0,
0,0,0,0,0,0,0,0,0,0,0,0,0,0,0,0,
0,0,0,0,0,0,0,0,0,0,0,0,0,0,0,0,
0,0,0,0,0,0,0,0,0,0,0,0,0,0,0,0,
0,0,0,0,0,0,0,0,0,0,0,0,0,0,0,0,
0,0,0,0,0,0,0,0,0,0,0,0,0,0,0,0,
0,0,0,0,0,0,0,0,0,0,0,0,0,0,0,0,
0,0,0,0,0,0,0,0,0,0,0,0,0,0,0,0,
0,0,0,0,0,0,0,0,0,0,0,0,0,0,0,0,
0,0,0,0,0,0,0,0,0,0,0,0,0,0,0,0
</chunk>
  </data>
 </layer>
 <objectgroup id="117" name="ShakyFloor">
  <object id="2537" template="ShakyFloor.tx" x="608" y="-704"/>
  <object id="2538" template="ShakyFloor.tx" x="640" y="-704"/>
  <object id="2539" template="ShakyFloor.tx" x="640" y="-672"/>
  <object id="2540" template="ShakyFloor.tx" x="640" y="-640"/>
  <object id="2541" template="ShakyFloor.tx" x="672" y="-640"/>
  <object id="2542" template="ShakyFloor.tx" class="ShakyFloor" x="704" y="-640"/>
  <object id="2543" template="ShakyFloor.tx" x="800" y="-736"/>
  <object id="2544" template="ShakyFloor.tx" x="800" y="-768"/>
  <object id="2545" template="ShakyFloor.tx" x="800" y="-800"/>
  <object id="2546" template="ShakyFloor.tx" x="832" y="-800"/>
  <object id="2547" template="ShakyFloor.tx" x="832" y="-832"/>
  <object id="2548" template="ShakyFloor.tx" x="832" y="-864"/>
  <object id="2549" template="ShakyFloor.tx" x="800" y="-864"/>
  <object id="2550" template="ShakyFloor.tx" x="800" y="-896"/>
  <object id="2551" template="ShakyFloor.tx" x="800" y="-928"/>
  <object id="2552" template="ShakyFloor.tx" x="832" y="-928"/>
  <object id="2553" template="ShakyFloor.tx" x="832" y="-960"/>
  <object id="2554" template="ShakyFloor.tx" x="832" y="-992"/>
  <object id="2555" template="ShakyFloor.tx" x="832" y="-1024"/>
  <object id="2556" template="ShakyFloor.tx" x="832" y="-1056"/>
  <object id="2557" template="ShakyFloor.tx" x="832" y="-1088"/>
  <object id="2558" template="ShakyFloor.tx" x="832" y="-1120"/>
  <object id="2559" template="ShakyFloor.tx" x="832" y="-1152"/>
  <object id="2560" template="ShakyFloor.tx" x="832" y="-1184"/>
  <object id="2561" template="ShakyFloor.tx" x="832" y="-1216"/>
  <object id="2562" template="ShakyFloor.tx" x="832" y="-1248"/>
  <object id="2563" template="ShakyFloor.tx" x="832" y="-1408"/>
  <object id="2564" template="ShakyFloor.tx" x="832" y="-1440"/>
  <object id="2565" template="ShakyFloor.tx" x="832" y="-1472"/>
  <object id="2566" template="ShakyFloor.tx" x="832" y="-1504"/>
  <object id="2567" template="ShakyFloor.tx" x="832" y="-1536"/>
  <object id="2568" template="ShakyFloor.tx" x="832" y="-1568"/>
  <object id="2569" template="ShakyFloor.tx" x="832" y="-1696"/>
  <object id="2570" template="ShakyFloor.tx" x="832" y="-1728"/>
 </objectgroup>
 <layer id="41" name="SecretWay2" width="32" height="32" opacity="0">
  <data encoding="csv">
   <chunk x="-80" y="-32" width="16" height="16">
0,0,0,0,0,0,0,0,0,0,0,0,0,0,0,0,
0,0,0,0,0,0,0,0,0,0,0,0,0,0,0,0,
0,0,0,0,0,0,0,0,0,0,0,0,0,0,0,0,
0,0,0,0,0,0,0,0,0,0,0,0,0,0,0,0,
0,0,0,0,0,0,0,0,0,0,0,0,0,0,0,0,
0,0,0,0,0,0,0,0,0,0,0,0,0,0,0,0,
0,0,0,0,0,0,0,0,0,0,0,0,0,0,0,0,
0,0,0,0,0,0,0,0,0,0,0,0,0,0,0,0,
0,0,0,0,0,0,0,0,0,0,12,12,0,0,0,0,
0,0,0,0,0,0,0,0,0,0,76,78,0,0,0,0,
0,0,0,0,0,0,0,0,0,0,0,0,0,0,0,0,
0,0,0,0,0,0,0,0,0,0,0,0,0,0,0,0,
0,0,0,0,0,0,0,0,0,0,0,0,0,0,0,0,
0,0,0,0,0,0,0,0,0,0,0,0,0,0,0,0,
0,0,0,0,0,0,0,0,0,0,0,0,0,0,0,0,
0,0,0,0,0,0,0,0,0,0,0,0,0,0,0,0
</chunk>
  </data>
 </layer>
 <layer id="2" name="Floor" width="32" height="32">
  <data encoding="csv">
   <chunk x="16" y="-64" width="16" height="16">
0,0,0,0,0,0,0,0,0,0,0,0,0,0,0,0,
0,0,0,0,0,0,0,0,0,0,0,0,0,0,0,0,
0,0,0,0,0,0,0,0,0,97,98,98,98,98,98,98,
0,0,0,0,0,0,0,0,0,113,114,114,114,114,114,114,
0,0,0,0,0,0,0,0,0,113,114,114,114,114,114,114,
0,0,0,0,0,0,0,0,0,113,114,114,114,114,114,114,
0,0,0,0,0,0,0,0,0,129,114,114,0,0,0,0,
0,0,0,0,0,0,0,0,0,0,0,0,0,0,0,0,
0,0,0,0,0,0,0,0,0,0,0,0,0,0,0,0,
0,0,0,0,0,0,0,0,0,0,0,0,0,0,0,0,
0,0,0,0,0,0,0,0,0,0,0,0,0,0,0,0,
0,0,0,0,0,0,0,0,0,0,0,0,0,0,0,0,
0,0,0,0,0,0,0,0,0,0,0,0,0,0,0,0,
0,0,0,0,0,0,0,0,0,0,0,0,0,0,0,0,
0,0,0,0,0,0,0,0,0,0,0,0,0,0,0,0,
0,0,0,0,0,0,0,0,0,0,0,0,0,0,0,0
</chunk>
   <chunk x="32" y="-64" width="16" height="16">
0,0,0,0,0,0,0,0,0,0,0,0,0,0,0,0,
0,0,0,0,0,0,0,0,0,0,0,0,0,0,0,0,
98,98,98,98,98,99,0,0,0,0,0,0,0,0,0,0,
114,114,114,114,114,115,0,0,0,0,0,0,0,0,0,0,
114,114,114,114,114,115,0,0,0,0,0,0,0,0,0,0,
114,114,114,114,114,115,0,0,0,0,0,0,0,0,0,0,
0,0,0,0,0,0,0,0,0,0,0,0,0,0,0,0,
0,0,0,0,0,0,0,0,0,0,0,0,0,0,0,0,
0,0,0,0,0,0,0,0,0,0,0,0,0,0,0,0,
0,0,0,0,0,0,0,0,0,0,0,0,0,0,0,0,
0,0,0,0,0,0,0,0,0,0,0,0,0,0,0,0,
0,0,0,0,0,0,0,0,0,0,0,0,0,0,0,0,
0,0,0,0,0,0,0,0,0,0,0,0,0,0,0,0,
0,0,0,0,0,0,0,0,0,0,0,0,0,0,0,0,
0,0,0,0,0,0,0,0,0,0,0,0,0,0,0,0,
0,0,0,0,0,0,0,0,0,0,0,0,0,0,0,0
</chunk>
   <chunk x="-48" y="-48" width="16" height="16">
0,0,0,0,0,0,0,0,0,0,0,0,0,0,0,0,
0,0,0,0,0,0,0,0,0,0,0,0,0,0,0,0,
0,0,0,0,0,0,0,0,0,0,0,0,0,0,0,0,
0,0,0,0,0,0,0,0,0,0,0,0,0,0,0,0,
0,0,0,0,0,0,0,0,0,0,0,0,0,0,0,0,
0,0,0,0,0,0,0,0,0,0,0,0,0,0,0,0,
0,0,0,0,0,0,0,0,0,0,0,0,0,0,0,0,
0,0,0,0,0,0,0,0,0,0,0,0,0,0,0,0,
0,0,0,0,0,0,0,0,0,0,0,0,0,0,0,0,
0,0,0,0,0,0,0,0,0,0,0,0,0,0,0,0,
0,0,0,0,0,0,0,0,0,0,0,0,0,0,0,0,
0,0,0,0,0,0,0,0,0,0,0,0,0,0,0,0,
0,0,0,0,0,0,0,0,0,0,0,0,0,0,0,0,
0,0,0,0,0,0,0,0,0,0,0,0,0,0,0,0,
0,0,0,0,0,0,0,0,0,0,0,0,0,0,0,0,
0,0,0,0,0,0,0,0,0,0,0,0,0,0,0,114
</chunk>
   <chunk x="16" y="-48" width="16" height="16">
0,0,0,0,0,0,0,0,0,0,0,0,0,0,0,0,
0,0,0,0,0,0,0,0,0,0,0,0,0,0,0,0,
0,0,0,0,0,0,0,0,0,0,0,0,0,0,0,0,
0,0,0,0,0,0,0,0,0,0,0,0,0,0,0,0,
0,0,0,0,0,0,0,0,114,0,0,0,114,0,0,0,
0,0,0,0,0,0,0,0,0,0,0,0,0,0,0,0,
0,0,0,0,0,0,0,0,0,0,0,0,0,0,0,0,
0,0,0,0,0,0,0,0,0,0,0,0,0,0,0,0,
0,0,0,0,0,0,0,0,0,0,0,0,0,0,0,0,
0,0,0,0,0,0,0,0,0,0,0,0,0,0,0,0,
0,0,0,0,0,0,0,0,0,0,0,0,0,0,0,0,
0,0,0,0,0,0,0,0,0,0,0,0,0,0,0,0,
0,0,0,0,0,0,0,0,0,0,0,0,0,0,0,0,
0,0,0,0,0,0,0,0,0,0,0,0,0,0,0,0,
0,0,0,0,0,0,0,0,0,0,0,0,0,0,0,0,
0,0,0,0,0,0,0,0,0,0,0,0,0,0,0,0
</chunk>
   <chunk x="-80" y="-32" width="16" height="16">
0,0,0,0,0,0,0,0,0,0,0,0,0,0,0,0,
0,0,0,0,0,0,0,0,0,0,0,0,0,0,0,0,
0,0,0,0,0,0,0,0,0,0,0,0,0,0,0,0,
0,0,0,0,0,0,0,0,0,0,0,0,0,0,0,0,
0,0,0,0,0,0,0,0,0,0,0,0,0,0,0,0,
0,0,0,0,0,0,0,0,0,0,0,0,0,0,0,0,
0,0,0,0,0,0,0,0,0,0,0,0,0,0,0,0,
0,0,0,0,0,114,108,99,0,0,0,0,117,114,114,116,
0,0,0,0,0,114,117,131,98,109,0,0,130,114,133,114,
0,0,0,0,0,0,132,133,134,0,0,0,2147483766,114,114,114,
0,0,0,0,0,0,0,0,0,0,0,0,0,117,114,0,
0,0,0,0,0,0,0,0,0,0,0,0,0,2147483749,130,0,
0,0,0,0,0,0,0,0,0,0,0,0,0,114,114,0,
0,0,0,0,114,0,0,0,0,0,0,0,0,101,114,0,
0,0,0,0,0,0,0,0,0,0,0,0,0,114,114,0,
0,0,0,0,0,0,0,0,0,0,114,114,0,114,134,0
</chunk>
   <chunk x="-64" y="-32" width="16" height="16">
0,0,0,0,0,0,0,0,0,0,0,0,0,0,0,0,
0,0,0,0,0,0,0,0,0,0,0,0,0,0,0,114,
0,0,0,0,0,0,0,0,0,0,0,0,0,0,114,114,
0,0,0,0,0,0,0,0,0,0,0,0,0,0,0,0,
0,0,0,0,0,0,0,0,0,0,0,0,0,0,117,114,
0,0,0,0,0,0,0,0,0,0,0,0,0,133,114,114,
0,0,0,0,0,0,0,0,0,0,0,0,0,114,114,114,
0,0,0,0,0,0,114,114,114,114,114,0,130,114,114,101,
114,114,114,117,114,114,130,114,114,114,114,114,114,114,114,0,
0,0,0,0,0,0,114,114,114,132,118,0,134,114,114,114,
0,0,0,0,0,0,0,0,0,0,0,0,0,114,114,114,
0,0,0,0,0,0,0,0,0,0,0,0,0,133,114,114,
0,0,0,114,114,0,0,0,0,0,0,0,0,0,114,114,
114,0,0,114,130,114,0,0,0,0,0,0,0,0,0,0,
0,0,0,0,101,114,0,0,0,0,0,0,0,0,114,114,
0,0,0,0,0,114,114,0,0,0,0,0,0,0,0,114
</chunk>
   <chunk x="-48" y="-32" width="16" height="16">
0,0,0,0,0,0,0,0,0,0,0,0,114,114,114,114,
114,114,0,114,114,114,0,0,0,0,0,0,114,0,0,0,
114,114,114,114,114,114,114,0,0,0,0,0,114,0,0,0,
0,0,114,0,0,0,0,0,0,0,0,0,114,0,114,0,
114,114,114,114,134,114,101,0,0,0,0,0,114,0,0,0,
114,117,114,114,114,114,114,0,0,0,0,0,114,0,0,0,
114,114,114,118,114,114,133,114,0,114,101,114,114,0,0,0,
114,114,130,114,114,132,114,114,114,114,0,0,0,0,0,0,
0,0,0,0,0,0,0,114,134,114,0,0,0,0,0,0,
114,114,114,134,114,114,114,114,114,114,0,0,0,0,0,0,
134,114,114,114,114,101,114,114,0,2147483782,114,114,114,0,0,114,
114,114,117,114,114,114,114,0,0,0,0,0,114,0,0,114,
114,114,114,114,114,114,114,0,0,0,0,0,114,0,0,114,
0,0,0,0,0,0,0,0,0,0,0,0,114,114,114,114,
114,114,114,114,114,114,114,0,0,0,0,0,0,0,0,114,
114,114,114,114,114,114,0,0,0,0,0,0,0,0,0,114
</chunk>
   <chunk x="-32" y="-32" width="16" height="16">
114,114,114,114,114,114,114,0,0,0,0,0,0,0,0,0,
0,114,0,114,0,0,114,0,0,0,0,0,0,114,114,114,
0,114,0,0,0,0,114,0,0,0,0,0,114,114,0,114,
114,130,114,0,130,0,114,0,0,0,0,0,0,114,114,114,
114,114,114,0,0,0,114,0,0,0,0,0,0,0,114,0,
0,0,0,0,0,0,114,0,0,0,0,0,114,114,114,114,
0,0,0,0,0,0,114,114,114,114,0,114,114,0,0,0,
0,0,0,0,0,0,0,0,0,130,114,114,101,0,0,0,
0,0,0,0,0,0,0,0,0,114,114,114,0,0,0,0,
0,114,0,0,0,0,0,0,0,114,114,114,114,0,0,0,
0,114,0,114,0,0,114,114,117,114,0,134,114,114,114,114,
0,114,0,114,0,0,114,0,0,0,0,0,130,114,114,114,
114,114,0,114,0,0,114,0,0,0,0,0,0,114,114,114,
114,114,114,114,114,114,101,0,0,0,0,0,0,0,0,0,
0,114,114,114,0,0,0,0,0,0,0,0,0,0,0,0,
0,114,0,114,0,0,0,0,0,0,0,0,0,0,0,0
</chunk>
   <chunk x="-16" y="-32" width="16" height="16">
0,0,0,0,0,0,0,0,0,0,0,0,0,0,0,0,
0,0,0,0,0,0,0,0,0,0,0,0,0,0,0,0,
114,0,0,0,0,0,0,0,0,0,0,0,0,0,0,0,
0,0,0,0,0,0,0,0,0,0,0,0,0,0,0,0,
0,0,0,0,0,0,0,0,0,0,0,12,12,12,12,12,
114,114,114,114,114,114,114,0,0,0,0,0,0,0,0,0,
0,0,114,114,0,0,114,0,0,0,0,0,0,0,0,0,
114,114,114,114,0,0,114,114,130,114,114,0,0,114,0,0,
0,0,0,0,0,0,117,114,114,114,114,114,114,130,114,114,
114,0,0,0,0,0,114,114,114,114,134,0,114,114,114,0,
114,114,114,114,114,0,114,0,0,0,0,0,0,0,0,0,
114,114,114,114,114,114,114,0,0,0,0,0,0,0,0,0,
114,114,114,114,114,0,0,0,0,0,0,0,0,0,0,0,
0,0,0,0,114,0,0,0,0,0,0,0,0,0,0,0,
0,0,0,0,0,0,0,0,0,0,0,0,0,0,0,0,
0,0,0,0,0,0,0,0,0,0,0,0,0,0,0,0
</chunk>
   <chunk x="0" y="-32" width="16" height="16">
0,0,0,0,0,0,0,0,0,0,0,0,0,0,0,0,
0,0,0,0,0,0,0,0,0,0,0,0,0,0,0,0,
0,0,0,0,0,0,0,0,0,0,0,0,0,0,0,0,
0,0,0,0,0,0,0,0,0,0,0,0,0,0,0,0,
0,0,0,0,0,0,0,0,0,0,0,0,0,0,0,0,
0,0,0,0,0,0,0,0,0,0,0,0,0,0,0,0,
0,0,0,0,0,114,0,0,0,0,0,114,0,0,0,0,
0,0,0,0,0,114,0,0,0,0,0,2684354674,0,0,0,0,
114,132,114,114,134,114,2684354674,2684354674,2684354674,2684354674,130,2684354674,2684354674,2684354674,114,132,
0,0,0,0,0,0,0,0,2684354674,0,0,0,0,0,0,0,
0,0,0,0,0,0,0,0,114,0,0,0,0,0,0,0,
0,0,0,0,0,0,0,0,0,0,0,0,0,0,0,0,
0,0,0,0,0,0,0,0,0,0,0,0,0,0,0,0,
0,0,0,0,0,0,0,0,0,0,0,0,0,0,0,0,
0,0,0,0,0,0,0,0,0,0,0,0,0,0,0,0,
0,0,0,0,0,0,0,0,0,0,0,0,0,0,0,0
</chunk>
   <chunk x="16" y="-32" width="16" height="16">
0,0,0,0,0,0,0,0,0,0,0,0,0,0,0,0,
0,0,0,0,0,0,0,0,0,0,0,0,0,0,0,0,
0,0,0,0,0,0,0,0,0,0,0,0,0,0,0,0,
0,0,0,0,0,0,0,0,0,0,0,0,0,0,0,0,
0,0,0,0,0,0,0,0,0,0,0,0,0,0,0,0,
0,0,0,0,0,0,0,0,0,0,0,0,0,0,0,0,
0,0,0,0,0,0,0,0,0,0,0,0,0,0,0,0,
0,0,0,0,0,0,0,0,0,0,0,0,0,0,0,0,
114,114,114,0,0,0,0,0,0,101,0,0,0,0,0,0,
0,0,0,0,0,0,0,0,0,114,0,0,0,0,0,0,
0,0,0,0,0,0,0,114,134,132,0,0,0,0,0,0,
0,0,0,0,0,0,0,0,0,0,0,0,0,0,0,0,
0,0,0,0,0,0,0,0,0,0,0,0,0,0,0,0,
0,0,0,0,0,0,0,0,0,0,0,0,0,0,0,0,
0,0,0,0,0,0,0,0,0,0,0,0,0,0,0,0,
0,0,0,0,0,0,0,0,0,0,0,0,0,0,0,0
</chunk>
   <chunk x="-80" y="-16" width="16" height="16">
0,0,0,0,0,0,0,0,0,0,0,0,0,117,114,0,
0,0,0,0,0,0,0,0,0,0,0,0,0,114,114,114,
0,0,0,0,0,0,0,0,0,0,0,0,0,114,114,114,
0,0,0,0,0,0,0,0,0,0,0,0,0,0,0,0,
0,0,0,0,0,0,0,0,0,0,0,0,0,0,0,0,
0,0,0,0,0,0,0,0,0,0,0,0,0,0,0,0,
0,0,0,0,0,0,0,0,0,0,0,0,0,0,0,0,
0,0,0,0,0,0,0,0,0,0,0,0,0,0,0,0,
0,0,0,0,0,0,0,0,0,0,0,0,0,0,0,0,
0,0,0,0,0,0,0,0,0,0,0,0,0,0,0,0,
0,0,0,0,0,0,0,0,0,0,0,0,0,0,0,0,
0,0,0,0,0,0,0,0,0,0,0,0,0,0,0,0,
0,0,0,0,0,0,0,0,0,0,0,0,0,0,0,0,
0,0,0,0,0,0,0,0,0,0,0,0,0,0,0,0,
0,0,0,0,0,0,0,0,0,0,0,0,0,0,0,0,
0,0,0,0,0,0,0,0,0,0,0,0,0,0,0,0
</chunk>
   <chunk x="-64" y="-16" width="16" height="16">
0,101,114,114,114,114,114,114,114,0,0,0,0,0,0,0,
114,114,114,114,117,114,133,114,114,114,114,114,114,114,0,0,
114,114,101,114,114,114,132,114,114,114,114,114,114,114,0,0,
0,114,114,114,114,114,114,114,130,0,0,0,114,114,0,0,
0,0,0,0,0,0,0,0,0,0,114,0,2147483749,114,0,114,
0,0,0,0,0,0,0,0,0,0,0,0,114,101,0,0,
0,114,114,0,0,0,0,0,0,0,0,0,114,130,0,0,
114,101,114,114,0,0,0,0,0,0,114,114,114,114,114,114,
0,114,114,132,0,0,0,0,0,114,114,117,0,0,134,114,
0,0,0,0,0,0,0,0,0,114,114,0,0,0,0,132,
0,0,0,0,0,0,0,0,0,114,0,0,0,0,0,0,
0,0,0,0,0,0,0,0,0,114,0,0,0,0,0,0,
0,0,0,0,0,0,0,0,0,133,114,0,0,0,0,114,
0,0,0,0,0,0,114,130,0,114,114,132,0,0,2147483749,114,
0,0,0,0,0,0,0,0,0,0,114,130,133,114,114,114,
0,0,0,0,0,0,0,0,0,0,0,0,114,114,0,0
</chunk>
   <chunk x="-48" y="-16" width="16" height="16">
0,0,0,0,0,0,0,0,0,0,0,0,0,0,0,114,
0,0,0,0,0,0,0,0,0,0,0,0,0,0,0,0,
0,0,0,0,0,0,0,0,0,0,0,0,0,0,0,0,
0,0,0,0,0,0,0,0,0,0,0,0,0,0,0,0,
0,0,0,0,0,0,0,0,0,0,0,0,0,0,0,0,
0,0,0,0,0,0,0,0,0,0,0,0,0,0,0,0,
0,0,2147483749,114,0,0,0,0,0,0,0,0,0,0,0,0,
0,0,0,130,0,0,0,0,0,0,0,0,0,0,0,0,
114,0,0,0,0,0,0,0,0,0,0,0,0,0,0,0,
114,0,0,0,0,0,0,0,0,0,0,0,0,0,0,0,
114,0,0,0,0,0,0,0,0,0,0,0,0,0,0,0,
114,0,0,0,0,0,0,0,0,0,0,0,0,0,0,0,
114,0,0,0,0,0,0,0,0,0,0,0,0,0,0,0,
114,0,114,114,0,0,0,0,0,0,0,0,0,0,0,0,
0,0,0,0,0,0,0,0,0,0,0,0,0,0,0,0,
0,0,0,0,0,0,0,0,0,0,0,0,0,0,0,0
</chunk>
   <chunk x="-32" y="-16" width="16" height="16">
0,114,0,0,0,0,0,0,0,0,0,0,0,0,0,0,
0,0,0,0,0,0,0,0,0,0,0,0,0,0,0,0,
0,0,0,0,0,0,0,0,0,0,0,0,0,0,0,0,
0,0,0,0,0,0,0,0,0,0,0,0,0,0,0,0,
0,0,0,0,0,0,0,0,0,0,0,0,0,0,0,0,
0,0,0,0,0,0,0,0,0,0,0,0,0,0,0,0,
0,0,0,0,0,0,0,0,0,0,0,0,0,0,0,0,
0,0,0,0,0,0,0,0,0,0,0,0,0,0,0,0,
0,0,0,0,0,0,0,0,0,0,0,0,0,0,0,0,
0,0,0,0,0,0,0,0,0,0,0,0,0,0,0,0,
0,0,0,0,0,0,0,0,0,0,0,0,0,0,0,0,
0,0,0,0,0,0,0,0,0,0,0,0,0,0,0,0,
0,0,0,0,0,0,0,0,0,0,0,0,0,0,0,0,
0,0,0,0,0,0,0,0,0,0,0,0,0,0,0,0,
0,0,0,0,0,0,0,0,0,0,0,0,0,0,97,98,
0,0,0,0,0,0,0,0,0,0,0,0,0,0,113,114
</chunk>
   <chunk x="-16" y="-16" width="16" height="16">
0,0,0,0,0,0,0,0,0,0,0,0,0,0,0,0,
0,0,0,0,0,0,0,0,0,0,0,0,0,0,0,0,
0,0,0,0,0,0,0,0,0,0,0,0,0,0,0,0,
0,0,0,0,0,0,0,0,0,0,0,0,0,0,0,0,
0,0,0,0,0,0,0,0,0,0,0,0,0,0,0,0,
0,0,0,0,0,0,0,0,0,0,0,0,0,0,0,0,
0,0,0,0,0,0,0,0,0,0,0,0,0,0,0,0,
0,0,0,0,0,0,0,0,0,0,0,0,0,0,0,0,
0,0,0,0,0,0,0,0,0,0,0,0,0,0,0,0,
0,0,0,0,0,0,0,0,0,0,0,0,0,0,0,0,
0,0,0,0,0,0,0,0,0,0,0,0,0,0,0,0,
0,0,0,0,0,0,0,0,0,0,0,0,0,0,0,0,
0,0,0,0,0,0,0,0,0,0,0,0,0,0,0,0,
0,0,0,0,0,0,0,0,0,0,0,0,0,0,0,0,
72,75,0,0,71,73,73,75,0,0,71,74,98,99,0,0,
132,115,0,0,87,130,114,91,0,0,87,2147483778,114,115,0,0
</chunk>
   <chunk x="-96" y="0" width="16" height="16">
0,0,0,0,0,0,0,0,0,0,0,0,0,0,0,0,
0,0,0,0,0,0,0,0,0,0,0,0,0,0,0,0,
0,0,0,0,0,0,0,0,0,0,0,0,0,0,0,0,
0,0,0,0,0,0,0,0,0,0,0,0,0,0,0,0,
0,0,0,0,0,0,0,0,0,0,0,0,0,0,0,0,
0,0,0,0,0,0,0,0,0,0,0,0,0,0,0,0,
0,0,0,0,0,0,0,0,0,0,0,0,0,0,0,0,
0,0,0,0,0,0,0,0,0,0,0,0,0,0,0,0,
0,0,0,0,0,0,0,0,0,0,0,0,0,0,0,0,
0,0,0,0,0,0,0,0,0,0,0,0,0,0,0,0,
0,0,0,0,0,0,0,0,0,0,0,0,0,0,0,0,
0,0,0,0,0,0,0,0,0,0,0,0,0,0,0,0,
0,0,0,0,0,0,0,0,0,0,0,0,0,0,0,0,
0,0,0,0,0,0,0,0,0,0,114,0,0,0,114,0,
0,0,0,0,0,0,0,0,0,0,114,0,114,0,117,0,
0,0,0,0,0,0,0,114,101,114,114,114,114,114,2147483780,114
</chunk>
   <chunk x="-80" y="0" width="16" height="16">
0,0,0,0,0,0,0,0,0,0,0,0,0,0,0,0,
0,0,0,0,0,0,0,0,0,0,0,0,0,0,0,0,
0,0,0,0,0,0,0,0,0,0,0,0,0,0,0,0,
0,0,0,0,0,0,0,0,0,0,0,0,0,0,0,0,
0,0,0,0,0,0,0,0,0,0,0,0,0,0,0,0,
0,0,0,0,0,0,0,0,0,0,0,0,0,0,0,114,
0,0,0,0,0,0,0,0,0,0,0,0,0,0,0,114,
0,0,0,0,0,0,0,0,0,0,0,0,0,0,0,0,
0,0,0,0,0,0,0,0,0,0,0,0,0,0,0,0,
0,0,0,0,0,0,0,0,0,0,0,0,0,0,0,0,
0,0,0,0,0,0,0,0,0,0,0,0,0,0,0,0,
0,0,0,0,0,0,0,0,0,0,0,0,0,0,0,0,
0,0,0,0,0,0,0,0,0,0,0,0,0,0,0,0,
0,0,0,0,0,0,0,0,0,0,0,0,0,0,0,0,
0,0,0,0,0,0,0,0,0,0,0,0,0,0,0,0,
0,0,0,0,0,0,0,0,0,0,0,0,0,0,0,0
</chunk>
   <chunk x="-64" y="0" width="16" height="16">
0,0,0,0,0,114,114,0,0,0,114,0,114,114,0,114,
0,0,0,0,114,114,114,0,0,0,0,0,114,114,0,0,
0,0,0,0,0,0,0,0,0,0,0,0,114,114,0,0,
0,0,0,0,0,0,0,114,114,114,114,114,130,132,0,0,
0,0,0,0,0,0,0,114,0,0,0,0,0,0,0,0,
114,114,114,0,0,0,0,114,0,0,0,0,0,0,0,0,
114,0,0,0,0,0,0,114,0,0,0,0,0,0,0,0,
0,0,0,0,0,0,0,114,0,0,0,0,0,0,0,0,
0,0,0,0,0,0,0,2147483749,114,114,114,101,0,0,0,0,
0,0,0,0,0,0,0,0,0,0,130,132,0,0,0,0,
0,0,0,0,0,0,0,0,0,0,114,114,0,0,0,0,
0,0,0,0,0,0,0,0,0,0,114,114,0,114,114,117,
0,0,0,0,0,0,0,0,0,0,114,133,0,130,132,114,
0,0,0,0,0,0,0,0,0,0,114,114,0,0,114,2147483749,
0,0,0,0,0,0,0,0,0,0,116,114,0,0,0,0,
0,0,0,0,0,0,0,0,0,0,114,117,0,0,0,0
</chunk>
   <chunk x="-48" y="0" width="16" height="16">
0,0,0,0,0,0,0,0,0,0,0,0,0,0,0,0,
0,0,0,0,0,0,0,0,0,0,0,0,0,0,0,0,
0,0,0,0,0,0,0,0,0,0,0,0,0,0,0,0,
0,0,0,0,0,0,0,0,0,0,0,0,0,0,0,0,
0,0,0,0,0,0,0,0,0,0,0,0,0,0,0,0,
0,0,0,0,0,0,0,0,0,0,0,0,0,0,0,0,
0,0,0,0,0,0,0,0,0,0,0,0,0,0,0,0,
0,0,0,0,0,0,0,0,0,0,0,0,0,0,0,0,
0,0,0,0,0,0,0,0,0,0,0,0,0,0,0,0,
0,0,0,0,0,0,0,0,0,0,0,0,0,0,0,0,
0,0,0,0,0,0,0,0,0,0,0,0,0,0,0,0,
114,0,0,0,0,0,0,0,0,0,0,0,0,0,0,0,
114,114,0,0,0,0,0,0,0,0,0,0,0,0,0,0,
0,0,0,0,0,0,0,0,0,0,0,0,0,0,0,0,
0,0,0,0,0,0,0,0,0,0,0,0,0,0,0,0,
0,0,0,0,0,0,0,0,0,0,0,0,0,0,0,0
</chunk>
   <chunk x="-32" y="0" width="16" height="16">
0,0,0,0,0,0,0,0,0,0,0,0,0,0,113,114,
0,0,0,0,0,0,0,0,0,0,0,0,0,0,113,133,
0,0,0,0,0,0,0,0,0,0,0,0,0,0,0,114,
0,0,0,0,0,0,97,98,98,98,98,99,0,0,0,114,
0,0,0,0,0,0,113,133,114,114,114,115,0,0,0,114,
0,0,0,0,0,0,113,130,114,114,114,115,0,0,0,114,
0,97,99,0,0,0,113,114,114,101,114,115,0,0,0,97,
97,129,131,98,98,98,129,134,114,114,130,131,98,97,98,129,
0,0,0,0,0,0,0,0,114,114,0,0,0,113,117,101,
0,0,0,0,0,0,0,0,114,114,0,0,0,0,0,114,
0,0,0,0,0,0,0,0,114,114,0,0,0,0,0,114,
0,0,0,0,0,0,0,0,97,99,0,0,0,0,0,114,
0,0,0,0,0,0,0,0,113,115,0,0,0,0,0,114,
0,0,0,0,0,0,0,0,113,115,0,0,0,0,0,97,
0,0,0,0,0,0,0,0,113,115,0,0,0,0,97,129,
0,0,0,0,0,0,0,0,113,115,0,0,0,0,113,114
</chunk>
   <chunk x="-16" y="0" width="16" height="16">
117,115,0,0,87,133,118,91,0,0,113,114,114,115,0,0,
114,115,0,0,113,114,2147483780,91,0,0,113,2147483749,114,115,0,0,
114,0,0,0,0,114,114,0,0,0,0,114,132,0,0,0,
114,0,0,0,0,114,114,0,0,0,0,114,114,0,0,0,
117,0,0,0,0,114,130,0,0,0,0,130,114,0,0,0,
114,0,0,0,0,114,114,0,0,0,0,114,114,0,0,0,
99,0,0,0,0,97,99,0,0,0,0,97,99,0,0,0,
131,98,98,72,74,129,131,72,73,74,98,129,131,99,0,0,
114,114,2147483782,130,114,114,2147483781,134,114,114,114,114,130,115,0,0,
132,0,0,0,0,114,114,0,0,0,0,133,114,0,0,0,
114,0,0,0,0,114,114,0,0,0,0,114,114,0,0,0,
114,0,0,0,0,130,114,0,0,0,0,114,114,0,0,0,
114,0,0,0,0,114,114,0,0,0,0,132,114,0,0,0,
99,0,0,0,0,97,99,0,0,0,0,97,99,0,0,0,
131,99,0,0,97,129,131,99,0,0,97,129,131,99,0,0,
132,115,0,0,113,114,2147483764,115,0,0,113,130,101,115,0,0
</chunk>
   <chunk x="-96" y="16" width="16" height="16">
0,0,0,0,0,0,0,0,0,114,114,117,114,114,114,114,
0,0,0,0,0,0,0,0,114,114,114,114,114,114,0,114,
0,0,0,0,0,0,0,0,0,101,114,114,116,114,117,114,
0,0,0,0,0,0,0,0,114,114,114,114,114,132,114,114,
0,0,0,0,0,0,0,0,0,134,114,114,134,114,114,114,
0,0,0,0,0,0,0,0,114,114,114,133,114,114,114,114,
0,0,0,0,0,0,0,0,0,101,0,0,0,0,0,0,
0,0,0,0,0,0,0,0,0,114,0,0,114,0,0,0,
0,0,0,0,114,114,114,114,114,114,0,0,0,0,0,0,
0,0,0,114,114,114,114,114,114,114,0,0,0,0,0,0,
0,0,0,114,132,114,114,114,114,0,0,0,0,0,0,0,
0,0,0,114,114,114,114,114,114,0,0,0,0,0,0,0,
0,0,0,0,114,114,117,114,114,0,0,0,0,0,0,491,
0,0,0,0,114,101,114,114,114,0,0,0,0,0,97,98,
0,0,0,0,0,114,114,114,114,114,108,98,98,98,129,2147483781,
0,0,0,0,114,114,114,133,114,0,0,0,0,0,114,114
</chunk>
   <chunk x="-80" y="16" width="16" height="16">
0,0,0,0,0,0,0,0,0,0,0,0,0,0,0,0,
0,0,0,0,0,0,0,0,0,0,0,0,0,0,0,0,
0,0,0,0,0,0,0,0,0,0,0,0,0,0,0,0,
0,0,0,0,0,0,0,0,0,97,98,98,98,98,98,98,
133,2147483780,114,108,98,98,98,98,98,129,114,117,132,114,114,117,
0,0,0,0,0,0,0,0,0,130,114,133,134,134,114,114,
0,0,0,0,0,0,0,0,0,0,0,0,0,0,0,0,
0,0,0,0,0,0,0,0,0,0,0,0,0,0,0,0,
0,0,0,0,0,0,0,0,0,0,0,0,0,0,0,0,
0,0,0,0,0,0,0,0,0,0,0,0,0,0,0,0,
0,0,0,0,0,0,0,0,0,0,0,0,0,0,0,0,
0,0,0,0,0,0,0,0,0,0,0,0,0,0,0,0,
491,0,0,0,0,0,0,0,0,0,0,0,0,0,0,0,
98,99,0,0,0,0,0,0,0,0,0,0,0,0,0,0,
130,115,0,0,0,0,0,0,0,0,0,0,0,0,0,0,
132,115,0,0,0,0,0,0,0,0,0,0,0,0,0,0
</chunk>
   <chunk x="-64" y="16" width="16" height="16">
0,0,0,0,0,0,0,0,0,0,2684354718,2684354718,0,0,0,0,
0,0,0,0,0,0,0,0,0,0,102,100,0,0,0,0,
0,0,0,0,0,0,0,0,0,0,113,115,0,0,0,0,
98,98,98,98,98,98,98,98,98,98,129,131,99,0,0,0,
101,132,114,114,118,116,114,117,114,132,117,134,115,0,0,0,
132,114,134,114,134,117,114,114,114,101,114,101,115,0,0,0,
0,0,0,0,0,0,0,0,0,0,0,0,0,0,0,0,
0,0,0,0,0,0,0,0,0,0,0,0,0,0,0,0,
0,0,0,0,0,0,0,0,0,0,0,0,0,0,0,0,
0,0,0,0,0,0,0,0,0,0,0,0,0,0,0,0,
0,0,0,0,0,0,0,0,0,0,0,0,0,0,0,0,
0,0,0,0,0,0,0,0,0,0,0,0,0,0,0,0,
0,0,0,0,0,0,0,0,0,0,0,0,0,0,0,0,
0,0,0,0,0,0,0,0,0,0,0,0,0,0,0,0,
0,0,0,0,0,0,0,0,0,0,0,0,0,0,0,0,
0,0,0,0,0,0,0,0,0,0,0,0,0,0,0,0
</chunk>
   <chunk x="-32" y="16" width="16" height="16">
0,0,0,0,0,0,0,0,113,115,0,0,0,0,113,117,
0,0,0,0,0,0,0,0,113,115,0,0,0,0,113,133,
0,0,0,0,0,0,0,0,113,115,0,0,0,0,0,0,
0,0,0,0,0,0,0,0,113,115,0,0,0,0,0,0,
0,0,0,0,0,0,0,0,113,115,0,0,0,0,0,0,
0,0,0,0,0,0,0,0,113,115,0,0,0,0,0,0,
0,0,0,0,0,0,0,97,129,131,99,0,0,0,0,0,
0,0,0,0,0,0,97,129,130,114,131,99,0,0,0,0,
0,0,0,0,0,0,113,114,114,114,132,115,0,0,0,0,
0,0,0,0,0,0,113,2147483780,114,114,114,115,0,0,0,0,
0,0,0,0,0,0,113,114,114,130,134,115,0,0,0,0,
0,0,0,0,0,0,113,114,114,114,114,115,0,0,0,0,
0,0,0,0,0,0,0,114,114,114,114,0,0,0,0,0,
0,0,0,0,0,0,0,0,2147483782,114,0,0,0,0,0,0,
0,0,0,0,0,0,0,0,130,132,0,0,0,0,0,0,
0,0,0,0,0,0,0,0,102,100,0,0,0,0,0,0
</chunk>
   <chunk x="-16" y="16" width="16" height="16">
114,115,0,0,113,130,117,115,0,0,113,114,114,115,0,0,
130,115,0,0,113,133,114,115,0,0,113,116,134,115,0,0,
0,0,0,0,0,0,0,0,0,0,0,0,0,0,0,0,
0,0,0,0,0,0,0,0,0,0,0,0,0,0,0,0,
0,0,0,0,0,0,0,0,0,0,0,0,0,0,0,0,
0,0,0,0,0,0,0,0,0,0,0,0,0,0,0,0,
0,0,0,0,0,0,0,0,0,0,0,0,0,0,0,0,
0,0,0,0,0,0,0,0,0,0,0,0,0,0,0,0,
0,0,0,0,0,0,0,0,0,0,0,0,0,0,0,0,
0,0,0,0,0,0,0,0,0,0,0,0,0,0,0,0,
0,0,0,0,0,0,0,0,0,0,0,0,0,0,0,0,
0,0,0,0,0,0,0,0,0,0,0,0,0,0,0,0,
0,0,0,0,0,0,0,0,0,0,0,0,0,0,0,0,
0,0,0,0,0,0,0,0,0,0,0,0,0,0,0,0,
0,0,0,0,0,0,0,0,0,0,0,0,0,0,0,0,
0,0,0,0,0,0,0,0,0,0,0,0,0,0,0,0
</chunk>
   <chunk x="-112" y="32" width="16" height="16">
0,0,0,0,0,0,0,0,0,0,0,0,0,0,0,0,
0,0,0,0,0,0,0,0,0,0,0,0,0,0,0,0,
0,0,0,0,0,0,0,0,0,0,0,0,0,0,0,0,
0,0,0,0,0,0,0,0,0,0,0,0,0,0,0,0,
0,0,0,0,0,0,0,0,0,0,0,0,0,0,491,0,
0,0,0,0,0,0,0,0,0,0,0,0,97,98,98,98,
0,0,0,0,0,0,0,0,0,0,0,491,113,114,101,114,
0,0,0,0,0,0,0,0,0,0,0,0,113,0,0,0,
0,0,0,0,0,0,0,0,0,0,0,0,113,0,0,0,
0,0,0,0,0,0,0,0,0,0,0,0,172,0,0,0,
0,0,0,0,0,0,0,0,0,0,0,0,138,0,0,0,
0,0,0,0,0,0,0,0,0,0,0,0,173,0,0,0,
0,0,0,0,0,0,0,0,0,0,0,0,138,12,12,12,
0,0,0,0,0,0,0,0,0,0,0,0,138,12,12,12,
0,0,0,0,0,0,0,0,0,0,0,0,138,114,114,114,
0,0,0,0,0,0,0,0,0,0,0,0,171,98,98,98
</chunk>
   <chunk x="-96" y="32" width="16" height="16">
0,0,0,0,0,132,114,114,114,0,0,0,0,0,0,0,
0,0,0,0,0,114,114,101,134,114,0,0,0,0,0,0,
0,0,0,0,0,102,0,0,0,0,0,0,0,0,0,0,
0,0,0,0,0,113,0,0,0,0,0,0,0,0,0,0,
0,491,0,0,0,172,0,0,0,0,0,0,0,0,0,0,
98,98,98,98,98,186,0,0,0,0,0,0,0,0,0,0,
114,132,130,114,0,0,0,0,0,0,0,0,0,0,0,0,
0,0,0,0,0,0,0,0,0,0,0,0,0,0,0,0,
0,0,0,0,0,0,0,0,0,0,0,0,0,0,0,0,
0,0,0,0,0,0,0,0,0,0,0,0,0,0,0,0,
0,0,0,0,0,0,0,0,0,0,0,0,0,0,0,0,
0,0,0,0,0,0,0,0,0,0,0,0,0,0,0,0,
12,0,0,0,0,0,0,0,0,0,0,0,0,0,0,0,
13,0,0,0,0,0,0,0,0,0,0,0,0,0,0,0,
157,0,0,0,0,114,0,114,0,114,0,0,0,0,0,0,
154,98,109,114,117,114,114,114,132,130,0,0,0,0,0,0
</chunk>
   <chunk x="-32" y="32" width="16" height="16">
0,0,0,0,0,0,0,0,113,115,0,0,0,0,0,0,
0,0,0,0,0,0,0,0,155,156,0,0,0,0,0,0,
0,0,0,0,0,0,0,97,129,131,99,0,0,0,0,0,
0,0,0,0,0,97,98,129,114,130,115,0,0,0,0,0,
0,0,0,0,97,129,114,114,114,116,131,99,0,0,0,0,
0,0,0,97,129,130,114,0,0,114,114,115,0,0,0,0,
0,0,0,113,114,114,0,0,0,114,114,115,0,0,0,0,
0,0,0,113,117,114,0,0,0,0,114,115,0,0,0,0,
0,0,0,113,114,0,0,0,0,0,101,115,0,0,0,0,
0,0,0,113,114,0,0,0,0,0,114,115,0,0,0,0,
0,0,0,113,114,0,0,0,0,0,114,131,99,0,0,97,
0,0,0,113,114,114,0,0,0,114,114,133,131,98,98,129,
0,0,0,113,114,114,114,0,0,114,114,114,114,2147483780,114,114,
0,0,0,0,114,2147483765,114,114,2147483749,134,114,114,114,114,132,114,
0,0,0,0,0,114,114,114,114,114,114,114,114,114,0,0,
0,0,0,0,0,0,0,0,0,0,0,0,0,0,0,0
</chunk>
   <chunk x="-16" y="32" width="16" height="16">
0,0,0,0,0,0,0,0,0,0,0,0,0,0,0,0,
0,0,0,0,0,0,0,0,0,0,0,0,0,0,0,0,
0,0,0,0,0,0,0,0,0,0,0,0,0,0,0,0,
0,0,0,0,0,0,0,0,0,0,0,0,0,0,0,0,
0,0,0,0,0,0,0,0,0,0,0,0,0,0,0,0,
0,0,0,0,0,0,0,0,0,0,0,0,0,0,0,0,
0,0,0,0,0,0,0,0,0,0,0,0,0,0,0,0,
0,0,0,0,0,0,0,0,0,0,0,0,0,0,0,0,
0,0,0,0,0,0,0,0,0,0,0,0,0,0,0,0,
94,0,0,0,0,0,0,0,0,0,0,130,114,114,114,0,
129,114,0,0,0,0,0,0,0,0,114,114,114,114,114,114,
114,2147483749,0,108,98,109,0,114,2147483765,114,114,114,0,0,114,114,
114,114,114,132,114,134,114,114,114,114,114,114,0,0,114,114,
114,114,114,114,0,114,116,114,0,0,114,114,114,114,114,114,
117,118,114,0,0,0,0,0,0,0,0,2147483778,114,114,114,0,
0,114,0,0,0,0,0,0,0,0,0,114,114,0,0,0
</chunk>
   <chunk x="0" y="32" width="16" height="16">
0,0,0,0,0,0,0,0,0,0,0,0,108,98,109,0,
0,0,0,0,0,0,0,0,0,0,0,114,114,114,132,0,
0,0,0,0,0,0,0,0,0,0,0,0,117,114,130,0,
0,0,0,0,0,0,0,0,0,0,0,0,0,114,0,0,
0,0,0,0,0,0,0,0,0,0,0,0,114,101,114,0,
0,0,0,0,0,0,0,0,0,0,0,0,114,114,114,0,
0,0,0,0,0,0,0,0,0,0,0,0,114,114,114,0,
0,0,0,0,0,0,0,0,0,0,0,0,114,114,114,0,
0,0,0,0,0,0,0,0,0,0,0,114,114,114,130,114,
0,0,0,0,0,0,0,0,0,0,0,114,114,114,114,114,
0,0,0,0,0,0,0,0,0,0,0,2147483782,114,114,114,114,
0,0,0,0,0,0,0,0,0,0,0,0,114,114,132,0,
0,0,0,0,138,0,0,0,0,0,0,0,114,114,114,0,
0,0,0,0,138,0,0,0,0,0,0,0,114,114,114,0,
0,0,0,0,138,0,0,0,0,0,0,0,114,114,114,0,
0,0,0,97,154,98,99,0,0,97,109,114,134,114,114,0
</chunk>
   <chunk x="-112" y="48" width="16" height="16">
0,0,0,0,0,0,0,0,0,0,0,0,113,101,114,130,
0,0,0,0,0,0,0,0,0,0,0,0,113,114,114,114,
0,0,0,0,0,0,0,0,0,0,0,0,113,133,132,114,
0,0,0,0,0,0,0,0,0,0,0,0,0,0,0,0,
0,0,0,0,0,0,0,0,0,0,0,0,0,0,0,0,
0,0,0,0,0,0,0,0,0,0,0,0,0,0,0,0,
0,0,0,0,0,0,0,0,0,0,0,0,0,0,0,0,
0,0,0,0,0,0,0,0,0,0,0,0,0,0,0,0,
0,0,0,0,0,0,0,0,0,0,0,0,0,0,0,0,
0,0,0,0,0,0,0,0,0,0,0,0,0,0,0,0,
0,0,0,0,0,0,0,0,0,0,0,0,0,0,0,0,
0,0,0,0,0,0,0,0,0,0,0,0,0,0,0,0,
0,0,0,0,0,0,0,0,0,0,0,0,0,0,0,0,
0,0,0,0,0,0,0,0,0,0,0,0,0,0,0,0,
0,0,0,0,0,0,0,0,0,0,0,0,0,0,0,0,
0,0,0,0,0,0,0,0,0,0,0,0,0,0,0,0
</chunk>
   <chunk x="-96" y="48" width="16" height="16">
114,0,0,0,0,101,114,0,114,114,0,0,0,0,0,0,
114,0,0,0,0,0,114,114,114,0,0,0,0,0,0,0,
100,0,0,0,0,130,114,114,114,114,0,0,0,0,0,0,
0,0,0,0,0,0,114,101,114,0,0,0,0,0,0,0,
0,0,0,0,0,139,114,0,114,123,0,0,0,0,0,0,
0,0,0,0,0,113,114,114,114,115,0,0,0,0,0,0,
0,0,0,0,0,113,117,114,114,131,98,98,98,98,98,98,
0,0,0,0,0,113,114,114,114,114,114,114,114,114,114,114,
0,0,0,0,0,113,114,133,132,114,114,114,114,114,114,114,
0,0,0,0,491,113,114,114,130,114,114,114,165,114,2147483780,114,
0,0,0,0,0,0,0,0,0,0,0,0,114,0,0,0,
0,0,0,0,0,0,0,0,0,0,0,0,118,0,0,0,
0,0,0,0,0,0,0,0,0,0,0,0,170,0,0,0,
0,0,0,0,0,0,0,0,0,0,0,0,138,0,0,0,
0,0,0,0,0,0,0,0,0,0,0,0,138,0,0,0,
0,0,0,0,0,0,0,0,0,97,98,98,154,98,98,99
</chunk>
   <chunk x="-80" y="48" width="16" height="16">
0,0,491,0,0,0,0,0,0,491,0,0,0,0,0,0,
0,97,98,99,0,0,0,0,97,98,99,0,0,0,0,0,
97,129,133,131,72,73,74,98,129,101,131,99,0,0,0,0,
113,114,132,114,114,116,114,101,117,114,114,115,0,0,0,0,
113,130,0,0,114,114,114,0,0,0,114,115,0,0,0,0,
113,114,0,0,0,114,0,0,0,0,130,91,0,0,0,0,
129,100,0,0,0,0,0,0,0,0,102,91,0,0,0,0,
101,115,0,0,0,0,0,0,0,0,113,115,0,0,0,0,
132,115,0,0,0,0,0,0,491,97,129,115,0,0,0,0,
114,0,0,0,0,0,0,0,0,0,132,115,0,0,0,0,
0,0,0,0,0,0,0,0,0,0,101,115,0,0,0,97,
0,0,0,0,0,0,0,0,0,0,102,131,142,98,98,129,
0,0,0,0,0,0,0,0,0,0,0,0,0,0,0,133,
0,0,0,0,0,0,0,0,0,0,0,0,0,0,0,0,
0,0,0,0,0,0,0,0,0,0,0,0,0,0,0,0,
0,0,0,0,0,0,0,0,0,0,0,0,0,0,0,0
</chunk>
   <chunk x="-64" y="48" width="16" height="16">
0,0,0,0,0,0,0,0,0,0,0,0,0,0,0,0,
0,0,0,0,0,0,0,0,0,0,0,0,0,0,0,0,
0,0,0,0,97,98,99,0,0,0,0,0,0,0,0,0,
0,0,0,0,113,0,115,0,0,0,0,0,0,0,0,0,
0,0,0,0,113,114,115,0,0,0,0,0,0,0,0,0,
0,0,0,0,0,134,0,0,0,0,0,0,0,0,0,0,
0,0,0,0,0,170,0,0,0,0,0,0,0,0,0,0,
0,0,0,0,0,138,0,0,0,0,0,0,0,0,0,0,
0,0,0,0,0,138,0,0,0,0,0,0,0,0,0,0,
0,97,99,0,0,138,0,0,0,0,0,97,98,98,109,0,
98,129,115,0,97,154,99,0,0,0,97,129,130,133,114,101,
130,132,131,98,129,117,131,98,98,98,129,114,133,132,114,114,
114,114,101,0,132,114,134,0,0,0,117,114,114,114,2147483749,117,
0,114,117,0,0,114,0,0,0,0,0,114,118,2147483778,114,0,
0,0,0,0,0,114,0,0,0,0,0,0,0,0,0,0,
0,0,0,0,117,114,0,0,0,0,0,0,0,0,0,0
</chunk>
   <chunk x="-48" y="48" width="16" height="16">
0,0,0,0,0,0,0,0,0,0,0,0,0,0,0,0,
0,0,0,0,0,0,0,0,0,0,0,0,0,0,0,0,
0,0,0,0,0,0,0,0,0,0,0,0,0,0,0,0,
0,0,0,0,0,0,0,0,0,0,0,0,0,0,0,0,
0,0,0,0,0,0,0,0,0,0,0,0,0,0,0,0,
0,0,0,0,0,0,0,0,0,0,0,0,0,0,0,0,
0,0,0,0,0,0,0,0,0,0,0,0,0,0,0,0,
0,0,0,0,0,0,0,0,0,0,0,0,0,0,0,0,
0,0,0,0,0,0,0,0,0,0,0,0,0,0,0,0,
0,0,0,0,0,0,0,0,0,0,0,0,0,0,0,0,
0,0,0,0,0,114,114,114,114,114,114,114,114,133,114,114,
114,114,114,114,114,114,114,114,114,114,114,114,114,114,114,114,
0,0,0,0,0,101,114,114,114,114,114,114,114,130,114,114,
0,0,0,0,0,0,0,0,0,114,0,0,0,0,0,0,
0,0,0,0,0,0,0,0,114,114,114,0,0,0,0,0,
0,0,0,0,0,0,0,0,114,114,114,0,0,0,0,0
</chunk>
   <chunk x="-32" y="48" width="16" height="16">
0,0,0,0,0,0,0,0,0,0,0,0,0,0,0,0,
0,0,0,0,0,0,0,0,0,0,0,0,0,0,0,0,
0,0,0,0,0,0,0,0,0,0,0,0,0,0,0,0,
0,0,0,0,0,0,0,0,0,0,0,0,0,0,0,0,
0,0,0,0,0,0,0,0,0,0,0,0,0,0,0,0,
0,0,0,0,0,0,0,0,0,0,0,0,0,0,0,0,
0,0,0,0,0,0,0,0,0,0,0,0,0,0,0,0,
0,0,0,0,0,0,0,0,0,0,0,0,0,0,0,0,
0,0,0,0,0,0,0,0,0,0,0,0,0,0,0,0,
0,0,0,0,0,0,0,0,0,0,0,0,0,0,0,0,
114,114,130,114,114,114,114,114,114,0,0,0,0,0,0,0,
114,114,114,114,133,114,114,114,117,0,0,0,0,0,0,0,
134,114,114,114,114,114,114,114,101,0,0,0,0,0,0,0,
0,0,0,0,0,0,0,114,114,0,0,0,0,0,0,0,
0,0,0,0,0,0,114,114,114,114,0,0,0,0,0,0,
0,0,0,0,0,0,132,114,114,114,0,0,0,0,0,0
</chunk>
   <chunk x="-16" y="48" width="16" height="16">
0,0,0,0,0,0,0,0,0,0,0,114,114,114,114,114,
0,0,0,0,0,0,0,0,0,0,0,114,114,114,114,114,
0,0,0,0,0,0,0,0,0,0,0,0,0,0,0,0,
0,0,0,0,0,0,0,0,0,0,0,0,0,0,0,0,
0,0,0,0,0,0,0,0,0,0,0,0,0,0,0,0,
0,0,0,0,0,0,0,0,0,0,0,0,0,0,0,0,
0,0,0,0,0,0,0,0,0,0,0,0,0,0,0,0,
0,0,0,0,0,0,0,0,0,0,0,0,0,0,0,0,
0,0,0,0,0,0,0,0,0,0,0,0,0,0,0,0,
0,0,0,0,0,0,0,0,0,0,0,0,0,0,0,0,
0,0,0,0,0,0,0,0,0,0,0,0,0,0,0,0,
0,0,0,0,0,0,0,0,0,0,0,0,0,0,0,0,
0,0,0,0,0,0,0,0,0,0,0,0,0,0,0,0,
0,0,0,0,0,0,0,0,0,0,0,0,0,0,0,0,
0,0,0,0,0,0,0,0,0,0,0,0,0,0,0,0,
0,0,0,0,0,0,0,0,0,0,0,0,0,0,0,0
</chunk>
   <chunk x="0" y="48" width="16" height="16">
108,142,98,129,117,114,115,0,0,113,114,114,114,116,114,0,
130,158,114,2147483749,116,114,131,98,98,129,114,132,114,0,0,0,
0,0,0,114,114,114,2147483778,114,114,132,0,0,0,0,0,0,
0,0,0,114,114,114,114,114,114,114,0,0,0,0,0,0,
0,0,0,114,114,114,114,114,101,114,0,0,0,0,0,0,
0,0,0,134,0,0,114,114,114,114,114,114,0,0,0,0,
0,0,0,114,0,0,132,114,114,2147483778,114,114,0,0,0,0,
0,0,0,114,114,114,114,101,114,114,114,133,0,0,0,0,
0,0,0,0,0,0,0,0,0,114,114,0,0,0,0,0,
0,0,0,0,0,0,0,0,0,132,114,0,0,0,0,0,
0,0,0,0,114,114,114,114,114,114,117,0,0,0,0,0,
0,0,0,0,101,114,134,0,0,0,0,0,0,0,0,0,
0,0,0,0,114,114,114,0,0,2147483749,0,0,0,0,0,0,
0,0,0,0,114,130,114,114,114,114,114,114,134,114,114,0,
0,0,0,0,0,0,0,0,0,130,0,0,114,114,2147483749,0,
0,0,0,0,0,0,0,114,114,114,114,0,114,114,114,0
</chunk>
   <chunk x="-96" y="64" width="16" height="16">
0,0,0,0,0,0,0,0,0,113,117,114,114,130,101,115,
0,0,0,0,0,0,0,0,0,0,0,0,0,0,0,0,
0,0,0,0,0,0,0,0,0,0,0,0,0,0,0,0,
0,0,0,0,0,0,0,0,0,0,0,0,0,0,0,0,
0,0,0,0,0,0,0,0,0,0,0,0,0,0,0,0,
0,0,0,0,0,0,0,0,0,0,0,0,0,0,0,0,
0,0,0,0,0,0,0,0,0,0,0,0,0,0,0,0,
0,0,0,0,0,0,0,0,0,0,0,0,0,0,0,0,
0,0,0,0,0,0,0,0,0,0,0,0,0,0,0,0,
0,0,0,0,0,0,0,0,0,0,0,0,0,0,0,0,
0,0,0,0,0,0,0,0,0,0,0,0,0,0,0,0,
0,0,0,0,0,0,0,0,0,0,0,0,0,0,0,0,
0,0,0,0,0,0,0,0,0,0,0,0,0,0,0,0,
0,0,0,0,0,0,0,0,0,0,0,0,0,0,0,0,
0,0,0,0,0,0,0,0,0,0,0,0,0,0,0,0,
0,0,0,0,0,0,0,0,0,0,0,0,0,0,0,0
</chunk>
   <chunk x="-64" y="64" width="16" height="16">
0,0,0,0,0,114,0,0,0,0,0,0,0,0,0,0,
0,0,0,0,0,114,0,0,0,0,0,0,0,0,0,0,
0,0,0,0,0,114,130,0,0,0,0,0,0,0,0,0,
0,0,0,0,0,114,0,0,0,0,0,0,0,0,0,0,
0,0,0,0,0,114,0,0,0,0,0,0,0,0,0,0,
0,0,0,0,134,114,117,0,0,0,0,0,0,0,0,0,
0,0,0,0,114,114,101,0,0,0,0,0,0,0,0,0,
0,0,0,0,118,114,114,0,0,0,0,0,0,0,0,0,
0,0,0,0,0,0,0,0,0,0,0,0,0,0,0,0,
0,0,0,0,0,0,0,0,0,0,0,0,0,0,0,0,
0,0,0,0,0,0,0,0,0,0,0,0,0,0,0,0,
0,0,0,0,0,0,0,0,0,0,0,0,0,0,0,0,
0,0,0,0,0,0,0,0,0,0,0,0,0,0,0,0,
0,0,0,0,0,0,0,0,0,0,0,0,0,0,0,0,
0,0,0,0,0,0,0,0,0,0,0,0,0,0,0,0,
0,0,0,0,0,0,0,0,0,0,0,0,0,0,0,0
</chunk>
   <chunk x="-48" y="64" width="16" height="16">
0,0,0,0,0,0,0,0,114,114,114,0,0,0,0,0,
0,0,0,0,0,0,0,114,114,101,114,114,0,0,0,0,
0,0,0,0,114,114,114,114,114,114,114,117,114,114,114,0,
0,0,0,0,114,114,114,134,114,114,114,114,114,114,114,0,
0,0,0,0,114,114,114,114,114,114,114,114,114,114,114,0,
0,0,0,0,0,0,0,114,130,114,114,114,0,0,0,0,
0,0,0,0,0,0,0,0,114,114,114,0,0,0,0,0,
0,0,0,0,0,0,0,0,114,114,114,0,0,0,0,0,
0,0,0,0,0,0,0,0,114,114,114,0,0,0,0,0,
0,0,0,0,0,0,0,0,0,0,0,0,0,0,0,0,
0,0,0,0,0,0,0,0,0,0,0,0,0,0,0,0,
0,0,0,0,0,0,0,0,0,0,0,0,0,0,0,0,
0,0,0,0,0,0,0,0,0,0,0,0,0,0,0,0,
0,0,0,0,0,0,0,0,0,0,0,0,0,0,0,0,
0,0,0,0,0,0,0,0,0,0,0,0,0,0,0,0,
0,0,0,0,0,0,0,0,0,0,0,0,0,0,0,0
</chunk>
   <chunk x="-32" y="64" width="16" height="16">
0,0,0,0,0,0,114,114,114,114,0,0,0,0,0,0,
0,0,0,0,0,0,114,114,114,114,0,0,0,0,0,0,
0,0,0,0,0,0,114,114,114,114,0,0,0,0,0,0,
0,0,0,0,0,0,114,132,114,114,0,0,0,0,0,0,
0,0,0,0,0,0,101,114,114,114,0,0,0,0,0,0,
0,0,0,0,0,0,0,114,117,0,0,114,114,114,114,114,
0,0,0,0,0,0,0,114,114,0,0,114,114,114,114,114,
0,0,0,0,0,0,0,114,114,114,114,114,114,0,0,114,
0,0,0,0,0,0,0,114,114,114,114,114,114,0,0,114,
0,0,0,0,0,0,0,0,0,0,114,114,0,0,0,114,
0,0,0,0,0,0,114,114,132,114,114,114,0,0,0,114,
0,0,0,0,0,0,114,134,114,114,114,114,0,0,0,114,
0,0,0,0,0,0,114,114,0,0,114,114,0,0,0,0,
0,0,0,0,0,0,114,114,0,0,114,114,0,0,0,0,
0,0,0,0,0,0,114,114,114,114,114,114,0,0,114,0,
0,0,0,0,0,0,114,114,114,114,114,114,0,0,0,0
</chunk>
   <chunk x="-16" y="64" width="16" height="16">
0,0,0,0,0,0,0,0,0,0,0,0,0,97,98,98,
0,0,0,0,0,0,0,0,0,0,0,0,0,113,134,114,
0,0,0,0,0,0,0,0,0,0,0,0,0,113,114,114,
0,0,0,0,0,0,0,0,0,0,0,0,0,110,114,114,
0,0,0,0,0,0,0,0,0,0,0,0,0,0,114,114,
114,0,0,0,0,0,0,0,0,0,0,0,0,0,117,114,
114,0,0,0,0,0,0,0,0,0,0,0,0,0,0,114,
114,0,0,0,0,0,0,0,0,0,114,158,132,114,114,114,
114,0,0,0,0,0,0,0,114,114,130,158,133,114,114,114,
114,0,0,0,0,0,0,0,114,114,114,158,114,2147483749,117,114,
114,114,0,0,0,0,114,0,114,114,0,0,0,0,0,0,
114,114,0,0,0,0,0,0,114,114,0,0,0,0,0,0,
114,114,0,0,0,0,0,114,114,114,0,0,0,0,0,0,
114,114,114,130,114,114,114,114,114,114,0,114,0,0,0,0,
0,114,134,114,114,114,114,114,114,0,0,0,0,0,0,0,
0,0,0,0,0,0,0,0,0,0,0,0,0,0,0,0
</chunk>
   <chunk x="0" y="64" width="16" height="16">
98,109,114,114,114,114,0,114,0,0,114,0,114,114,114,0,
114,118,114,0,0,114,0,132,0,0,114,0,0,114,0,0,
114,114,114,0,0,114,114,114,0,0,2147483749,114,114,114,0,114,
114,114,114,0,0,0,0,0,0,0,0,114,114,114,0,0,
114,114,0,0,0,0,0,0,0,0,0,114,114,114,0,0,
114,114,0,0,0,0,0,0,0,0,0,114,0,0,0,0,
114,0,0,0,0,0,0,0,0,0,0,0,0,0,0,0,
114,114,0,0,0,0,0,0,0,0,0,0,0,0,0,0,
101,117,0,0,0,0,0,0,0,0,0,0,0,0,0,0,
114,134,0,0,0,0,0,0,0,0,0,0,0,0,0,0,
0,0,0,0,0,0,0,0,0,0,0,0,0,0,0,0,
0,0,0,0,0,0,0,0,0,0,0,0,0,0,0,0,
0,0,0,0,0,0,0,0,0,0,0,0,0,0,0,0,
0,0,0,0,0,0,0,0,0,0,0,0,0,0,0,0,
0,0,0,0,0,0,0,0,0,0,0,0,0,0,0,0,
0,0,0,0,0,0,0,0,0,0,0,0,0,0,0,0
</chunk>
  </data>
 </layer>
 <layer id="20" name="FloorDitch" width="32" height="32">
  <data encoding="csv">
   <chunk x="16" y="-64" width="16" height="16">
0,0,0,0,0,0,0,0,0,0,0,0,0,0,0,0,
0,0,0,0,0,0,0,0,0,0,0,0,0,0,0,0,
0,0,0,0,0,0,0,0,0,0,0,0,0,0,0,0,
0,0,0,0,0,0,0,0,0,0,0,0,0,0,0,0,
0,0,0,0,0,0,0,0,0,0,0,0,0,0,0,0,
0,0,0,0,0,0,0,0,0,0,0,0,0,0,0,0,
0,0,0,0,0,0,0,0,0,0,0,0,0,0,0,0,
0,0,0,0,0,0,0,0,0,120,120,120,0,0,0,0,
0,0,0,0,0,0,0,0,0,0,0,0,0,0,0,0,
0,0,0,0,0,0,0,0,0,0,0,0,0,0,0,0,
0,0,0,0,0,0,0,0,0,0,0,0,0,0,0,0,
0,0,0,0,0,0,0,0,0,0,0,0,0,0,0,0,
0,0,0,0,0,0,0,0,0,0,0,0,0,0,0,0,
0,0,0,0,0,0,0,0,0,0,0,0,0,0,0,0,
0,0,0,0,0,0,0,0,0,0,0,0,0,0,0,0,
0,0,0,0,0,0,0,0,0,0,0,0,0,0,0,0
</chunk>
   <chunk x="-48" y="-48" width="16" height="16">
0,0,0,0,0,0,0,0,0,0,0,0,0,0,0,0,
0,0,0,0,0,0,0,0,0,0,0,0,0,0,0,0,
0,0,0,0,0,0,0,0,0,0,0,0,0,0,0,0,
0,0,0,0,0,0,0,0,0,0,0,0,0,0,0,0,
0,0,0,0,0,0,0,0,0,0,0,0,0,0,0,0,
0,0,0,0,0,0,0,0,0,0,0,0,0,0,0,0,
0,0,0,0,0,0,0,0,0,0,0,0,0,0,0,0,
0,0,0,0,0,0,0,0,0,0,0,0,0,0,0,0,
0,0,0,0,0,0,0,0,0,0,0,0,0,0,0,0,
0,0,0,0,0,0,0,0,0,0,0,0,0,0,0,0,
0,0,0,0,0,0,0,0,0,0,0,0,0,0,0,0,
0,0,0,0,0,0,0,0,0,0,0,0,0,0,0,0,
0,0,0,0,0,0,0,0,0,0,0,0,0,0,0,0,
0,0,0,0,0,0,0,0,0,0,0,0,0,0,0,0,
0,0,0,0,0,0,0,0,0,0,0,0,0,0,0,152,
0,0,0,0,0,0,0,0,0,0,0,0,152,152,153,0
</chunk>
   <chunk x="-32" y="-48" width="16" height="16">
0,0,0,0,0,0,0,0,0,0,0,0,0,0,0,0,
0,0,0,0,0,0,0,0,0,0,0,0,0,0,0,0,
0,0,0,0,0,0,0,0,0,0,0,0,0,0,0,0,
0,0,0,0,0,0,0,0,0,0,0,0,0,0,0,0,
0,0,0,0,0,0,0,0,0,0,0,0,0,0,0,0,
0,0,0,0,0,0,0,0,0,0,0,0,0,0,0,0,
0,0,0,0,0,0,0,0,0,0,0,0,0,0,0,0,
0,0,0,0,0,0,0,0,0,0,0,0,0,0,0,0,
0,0,0,0,0,0,0,0,0,0,0,0,0,0,0,0,
0,0,0,0,0,0,0,0,0,0,0,0,0,0,0,0,
0,0,0,0,0,0,0,0,0,0,0,0,0,0,0,0,
0,0,0,0,0,0,0,0,0,0,0,0,0,0,0,0,
0,0,0,0,0,0,0,0,0,0,0,0,0,0,0,0,
0,0,0,0,0,0,0,0,0,0,0,0,0,0,0,0,
0,0,0,0,0,0,0,0,0,0,0,0,0,0,0,0,
151,152,152,152,152,152,152,0,0,0,0,0,0,0,0,0
</chunk>
   <chunk x="16" y="-48" width="16" height="16">
0,0,0,0,0,0,0,0,0,0,0,0,0,0,0,0,
0,0,0,0,0,0,0,0,0,0,0,0,0,0,0,0,
0,0,0,0,0,0,0,0,0,0,0,0,0,0,0,0,
0,0,0,0,0,0,0,0,152,0,0,0,152,0,0,0,
0,0,0,0,0,0,0,137,0,135,0,137,0,135,0,0,
0,0,0,0,0,0,0,0,120,0,0,0,120,0,0,0,
0,0,0,0,0,0,0,0,0,0,0,0,0,0,0,0,
0,0,0,0,0,0,0,0,0,0,0,0,0,0,0,0,
0,0,0,0,0,0,0,0,0,0,0,0,0,0,0,0,
0,0,0,0,0,0,0,0,0,0,0,0,0,0,0,0,
0,0,0,0,0,0,0,0,0,0,0,0,0,0,0,0,
0,0,0,0,0,0,0,0,0,0,0,0,0,0,0,0,
0,0,0,0,0,0,0,0,0,0,0,0,0,0,0,0,
0,0,0,0,0,0,0,0,0,0,0,0,0,0,0,0,
0,0,0,0,0,0,0,0,0,0,0,0,0,0,0,0,
0,0,0,0,0,0,0,0,0,0,0,0,0,0,0,0
</chunk>
   <chunk x="-80" y="-32" width="16" height="16">
0,0,0,0,0,0,0,0,0,0,0,0,0,0,0,0,
0,0,0,0,0,0,0,0,0,0,0,0,0,0,0,0,
0,0,0,0,0,0,0,0,0,0,0,0,0,0,0,0,
0,0,0,0,0,0,0,0,0,0,0,0,0,0,0,0,
0,0,0,0,0,0,0,0,0,0,0,0,0,0,0,0,
0,0,0,0,0,0,0,0,0,0,0,0,0,0,0,0,
0,0,0,0,0,152,0,0,0,0,0,0,152,152,152,152,
0,0,0,0,137,0,0,0,0,0,0,137,0,0,0,0,
0,0,0,0,137,0,0,0,0,0,135,137,0,0,0,0,
0,0,0,0,0,121,0,0,0,119,0,137,0,0,0,0,
0,0,0,0,0,0,120,120,120,0,0,0,121,0,0,119,
0,0,0,0,0,0,0,0,0,0,0,0,137,0,0,135,
0,0,0,0,152,0,0,0,0,0,0,0,137,0,0,135,
0,0,0,137,0,135,0,0,0,0,0,0,137,0,0,145,
0,0,0,0,120,0,0,0,0,0,152,152,137,0,0,135,
0,0,0,0,0,0,0,0,0,137,0,0,145,0,0,135
</chunk>
   <chunk x="-64" y="-32" width="16" height="16">
0,0,0,0,0,0,0,0,0,0,0,0,0,0,0,152,
0,0,0,0,0,0,0,0,0,0,0,0,0,0,153,0,
0,0,0,0,0,0,0,0,0,0,0,0,0,137,0,0,
0,0,0,0,0,0,0,0,0,0,0,0,0,0,146,146,
0,0,0,0,0,0,0,0,0,0,0,0,0,153,0,0,
0,0,0,0,0,0,0,0,0,0,0,0,137,0,0,0,
0,0,0,0,0,0,152,152,152,152,152,0,153,0,0,0,
151,152,152,152,152,153,0,0,0,0,0,149,0,0,0,0,
0,0,0,0,0,0,0,0,0,0,0,0,0,0,0,148,
119,120,120,120,120,121,0,0,0,0,0,150,0,0,0,0,
0,0,0,0,0,0,120,120,120,120,120,0,121,0,0,0,
0,0,0,152,152,0,0,0,0,0,0,0,137,0,0,0,
152,0,137,0,0,151,0,0,0,0,0,0,0,121,0,0,
0,135,137,0,0,0,135,0,0,0,0,0,0,0,146,146,
120,0,0,121,0,0,151,0,0,0,0,0,0,137,0,0,
0,152,152,152,147,0,0,151,152,0,0,0,0,0,121,0
</chunk>
   <chunk x="-48" y="-32" width="16" height="16">
152,152,0,152,152,152,0,0,0,0,0,137,0,0,0,0,
0,0,149,0,0,0,151,0,0,0,0,137,0,119,120,120,
0,0,0,0,0,0,0,135,0,0,0,137,0,135,152,0,
146,147,0,148,146,146,146,0,0,0,0,137,0,145,0,145,
0,0,0,0,0,0,0,135,0,0,0,137,0,135,120,137,
0,0,0,0,0,0,0,151,0,152,152,153,0,135,0,0,
0,0,0,0,0,0,0,0,149,0,0,0,0,135,0,0,
0,0,0,0,0,0,0,0,0,0,119,120,120,0,0,0,
146,146,146,146,146,146,147,0,0,0,135,0,0,0,0,0,
0,0,0,0,0,0,0,0,0,0,151,152,152,0,0,152,
0,0,0,0,0,0,0,0,150,0,0,0,0,135,137,0,
0,0,0,0,0,0,0,119,0,120,120,121,0,135,137,0,
0,0,0,0,0,0,0,135,0,0,0,137,0,151,153,0,
146,146,146,146,146,146,146,0,0,0,0,137,0,0,0,0,
0,0,0,0,0,0,0,135,0,0,0,0,120,120,121,0,
0,0,0,0,0,0,119,0,0,0,0,0,0,0,137,0
</chunk>
   <chunk x="-32" y="-32" width="16" height="16">
0,0,0,0,0,0,0,135,0,0,0,0,0,152,152,152,
121,0,150,0,119,121,0,135,0,0,0,0,153,0,0,0,
153,0,151,120,152,137,0,135,0,0,0,137,0,0,166,0,
0,0,0,145,0,145,0,135,0,0,0,0,121,0,0,0,
0,0,0,135,120,137,0,135,0,0,0,0,152,147,0,148,
120,120,120,0,0,137,0,151,152,152,0,153,0,0,0,0,
0,0,0,0,0,137,0,0,0,0,149,0,0,119,120,120,
0,0,0,0,0,0,120,120,121,0,0,0,0,135,0,137,
0,152,0,0,0,0,0,0,137,0,0,0,148,0,0,0,
137,0,135,152,0,0,152,152,153,0,0,0,0,151,152,153,
145,0,145,0,135,137,0,0,0,0,150,0,0,0,0,0,
149,0,145,0,135,137,0,119,120,120,0,121,0,0,0,0,
0,0,149,0,151,153,0,135,0,0,0,0,121,0,0,0,
0,0,0,0,0,0,0,135,0,0,0,0,0,120,120,120,
150,0,0,0,119,120,120,0,0,0,0,0,0,0,0,0,
145,0,150,0,135,0,0,0,0,0,0,0,0,0,0,0
</chunk>
   <chunk x="-16" y="-32" width="16" height="16">
0,0,0,0,0,0,0,0,0,0,0,0,0,0,0,0,
151,0,0,0,0,0,0,0,0,0,0,0,0,0,0,0,
0,135,0,0,0,0,0,0,0,0,0,0,0,0,0,0,
119,0,0,0,0,0,0,0,0,0,0,0,0,0,0,0,
152,152,152,152,152,152,152,0,0,0,0,0,0,0,0,0,
0,0,0,0,0,0,0,135,0,0,0,0,0,0,0,0,
146,147,0,0,119,121,0,151,152,152,152,0,0,152,0,0,
0,0,0,0,135,137,0,0,0,0,0,151,153,0,151,152,
146,120,120,120,0,137,0,0,0,0,0,0,0,0,0,0,
0,151,152,152,152,137,0,0,0,0,0,150,0,0,0,119,
0,0,0,0,0,149,0,119,120,120,120,0,120,120,120,0,
0,0,0,0,0,0,0,135,0,0,0,0,0,0,0,0,
0,0,0,0,0,119,120,0,0,0,0,0,0,0,0,0,
120,120,120,121,0,135,0,0,0,0,0,0,0,0,0,0,
0,0,0,0,120,0,0,0,0,0,0,0,0,0,0,0,
0,0,0,0,0,0,0,0,0,0,0,0,0,0,0,0
</chunk>
   <chunk x="0" y="-32" width="16" height="16">
0,0,0,0,0,0,0,0,0,0,0,0,0,0,0,0,
0,0,0,0,0,0,0,0,0,0,0,0,0,0,0,0,
0,0,0,0,0,0,0,0,0,0,0,0,0,0,0,0,
0,0,0,0,0,0,0,0,0,0,0,0,0,0,0,0,
0,0,0,0,0,0,0,0,0,0,0,0,0,0,0,0,
0,0,0,0,0,152,0,0,0,0,0,152,0,0,0,0,
0,0,0,0,137,0,135,0,0,0,137,0,135,0,0,0,
152,152,152,152,153,0,151,152,152,152,153,0,151,152,152,152,
0,0,0,0,0,0,0,0,0,0,0,0,0,0,0,0,
120,120,120,120,120,120,120,121,0,119,120,120,120,120,120,120,
0,0,0,0,0,0,0,137,0,135,0,0,0,0,0,0,
0,0,0,0,0,0,0,0,120,0,0,0,0,0,0,0,
0,0,0,0,0,0,0,0,0,0,0,0,0,0,0,0,
0,0,0,0,0,0,0,0,0,0,0,0,0,0,0,0,
0,0,0,0,0,0,0,0,0,0,0,0,0,0,0,0,
0,0,0,0,0,0,0,0,0,0,0,0,0,0,0,0
</chunk>
   <chunk x="16" y="-32" width="16" height="16">
0,0,0,0,0,0,0,0,0,0,0,0,0,0,0,0,
0,0,0,0,0,0,0,0,0,0,0,0,0,0,0,0,
0,0,0,0,0,0,0,0,0,0,0,0,0,0,0,0,
0,0,0,0,0,0,0,0,0,0,0,0,0,0,0,0,
0,0,0,0,0,0,0,0,0,0,0,0,0,0,0,0,
0,0,0,0,0,0,0,0,0,0,0,0,0,0,0,0,
0,0,0,0,0,0,0,0,0,0,0,0,0,0,0,0,
152,152,152,0,0,0,0,0,0,152,0,0,0,0,0,0,
0,0,0,135,0,0,0,0,137,0,135,0,0,0,0,0,
120,120,120,0,0,0,0,152,153,0,135,0,0,0,0,0,
0,0,0,0,0,0,137,0,0,0,135,0,0,0,0,0,
0,0,0,0,0,0,0,120,120,120,0,0,0,0,0,0,
0,0,0,0,0,0,0,0,0,0,0,0,0,0,0,0,
0,0,0,0,0,0,0,0,0,0,0,0,0,0,0,0,
0,0,0,0,0,0,0,0,0,0,0,0,0,0,0,0,
0,0,0,0,0,0,0,0,0,0,0,0,0,0,0,0
</chunk>
   <chunk x="-80" y="-16" width="16" height="16">
0,0,0,0,0,0,0,0,0,0,120,120,137,0,0,151,
0,0,0,0,0,0,0,0,0,0,0,0,137,0,0,0,
0,0,0,0,0,0,0,0,0,0,0,0,137,0,0,0,
0,0,0,0,0,0,0,0,0,0,0,0,0,120,120,120,
0,0,0,0,0,0,0,0,0,0,0,0,0,0,0,0,
0,0,0,0,0,0,0,0,0,0,0,0,0,0,0,0,
0,0,0,0,0,0,0,0,0,0,0,0,0,0,0,0,
0,0,0,0,0,0,0,0,0,0,0,0,0,0,0,137,
0,0,0,0,0,0,0,0,0,0,0,0,0,0,0,0,
0,0,0,0,0,0,0,0,0,0,0,0,0,0,0,0,
0,0,0,0,0,0,0,0,0,0,0,0,0,0,0,0,
0,0,0,0,0,0,0,0,0,0,0,0,0,0,0,0,
0,0,0,0,0,0,0,0,0,0,0,0,0,0,0,0,
0,0,0,0,0,0,0,0,0,0,0,0,0,0,0,0,
0,0,0,0,0,0,0,0,0,0,0,0,0,0,0,0,
0,0,0,0,0,0,0,0,0,0,0,0,0,0,0,0
</chunk>
   <chunk x="-64" y="-16" width="16" height="16">
153,0,0,0,0,0,0,0,0,151,152,152,152,152,0,120,
0,0,0,0,0,0,0,0,0,0,0,0,0,0,135,0,
0,0,0,0,0,0,0,0,0,0,0,0,0,0,135,0,
121,0,0,0,0,0,0,0,0,119,146,121,0,0,135,152,
0,120,120,120,120,120,120,120,120,137,0,145,0,0,145,0,
0,152,152,0,0,0,0,0,0,0,120,137,0,0,135,120,
153,0,0,151,0,0,0,0,0,0,152,153,0,0,151,152,
0,0,0,0,135,0,0,0,0,153,0,0,0,0,0,0,
121,0,0,0,135,0,0,0,137,0,0,0,119,121,0,0,
0,120,120,120,0,0,0,0,137,0,0,119,0,0,121,0,
0,0,0,0,0,0,0,0,137,0,119,0,0,0,0,121,
0,0,0,0,0,0,0,0,137,0,151,0,0,0,0,153,
0,0,0,0,0,0,152,152,137,0,0,151,0,0,153,0,
0,0,0,0,0,137,0,0,145,0,0,0,151,153,0,0,
0,0,0,0,0,0,120,120,0,121,0,0,0,0,0,0,
0,0,0,0,0,152,152,0,0,0,146,121,0,0,119,146
</chunk>
   <chunk x="-48" y="-16" width="16" height="16">
120,120,120,120,120,120,0,0,0,0,0,0,0,0,137,0,
0,0,0,0,0,0,0,0,0,0,0,0,0,0,0,120,
0,0,0,0,0,0,0,0,0,0,0,0,0,0,0,0,
0,0,0,0,0,0,0,0,0,0,0,0,0,0,0,0,
135,0,0,0,0,0,0,0,0,0,0,0,0,0,0,0,
0,0,152,152,0,0,0,0,0,0,0,0,0,0,0,0,
0,137,0,0,135,0,0,0,0,0,0,0,0,0,0,0,
151,0,121,0,135,0,0,0,0,0,0,0,0,0,0,0,
0,135,0,120,0,0,0,0,0,0,0,0,0,0,0,0,
0,135,0,0,0,0,0,0,0,0,0,0,0,0,0,0,
0,135,0,0,0,0,0,0,0,0,0,0,0,0,0,0,
0,135,0,0,0,0,0,0,0,0,0,0,0,0,0,0,
0,135,152,152,0,0,0,0,0,0,0,0,0,0,0,0,
0,145,0,0,135,0,0,0,0,0,0,0,0,0,0,0,
119,0,120,120,0,0,0,0,0,0,0,0,0,0,0,0,
0,0,0,0,0,0,0,0,0,0,0,0,0,0,0,0
</chunk>
   <chunk x="-32" y="-16" width="16" height="16">
145,0,135,120,0,0,0,0,0,0,0,0,0,0,0,0,
0,120,0,0,0,0,0,0,0,0,0,0,0,0,0,0,
0,0,0,0,0,0,0,0,0,0,0,0,0,0,0,0,
0,0,0,0,0,0,0,0,0,0,0,0,0,0,0,0,
0,0,0,0,0,0,0,0,0,0,0,0,0,0,0,0,
0,0,0,0,0,0,0,0,0,0,0,0,0,0,0,0,
0,0,0,0,0,0,0,0,0,0,0,0,0,0,0,0,
0,0,0,0,0,0,0,0,0,0,0,0,0,0,0,0,
0,0,0,0,0,0,0,0,0,0,0,0,0,0,0,0,
0,0,0,0,0,0,0,0,0,0,0,0,0,0,0,0,
0,0,0,0,0,0,0,0,0,0,0,0,0,0,0,0,
0,0,0,0,0,0,0,0,0,0,0,0,0,0,0,0,
0,0,0,0,0,0,0,0,0,0,0,0,0,0,0,0,
0,0,0,0,0,0,0,0,0,0,0,0,0,0,0,0,
0,0,0,0,0,0,0,0,0,0,0,0,0,0,0,0,
0,0,0,0,0,0,0,0,0,0,0,0,0,0,0,0
</chunk>
   <chunk x="-96" y="0" width="16" height="16">
0,0,0,0,0,0,0,0,0,0,0,0,0,0,0,0,
0,0,0,0,0,0,0,0,0,0,0,0,0,0,0,0,
0,0,0,0,0,0,0,0,0,0,0,0,0,0,0,0,
0,0,0,0,0,0,0,0,0,0,0,0,0,0,0,0,
0,0,0,0,0,0,0,0,0,0,0,0,0,0,0,0,
0,0,0,0,0,0,0,0,0,0,0,0,0,0,0,0,
0,0,0,0,0,0,0,0,0,0,0,0,0,0,0,0,
0,0,0,0,0,0,0,0,0,0,0,0,0,0,0,0,
0,0,0,0,0,0,0,0,0,0,0,0,0,0,0,0,
0,0,0,0,0,0,0,0,0,0,0,0,0,0,0,0,
0,0,0,0,0,0,0,0,0,0,0,0,0,0,0,0,
0,0,0,0,0,0,0,0,0,0,0,0,0,0,0,0,
0,0,0,0,0,0,0,0,0,0,152,0,0,0,152,0,
0,0,0,0,0,0,0,0,0,137,0,135,152,137,0,135,
0,0,0,0,0,0,0,152,152,153,0,149,0,149,0,151,
0,0,0,0,0,0,137,0,0,0,0,0,0,0,0,0
</chunk>
   <chunk x="-80" y="0" width="16" height="16">
0,0,0,0,0,0,0,0,0,0,0,0,0,0,0,0,
0,0,0,0,0,0,0,0,0,0,0,0,0,0,0,0,
0,0,0,0,0,0,0,0,0,0,0,0,0,0,0,0,
0,0,0,0,0,0,0,0,0,0,0,0,0,0,0,0,
0,0,0,0,0,0,0,0,0,0,0,0,0,0,0,152,
0,0,0,0,0,0,0,0,0,0,0,0,0,0,137,0,
0,0,0,0,0,0,0,0,0,0,0,0,0,0,137,0,
0,0,0,0,0,0,0,0,0,0,0,0,0,0,0,120,
0,0,0,0,0,0,0,0,0,0,0,0,0,0,0,0,
0,0,0,0,0,0,0,0,0,0,0,0,0,0,0,0,
0,0,0,0,0,0,0,0,0,0,0,0,0,0,0,0,
0,0,0,0,0,0,0,0,0,0,0,0,0,0,0,0,
0,0,0,0,0,0,0,0,0,0,0,0,0,0,0,0,
0,0,0,0,0,0,0,0,0,0,0,0,0,0,0,0,
0,0,0,0,0,0,0,0,0,0,0,0,0,0,0,0,
135,0,0,0,0,0,0,0,0,0,0,0,0,0,0,0
</chunk>
   <chunk x="-64" y="0" width="16" height="16">
0,0,0,0,153,0,0,135,0,137,0,145,0,0,145,0,
0,0,0,137,0,0,0,135,0,0,120,137,0,0,135,120,
0,0,0,0,120,120,120,152,152,152,152,153,0,0,135,0,
0,0,0,0,0,0,137,0,0,0,0,0,0,0,135,0,
152,152,152,0,0,0,137,0,119,120,120,120,120,120,0,0,
0,0,0,135,0,0,137,0,135,0,0,0,0,0,0,0,
0,119,120,0,0,0,137,0,135,0,0,0,0,0,0,0,
120,0,0,0,0,0,137,0,151,152,152,152,0,0,0,0,
0,0,0,0,0,0,137,0,0,0,0,0,135,0,0,0,
0,0,0,0,0,0,0,120,120,121,0,0,135,0,0,0,
0,0,0,0,0,0,0,0,0,137,0,0,135,152,152,152,
0,0,0,0,0,0,0,0,0,137,0,0,145,0,0,0,
0,0,0,0,0,0,0,0,0,137,0,0,145,0,0,0,
0,0,0,0,0,0,0,0,0,0,0,0,0,121,0,0,
0,0,0,0,0,0,0,0,0,0,0,0,0,0,120,120,
0,0,0,0,0,0,0,0,0,0,0,0,0,0,0,0
</chunk>
   <chunk x="-48" y="0" width="16" height="16">
135,0,0,0,0,0,0,0,0,0,0,0,0,0,0,0,
0,0,0,0,0,0,0,0,0,0,0,0,0,0,0,0,
0,0,0,0,0,0,0,0,0,0,0,0,0,0,0,0,
0,0,0,0,0,0,0,0,0,0,0,0,0,0,0,0,
0,0,0,0,0,0,0,0,0,0,0,0,0,0,0,0,
0,0,0,0,0,0,0,0,0,0,0,0,0,0,0,0,
0,0,0,0,0,0,0,0,0,0,0,0,0,0,0,0,
0,0,0,0,0,0,0,0,0,0,0,0,0,0,0,0,
0,0,0,0,0,0,0,0,0,0,0,0,0,0,0,0,
0,0,0,0,0,0,0,0,0,0,0,0,0,0,0,0,
152,0,0,0,0,0,0,0,0,0,0,0,0,0,0,0,
0,151,0,0,0,0,0,0,0,0,0,0,0,0,0,0,
0,0,135,0,0,0,0,0,0,0,0,0,0,0,0,0,
119,120,0,0,0,0,0,0,0,0,0,0,0,0,0,0,
0,0,0,0,0,0,0,0,0,0,0,0,0,0,0,0,
0,0,0,0,0,0,0,0,0,0,0,0,0,0,0,0
</chunk>
   <chunk x="-96" y="16" width="16" height="16">
0,0,0,0,0,0,0,120,147,0,0,0,0,0,0,0,
0,0,0,0,0,0,0,137,0,0,0,0,0,0,0,0,
0,0,0,0,0,0,0,0,147,0,0,0,0,0,0,0,
0,0,0,0,0,0,0,137,0,0,0,0,0,0,0,0,
0,0,0,0,0,0,0,0,147,0,0,0,0,0,0,0,
0,0,0,0,0,0,0,137,0,0,0,0,0,0,0,0,
0,0,0,0,0,0,0,0,121,0,119,120,146,120,120,120,
0,0,0,0,152,152,152,152,153,0,135,137,0,135,0,0,
0,0,0,153,0,0,0,0,0,0,135,0,120,0,0,0,
0,0,137,0,0,0,0,0,0,0,135,0,0,0,0,0,
0,0,137,0,0,0,0,0,0,119,0,0,0,0,0,0,
0,0,137,0,0,0,0,0,0,135,0,0,0,0,0,0,
0,0,0,121,0,0,0,0,0,135,0,0,0,0,0,0,
0,0,0,137,0,0,0,0,0,151,0,0,0,0,0,0,
0,0,0,0,147,0,0,0,0,0,0,0,0,0,0,0,
0,0,0,137,0,0,0,0,0,119,0,0,0,0,0,0
</chunk>
   <chunk x="-80" y="16" width="16" height="16">
135,0,0,0,0,0,0,0,0,0,0,0,0,0,0,0,
135,0,0,0,0,0,0,0,0,0,0,0,0,0,0,0,
135,0,0,0,0,0,0,0,0,0,0,0,0,0,0,0,
151,152,152,0,0,0,0,0,0,0,0,0,0,0,0,0,
0,0,0,0,0,0,0,0,0,0,0,0,0,0,0,0,
119,120,120,0,0,0,0,0,0,0,0,0,0,0,0,0,
0,0,0,0,0,0,0,0,0,0,0,0,0,0,0,0,
0,0,0,0,0,0,0,0,0,0,0,0,0,0,0,0,
0,0,0,0,0,0,0,0,0,0,0,0,0,0,0,0,
0,0,0,0,0,0,0,0,0,0,0,0,0,0,0,0,
0,0,0,0,0,0,0,0,0,0,0,0,0,0,0,0,
0,0,0,0,0,0,0,0,0,0,0,0,0,0,0,0,
0,0,0,0,0,0,0,0,0,0,0,0,0,0,0,0,
0,0,0,0,0,0,0,0,0,0,0,0,0,0,0,0,
0,0,0,0,0,0,0,0,0,0,0,0,0,0,0,0,
0,0,0,0,0,0,0,0,0,0,0,0,0,0,0,0
</chunk>
   <chunk x="-96" y="32" width="16" height="16">
0,0,0,0,0,0,0,0,0,151,0,0,0,0,0,0,
0,0,0,0,0,0,0,0,0,0,135,0,0,0,0,0,
0,0,0,0,0,0,0,0,0,120,0,0,0,0,0,0,
0,0,0,0,0,0,0,0,0,0,0,0,0,0,0,0,
0,0,0,0,0,0,0,0,0,0,0,0,0,0,0,0,
0,0,0,0,0,0,0,0,0,0,0,0,0,0,0,0,
0,0,0,0,0,0,0,0,0,0,0,0,0,0,0,0,
0,0,0,0,0,0,0,0,0,0,0,0,0,0,0,0,
0,0,0,0,0,0,0,0,0,0,0,0,0,0,0,0,
0,0,0,0,0,0,0,0,0,0,0,0,0,0,0,0,
0,0,0,0,0,0,0,0,0,0,0,0,0,0,0,0,
0,0,0,0,0,0,0,0,0,0,0,0,0,0,0,0,
0,0,0,0,0,0,0,0,0,0,0,0,0,0,0,0,
0,0,0,0,0,152,0,152,0,152,0,0,0,0,0,0,
0,0,0,152,153,0,149,0,149,0,135,0,0,0,0,0,
0,0,0,0,0,0,0,0,0,0,135,0,0,0,0,0
</chunk>
   <chunk x="-32" y="32" width="16" height="16">
0,0,0,0,0,0,0,0,0,0,0,0,0,0,0,0,
0,0,0,0,0,0,0,0,0,0,0,0,0,0,0,0,
0,0,0,0,0,0,0,0,0,0,0,0,0,0,0,0,
0,0,0,0,0,0,0,0,0,0,0,0,0,0,0,0,
0,0,0,0,0,0,0,0,0,0,0,0,0,0,0,0,
0,0,0,0,0,0,0,119,121,0,0,0,0,0,0,0,
0,0,0,0,0,0,119,0,137,0,0,0,0,0,0,0,
0,0,0,0,0,0,135,0,0,121,0,0,0,0,0,0,
0,0,0,0,0,119,0,0,0,137,0,0,0,0,0,0,
0,0,0,0,0,135,0,0,0,137,0,0,0,0,0,0,
0,0,0,0,0,151,0,0,0,153,0,0,0,0,0,0,
0,0,0,0,0,0,151,0,137,0,0,0,0,0,0,0,
0,0,0,0,0,0,0,151,153,0,0,0,0,0,0,0,
0,0,0,0,0,0,0,0,0,0,0,0,0,0,0,0,
0,0,0,0,0,0,0,0,0,0,0,0,0,0,0,0,
0,0,0,0,0,0,0,0,0,0,0,0,0,0,0,0
</chunk>
   <chunk x="-16" y="32" width="16" height="16">
0,0,0,0,0,0,0,0,0,0,0,0,0,0,0,0,
0,0,0,0,0,0,0,0,0,0,0,0,0,0,0,0,
0,0,0,0,0,0,0,0,0,0,0,0,0,0,0,0,
0,0,0,0,0,0,0,0,0,0,0,0,0,0,0,0,
0,0,0,0,0,0,0,0,0,0,0,0,0,0,0,0,
0,0,0,0,0,0,0,0,0,0,0,0,0,0,0,0,
0,0,0,0,0,0,0,0,0,0,0,0,0,0,0,0,
0,0,0,0,0,0,0,0,0,0,0,0,0,0,0,0,
0,0,0,0,0,0,0,0,0,0,0,152,152,152,152,0,
0,151,0,0,0,0,0,0,0,0,153,0,0,0,0,151,
0,0,135,0,0,0,0,152,152,153,0,0,0,0,0,0,
0,0,149,0,0,0,149,0,0,0,0,0,119,121,0,0,
0,0,0,0,0,0,0,0,0,0,0,0,151,153,0,0,
0,0,0,0,150,0,0,0,119,121,0,0,0,0,0,0,
0,0,0,119,0,120,120,120,0,0,121,0,0,0,0,119,
0,0,119,0,0,0,0,0,0,0,137,0,0,148,146,152
</chunk>
   <chunk x="0" y="32" width="16" height="16">
0,0,0,0,0,0,0,0,0,0,0,153,0,0,0,135,
0,0,0,0,0,0,0,0,0,0,0,0,0,0,0,135,
0,0,0,0,0,0,0,0,0,0,0,121,0,0,0,135,
0,0,0,0,0,0,0,0,0,0,0,0,147,0,148,0,
0,0,0,0,0,0,0,0,0,0,0,137,0,0,0,135,
0,0,0,0,0,0,0,0,0,0,0,137,0,0,0,135,
0,0,0,0,0,0,0,0,0,0,0,137,0,0,0,135,
0,0,0,0,0,0,0,0,0,0,0,153,0,0,0,151,
0,0,0,0,0,0,0,0,0,0,137,0,0,0,0,0,
0,0,0,0,0,0,0,0,0,0,137,0,0,0,0,0,
135,0,0,0,0,0,0,0,0,0,137,0,0,0,0,0,
135,0,0,0,0,0,0,0,0,0,0,121,0,0,0,119,
135,0,0,0,0,0,0,0,0,0,0,137,0,0,0,135,
135,0,0,0,0,0,0,0,0,0,0,137,0,0,0,135,
0,0,0,0,0,0,0,0,0,0,0,153,0,0,0,135,
0,0,0,0,0,0,0,0,0,0,0,0,0,0,0,135
</chunk>
   <chunk x="16" y="32" width="16" height="16">
0,0,0,0,0,0,0,0,0,0,0,0,0,0,0,0,
0,0,0,0,0,0,0,0,0,0,0,0,0,0,0,0,
0,0,0,0,0,0,0,0,0,0,0,0,0,0,0,0,
0,0,0,0,0,0,0,0,0,0,0,0,0,0,0,0,
0,0,0,0,0,0,0,0,0,0,0,0,0,0,0,0,
0,0,0,0,0,0,0,0,0,0,0,0,0,0,0,0,
0,0,0,0,0,0,0,0,0,0,0,0,0,0,0,0,
0,0,0,0,0,0,0,0,0,0,0,0,0,0,0,0,
135,0,0,0,0,0,0,0,0,0,0,0,0,0,0,0,
135,0,0,0,0,0,0,0,0,0,0,0,0,0,0,0,
135,0,0,0,0,0,0,0,0,0,0,0,0,0,0,0,
0,0,0,0,0,0,0,0,0,0,0,0,0,0,0,0,
0,0,0,0,0,0,0,0,0,0,0,0,0,0,0,0,
0,0,0,0,0,0,0,0,0,0,0,0,0,0,0,0,
0,0,0,0,0,0,0,0,0,0,0,0,0,0,0,0,
0,0,0,0,0,0,0,0,0,0,0,0,0,0,0,0
</chunk>
   <chunk x="-96" y="48" width="16" height="16">
0,0,0,120,121,0,0,166,0,0,135,0,0,0,0,0,
0,0,0,0,0,166,0,0,0,166,0,0,0,0,0,0,
0,0,0,0,0,0,0,0,0,0,0,0,0,0,0,0,
0,0,0,0,0,166,0,0,0,166,0,0,0,0,0,0,
0,0,0,0,0,0,0,166,0,0,0,0,0,0,0,0,
0,0,0,0,0,0,0,0,0,0,0,0,0,0,0,0,
0,0,0,0,0,0,0,0,0,0,0,0,0,0,0,0,
0,0,0,0,0,0,0,0,0,0,0,0,0,0,0,0,
0,0,0,0,0,0,0,0,0,0,0,0,0,0,0,0,
0,0,0,0,0,0,0,0,0,0,0,0,0,0,0,0,
0,0,0,0,0,0,0,0,0,0,0,0,0,0,0,0,
0,0,0,0,0,0,0,0,0,0,0,0,0,0,0,0,
0,0,0,0,0,0,0,0,0,0,0,0,0,0,0,0,
0,0,0,0,0,0,0,0,0,0,0,0,0,0,0,0,
0,0,0,0,0,0,0,0,0,0,0,0,0,0,0,0,
0,0,0,0,0,0,0,0,0,0,0,0,0,0,0,0
</chunk>
   <chunk x="-64" y="48" width="16" height="16">
0,0,0,0,0,0,0,0,0,0,0,0,0,0,0,0,
0,0,0,0,0,0,0,0,0,0,0,0,0,0,0,0,
0,0,0,0,0,0,0,0,0,0,0,0,0,0,0,0,
0,0,0,0,0,166,0,0,0,0,0,0,0,0,0,0,
0,0,0,0,0,0,0,0,0,0,0,0,0,0,0,0,
0,0,0,0,0,0,0,0,0,0,0,0,0,0,0,0,
0,0,0,0,0,0,0,0,0,0,0,0,0,0,0,0,
0,0,0,0,0,0,0,0,0,0,0,0,0,0,0,0,
0,0,0,0,0,0,0,0,0,0,0,0,0,0,0,0,
0,0,0,0,0,0,0,0,0,0,0,0,0,0,0,151,
0,0,0,0,0,0,0,0,0,0,0,0,0,0,0,0,
0,0,0,0,0,0,0,0,0,0,0,0,0,0,0,0,
0,0,0,0,0,0,0,0,0,0,0,0,0,0,0,0,
0,0,0,0,121,0,119,0,0,0,0,0,0,0,0,119,
0,0,0,0,153,0,135,0,0,0,0,0,0,0,0,0,
0,0,0,137,0,0,135,0,0,0,0,0,0,0,0,0
</chunk>
   <chunk x="-48" y="48" width="16" height="16">
0,0,0,0,0,0,0,0,0,0,0,0,0,0,0,0,
0,0,0,0,0,0,0,0,0,0,0,0,0,0,0,0,
0,0,0,0,0,0,0,0,0,0,0,0,0,0,0,0,
0,0,0,0,0,0,0,0,0,0,0,0,0,0,0,0,
0,0,0,0,0,0,0,0,0,0,0,0,0,0,0,0,
0,0,0,0,0,0,0,0,0,0,0,0,0,0,0,0,
0,0,0,0,0,0,0,0,0,0,0,0,0,0,0,0,
0,0,0,0,0,0,0,0,0,0,0,0,0,0,0,0,
0,0,0,0,0,0,0,0,0,0,0,0,0,0,0,0,
0,0,0,0,0,152,152,152,152,152,152,152,152,152,152,152,
151,152,152,152,153,0,0,0,0,0,0,0,0,0,0,0,
0,0,0,0,0,0,0,0,0,0,0,0,0,0,0,0,
119,120,120,120,121,0,0,0,0,0,0,0,0,0,0,0,
0,0,0,0,0,120,120,120,147,0,148,120,120,120,120,120,
0,0,0,0,0,0,0,137,0,0,0,135,0,0,0,0,
0,0,0,0,0,0,0,137,0,0,0,135,0,0,0,0
</chunk>
   <chunk x="-32" y="48" width="16" height="16">
0,0,0,0,0,0,0,0,0,0,0,0,0,0,0,0,
0,0,0,0,0,0,0,0,0,0,0,0,0,0,0,0,
0,0,0,0,0,0,0,0,0,0,0,0,0,0,0,0,
0,0,0,0,0,0,0,0,0,0,0,0,0,0,0,0,
0,0,0,0,0,0,0,0,0,0,0,0,0,0,0,0,
0,0,0,0,0,0,0,0,0,0,0,0,0,0,0,0,
0,0,0,0,0,0,0,0,0,0,0,0,0,0,0,0,
0,0,0,0,0,0,0,0,0,0,0,0,0,0,0,0,
0,0,0,0,0,0,0,0,0,0,0,0,0,0,0,0,
152,152,152,152,152,152,152,152,152,0,0,0,0,0,0,0,
0,0,0,0,0,0,0,0,0,135,0,0,0,0,0,0,
0,0,0,0,0,0,0,0,0,135,0,0,0,0,0,0,
0,0,0,0,0,0,0,0,0,135,0,0,0,0,0,0,
120,120,120,120,120,120,147,0,0,151,0,0,0,0,0,0,
0,0,0,0,0,137,0,0,0,0,135,0,0,0,0,0,
0,0,0,0,0,137,0,0,0,0,135,0,0,0,0,0
</chunk>
   <chunk x="-16" y="48" width="16" height="16">
0,0,0,0,0,0,0,0,0,0,137,0,0,0,0,0,
0,0,0,0,0,0,0,0,0,0,137,0,0,0,0,0,
0,0,0,0,0,0,0,0,0,0,0,120,120,120,120,120,
0,0,0,0,0,0,0,0,0,0,0,0,0,0,0,0,
0,0,0,0,0,0,0,0,0,0,0,0,0,0,0,0,
0,0,0,0,0,0,0,0,0,0,0,0,0,0,0,0,
0,0,0,0,0,0,0,0,0,0,0,0,0,0,0,0,
0,0,0,0,0,0,0,0,0,0,0,0,0,0,0,0,
0,0,0,0,0,0,0,0,0,0,0,0,0,0,0,0,
0,0,0,0,0,0,0,0,0,0,0,0,0,0,0,0,
0,0,0,0,0,0,0,0,0,0,0,0,0,0,0,0,
0,0,0,0,0,0,0,0,0,0,0,0,0,0,0,0,
0,0,0,0,0,0,0,0,0,0,0,0,0,0,0,0,
0,0,0,0,0,0,0,0,0,0,0,0,0,0,0,0,
0,0,0,0,0,0,0,0,0,0,0,0,0,0,0,0,
0,0,0,0,0,0,0,0,0,0,0,0,0,0,0,0
</chunk>
   <chunk x="0" y="48" width="16" height="16">
0,0,0,0,0,0,0,0,0,0,0,0,0,0,0,135,
0,0,0,0,0,0,0,0,0,0,0,0,0,119,120,0,
120,174,121,0,0,0,0,0,0,0,119,120,120,0,0,0,
0,0,137,0,0,0,0,0,0,0,135,0,0,0,0,0,
0,0,137,0,0,0,0,0,0,0,151,152,0,0,0,0,
0,0,137,0,119,121,0,0,0,0,0,0,135,0,0,0,
0,0,137,0,151,153,0,0,0,0,0,0,135,0,0,0,
0,0,137,0,0,0,0,0,0,0,0,0,135,0,0,0,
0,0,0,120,120,120,120,120,121,0,0,119,0,0,0,0,
0,0,0,0,152,152,152,152,153,0,0,135,0,0,0,0,
0,0,0,137,0,0,0,0,0,0,0,135,0,0,0,0,
0,0,0,137,0,0,0,119,120,146,120,0,0,0,0,0,
0,0,0,137,0,0,0,151,153,0,151,152,152,152,152,0,
0,0,0,137,0,0,0,0,0,0,0,0,0,0,0,135,
0,0,0,0,120,120,120,146,147,0,148,121,0,0,0,135,
0,0,152,152,152,152,137,0,0,0,0,145,0,0,0,135
</chunk>
   <chunk x="-64" y="64" width="16" height="16">
0,0,0,0,121,0,135,0,0,0,0,0,0,0,0,0,
0,0,0,0,137,0,151,0,0,0,0,0,0,0,0,0,
0,0,0,0,137,0,0,135,0,0,0,0,0,0,0,0,
0,0,0,0,137,0,119,0,0,0,0,0,0,0,0,0,
0,0,0,0,153,0,151,0,0,0,0,0,0,0,0,0,
0,0,0,137,0,0,0,135,0,0,0,0,0,0,0,0,
0,0,0,137,0,0,0,135,0,0,0,0,0,0,0,0,
0,0,0,137,0,0,0,135,0,0,0,0,0,0,0,0,
0,0,0,0,120,120,120,0,0,0,0,0,0,0,0,0,
0,0,0,0,0,0,0,0,0,0,0,0,0,0,0,0,
0,0,0,0,0,0,0,0,0,0,0,0,0,0,0,0,
0,0,0,0,0,0,0,0,0,0,0,0,0,0,0,0,
0,0,0,0,0,0,0,0,0,0,0,0,0,0,0,0,
0,0,0,0,0,0,0,0,0,0,0,0,0,0,0,0,
0,0,0,0,0,0,0,0,0,0,0,0,0,0,0,0,
0,0,0,0,0,0,0,0,0,0,0,0,0,0,0,0
</chunk>
   <chunk x="-48" y="64" width="16" height="16">
0,0,0,0,0,0,0,153,0,0,0,151,0,0,0,0,
0,0,0,0,152,152,153,0,0,0,0,0,151,152,152,0,
0,0,0,137,0,0,0,0,0,0,0,0,0,0,0,135,
0,0,0,137,0,0,0,0,0,0,0,0,0,0,0,135,
0,0,0,137,0,0,0,0,0,0,0,0,0,0,0,135,
0,0,0,0,120,120,121,0,0,0,0,0,119,120,120,0,
0,0,0,0,0,0,0,121,0,0,0,119,0,0,0,0,
0,0,0,0,0,0,0,137,0,0,0,135,0,0,0,0,
0,0,0,0,0,0,0,137,0,0,0,135,0,0,0,0,
0,0,0,0,0,0,0,0,120,120,120,0,0,0,0,0,
0,0,0,0,0,0,0,0,0,0,0,0,0,0,0,0,
0,0,0,0,0,0,0,0,0,0,0,0,0,0,0,0,
0,0,0,0,0,0,0,0,0,0,0,0,0,0,0,0,
0,0,0,0,0,0,0,0,0,0,0,0,0,0,0,0,
0,0,0,0,0,0,0,0,0,0,0,0,0,0,0,0,
0,0,0,0,0,0,0,0,0,0,0,0,0,0,0,0
</chunk>
   <chunk x="-32" y="64" width="16" height="16">
0,0,0,0,0,137,0,0,0,0,135,0,0,0,0,0,
0,0,0,0,0,137,0,0,0,0,135,0,0,0,0,0,
0,0,0,0,0,137,0,0,0,0,135,0,0,0,0,0,
0,0,0,0,0,137,0,0,0,0,135,0,0,0,0,0,
0,0,0,0,0,137,0,0,0,0,135,152,152,152,152,152,
0,0,0,0,0,0,121,0,0,119,137,0,0,0,0,0,
0,0,0,0,0,0,137,0,0,151,153,0,0,0,0,0,
0,0,0,0,0,0,137,0,0,0,0,0,0,119,121,0,
0,0,0,0,0,0,137,0,0,0,0,0,0,0,137,0,
0,0,0,0,0,0,152,146,146,147,0,0,119,0,137,0,
0,0,0,0,0,137,0,0,0,0,0,0,135,0,137,0,
0,0,0,0,0,137,0,0,0,0,0,0,135,0,137,0,
0,0,0,0,0,137,0,0,119,121,0,0,135,0,0,121,
0,0,0,0,0,137,0,0,151,153,0,0,135,0,152,137,
0,0,0,0,0,137,0,0,0,0,0,0,135,137,0,135,
0,0,0,0,0,137,0,0,0,0,0,0,135,0,120,0
</chunk>
   <chunk x="-16" y="64" width="16" height="16">
0,0,0,0,0,0,0,0,0,0,0,0,0,0,0,0,
0,0,0,0,0,0,0,0,0,0,0,0,0,0,0,0,
0,0,0,0,0,0,0,0,0,0,0,0,0,0,0,0,
0,0,0,0,0,0,0,0,0,0,0,0,0,0,0,0,
152,0,0,0,0,0,0,0,0,0,0,0,0,121,0,0,
0,135,0,0,0,0,0,0,0,0,0,0,0,137,0,0,
0,135,0,0,0,0,0,0,0,0,152,126,152,152,147,0,
0,135,0,0,0,0,0,0,152,153,0,0,0,0,0,0,
0,135,0,0,0,0,0,137,0,0,0,0,0,0,0,0,
0,151,0,0,0,0,152,137,0,0,0,0,0,0,0,0,
0,0,135,0,0,137,0,145,0,0,119,174,120,120,120,120,
0,0,135,0,0,0,120,153,0,0,135,0,0,0,0,0,
0,0,151,152,152,152,153,0,0,0,135,152,0,0,0,0,
0,0,0,0,0,0,0,0,0,0,145,0,135,0,0,0,
121,0,0,0,0,0,0,0,0,119,0,120,0,0,0,0,
0,120,120,120,120,120,120,120,120,0,0,0,0,0,0,0
</chunk>
   <chunk x="0" y="64" width="16" height="16">
0,0,0,0,0,0,145,0,119,121,0,145,0,0,0,135,
0,0,0,119,121,0,149,0,135,137,0,151,147,0,119,152,
0,0,0,135,137,0,0,0,135,137,0,0,0,0,137,0,
0,0,0,135,0,120,120,120,0,0,121,0,0,0,135,120,
0,153,119,0,0,0,0,0,0,0,137,0,0,0,135,0,
0,0,135,0,0,0,0,0,0,0,137,0,119,120,0,0,
0,148,0,0,0,0,0,0,0,0,0,120,0,0,0,0,
0,0,135,0,0,0,0,0,0,0,0,0,0,0,0,0,
0,0,135,0,0,0,0,0,0,0,0,0,0,0,0,0,
0,0,135,0,0,0,0,0,0,0,0,0,0,0,0,0,
120,120,0,0,0,0,0,0,0,0,0,0,0,0,0,0,
0,0,0,0,0,0,0,0,0,0,0,0,0,0,0,0,
0,0,0,0,0,0,0,0,0,0,0,0,0,0,0,0,
0,0,0,0,0,0,0,0,0,0,0,0,0,0,0,0,
0,0,0,0,0,0,0,0,0,0,0,0,0,0,0,0,
0,0,0,0,0,0,0,0,0,0,0,0,0,0,0,0
</chunk>
   <chunk x="16" y="64" width="16" height="16">
0,0,0,0,0,0,0,0,0,0,0,0,0,0,0,0,
0,0,0,0,0,0,0,0,0,0,0,0,0,0,0,0,
135,0,0,0,0,0,0,0,0,0,0,0,0,0,0,0,
0,0,0,0,0,0,0,0,0,0,0,0,0,0,0,0,
0,0,0,0,0,0,0,0,0,0,0,0,0,0,0,0,
0,0,0,0,0,0,0,0,0,0,0,0,0,0,0,0,
0,0,0,0,0,0,0,0,0,0,0,0,0,0,0,0,
0,0,0,0,0,0,0,0,0,0,0,0,0,0,0,0,
0,0,0,0,0,0,0,0,0,0,0,0,0,0,0,0,
0,0,0,0,0,0,0,0,0,0,0,0,0,0,0,0,
0,0,0,0,0,0,0,0,0,0,0,0,0,0,0,0,
0,0,0,0,0,0,0,0,0,0,0,0,0,0,0,0,
0,0,0,0,0,0,0,0,0,0,0,0,0,0,0,0,
0,0,0,0,0,0,0,0,0,0,0,0,0,0,0,0,
0,0,0,0,0,0,0,0,0,0,0,0,0,0,0,0,
0,0,0,0,0,0,0,0,0,0,0,0,0,0,0,0
</chunk>
   <chunk x="-32" y="80" width="16" height="16">
0,0,0,0,0,0,120,120,120,120,120,120,0,0,0,0,
0,0,0,0,0,0,0,0,0,0,0,0,0,0,0,0,
0,0,0,0,0,0,0,0,0,0,0,0,0,0,0,0,
0,0,0,0,0,0,0,0,0,0,0,0,0,0,0,0,
0,0,0,0,0,0,0,0,0,0,0,0,0,0,0,0,
0,0,0,0,0,0,0,0,0,0,0,0,0,0,0,0,
0,0,0,0,0,0,0,0,0,0,0,0,0,0,0,0,
0,0,0,0,0,0,0,0,0,0,0,0,0,0,0,0,
0,0,0,0,0,0,0,0,0,0,0,0,0,0,0,0,
0,0,0,0,0,0,0,0,0,0,0,0,0,0,0,0,
0,0,0,0,0,0,0,0,0,0,0,0,0,0,0,0,
0,0,0,0,0,0,0,0,0,0,0,0,0,0,0,0,
0,0,0,0,0,0,0,0,0,0,0,0,0,0,0,0,
0,0,0,0,0,0,0,0,0,0,0,0,0,0,0,0,
0,0,0,0,0,0,0,0,0,0,0,0,0,0,0,0,
0,0,0,0,0,0,0,0,0,0,0,0,0,0,0,0
</chunk>
  </data>
 </layer>
 <layer id="3" name="Walls" width="32" height="32">
  <data encoding="csv">
   <chunk x="16" y="-80" width="16" height="16">
0,0,0,0,0,0,0,0,0,0,0,0,0,0,0,0,
0,0,0,0,0,0,0,0,0,0,0,0,0,0,0,0,
0,0,0,0,0,0,0,0,0,0,0,0,0,0,0,0,
0,0,0,0,0,0,0,0,0,0,0,0,0,0,0,0,
0,0,0,0,0,0,0,0,0,0,0,0,0,0,0,0,
0,0,0,0,0,0,0,0,0,0,0,0,0,0,0,0,
0,0,0,0,0,0,0,0,0,0,0,0,0,0,0,0,
0,0,0,0,0,0,0,0,0,0,0,0,0,0,0,0,
0,0,0,0,0,0,0,0,0,0,0,0,0,0,0,0,
0,0,0,0,0,0,0,0,0,0,0,0,0,0,0,0,
0,0,0,0,0,0,0,0,0,0,0,0,0,0,0,0,
0,0,0,0,0,0,0,0,0,0,0,0,0,0,0,0,
0,0,0,0,0,0,0,0,0,0,0,0,0,0,0,0,
0,0,0,0,0,0,0,0,0,0,0,0,0,0,0,0,
0,0,0,0,0,0,0,0,0,0,0,0,0,0,0,0,
0,0,0,0,0,0,0,0,0,49,49,49,49,49,49,49
</chunk>
   <chunk x="32" y="-80" width="16" height="16">
0,0,0,0,0,0,0,0,0,0,0,0,0,0,0,0,
0,0,0,0,0,0,0,0,0,0,0,0,0,0,0,0,
0,0,0,0,0,0,0,0,0,0,0,0,0,0,0,0,
0,0,0,0,0,0,0,0,0,0,0,0,0,0,0,0,
0,0,0,0,0,0,0,0,0,0,0,0,0,0,0,0,
0,0,0,0,0,0,0,0,0,0,0,0,0,0,0,0,
0,0,0,0,0,0,0,0,0,0,0,0,0,0,0,0,
0,0,0,0,0,0,0,0,0,0,0,0,0,0,0,0,
0,0,0,0,0,0,0,0,0,0,0,0,0,0,0,0,
0,0,0,0,0,0,0,0,0,0,0,0,0,0,0,0,
0,0,0,0,0,0,0,0,0,0,0,0,0,0,0,0,
0,0,0,0,0,0,0,0,0,0,0,0,0,0,0,0,
0,0,0,0,0,0,0,0,0,0,0,0,0,0,0,0,
0,0,0,0,0,0,0,0,0,0,0,0,0,0,0,0,
0,0,0,0,0,0,0,0,0,0,0,0,0,0,0,0,
49,49,49,49,49,49,0,0,0,0,0,0,0,0,0,0
</chunk>
   <chunk x="16" y="-64" width="16" height="16">
0,0,0,0,0,0,0,0,0,49,49,49,49,49,49,49,
0,0,0,0,0,0,0,0,0,81,81,81,81,81,81,81,
0,0,0,0,0,0,0,0,0,0,0,0,0,0,0,0,
0,0,0,0,0,0,0,0,0,0,0,0,0,0,0,0,
0,0,0,0,0,0,0,0,0,0,0,0,0,0,0,0,
0,0,0,0,0,0,0,0,0,0,0,0,0,0,0,0,
0,0,0,0,0,0,0,0,0,0,0,0,0,0,0,0,
0,0,0,0,0,0,0,0,0,0,0,0,0,0,0,0,
0,0,0,0,0,0,0,0,0,0,0,0,0,0,0,0,
0,0,0,0,0,0,0,0,0,0,0,0,0,0,0,0,
0,0,0,0,0,0,0,0,0,0,0,0,0,0,0,0,
0,0,0,0,0,0,0,0,0,0,0,0,0,0,0,0,
0,0,0,0,0,0,0,0,0,0,0,0,0,0,0,0,
0,0,0,0,0,0,0,0,0,0,0,0,0,0,0,0,
0,0,0,0,0,0,0,0,0,0,0,0,0,0,0,0,
0,0,0,0,0,0,0,0,0,0,0,0,0,0,0,0
</chunk>
   <chunk x="32" y="-64" width="16" height="16">
49,49,49,49,49,49,0,0,0,0,0,0,0,0,0,0,
81,81,81,81,81,81,0,0,0,0,0,0,0,0,0,0,
0,0,0,0,0,0,0,0,0,0,0,0,0,0,0,0,
0,0,0,0,0,0,0,0,0,0,0,0,0,0,0,0,
0,0,0,0,0,0,0,0,0,0,0,0,0,0,0,0,
0,0,0,0,0,0,0,0,0,0,0,0,0,0,0,0,
0,0,0,0,0,0,0,0,0,0,0,0,0,0,0,0,
0,0,0,0,0,0,0,0,0,0,0,0,0,0,0,0,
0,0,0,0,0,0,0,0,0,0,0,0,0,0,0,0,
0,0,0,0,0,0,0,0,0,0,0,0,0,0,0,0,
0,0,0,0,0,0,0,0,0,0,0,0,0,0,0,0,
0,0,0,0,0,0,0,0,0,0,0,0,0,0,0,0,
0,0,0,0,0,0,0,0,0,0,0,0,0,0,0,0,
0,0,0,0,0,0,0,0,0,0,0,0,0,0,0,0,
0,0,0,0,0,0,0,0,0,0,0,0,0,0,0,0,
0,0,0,0,0,0,0,0,0,0,0,0,0,0,0,0
</chunk>
   <chunk x="-80" y="-32" width="16" height="16">
0,0,0,0,0,0,0,0,0,0,0,0,0,0,0,0,
0,0,0,0,0,0,0,0,0,0,0,0,0,0,0,0,
0,0,0,0,0,0,0,0,0,0,0,0,0,0,0,0,
0,0,0,0,0,0,0,0,0,0,0,0,0,0,0,0,
0,0,0,0,0,0,125,49,0,0,0,0,0,0,0,0,
0,0,0,0,0,0,125,49,49,124,0,0,0,0,0,0,
0,0,0,0,0,0,141,81,49,124,0,0,0,0,0,0,
0,0,0,0,0,0,0,0,81,140,0,0,0,0,0,0,
0,0,0,0,0,0,0,0,0,0,0,0,0,0,0,0,
0,0,0,0,0,0,0,0,0,0,0,0,0,0,0,0,
0,0,0,0,0,0,0,0,0,0,0,0,0,0,0,0,
0,0,0,0,0,0,0,0,0,0,0,0,0,0,0,0,
0,0,0,0,0,0,0,0,0,0,0,0,0,0,0,0,
0,0,0,0,0,0,0,0,0,0,0,0,0,0,0,0,
0,0,0,0,0,0,0,0,0,0,0,0,0,0,0,0,
0,0,0,0,0,0,0,0,0,0,0,0,0,0,0,0
</chunk>
   <chunk x="-16" y="-32" width="16" height="16">
0,0,0,0,0,0,0,0,0,0,0,0,0,0,0,0,
0,0,0,0,0,0,0,0,0,0,0,125,49,68,49,124,
0,0,0,0,0,0,0,0,0,0,0,125,49,84,49,124,
0,0,0,0,0,0,0,0,0,0,0,141,81,81,81,140,
0,0,0,0,0,0,0,0,0,0,0,0,0,0,0,0,
0,0,0,0,0,0,0,0,0,0,0,0,0,0,0,0,
0,0,0,0,0,0,0,0,0,0,0,0,0,0,0,0,
0,0,0,0,0,0,0,0,0,0,0,0,0,0,0,0,
0,0,0,0,0,0,0,0,0,0,0,0,0,0,0,0,
0,0,0,0,0,0,0,0,0,0,0,0,0,0,0,0,
0,0,0,0,0,0,0,0,0,0,0,0,0,0,0,0,
0,0,0,0,0,0,0,0,0,0,0,0,0,0,0,0,
0,0,0,0,0,0,0,0,0,0,0,0,0,0,0,0,
0,0,0,0,0,0,0,0,0,0,0,0,0,0,0,0,
0,0,0,0,0,0,0,0,0,0,0,0,0,0,0,0,
0,0,0,0,0,0,0,0,0,0,0,0,0,0,0,0
</chunk>
   <chunk x="0" y="-32" width="16" height="16">
0,0,0,0,0,0,0,0,0,0,0,0,0,0,0,0,
0,0,0,0,0,0,0,207,207,207,0,0,0,0,0,0,
0,0,0,0,0,207,207,0,0,0,207,207,207,207,0,0,
0,0,0,0,0,0,0,0,0,0,0,0,0,0,0,0,
0,0,0,0,0,0,0,0,0,0,0,0,0,0,0,0,
0,0,0,0,0,0,0,0,0,0,0,0,0,0,0,0,
0,0,0,0,0,0,0,0,0,0,0,0,0,0,0,0,
0,0,0,0,0,0,0,0,0,0,0,0,0,0,0,0,
0,0,0,0,0,0,0,0,0,0,0,0,0,0,0,0,
0,0,0,0,0,0,0,0,0,0,0,0,0,0,0,0,
0,0,0,0,0,0,0,0,0,0,0,0,0,0,0,0,
0,0,0,0,0,0,0,0,0,0,0,0,0,0,0,0,
0,0,0,0,0,0,0,0,0,0,0,0,0,0,0,0,
0,0,0,0,0,0,0,0,0,0,0,0,0,0,0,0,
0,0,0,0,0,0,0,0,0,0,0,0,0,0,0,0,
0,0,0,0,0,0,0,0,0,0,0,0,0,0,0,0
</chunk>
   <chunk x="-32" y="-16" width="16" height="16">
0,0,0,0,0,0,0,0,0,0,0,0,0,0,0,0,
0,0,0,0,0,0,0,0,0,0,0,0,0,0,0,0,
0,0,0,0,0,0,0,0,0,0,0,0,0,0,0,0,
0,0,0,0,0,0,0,0,0,0,0,0,0,0,0,0,
0,0,0,0,0,0,0,0,0,0,0,0,0,0,0,0,
0,0,0,0,0,0,0,0,0,0,0,0,0,0,0,0,
0,0,0,0,0,0,0,0,0,0,0,0,0,0,0,0,
0,0,0,0,0,0,0,0,0,0,0,0,0,0,0,0,
0,0,0,0,0,0,0,0,0,0,0,0,0,0,0,0,
0,0,0,0,0,0,0,0,0,0,0,0,0,0,0,0,
0,0,0,0,0,0,0,0,0,0,0,0,0,0,0,0,
0,0,0,0,0,0,0,0,0,0,0,0,0,0,49,49,
0,0,0,0,0,0,0,0,0,0,0,0,0,0,49,49,
0,0,0,0,0,0,0,0,0,0,0,0,0,0,83,81,
0,0,0,0,0,0,0,0,0,0,0,0,0,0,0,0,
0,0,0,0,0,0,0,0,0,0,0,0,0,0,0,0
</chunk>
   <chunk x="-16" y="-16" width="16" height="16">
0,0,0,0,0,0,0,0,0,0,0,0,0,0,0,0,
0,0,0,0,0,0,0,0,0,0,0,0,0,0,0,0,
0,0,0,0,0,0,0,0,0,0,0,0,0,0,0,0,
0,0,0,0,0,0,0,0,0,0,0,0,0,0,0,0,
0,0,0,0,0,0,0,0,0,0,0,0,0,0,0,0,
0,0,0,0,0,0,0,0,0,0,0,0,0,0,0,0,
0,0,0,0,0,0,0,0,0,0,0,0,0,0,0,0,
0,0,0,0,0,0,0,0,0,0,0,0,0,0,0,0,
0,0,0,0,0,0,0,0,0,0,0,0,0,0,0,0,
0,0,0,0,0,0,0,0,0,0,0,0,0,0,0,0,
0,0,0,0,0,0,0,0,0,0,0,0,0,0,0,0,
49,49,0,0,49,49,49,37,0,0,49,49,49,49,0,0,
49,37,0,0,37,37,36,36,0,0,37,49,51,49,0,0,
54,52,0,0,52,52,52,52,0,0,52,53,81,81,0,0,
0,0,0,0,0,0,0,0,0,0,0,0,0,0,0,0,
0,0,0,0,0,0,0,0,0,0,0,0,0,0,0,0
</chunk>
   <chunk x="-32" y="0" width="16" height="16">
0,0,0,0,0,0,49,67,49,49,49,49,0,0,0,0,
0,0,0,0,0,0,49,49,49,49,49,49,0,0,0,0,
0,0,0,0,0,0,81,81,83,81,81,81,0,0,0,0,
0,0,0,0,0,0,0,0,0,0,0,0,0,0,0,0,
49,0,0,49,67,49,0,0,0,0,0,0,49,49,51,0,
49,0,0,49,49,49,0,0,0,0,0,0,49,67,49,0,
81,0,0,81,81,81,0,0,0,0,0,0,81,81,81,0,
0,0,0,0,0,0,0,0,0,0,0,0,0,0,0,0,
0,0,0,0,0,0,0,0,0,0,0,0,0,0,0,0,
0,0,0,0,0,0,0,0,0,0,0,0,0,0,0,0,
0,0,0,0,0,0,0,0,0,0,0,0,0,0,0,0,
0,0,0,0,0,0,0,0,0,0,0,0,0,0,49,0,
0,0,0,0,0,0,0,0,0,0,0,0,0,0,51,0,
0,0,0,0,0,0,0,0,0,0,0,0,0,0,53,0,
0,0,0,0,0,0,0,0,0,0,0,0,0,0,0,0,
0,0,0,0,0,0,0,0,0,0,0,0,0,0,0,0
</chunk>
   <chunk x="-16" y="0" width="16" height="16">
0,0,0,0,0,0,0,0,0,0,0,0,0,0,0,0,
0,0,0,0,0,0,0,0,0,0,0,0,0,0,0,0,
0,0,0,0,0,0,0,0,0,0,0,0,0,0,0,0,
0,0,0,0,0,0,0,0,0,0,0,0,0,0,0,0,
0,49,49,49,49,0,0,49,49,49,49,0,0,49,0,0,
0,49,49,51,49,0,0,37,49,49,49,0,0,49,0,0,
0,83,81,54,52,0,0,52,52,53,81,0,0,83,0,0,
0,0,0,0,0,0,0,0,0,0,0,0,0,0,0,0,
0,0,0,0,0,0,0,0,0,0,0,0,0,0,0,0,
0,0,0,0,0,0,0,0,0,0,0,0,0,0,0,0,
0,0,0,0,0,0,0,0,0,0,0,0,0,0,0,0,
0,49,0,0,49,0,0,49,0,0,49,0,0,49,0,0,
0,49,0,0,37,0,0,41,0,0,42,0,0,49,0,0,
0,83,0,0,52,0,0,81,0,0,81,0,0,81,0,0,
0,0,0,0,0,0,0,0,0,0,0,0,0,0,0,0,
0,0,0,0,0,0,0,0,0,0,0,0,0,0,0,0
</chunk>
   <chunk x="-96" y="16" width="16" height="16">
0,0,0,0,0,0,0,0,0,0,0,0,0,0,0,0,
0,0,0,0,0,0,0,0,0,0,0,0,0,0,0,0,
0,0,0,0,0,0,0,0,0,0,0,0,0,0,0,0,
0,0,0,0,0,0,0,0,0,0,0,0,0,0,0,0,
0,0,0,0,0,0,0,0,0,0,0,0,0,0,0,0,
0,0,0,0,0,0,0,0,0,0,0,0,0,0,0,0,
0,0,0,0,0,0,0,0,0,0,0,0,0,0,0,0,
0,0,0,0,0,0,0,0,0,0,0,0,0,0,0,0,
0,0,0,0,0,0,0,0,0,0,0,0,0,0,0,0,
0,0,0,0,0,0,0,0,0,0,0,0,0,0,0,49,
0,0,0,0,0,0,0,0,0,0,0,0,0,0,49,49,
0,0,0,0,0,0,0,0,0,0,125,49,49,65,49,81,
0,0,0,0,0,0,0,0,0,0,125,67,49,49,81,0,
0,0,0,0,0,0,0,0,0,0,141,83,81,81,0,0,
0,0,0,0,0,0,0,0,0,0,0,0,0,0,0,0,
0,0,0,0,0,0,0,0,0,0,0,0,0,0,0,0
</chunk>
   <chunk x="-80" y="16" width="16" height="16">
0,0,0,0,0,0,0,0,0,49,49,49,49,49,49,49,
0,0,0,125,49,51,49,49,49,49,49,49,66,49,49,49,
0,0,0,125,49,66,49,49,49,81,81,81,82,81,81,81,
0,0,0,141,81,81,81,83,81,0,0,0,0,0,0,0,
0,0,0,0,0,0,0,0,0,0,0,0,0,0,0,0,
0,0,0,0,0,0,0,0,0,0,0,0,0,0,0,0,
0,0,0,0,0,0,0,0,0,0,0,0,0,0,0,0,
0,0,0,0,0,0,0,0,0,0,0,0,0,0,0,0,
0,0,0,0,0,0,0,0,0,0,0,0,0,0,0,0,
49,0,0,0,0,0,0,0,0,0,0,0,0,0,0,0,
67,49,0,0,0,0,0,0,0,0,0,0,0,0,0,0,
81,49,0,0,0,0,0,0,0,0,0,0,0,0,0,0,
0,81,0,0,0,0,0,0,0,0,0,0,0,0,0,0,
0,0,0,0,0,0,0,0,0,0,0,0,0,0,0,0,
0,0,0,0,0,0,0,0,0,0,0,0,0,0,0,0,
0,0,0,0,0,0,0,0,0,0,0,0,0,0,0,0
</chunk>
   <chunk x="-64" y="16" width="16" height="16">
49,49,49,49,49,49,50,49,49,49,0,0,49,0,0,0,
49,49,49,49,49,49,49,49,49,49,0,0,67,0,0,0,
81,81,81,81,81,82,81,81,83,81,0,0,81,0,0,0,
0,0,0,0,0,0,0,0,0,0,0,0,0,0,0,0,
0,0,0,0,0,0,0,0,0,0,0,0,0,0,0,0,
0,0,0,0,0,0,0,0,0,0,0,0,0,0,0,0,
0,0,0,0,0,0,0,0,0,0,0,0,0,0,0,0,
0,0,0,0,0,0,0,0,0,0,0,0,0,0,0,0,
0,0,0,0,0,0,0,0,0,0,0,0,0,0,0,0,
0,0,0,0,0,0,0,0,0,0,0,0,0,0,0,0,
0,0,0,0,0,0,0,0,0,0,0,0,0,0,0,0,
0,0,0,0,0,0,0,0,0,0,0,0,0,0,0,0,
0,0,0,0,0,0,0,0,0,0,0,0,0,0,0,0,
0,0,0,0,0,0,0,0,0,0,0,0,0,0,0,0,
0,0,0,0,0,0,0,0,0,0,0,0,0,0,0,0,
0,0,0,0,0,0,0,0,0,0,0,0,0,0,0,0
</chunk>
   <chunk x="-32" y="16" width="16" height="16">
0,0,0,0,0,0,0,0,0,0,0,0,0,0,0,0,
0,0,0,0,0,0,0,0,0,0,0,0,0,0,0,0,
0,0,0,0,0,0,0,0,0,0,0,0,0,0,0,0,
0,0,0,0,0,0,0,49,0,0,49,0,0,0,0,0,
0,0,0,0,0,0,49,49,0,0,49,49,0,0,0,0,
0,0,0,0,0,0,49,81,0,0,81,49,0,0,0,0,
0,0,0,0,0,0,81,0,0,0,0,81,0,0,0,0,
0,0,0,0,0,0,0,0,0,0,0,0,0,0,0,0,
0,0,0,0,0,0,0,0,0,0,0,0,0,0,0,0,
0,0,0,0,0,0,0,0,0,0,0,0,0,0,0,0,
0,0,0,0,0,0,0,0,0,0,0,0,0,0,0,0,
0,0,0,0,0,0,0,0,0,0,0,0,0,0,0,0,
0,0,0,0,0,0,0,0,0,0,0,0,0,0,0,0,
0,0,0,0,0,0,0,0,0,0,0,0,0,0,0,0,
0,0,0,0,0,0,0,0,0,0,0,0,0,0,0,0,
0,0,0,0,0,0,0,49,0,0,49,0,0,0,0,0
</chunk>
   <chunk x="0" y="16" width="16" height="16">
0,0,0,0,0,0,0,0,0,0,0,0,0,0,0,0,
0,0,0,0,0,0,0,0,0,0,0,0,0,0,0,0,
0,0,0,0,0,0,0,0,0,0,0,0,0,0,0,0,
0,0,0,0,0,0,0,0,0,0,0,0,0,0,0,0,
0,0,0,0,0,0,0,0,0,0,0,0,0,0,0,0,
0,0,0,0,0,0,0,0,0,0,0,0,0,0,0,0,
0,0,0,0,0,0,0,0,0,0,0,0,0,0,0,0,
0,0,0,0,0,0,0,0,0,0,0,0,0,0,0,0,
0,0,0,0,0,0,0,0,0,0,0,0,0,0,0,0,
0,0,0,0,0,0,0,0,0,0,0,0,0,0,0,0,
0,0,0,0,0,0,0,0,0,0,0,0,0,0,0,0,
0,0,0,0,0,0,0,0,0,0,0,0,0,0,0,0,
0,0,0,0,0,0,0,0,0,0,0,0,0,0,0,0,
0,0,0,0,0,0,0,0,0,0,0,0,125,49,124,0,
0,0,0,0,0,0,0,0,0,0,0,0,125,49,124,0,
0,0,0,0,0,0,0,0,0,0,0,0,141,81,140,0
</chunk>
   <chunk x="-112" y="32" width="16" height="16">
0,0,0,0,0,0,0,0,0,0,0,0,0,0,0,0,
0,0,0,0,0,0,0,0,0,0,0,0,0,0,49,0,
0,0,0,0,0,0,0,0,0,0,0,0,49,49,49,49,
0,0,0,0,0,0,0,0,0,0,0,49,49,49,81,49,
0,0,0,0,0,0,0,0,0,0,0,49,81,81,0,81,
0,0,0,0,0,0,0,0,0,0,0,83,0,0,0,0,
0,0,0,0,0,0,0,0,0,0,0,0,0,0,0,0,
0,0,0,0,0,0,0,0,0,0,0,0,0,0,0,0,
0,0,0,0,0,0,0,0,0,0,0,0,0,0,0,0,
0,0,0,0,0,0,0,0,0,0,0,0,0,0,0,0,
0,0,0,0,0,0,0,0,0,0,0,0,0,49,44,45,
0,0,0,0,0,0,0,0,0,0,0,0,0,49,60,61,
0,0,0,0,0,0,0,0,0,0,0,0,0,0,0,0,
0,0,0,0,0,0,0,0,0,0,0,0,0,0,0,0,
0,0,0,0,0,0,0,0,0,0,0,0,0,28,29,30,
0,0,0,0,0,0,0,0,0,0,0,0,0,0,0,0
</chunk>
   <chunk x="-96" y="32" width="16" height="16">
0,0,0,0,0,0,0,0,0,0,0,0,0,0,0,0,
0,49,0,0,0,0,0,0,0,0,0,0,0,0,0,0,
49,49,49,49,49,0,0,0,0,0,0,0,0,0,0,0,
49,81,49,49,51,0,0,0,0,0,0,0,0,0,0,0,
83,0,81,81,81,0,0,0,0,0,0,0,0,0,0,0,
0,0,0,0,0,0,0,0,0,0,0,0,0,0,0,0,
0,0,0,0,0,0,0,0,0,0,0,0,0,0,0,0,
0,0,0,0,0,0,0,0,0,0,0,0,0,0,0,0,
0,0,0,0,0,0,0,0,0,0,0,0,0,0,0,0,
0,0,0,0,0,0,0,0,0,0,0,0,0,0,0,0,
46,0,0,0,0,0,0,0,0,0,0,0,0,0,0,0,
62,0,0,0,0,0,0,0,0,0,0,0,0,0,0,0,
0,49,124,0,0,0,0,0,0,0,0,0,0,0,0,0,
0,49,124,0,0,0,0,0,0,0,0,0,0,0,0,0,
0,82,140,0,0,0,0,0,0,0,0,0,0,0,0,0,
0,0,0,0,0,0,0,0,0,0,0,0,0,0,0,0
</chunk>
   <chunk x="-80" y="32" width="16" height="16">
0,0,0,0,0,0,0,0,0,0,0,0,0,0,0,0,
0,0,0,0,0,0,0,0,0,0,0,0,0,0,0,0,
0,0,0,0,0,0,0,0,0,0,0,0,0,0,0,0,
0,0,0,0,0,0,0,0,0,0,0,0,0,0,0,0,
0,0,0,0,0,0,0,0,0,0,0,0,0,0,0,0,
0,0,0,0,0,0,0,0,0,0,0,0,0,0,0,0,
0,0,0,0,0,0,0,0,0,0,0,0,0,0,0,0,
0,0,0,0,0,0,0,0,0,0,0,0,0,0,0,0,
0,0,0,0,0,0,0,0,0,0,0,0,0,0,0,0,
0,0,0,0,0,0,0,0,0,0,0,0,0,0,0,0,
0,0,0,0,0,0,0,0,0,0,0,0,0,0,0,0,
0,0,0,0,0,0,0,0,0,0,0,0,0,0,0,0,
0,0,0,0,0,0,0,0,0,0,0,0,0,0,0,0,
0,0,49,0,0,0,0,0,0,49,0,0,0,0,0,0,
0,49,67,49,0,0,0,0,49,49,49,0,0,0,0,0,
49,49,81,49,49,49,49,49,49,82,49,49,0,0,0,0
</chunk>
   <chunk x="-64" y="32" width="16" height="16">
0,0,0,0,0,0,0,0,0,0,0,0,0,0,0,0,
0,0,0,0,0,0,0,0,0,0,0,0,0,0,0,0,
0,0,0,0,0,0,0,0,0,0,0,0,0,0,0,0,
0,0,0,0,0,0,0,0,0,0,0,0,0,0,0,0,
0,0,0,0,0,0,0,0,0,0,0,0,0,0,0,0,
0,0,0,0,0,0,0,0,0,0,0,0,0,0,0,0,
0,0,0,0,0,0,0,0,0,0,0,0,0,0,0,0,
0,0,0,0,0,0,0,0,0,0,0,0,0,0,0,0,
0,0,0,0,0,0,0,0,0,0,0,0,0,0,0,0,
0,0,0,0,0,0,0,0,0,0,0,0,0,0,0,0,
0,0,0,0,0,0,0,0,0,0,0,0,0,0,0,0,
0,0,0,0,0,0,0,0,0,0,0,0,0,0,0,0,
0,0,0,0,0,0,0,0,0,0,0,0,0,0,0,0,
0,0,0,0,0,0,0,0,0,0,0,0,0,0,0,0,
0,0,0,0,0,0,0,0,0,0,0,0,0,0,0,0,
0,0,0,0,49,49,49,0,0,0,0,0,0,0,0,0
</chunk>
   <chunk x="-32" y="32" width="16" height="16">
0,0,0,0,0,49,49,49,0,0,49,0,0,0,0,0,
0,0,0,0,49,49,49,81,0,0,81,49,0,0,0,0,
0,0,0,49,49,81,81,0,0,0,0,49,0,0,0,0,
0,0,0,49,53,0,0,0,0,0,0,81,0,0,0,0,
0,0,0,81,0,0,0,0,0,0,0,0,0,0,0,0,
0,0,0,0,0,0,0,0,0,0,0,0,0,0,0,0,
0,0,0,0,0,0,0,0,0,0,0,0,0,0,0,0,
0,0,0,0,0,0,0,0,0,0,0,0,49,0,0,67,
0,0,0,0,0,0,0,0,0,0,0,0,49,49,49,49,
0,0,0,0,0,0,0,0,0,0,0,0,81,51,49,81,
0,0,0,0,0,0,0,0,0,0,0,0,0,81,81,0,
0,0,0,0,0,0,0,0,0,0,0,0,0,0,0,0,
0,0,0,0,0,0,0,0,0,0,0,0,0,0,0,0,
0,0,0,0,0,0,0,0,0,0,0,0,0,0,0,0,
0,0,0,0,0,0,0,0,0,0,0,0,0,0,0,0,
0,0,0,0,0,0,0,0,0,0,0,0,0,0,0,0
</chunk>
   <chunk x="-16" y="32" width="16" height="16">
0,0,0,0,0,0,0,0,0,0,0,0,0,0,0,0,
0,0,0,0,0,0,0,0,0,0,0,0,0,0,0,0,
0,0,0,0,0,0,0,0,0,0,0,0,0,0,0,0,
0,0,0,0,0,0,0,0,0,0,207,207,207,207,0,0,
0,0,0,0,0,0,0,0,0,207,0,0,0,0,0,0,
0,0,0,0,0,0,0,0,0,0,0,0,0,0,0,0,
124,0,0,0,0,0,0,0,0,0,0,0,0,0,0,0,
124,0,0,0,0,0,0,0,0,0,0,0,0,0,0,0,
140,0,0,125,49,124,0,0,0,0,0,0,0,0,0,0,
0,0,0,125,49,124,0,0,0,0,0,0,0,0,0,0,
0,0,0,141,81,140,0,0,0,0,0,0,0,0,0,0,
0,0,0,0,0,0,0,0,0,0,0,0,0,0,0,0,
0,0,0,0,0,0,0,0,0,0,0,0,0,0,0,0,
0,0,0,0,0,0,0,0,0,0,0,0,0,0,0,0,
0,0,0,0,0,0,0,0,0,0,0,0,0,0,0,0,
0,0,0,0,0,0,0,0,0,0,0,0,0,0,0,0
</chunk>
   <chunk x="0" y="32" width="16" height="16">
0,0,0,0,0,0,0,0,0,0,0,0,0,0,0,0,
0,0,0,0,0,0,0,0,0,0,0,0,0,0,0,0,
0,0,0,0,0,0,0,0,0,0,0,0,0,0,0,0,
0,0,0,0,0,0,0,0,0,0,0,0,0,0,0,0,
0,0,0,0,0,0,0,0,0,0,0,0,0,0,0,0,
0,207,207,0,0,0,0,0,0,0,0,0,0,0,0,0,
0,0,0,0,0,0,0,0,0,0,0,0,0,0,0,0,
0,0,0,0,0,0,0,0,0,0,0,0,0,0,0,0,
0,0,0,0,0,0,0,0,0,0,0,0,0,0,0,0,
0,0,0,0,0,0,0,0,0,0,0,0,0,0,0,0,
0,0,0,0,0,0,0,0,0,0,0,0,0,0,0,0,
0,0,0,0,0,0,0,0,0,0,0,0,0,0,0,0,
0,0,0,49,0,49,49,0,0,124,0,0,0,0,0,0,
0,125,49,49,0,49,49,0,0,124,0,0,0,0,0,0,
125,65,67,81,0,81,83,49,67,140,0,0,0,0,0,0,
141,81,81,0,0,0,0,49,49,0,0,0,0,0,0,0
</chunk>
   <chunk x="-96" y="48" width="16" height="16">
0,0,0,0,0,0,0,0,0,0,0,0,0,0,0,0,
0,0,0,0,0,0,0,0,0,0,0,0,0,0,0,0,
0,0,0,0,0,0,0,0,0,0,0,0,0,0,0,0,
0,0,0,0,0,0,0,0,0,0,49,49,49,49,49,49,
0,0,0,0,0,0,0,0,0,0,49,49,49,49,49,49,
0,0,0,0,0,0,0,0,0,0,81,81,81,83,81,81,
0,0,0,0,49,0,0,0,0,0,0,0,0,0,0,0,
0,0,0,0,49,0,0,0,0,0,0,0,0,0,0,0,
0,0,0,0,81,0,0,0,0,0,0,0,0,0,0,0,
0,0,0,0,0,0,0,0,0,0,0,0,0,0,0,0,
0,0,0,0,0,0,0,0,0,0,0,0,0,0,0,0,
0,0,0,0,0,0,0,0,0,0,0,0,0,0,0,0,
0,0,0,0,0,0,0,0,0,49,49,49,0,49,49,49,
0,0,0,0,0,0,0,0,0,49,49,49,0,49,49,49,
0,0,0,0,0,0,0,0,0,81,81,83,0,81,81,81,
0,0,0,0,0,0,0,0,0,0,0,0,0,0,0,0
</chunk>
   <chunk x="-80" y="48" width="16" height="16">
49,81,0,81,49,51,49,49,81,0,81,49,0,0,0,0,
81,0,0,0,54,52,53,83,0,0,0,81,0,0,0,0,
0,0,0,0,0,0,0,0,0,0,0,0,0,0,0,0,
0,0,0,0,0,0,0,0,0,0,0,0,0,0,0,0,
0,0,0,0,0,0,0,0,0,0,0,0,0,0,0,0,
0,0,0,0,0,0,0,0,49,66,0,0,0,0,0,0,
0,0,0,0,0,0,0,0,67,49,0,0,0,0,0,0,
0,0,0,0,0,0,0,0,81,81,0,0,0,0,0,49,
0,0,0,0,0,0,0,0,0,0,0,0,49,49,49,51,
0,0,0,0,0,0,0,0,0,0,0,0,49,49,49,81,
0,0,0,0,0,0,0,0,0,0,0,0,81,81,81,0,
0,0,0,0,0,0,0,0,0,0,0,0,0,0,0,0,
0,0,0,0,0,0,0,0,0,0,0,0,0,0,0,0,
0,0,0,0,0,0,0,0,0,0,0,0,0,0,0,0,
0,0,0,0,0,0,0,0,0,0,0,0,0,0,0,0,
0,0,0,0,0,0,0,0,0,0,0,0,0,0,0,0
</chunk>
   <chunk x="-64" y="48" width="16" height="16">
0,0,0,0,49,49,49,0,0,0,0,0,0,0,0,0,
0,0,0,0,81,81,81,0,0,0,0,0,0,0,0,0,
0,0,0,0,0,0,0,0,0,0,0,0,0,0,0,0,
0,0,0,0,0,0,0,0,0,0,0,0,0,0,0,0,
0,0,0,0,0,0,0,0,0,0,0,0,0,0,0,0,
0,0,0,0,0,0,0,0,0,0,0,0,0,0,0,0,
0,67,49,0,0,0,0,0,0,0,0,49,49,49,124,0,
49,49,50,0,49,0,49,0,0,0,49,49,49,49,124,0,
49,82,81,49,49,0,49,49,49,49,66,81,81,81,140,0,
81,0,0,49,81,0,81,65,49,49,81,0,0,0,0,0,
0,0,0,81,0,0,0,81,81,81,0,0,0,0,0,0,
0,0,0,0,0,0,0,0,0,0,0,0,0,0,0,0,
0,0,0,0,0,0,0,0,0,0,0,0,0,0,0,0,
0,0,0,0,0,0,0,0,0,0,0,0,0,0,0,0,
0,0,0,0,0,0,0,0,0,0,0,0,0,0,0,0,
0,0,0,0,0,0,0,0,0,0,0,0,0,0,0,0
</chunk>
   <chunk x="-48" y="48" width="16" height="16">
0,0,0,0,0,0,0,0,0,0,0,0,0,0,0,0,
0,0,0,0,0,0,0,0,0,0,0,0,0,0,0,0,
0,0,0,0,0,207,207,207,207,207,207,207,207,0,0,0,
0,0,0,0,0,0,0,0,0,0,0,0,0,0,0,0,
0,0,0,0,0,0,0,0,0,0,0,0,0,0,0,0,
0,0,0,0,0,0,0,0,0,0,0,0,0,0,0,0,
0,0,0,0,0,0,0,0,0,0,0,0,0,0,0,0,
0,0,0,0,0,0,0,0,0,0,0,0,0,0,0,0,
0,0,0,0,0,0,0,0,0,0,0,0,0,0,0,0,
0,0,0,0,0,0,0,0,0,0,0,0,0,0,0,0,
0,0,0,0,0,0,0,0,0,0,0,0,0,0,0,0,
0,0,0,0,0,0,0,0,0,0,0,0,0,0,0,0,
0,0,0,0,0,0,0,0,0,0,0,0,0,0,0,0,
0,0,0,0,0,0,0,0,0,0,0,0,0,0,0,0,
0,0,0,0,0,0,0,0,0,0,0,0,0,0,0,0,
0,0,0,0,0,0,0,0,0,0,0,0,0,0,0,0
</chunk>
   <chunk x="-32" y="48" width="16" height="16">
0,0,0,0,0,0,0,0,0,0,0,0,0,0,0,0,
0,0,0,0,0,0,0,0,0,0,0,0,0,0,0,0,
0,0,0,0,0,0,0,0,0,0,0,0,0,0,0,0,
0,0,0,0,0,0,0,0,0,0,0,0,0,0,0,0,
0,0,0,0,0,0,0,0,0,0,0,0,0,0,0,0,
0,0,0,0,0,0,0,0,0,0,0,0,0,0,0,0,
0,0,0,0,0,0,0,0,0,0,0,0,0,0,0,0,
0,0,0,0,0,0,0,0,0,0,0,0,0,0,0,0,
0,0,0,0,0,0,0,0,0,0,0,0,0,0,0,0,
0,0,0,0,0,0,0,0,0,0,0,0,0,0,0,0,
0,0,0,0,0,0,0,0,0,0,0,0,0,0,0,207,
0,0,0,0,0,0,0,0,0,0,0,0,0,0,0,0,
0,0,0,0,0,0,0,0,0,0,0,0,0,0,0,0,
0,0,0,0,0,0,0,0,0,0,0,0,0,0,0,0,
0,0,0,0,0,0,0,0,0,0,0,0,0,0,0,0,
0,0,0,0,0,0,0,0,0,0,0,0,0,0,0,0
</chunk>
   <chunk x="-16" y="48" width="16" height="16">
0,0,0,0,0,0,0,0,0,0,0,0,0,0,0,0,
0,0,0,0,0,0,0,0,0,0,0,0,0,0,0,0,
0,0,0,0,0,0,0,0,0,0,0,0,0,0,0,0,
0,0,0,0,0,0,0,0,0,0,0,0,0,0,0,0,
0,0,0,0,0,0,0,0,0,0,0,0,0,0,0,0,
0,0,0,0,0,0,0,0,0,0,0,0,0,0,0,0,
0,0,0,0,0,0,0,0,0,0,0,0,0,0,0,0,
0,0,0,0,0,0,0,0,0,0,0,0,0,0,0,0,
0,0,0,0,0,0,0,0,0,0,0,0,0,0,0,0,
0,0,0,0,0,0,0,0,0,0,0,0,0,0,0,0,
207,0,0,0,0,0,0,0,0,0,0,0,0,0,0,0,
0,207,207,0,0,0,0,0,0,0,0,0,0,0,0,0,
0,0,0,0,0,0,0,0,0,0,0,0,0,0,0,0,
0,0,0,0,0,0,0,0,0,0,0,0,0,49,49,49,
0,0,0,0,0,0,0,0,0,0,0,0,0,65,49,49,
0,0,0,207,207,207,0,0,0,0,0,0,0,81,83,81
</chunk>
   <chunk x="0" y="48" width="16" height="16">
0,0,0,0,0,0,0,81,81,0,0,0,0,0,0,0,
0,0,0,0,0,0,0,0,0,0,0,0,0,0,0,0,
0,0,0,0,0,0,0,0,0,0,0,0,0,0,0,0,
0,0,0,0,0,0,0,0,0,0,0,0,0,0,0,0,
0,0,0,0,0,0,0,0,0,0,0,0,0,0,0,0,
0,0,0,0,0,0,0,0,0,0,0,0,0,0,0,0,
0,0,0,0,0,0,0,0,0,0,0,0,0,0,0,0,
0,0,0,0,0,0,0,0,0,0,0,0,0,0,0,0,
0,0,0,0,0,0,0,0,0,0,0,0,0,0,0,0,
0,0,0,0,0,0,0,0,0,0,0,0,0,0,0,0,
0,0,0,0,0,0,0,0,0,0,0,0,0,0,0,0,
0,0,0,0,0,0,0,0,0,0,0,0,0,0,0,0,
0,0,0,0,0,0,0,0,0,0,0,0,0,0,0,0,
67,124,0,0,0,0,0,0,0,0,0,0,0,0,0,0,
49,124,0,0,0,0,0,0,0,0,0,0,0,0,0,0,
81,140,0,0,0,0,0,0,0,0,0,0,0,0,0,0
</chunk>
   <chunk x="-16" y="64" width="16" height="16">
0,0,0,0,0,0,0,0,0,0,0,0,0,0,0,0,
0,0,0,0,0,0,0,0,0,0,0,0,0,0,0,0,
0,0,0,0,0,0,0,0,0,0,0,125,49,0,0,0,
0,0,0,0,0,0,0,0,0,0,0,125,49,0,0,0,
0,0,0,0,0,0,0,0,0,0,0,141,81,0,0,0,
0,0,0,0,0,0,0,0,0,0,0,0,0,0,0,0,
0,0,0,0,0,0,0,0,0,0,0,0,0,0,0,0,
0,0,0,0,0,0,0,0,0,0,0,0,0,0,0,0,
0,0,0,0,0,0,0,0,0,0,0,0,0,0,0,0,
0,0,0,0,0,0,0,0,0,0,0,0,0,0,0,0,
0,0,0,0,0,0,0,0,0,0,0,0,0,0,0,0,
0,0,0,0,0,0,0,0,0,0,0,0,0,0,0,0,
0,0,0,0,0,0,0,0,0,0,0,0,0,0,0,0,
0,0,0,0,0,0,0,0,0,0,0,0,0,0,0,0,
0,0,0,0,0,0,0,0,0,0,0,0,0,0,0,0,
0,0,0,0,0,0,0,0,0,0,0,0,0,0,0,0
</chunk>
  </data>
 </layer>
 <layer id="17" name="Shadows" width="32" height="32">
  <data encoding="csv">
   <chunk x="-80" y="-32" width="16" height="16">
0,0,0,0,0,0,0,0,0,0,0,0,0,0,0,0,
0,0,0,0,0,0,0,0,0,0,0,0,0,0,0,0,
0,0,0,0,0,0,0,0,0,0,0,0,0,0,0,0,
0,0,0,0,0,0,0,0,0,0,0,0,0,0,0,0,
0,0,0,0,0,0,0,0,0,0,0,0,0,0,0,0,
0,0,0,0,0,0,0,0,0,0,0,0,0,0,0,0,
0,0,0,0,0,2684355053,0,0,0,0,0,0,0,0,0,0,
0,0,0,0,0,505,0,0,0,0,1610613229,0,0,0,0,0,
0,0,0,0,0,0,0,0,0,0,2147484153,0,0,0,0,0,
0,0,0,0,0,0,0,0,0,0,0,0,0,0,0,0,
0,0,0,0,0,0,0,0,0,0,0,0,0,0,0,0,
0,0,0,0,0,0,0,0,0,0,0,0,0,0,0,0,
0,0,0,0,0,0,0,0,0,0,0,0,0,0,0,0,
0,0,0,0,0,0,0,0,0,0,0,0,0,0,0,0,
0,0,0,0,0,0,0,0,0,0,0,0,0,0,0,0,
0,0,0,0,0,0,0,0,0,0,0,0,0,0,0,0
</chunk>
   <chunk x="-16" y="-32" width="16" height="16">
0,0,0,0,0,0,0,0,0,0,0,0,0,0,0,0,
0,0,0,0,0,0,0,0,0,0,0,0,0,0,0,0,
0,0,0,0,0,0,0,0,0,0,0,0,0,0,0,0,
0,0,0,0,0,0,0,0,0,0,0,0,0,0,0,0,
0,0,0,0,0,0,0,0,0,0,0,1610613236,0,0,0,3758096884,
0,0,0,0,0,0,0,0,0,0,0,1610613236,0,0,0,3758096884,
0,0,0,0,0,0,0,0,0,0,0,0,0,0,0,0,
0,0,0,0,0,0,0,0,0,0,0,0,0,0,0,0,
0,0,0,0,0,0,0,0,0,0,0,0,0,0,0,0,
0,0,0,0,0,0,0,0,0,0,0,0,0,0,0,0,
0,0,0,0,0,0,0,0,0,0,0,0,0,0,0,0,
0,0,0,0,0,0,0,0,0,0,0,0,0,0,0,0,
0,0,0,0,0,0,0,0,0,0,0,0,0,0,0,0,
0,0,0,0,0,0,0,0,0,0,0,0,0,0,0,0,
0,0,0,0,0,0,0,0,0,0,0,0,0,0,0,0,
0,0,0,0,0,0,0,0,0,0,0,0,0,0,0,0
</chunk>
   <chunk x="0" y="-32" width="16" height="16">
0,0,0,0,0,0,0,0,0,0,0,0,0,0,0,0,
0,0,0,0,0,0,0,0,0,0,0,0,0,0,0,0,
0,0,0,0,0,536871405,0,0,0,0,0,0,0,2684355053,0,0,
0,0,0,0,0,0,0,0,0,0,0,0,0,0,0,0,
0,0,0,0,0,0,0,0,0,0,0,0,0,0,0,0,
0,0,0,0,0,0,0,0,0,0,0,0,0,0,0,0,
0,0,0,0,0,0,0,0,0,0,0,0,0,0,0,0,
0,0,0,0,0,0,0,0,0,0,0,0,0,0,0,0,
0,0,0,0,0,0,0,0,0,0,0,0,0,0,0,0,
0,0,0,0,0,0,0,0,0,0,0,0,0,0,0,0,
0,0,0,0,0,0,0,0,0,0,0,0,0,0,0,0,
0,0,0,0,0,0,0,0,0,0,0,0,0,0,0,0,
0,0,0,0,0,0,0,0,0,0,0,0,0,0,0,0,
0,0,0,0,0,0,0,0,0,0,0,0,0,0,0,0,
0,0,0,0,0,0,0,0,0,0,0,0,0,0,0,0,
0,0,0,0,0,0,0,0,0,0,0,0,0,0,0,0
</chunk>
   <chunk x="-32" y="0" width="16" height="16">
0,0,0,0,0,0,0,0,0,0,0,0,0,0,0,0,
0,0,0,0,0,0,0,793,0,0,0,0,0,0,0,0,
0,0,0,0,0,0,0,0,0,0,0,0,0,0,0,0,
0,0,0,0,0,0,0,0,0,0,0,0,0,0,0,0,
0,0,0,0,0,0,0,0,0,0,0,0,0,0,0,0,
0,0,0,0,0,0,0,0,0,0,0,0,0,0,0,3221225971,
0,0,0,0,0,0,0,0,0,0,0,0,0,0,0,0,
0,0,0,0,0,0,0,0,0,0,0,0,2684355060,0,0,0,
0,0,0,0,0,0,0,0,0,0,0,0,0,0,0,0,
0,0,0,0,0,0,0,0,0,0,0,0,0,0,0,0,
0,0,0,0,0,0,0,0,3221225971,3221225971,0,0,0,0,0,0,
0,0,0,0,0,0,0,0,0,0,0,0,0,0,0,0,
0,0,0,0,0,0,0,0,0,0,0,0,0,0,0,3221225971,
0,0,0,0,0,0,0,0,0,0,0,0,0,0,0,0,
0,0,0,0,0,0,0,0,0,0,0,0,0,0,0,0,
0,0,0,0,0,0,0,0,0,0,0,0,0,0,0,0
</chunk>
   <chunk x="-16" y="0" width="16" height="16">
0,0,0,0,0,0,0,0,0,0,0,0,0,0,0,0,
0,0,0,0,0,0,0,0,0,0,0,0,0,0,0,0,
0,0,0,0,0,0,0,0,0,0,0,0,0,0,0,0,
0,0,0,0,0,0,0,0,0,0,0,0,0,0,0,0,
0,0,0,0,0,0,0,0,0,0,0,0,0,0,0,0,
3221225971,0,0,0,0,3221225971,3221225971,0,0,0,0,3221225971,3221225971,0,0,0,
0,0,0,0,0,0,0,0,0,0,0,0,0,0,0,0,
0,0,0,0,0,0,0,0,0,0,0,0,0,0,0,0,
0,0,0,0,0,0,0,0,0,0,0,0,0,0,0,0,
0,0,0,0,0,0,0,0,0,0,0,0,0,0,0,0,
0,0,0,0,0,0,0,0,0,0,0,0,0,0,0,0,
0,0,0,0,0,0,0,0,0,0,0,0,0,0,0,0,
3221225971,0,0,0,0,3221225971,3221225971,0,0,0,0,3221225971,3221225971,0,0,0,
0,0,0,0,0,0,0,0,0,0,0,0,0,0,0,0,
0,0,0,0,0,0,0,0,0,0,0,0,0,0,0,0,
0,0,0,0,0,0,0,0,0,0,0,0,0,0,0,0
</chunk>
   <chunk x="-96" y="16" width="16" height="16">
0,0,0,0,0,0,0,0,0,0,0,0,0,0,0,0,
0,0,0,0,0,0,0,0,0,0,0,0,0,0,0,0,
0,0,0,0,0,0,0,0,0,0,0,0,0,0,0,0,
0,0,0,0,0,0,0,0,0,0,0,0,0,0,0,0,
0,0,0,0,0,0,0,0,0,0,0,0,0,0,0,0,
0,0,0,0,0,0,0,0,0,0,0,0,0,0,0,0,
0,0,0,0,0,0,0,0,0,0,0,0,0,0,0,0,
0,0,0,0,0,0,0,0,0,0,0,0,0,0,0,0,
0,0,0,0,0,0,0,0,0,0,0,0,0,0,0,0,
0,0,0,0,0,0,0,0,0,0,0,0,0,0,0,0,
0,0,0,0,0,0,0,0,0,0,0,0,0,0,0,0,
0,0,0,0,0,0,0,0,0,0,0,0,0,0,0,0,
0,0,0,0,0,0,0,0,0,0,0,0,0,0,0,0,
0,0,0,0,0,0,0,0,0,2684355053,0,0,0,0,0,0,
0,0,0,0,0,0,0,0,0,505,0,0,0,0,0,0,
0,0,0,0,0,0,0,0,0,0,0,0,0,0,0,0
</chunk>
   <chunk x="-80" y="16" width="16" height="16">
0,0,0,0,0,0,0,0,0,0,0,0,0,0,0,0,
0,0,0,0,0,0,0,0,0,0,0,0,0,0,0,0,
0,0,0,0,0,0,0,0,0,0,0,0,0,0,0,0,
0,0,2684355053,0,0,0,0,0,0,0,0,0,0,0,0,0,
0,0,505,0,0,0,0,0,0,0,0,0,0,0,0,0,
0,0,0,0,0,0,0,0,0,0,0,0,0,0,0,0,
0,0,0,0,0,0,0,0,0,0,0,0,0,0,0,0,
0,0,0,0,0,0,0,0,0,0,0,0,0,0,0,0,
0,0,0,0,0,0,0,0,0,0,0,0,0,0,0,0,
0,0,0,0,0,0,0,0,0,0,0,0,0,0,0,0,
0,0,0,0,0,0,0,0,0,0,0,0,0,0,0,0,
0,0,0,0,0,0,0,0,0,0,0,0,0,0,0,0,
0,0,0,0,0,0,0,0,0,0,0,0,0,0,0,0,
0,0,0,0,0,0,0,0,0,0,0,0,0,0,0,0,
0,0,0,0,0,0,0,0,0,0,0,0,0,0,0,0,
0,0,0,0,0,0,0,0,0,0,0,0,0,0,0,0
</chunk>
   <chunk x="0" y="16" width="16" height="16">
0,0,0,0,0,0,0,0,0,0,0,0,0,0,0,0,
0,0,0,0,0,0,0,0,0,0,0,0,0,0,0,0,
0,0,0,0,0,0,0,0,0,0,0,0,0,0,0,0,
0,0,0,0,0,0,0,0,0,0,0,0,0,0,0,0,
0,0,0,0,0,0,0,0,0,0,0,0,0,0,0,0,
0,0,0,0,0,0,0,0,0,0,0,0,0,0,0,0,
0,0,0,0,0,0,0,0,0,0,0,0,0,0,0,0,
0,0,0,0,0,0,0,0,0,0,0,0,0,0,0,0,
0,0,0,0,0,0,0,0,0,0,0,0,0,0,0,0,
0,0,0,0,0,0,0,0,0,0,0,0,0,0,0,0,
0,0,0,0,0,0,0,0,0,0,0,0,0,0,0,0,
0,0,0,0,0,0,0,0,0,0,0,0,0,0,0,0,
0,0,0,0,0,0,0,0,0,0,0,0,0,0,0,0,
0,0,0,0,0,0,0,0,0,0,0,0,0,0,0,0,
0,0,0,0,0,0,0,0,0,0,0,0,0,793,0,0,
0,0,0,0,0,0,0,0,0,0,0,0,0,0,0,0
</chunk>
   <chunk x="-96" y="32" width="16" height="16">
0,0,0,0,0,0,0,0,0,0,0,0,0,0,0,0,
0,0,0,0,0,0,0,0,0,0,0,0,0,0,0,0,
0,0,0,0,0,0,0,0,0,0,0,0,0,0,0,0,
0,0,0,0,0,0,0,0,0,0,0,0,0,0,0,0,
0,0,0,0,0,0,0,0,0,0,0,0,0,0,0,0,
0,0,0,0,0,0,0,0,0,0,0,0,0,0,0,0,
0,0,0,0,0,0,0,0,0,0,0,0,0,0,0,0,
0,0,0,0,0,0,0,0,0,0,0,0,0,0,0,0,
0,0,0,0,0,0,0,0,0,0,0,0,0,0,0,0,
0,0,0,0,0,0,0,0,0,0,0,0,0,0,0,0,
0,0,0,0,0,0,0,0,0,0,0,0,0,0,0,0,
0,0,0,0,0,0,0,0,0,0,0,0,0,0,0,0,
0,0,0,0,0,0,0,0,0,0,0,0,0,0,0,0,
0,0,0,0,0,0,0,0,0,0,0,0,0,0,0,0,
0,0,0,1610613229,0,0,0,0,0,0,0,0,0,0,0,0,
0,0,0,2147484153,0,0,0,0,0,0,0,0,0,0,0,0
</chunk>
   <chunk x="-16" y="32" width="16" height="16">
0,0,0,0,0,0,0,0,0,0,0,0,0,0,0,0,
0,0,0,0,0,0,0,0,0,0,0,0,0,0,0,0,
0,0,0,0,0,0,0,0,0,0,0,0,0,0,0,0,
0,0,0,0,0,0,0,0,0,0,0,0,0,2684355053,0,0,
0,0,0,0,0,0,0,0,0,0,0,0,0,0,0,0,
0,0,0,0,0,0,0,0,0,0,0,0,0,0,0,0,
0,0,0,0,0,0,0,0,0,0,0,0,0,0,0,0,
0,0,0,0,0,0,0,0,0,0,0,0,0,0,0,0,
0,0,0,0,0,0,0,0,0,0,0,0,0,0,0,0,
0,2147484153,0,0,0,0,0,0,0,0,0,0,0,0,0,0,
0,0,0,0,0,0,0,0,0,0,0,0,0,0,0,0,
0,0,505,0,0,0,2147484153,0,0,0,0,0,0,0,0,0,
0,0,0,0,0,0,0,0,0,0,0,0,0,0,0,0,
0,0,0,0,0,0,0,0,0,0,0,0,0,0,0,0,
0,0,0,0,0,0,0,0,0,0,0,0,0,0,0,0,
0,0,0,0,0,0,0,0,0,0,0,0,0,0,0,2684355065
</chunk>
   <chunk x="0" y="32" width="16" height="16">
0,0,0,0,0,0,0,0,0,0,0,515,0,0,0,493,
0,0,0,0,0,0,0,0,0,0,0,1610613236,0,0,0,0,
0,0,0,0,0,0,0,0,0,0,0,1610613236,0,0,0,0,
0,0,0,0,0,0,0,0,0,0,0,0,0,0,0,0,
0,0,0,0,0,0,0,0,0,0,0,0,0,0,0,0,
0,536871405,2684355053,0,0,0,0,0,0,0,0,0,0,0,0,0,
0,0,0,0,0,0,0,0,0,0,0,0,0,0,0,0,
0,0,0,0,0,0,0,0,0,0,0,0,0,0,0,0,
0,0,0,0,0,0,0,0,0,0,0,0,0,0,0,0,
0,0,0,0,0,0,0,0,0,0,0,0,0,0,0,0,
0,0,0,0,0,0,0,0,0,0,0,0,0,0,0,0,
0,0,0,0,0,0,0,0,0,0,0,0,0,0,0,0,
0,0,0,0,499,0,0,0,0,0,0,0,0,0,0,0,
0,0,0,0,0,0,0,0,0,0,0,0,0,0,0,0,
0,1218,0,0,0,0,0,0,0,0,0,3221225977,0,0,0,0,
0,0,0,0,0,0,0,0,0,0,0,2147484153,0,0,0,0
</chunk>
   <chunk x="-64" y="48" width="16" height="16">
0,0,0,0,0,0,0,0,0,0,0,0,0,0,0,0,
0,0,0,0,0,0,0,0,0,0,0,0,0,0,0,0,
0,0,0,0,0,0,0,0,0,0,0,0,0,0,0,0,
0,0,0,0,0,0,0,0,0,0,0,0,0,0,0,0,
0,0,0,0,0,0,0,0,0,0,0,0,0,0,0,0,
0,0,0,0,0,0,0,0,0,0,0,0,0,0,0,0,
0,0,0,0,0,0,0,0,0,0,0,0,0,0,0,0,
0,0,0,0,0,0,0,0,0,0,0,0,0,0,0,0,
0,0,0,0,0,0,0,0,0,0,0,0,0,0,0,0,
0,0,0,0,0,0,0,0,0,0,0,0,0,0,0,1610613241,
0,0,0,0,0,0,0,0,0,0,0,0,0,0,0,0,
0,0,0,0,0,0,0,0,0,0,0,0,0,0,0,0,
0,0,0,0,0,0,0,0,0,0,0,0,0,0,0,0,
0,0,0,0,0,0,0,0,0,0,0,0,0,0,0,0,
0,0,0,0,0,0,0,0,0,0,0,0,0,0,0,0,
0,0,0,0,0,0,0,0,0,0,0,0,0,0,0,0
</chunk>
   <chunk x="-48" y="48" width="16" height="16">
0,0,0,0,0,0,0,0,0,0,0,0,0,0,0,0,
0,0,0,0,0,0,0,0,0,0,0,0,0,0,0,0,
0,0,0,0,0,536871405,0,0,0,0,0,0,2684355053,0,0,0,
0,0,0,0,0,0,0,0,0,0,0,0,0,0,0,0,
0,0,0,0,0,0,0,0,0,0,0,0,0,0,0,0,
0,0,0,0,0,0,0,0,0,0,0,0,0,0,0,0,
0,0,0,0,0,0,0,0,0,0,0,0,0,0,0,0,
0,0,0,0,0,0,0,0,0,0,0,0,0,0,0,0,
0,0,0,0,0,0,0,0,0,0,0,0,0,0,0,0,
0,0,0,0,0,0,0,0,0,0,0,0,0,0,0,0,
0,0,0,0,0,0,0,0,0,0,0,0,0,0,0,0,
0,0,0,0,0,0,0,0,0,0,0,0,0,0,0,0,
0,0,0,0,0,0,0,0,0,0,0,0,0,0,0,0,
0,0,0,0,0,0,0,0,0,0,0,0,0,0,0,0,
0,0,0,0,0,0,0,0,0,0,0,0,0,0,0,0,
0,0,0,0,0,0,0,0,0,0,0,0,0,0,0,0
</chunk>
   <chunk x="-16" y="48" width="16" height="16">
0,0,0,0,0,0,0,0,0,0,0,0,0,0,0,505,
0,0,0,0,0,0,0,0,0,0,0,0,0,0,0,0,
0,0,0,0,0,0,0,0,0,0,0,0,0,0,0,0,
0,0,0,0,0,0,0,0,0,0,0,0,0,0,0,0,
0,0,0,0,0,0,0,0,0,0,0,0,0,0,0,0,
0,0,0,0,0,0,0,0,0,0,0,0,0,0,0,0,
0,0,0,0,0,0,0,0,0,0,0,0,0,0,0,0,
0,0,0,0,0,0,0,0,0,0,0,0,0,0,0,0,
0,0,0,0,0,0,0,0,0,0,0,0,0,0,0,0,
0,0,0,0,0,0,0,0,0,0,0,0,0,0,0,0,
0,0,0,0,0,0,0,0,0,0,0,0,0,0,0,0,
0,0,0,0,0,0,0,0,0,0,0,0,0,0,0,0,
0,0,0,0,0,0,0,0,0,0,0,0,0,0,0,0,
0,0,0,0,0,0,0,0,0,0,0,0,0,0,0,0,
0,0,0,0,0,0,0,0,0,0,0,0,0,0,0,0,
0,0,0,0,0,0,0,0,0,0,0,0,0,0,0,0
</chunk>
   <chunk x="0" y="48" width="16" height="16">
0,0,0,0,0,0,0,0,0,0,0,0,0,0,0,0,
0,0,0,0,0,0,0,0,0,0,0,0,0,0,0,0,
0,0,0,0,0,0,0,0,0,0,0,0,0,0,0,0,
0,0,0,0,0,0,0,0,0,0,0,0,0,0,0,0,
0,0,0,0,0,0,0,0,0,0,0,0,0,0,0,0,
0,0,0,0,0,0,0,0,0,0,0,0,0,0,0,0,
0,0,0,0,0,0,0,0,0,0,0,0,0,0,0,0,
0,0,0,0,0,0,0,0,0,0,0,0,0,0,0,0,
0,0,0,0,0,0,0,0,0,0,0,0,0,0,0,0,
0,0,0,0,0,0,0,0,0,0,0,0,0,0,0,0,
0,0,0,0,0,0,0,0,0,0,0,0,0,0,0,0,
0,0,0,0,0,0,0,0,0,0,0,0,0,0,0,0,
0,0,0,0,0,0,0,0,0,0,0,0,0,0,0,0,
0,0,0,0,0,0,0,0,0,0,0,0,0,0,0,0,
0,0,0,0,0,0,0,0,0,0,0,0,0,0,0,0,
0,0,1610613229,0,0,0,0,0,0,0,0,0,0,0,0,0
</chunk>
   <chunk x="-16" y="64" width="16" height="16">
0,0,0,0,0,0,0,0,0,0,0,0,0,0,0,0,
0,0,0,0,0,0,0,0,0,0,0,0,0,0,0,0,
0,0,0,0,0,0,0,0,0,0,0,0,0,0,0,0,
0,0,0,0,0,0,0,0,0,0,0,0,0,0,0,0,
0,0,0,0,0,0,0,0,0,0,0,0,0,2147484153,0,0,
0,0,0,0,0,0,0,0,0,0,0,0,499,0,0,0,
0,0,0,0,0,0,0,0,0,0,0,0,0,0,0,0,
0,0,0,0,0,0,0,0,0,0,0,0,0,0,0,0,
0,0,0,0,0,0,0,0,0,0,0,0,0,0,0,0,
0,0,0,0,0,0,0,0,0,0,0,0,0,0,0,0,
0,0,0,0,0,0,0,0,0,0,0,0,0,0,0,0,
0,0,0,0,0,0,0,0,0,0,0,0,0,0,0,0,
0,0,0,0,0,0,0,0,0,0,0,0,0,0,0,0,
0,0,0,0,0,0,0,0,0,0,0,0,0,0,0,0,
0,0,0,0,0,0,0,0,0,0,0,0,0,0,0,0,
0,0,0,0,0,0,0,0,0,0,0,0,0,0,0,0
</chunk>
   <chunk x="0" y="64" width="16" height="16">
0,0,2147484153,0,0,0,0,0,0,0,0,0,0,0,0,0,
0,0,0,0,0,0,0,0,0,0,0,0,0,0,0,0,
0,0,0,0,0,0,0,0,0,0,0,0,0,0,0,0,
0,0,0,0,0,0,0,0,0,0,0,0,0,0,0,0,
0,0,0,0,0,0,0,0,0,0,0,0,0,0,0,0,
0,0,0,0,0,0,0,0,0,0,0,0,0,0,0,0,
0,0,0,0,0,0,0,0,0,0,0,0,0,0,0,0,
0,0,0,0,0,0,0,0,0,0,0,0,0,0,0,0,
0,0,0,0,0,0,0,0,0,0,0,0,0,0,0,0,
0,0,0,0,0,0,0,0,0,0,0,0,0,0,0,0,
0,0,0,0,0,0,0,0,0,0,0,0,0,0,0,0,
0,0,0,0,0,0,0,0,0,0,0,0,0,0,0,0,
0,0,0,0,0,0,0,0,0,0,0,0,0,0,0,0,
0,0,0,0,0,0,0,0,0,0,0,0,0,0,0,0,
0,0,0,0,0,0,0,0,0,0,0,0,0,0,0,0,
0,0,0,0,0,0,0,0,0,0,0,0,0,0,0,0
</chunk>
  </data>
 </layer>
 <layer id="115" name="FrontSpikesOnWall" width="32" height="32">
  <data encoding="csv">
   <chunk x="-32" y="16" width="16" height="16">
0,0,0,0,0,0,0,0,0,0,0,0,0,0,0,0,
0,0,0,0,0,0,0,0,0,0,0,0,0,0,0,0,
0,0,0,0,0,0,0,0,0,0,0,0,0,0,0,0,
0,0,0,0,0,0,0,0,0,0,0,0,0,0,0,0,
0,0,0,0,0,0,0,24,0,0,24,0,0,0,0,0,
0,0,0,0,0,0,24,26,0,0,26,24,0,0,0,0,
0,0,0,0,0,0,26,0,0,0,0,26,0,0,0,0,
0,0,0,0,0,0,0,0,0,0,0,0,0,0,0,0,
0,0,0,0,0,0,0,0,0,0,0,0,0,0,0,0,
0,0,0,0,0,0,0,0,0,0,0,0,0,0,0,0,
0,0,0,0,0,0,0,0,0,0,0,0,0,0,0,0,
0,0,0,0,0,0,0,0,0,0,0,0,0,0,0,0,
0,0,0,0,0,0,0,0,0,0,0,0,0,0,0,0,
0,0,0,0,0,0,0,0,0,0,0,0,0,0,0,0,
0,0,0,0,0,0,0,0,0,0,0,0,0,0,0,0,
0,0,0,0,0,0,0,0,0,0,0,0,0,0,0,0
</chunk>
   <chunk x="-32" y="32" width="16" height="16">
0,0,0,0,0,24,0,24,0,0,24,0,0,0,0,0,
0,0,0,0,0,0,24,26,0,0,26,0,0,0,0,0,
0,0,0,24,24,26,26,0,0,0,0,24,0,0,0,0,
0,0,0,24,0,0,0,0,0,0,0,26,0,0,0,0,
0,0,0,26,0,0,0,0,0,0,0,0,0,0,0,0,
0,0,0,0,0,0,0,0,0,0,0,0,0,0,0,0,
0,0,0,0,0,0,0,0,0,0,0,0,0,0,0,0,
0,0,0,0,0,0,0,0,0,0,0,0,0,0,0,0,
0,0,0,0,0,0,0,0,0,0,0,0,24,0,24,0,
0,0,0,0,0,0,0,0,0,0,0,0,26,0,0,0,
0,0,0,0,0,0,0,0,0,0,0,0,0,26,26,0,
0,0,0,0,0,0,0,0,0,0,0,0,0,0,0,0,
0,0,0,0,0,0,0,0,0,0,0,0,0,0,0,0,
0,0,0,0,0,0,0,0,0,0,0,0,0,0,0,0,
0,0,0,0,0,0,0,0,0,0,0,0,0,0,0,0,
0,0,0,0,0,0,0,0,0,0,0,0,0,0,0,0
</chunk>
   <chunk x="-16" y="32" width="16" height="16">
0,0,0,0,0,0,0,0,0,0,0,0,0,0,0,0,
0,0,0,0,0,0,0,0,0,0,0,0,0,0,0,0,
0,0,0,0,0,0,0,0,0,0,0,0,0,0,0,0,
0,0,0,0,0,0,0,0,0,0,0,0,0,0,0,0,
0,0,0,0,0,0,0,0,0,0,0,0,0,0,0,0,
0,0,0,0,0,0,0,0,0,0,0,0,0,0,0,0,
0,0,0,0,0,0,0,0,0,0,0,0,0,0,0,0,
0,0,0,0,0,0,0,0,0,0,0,0,0,0,0,0,
0,0,0,0,0,0,0,0,0,0,0,0,0,0,0,0,
0,0,0,0,24,0,0,0,0,0,0,0,0,0,0,0,
0,0,0,0,26,0,0,0,0,0,0,0,0,0,0,0,
0,0,0,0,0,0,0,0,0,0,0,0,0,0,0,0,
0,0,0,0,0,0,0,0,0,0,0,0,0,0,0,0,
0,0,0,0,0,0,0,0,0,0,0,0,0,0,0,0,
0,0,0,0,0,0,0,0,0,0,0,0,0,0,0,0,
0,0,0,0,0,0,0,0,0,0,0,0,0,0,0,0
</chunk>
   <chunk x="0" y="32" width="16" height="16">
0,0,0,0,0,0,0,0,0,0,0,0,0,0,0,0,
0,0,0,0,0,0,0,0,0,0,0,0,0,0,0,0,
0,0,0,0,0,0,0,0,0,0,0,0,0,0,0,0,
0,0,0,0,0,0,0,0,0,0,0,0,0,0,0,0,
0,0,0,0,0,0,0,0,0,0,0,0,0,0,0,0,
0,0,0,0,0,0,0,0,0,0,0,0,0,0,0,0,
0,0,0,0,0,0,0,0,0,0,0,0,0,0,0,0,
0,0,0,0,0,0,0,0,0,0,0,0,0,0,0,0,
0,0,0,0,0,0,0,0,0,0,0,0,0,0,0,0,
0,0,0,0,0,0,0,0,0,0,0,0,0,0,0,0,
0,0,0,0,0,0,0,0,0,0,0,0,0,0,0,0,
0,0,0,0,0,0,0,0,0,0,0,0,0,0,0,0,
0,0,0,0,0,0,0,0,0,0,0,0,0,0,0,0,
0,0,0,24,0,0,24,0,0,0,0,0,0,0,0,0,
0,0,0,0,0,26,0,0,0,0,0,0,0,0,0,0,
0,0,0,0,0,0,0,24,24,0,0,0,0,0,0,0
</chunk>
   <chunk x="0" y="48" width="16" height="16">
0,0,0,0,0,0,0,26,26,0,0,0,0,0,0,0,
0,0,0,0,0,0,0,0,0,0,0,0,0,0,0,0,
0,0,0,0,0,0,0,0,0,0,0,0,0,0,0,0,
0,0,0,0,0,0,0,0,0,0,0,0,0,0,0,0,
0,0,0,0,0,0,0,0,0,0,0,0,0,0,0,0,
0,0,0,0,0,0,0,0,0,0,0,0,0,0,0,0,
0,0,0,0,0,0,0,0,0,0,0,0,0,0,0,0,
0,0,0,0,0,0,0,0,0,0,0,0,0,0,0,0,
0,0,0,0,0,0,0,0,0,0,0,0,0,0,0,0,
0,0,0,0,0,0,0,0,0,0,0,0,0,0,0,0,
0,0,0,0,0,0,0,0,0,0,0,0,0,0,0,0,
0,0,0,0,0,0,0,0,0,0,0,0,0,0,0,0,
0,0,0,0,0,0,0,0,0,0,0,0,0,0,0,0,
0,0,0,0,0,0,0,0,0,0,0,0,0,0,0,0,
0,0,0,0,0,0,0,0,0,0,0,0,0,0,0,0,
0,0,0,0,0,0,0,0,0,0,0,0,0,0,0,0
</chunk>
  </data>
 </layer>
 <layer id="114" name="SideSpikesOnWall" width="32" height="32">
  <properties>
   <property name="damageable" type="bool" value="true"/>
  </properties>
  <data encoding="csv">
   <chunk x="-32" y="32" width="16" height="16">
0,0,0,0,0,0,0,0,0,0,0,0,0,0,0,0,
0,0,0,0,0,11,0,0,0,0,2147483659,0,0,0,0,0,
0,0,0,0,0,0,0,27,0,0,2147483675,0,0,0,0,0,
0,0,0,0,0,27,0,0,0,0,0,0,0,0,0,0,
0,0,0,0,0,0,0,0,0,0,0,0,0,0,0,0,
0,0,0,11,0,0,0,0,0,0,0,2147483659,0,0,0,0,
0,0,0,27,0,0,0,0,0,0,0,2147483675,0,0,0,0,
0,0,0,0,0,0,0,0,0,0,0,0,0,0,0,0,
0,0,0,0,0,0,0,0,0,0,0,0,0,0,0,0,
0,0,0,0,0,0,0,0,0,0,0,0,0,0,0,0,
0,0,0,11,0,0,0,0,0,0,0,0,0,0,0,0,
0,0,0,27,0,0,0,0,0,0,0,0,0,0,0,0,
0,0,0,0,0,0,0,0,0,0,0,0,0,0,0,0,
0,0,0,0,0,0,0,0,0,0,0,0,0,0,0,0,
0,0,0,0,0,0,0,0,0,0,0,0,0,0,0,0,
0,0,0,0,0,0,0,0,0,0,0,0,0,0,0,0
</chunk>
   <chunk x="-16" y="32" width="16" height="16">
0,0,0,0,0,0,0,0,0,0,0,0,0,0,0,0,
0,0,0,0,0,0,0,0,0,0,0,0,0,0,0,0,
0,0,0,0,0,0,0,0,0,0,0,0,0,0,0,0,
0,0,0,0,0,0,0,0,0,0,0,0,0,0,0,0,
0,0,0,0,0,0,0,0,0,0,0,0,0,0,0,0,
0,0,0,0,0,0,0,0,0,0,0,0,0,0,0,0,
0,0,0,0,0,0,0,0,0,0,0,0,0,0,0,0,
11,0,0,0,0,0,0,0,0,0,0,0,0,0,0,0,
0,0,0,0,0,0,0,0,0,0,0,0,0,0,0,0,
0,0,0,0,0,0,0,0,0,0,0,0,0,0,0,0,
0,0,0,0,0,0,0,0,0,0,0,0,0,0,0,0,
0,0,0,0,0,0,0,0,0,0,0,0,0,0,0,0,
0,0,0,0,0,0,0,0,0,0,0,0,0,0,0,0,
0,0,0,0,0,0,0,0,0,0,0,0,0,0,0,0,
0,0,0,0,0,0,0,0,0,0,0,0,0,0,0,0,
0,0,0,0,0,0,0,0,0,0,0,0,0,0,0,0
</chunk>
  </data>
 </layer>
 <objectgroup id="85" name="HidenSpikes">
  <object id="754" template="HidenSpikes.tx" class="HidenSpikes" gid="552" x="96" y="1696"/>
  <object id="769" template="HidenSpikes.tx" x="128" y="1696"/>
  <object id="770" template="HidenSpikes.tx" x="160" y="1696"/>
  <object id="771" template="HidenSpikes.tx" x="192" y="1696"/>
  <object id="772" template="HidenSpikes.tx" x="224" y="1696"/>
  <object id="773" template="HidenSpikes.tx" x="224" y="1664"/>
  <object id="774" template="HidenSpikes.tx" x="224" y="1632"/>
  <object id="865" template="HidenSpikes.tx" x="288" y="1824"/>
  <object id="866" template="HidenSpikes.tx" x="320" y="1824"/>
  <object id="867" template="HidenSpikes.tx" x="224" y="1888"/>
  <object id="868" template="HidenSpikes.tx" x="192" y="1888"/>
  <object id="869" template="HidenSpikes.tx" x="160" y="1952"/>
  <object id="870" template="HidenSpikes.tx" x="256" y="1984"/>
  <object id="871" template="HidenSpikes.tx" x="288" y="1984"/>
  <object id="872" template="HidenSpikes.tx" x="320" y="1984"/>
  <object id="873" template="HidenSpikes.tx" x="416" y="2048"/>
  <object id="874" template="HidenSpikes.tx" x="384" y="2080"/>
  <object id="875" template="HidenSpikes.tx" x="448" y="2080"/>
  <object id="876" template="HidenSpikes.tx" x="416" y="2144"/>
  <object id="877" template="HidenSpikes.tx" x="384" y="2144"/>
  <object id="878" template="HidenSpikes.tx" x="416" y="2176"/>
  <object id="879" template="HidenSpikes.tx" x="256" y="2048"/>
  <object id="880" template="HidenSpikes.tx" x="288" y="2048"/>
  <object id="881" template="HidenSpikes.tx" x="320" y="2048"/>
  <object id="882" template="HidenSpikes.tx" x="320" y="2080"/>
  <object id="883" template="HidenSpikes.tx" x="224" y="2144"/>
  <object id="884" template="HidenSpikes.tx" x="192" y="2144"/>
  <object id="885" template="HidenSpikes.tx" x="160" y="2144"/>
  <object id="886" template="HidenSpikes.tx" x="160" y="2112"/>
  <object id="887" template="HidenSpikes.tx" x="128" y="2080"/>
  <object id="980" template="HidenSpikes.tx" x="-224" y="2336"/>
  <object id="981" template="HidenSpikes.tx" x="-224" y="2368"/>
  <object id="982" template="HidenSpikes.tx" x="-224" y="2400"/>
  <object id="983" template="HidenSpikes.tx" x="-224" y="2432"/>
  <object id="984" template="HidenSpikes.tx" x="-224" y="2464"/>
  <object id="987" template="HidenSpikes.tx" x="-256" y="2368"/>
  <object id="988" template="HidenSpikes.tx" x="-256" y="2400"/>
  <object id="989" template="HidenSpikes.tx" x="-256" y="2432"/>
  <object id="990" template="HidenSpikes.tx" x="-256" y="2464"/>
  <object id="991" template="HidenSpikes.tx" x="-256" y="2496"/>
  <object id="992" template="HidenSpikes.tx" x="-288" y="2496"/>
  <object id="993" template="HidenSpikes.tx" x="-288" y="2464"/>
  <object id="994" template="HidenSpikes.tx" x="-320" y="2496"/>
  <object id="995" template="HidenSpikes.tx" x="-320" y="2528"/>
  <object id="996" template="HidenSpikes.tx" x="-352" y="2528"/>
  <object id="997" template="HidenSpikes.tx" x="-352" y="2496"/>
  <object id="998" template="HidenSpikes.tx" x="-384" y="2528"/>
  <object id="999" template="HidenSpikes.tx" x="-480" y="2496"/>
  <object id="1000" template="HidenSpikes.tx" x="-480" y="2464"/>
  <object id="1001" template="HidenSpikes.tx" x="-480" y="2432"/>
  <object id="1002" template="HidenSpikes.tx" x="-512" y="2464"/>
  <object id="1005" template="HidenSpikes.tx" x="-512" y="2432"/>
  <object id="1006" template="HidenSpikes.tx" x="-544" y="2432"/>
  <object id="1007" template="HidenSpikes.tx" x="-544" y="2400"/>
  <object id="1008" template="HidenSpikes.tx" x="-544" y="2368"/>
  <object id="1009" template="HidenSpikes.tx" x="-512" y="2368"/>
  <object id="1010" template="HidenSpikes.tx" x="-512" y="2336"/>
  <object id="1011" template="HidenSpikes.tx" x="-512" y="2304"/>
  <object id="1012" template="HidenSpikes.tx" x="-544" y="2272"/>
  <object id="1013" template="HidenSpikes.tx" x="-544" y="2304"/>
  <object id="1014" template="HidenSpikes.tx" x="-576" y="2272"/>
  <object id="1015" template="HidenSpikes.tx" x="-576" y="2240"/>
  <object id="1016" template="HidenSpikes.tx" x="-608" y="2240"/>
  <object id="1017" template="HidenSpikes.tx" x="-608" y="2272"/>
  <object id="1018" template="HidenSpikes.tx" x="-640" y="2272"/>
  <object id="1019" template="HidenSpikes.tx" x="-672" y="2240"/>
  <object id="1020" template="HidenSpikes.tx" x="-672" y="2272"/>
  <object id="1021" template="HidenSpikes.tx" x="-672" y="2304"/>
  <object id="1022" template="HidenSpikes.tx" x="-640" y="2336"/>
  <object id="1023" template="HidenSpikes.tx" x="-672" y="2336"/>
  <object id="1024" template="HidenSpikes.tx" x="-704" y="2336"/>
  <object id="1025" template="HidenSpikes.tx" x="-704" y="2368"/>
  <object id="1026" template="HidenSpikes.tx" x="-704" y="2400"/>
  <object id="1027" template="HidenSpikes.tx" x="-704" y="2432"/>
  <object id="1028" template="HidenSpikes.tx" x="-672" y="2400"/>
  <object id="1029" template="HidenSpikes.tx" x="-672" y="2432"/>
  <object id="1030" template="HidenSpikes.tx" x="-672" y="2464"/>
  <object id="1031" template="HidenSpikes.tx" x="-672" y="2496"/>
  <object id="1032" template="HidenSpikes.tx" x="-704" y="2496"/>
  <object id="1033" template="HidenSpikes.tx" x="-704" y="2528"/>
  <object id="1034" template="HidenSpikes.tx" x="-704" y="2560"/>
  <object id="1035" template="HidenSpikes.tx" x="-672" y="2560"/>
  <object id="1036" template="HidenSpikes.tx" x="-736" y="2560"/>
  <object id="1037" template="HidenSpikes.tx" x="-768" y="2560"/>
  <object id="1038" template="HidenSpikes.tx" x="-768" y="2528"/>
  <object id="1039" template="HidenSpikes.tx" x="-800" y="2528"/>
  <object id="1040" template="HidenSpikes.tx" x="-832" y="2560"/>
  <object id="1041" template="HidenSpikes.tx" x="-832" y="2528"/>
  <object id="1042" template="HidenSpikes.tx" x="-832" y="2496"/>
  <object id="1043" template="HidenSpikes.tx" x="-832" y="2464"/>
  <object id="1044" template="HidenSpikes.tx" x="-800" y="2464"/>
  <object id="1045" template="HidenSpikes.tx" x="-736" y="2336"/>
  <object id="1046" template="HidenSpikes.tx" x="-736" y="2304"/>
  <object id="1047" template="HidenSpikes.tx" x="-768" y="2304"/>
  <object id="1048" template="HidenSpikes.tx" x="-768" y="2272"/>
  <object id="1049" template="HidenSpikes.tx" x="-800" y="2272"/>
  <object id="1050" template="HidenSpikes.tx" x="-768" y="2208"/>
  <object id="1051" template="HidenSpikes.tx" x="-768" y="2144"/>
  <object id="1052" template="HidenSpikes.tx" x="-800" y="2144"/>
  <object id="1053" template="HidenSpikes.tx" x="-800" y="2080"/>
  <object id="1054" template="HidenSpikes.tx" x="-800" y="2016"/>
  <object id="1055" template="HidenSpikes.tx" x="-736" y="2016"/>
  <object id="1056" template="HidenSpikes.tx" x="-736" y="2080"/>
  <object id="1057" template="HidenSpikes.tx" x="-864" y="1952"/>
  <object id="1058" template="HidenSpikes.tx" x="-928" y="1888"/>
  <object id="1059" template="HidenSpikes.tx" x="-992" y="1952"/>
  <object id="1060" template="HidenSpikes.tx" x="-1056" y="1920"/>
  <object id="1061" template="HidenSpikes.tx" x="-1152" y="1888"/>
  <object id="1062" template="HidenSpikes.tx" x="-1184" y="1888"/>
  <object id="1063" template="HidenSpikes.tx" x="-1216" y="1888"/>
  <object id="1064" template="HidenSpikes.tx" x="-1248" y="1888"/>
  <object id="1065" template="HidenSpikes.tx" x="-1280" y="1888"/>
  <object id="1066" template="HidenSpikes.tx" x="-1312" y="1888"/>
  <object id="1067" template="HidenSpikes.tx" x="-1344" y="1888"/>
  <object id="1068" template="HidenSpikes.tx" x="-1344" y="1920"/>
  <object id="1069" template="HidenSpikes.tx" x="-1280" y="1920"/>
  <object id="1070" template="HidenSpikes.tx" x="-1216" y="1920"/>
  <object id="1071" template="HidenSpikes.tx" x="-1152" y="1920"/>
  <object id="1072" template="HidenSpikes.tx" x="-1152" y="1952"/>
  <object id="1073" template="HidenSpikes.tx" x="-1184" y="1952"/>
  <object id="1074" template="HidenSpikes.tx" x="-1216" y="1952"/>
  <object id="1077" template="HidenSpikes.tx" x="-1248" y="1952"/>
  <object id="1078" template="HidenSpikes.tx" x="-1280" y="1952"/>
  <object id="1079" template="HidenSpikes.tx" x="-1312" y="1952"/>
  <object id="1080" template="HidenSpikes.tx" x="-1344" y="1952"/>
  <object id="1081" template="HidenSpikes.tx" x="-1248" y="1984"/>
  <object id="1082" template="HidenSpikes.tx" x="-1408" y="1920"/>
  <object id="1083" template="HidenSpikes.tx" x="-1440" y="1920"/>
  <object id="1084" template="HidenSpikes.tx" x="-1472" y="1920"/>
  <object id="1085" template="HidenSpikes.tx" x="-1504" y="1920"/>
  <object id="1086" template="HidenSpikes.tx" x="-1280" y="2016"/>
  <object id="1087" template="HidenSpikes.tx" x="-1248" y="2016"/>
  <object id="1088" template="HidenSpikes.tx" x="-1216" y="2016"/>
  <object id="1089" template="HidenSpikes.tx" x="-1216" y="2048"/>
  <object id="1090" template="HidenSpikes.tx" x="-1280" y="2048"/>
  <object id="1091" template="HidenSpikes.tx" x="-1280" y="2080"/>
  <object id="1092" template="HidenSpikes.tx" x="-1248" y="2080"/>
  <object id="1093" template="HidenSpikes.tx" x="-1216" y="2080"/>
  <object id="1094" template="HidenSpikes.tx" x="-1408" y="2144"/>
  <object id="1095" template="HidenSpikes.tx" x="-1376" y="2144"/>
  <object id="1096" template="HidenSpikes.tx" x="-1344" y="2144"/>
  <object id="1097" template="HidenSpikes.tx" x="-1344" y="2176"/>
  <object id="1098" template="HidenSpikes.tx" x="-1408" y="2176"/>
  <object id="1099" template="HidenSpikes.tx" x="-1408" y="2208"/>
  <object id="1100" template="HidenSpikes.tx" x="-1376" y="2208"/>
  <object id="1101" template="HidenSpikes.tx" x="-1344" y="2208"/>
  <object id="1102" template="HidenSpikes.tx" x="-1152" y="2144"/>
  <object id="1103" template="HidenSpikes.tx" x="-1120" y="2144"/>
  <object id="1104" template="HidenSpikes.tx" x="-1088" y="2144"/>
  <object id="1105" template="HidenSpikes.tx" x="-1088" y="2176"/>
  <object id="1106" template="HidenSpikes.tx" x="-1152" y="2176"/>
  <object id="1107" template="HidenSpikes.tx" x="-1152" y="2208"/>
  <object id="1108" template="HidenSpikes.tx" x="-1088" y="2208"/>
  <object id="1109" template="HidenSpikes.tx" x="-1120" y="2208"/>
  <object id="1110" template="HidenSpikes.tx" x="-1280" y="2272"/>
  <object id="1111" template="HidenSpikes.tx" x="-1248" y="2272"/>
  <object id="1112" template="HidenSpikes.tx" x="-1216" y="2272"/>
  <object id="1113" template="HidenSpikes.tx" x="-1216" y="2304"/>
  <object id="1114" template="HidenSpikes.tx" x="-1280" y="2304"/>
  <object id="1115" template="HidenSpikes.tx" x="-1280" y="2336"/>
  <object id="1116" template="HidenSpikes.tx" x="-1248" y="2336"/>
  <object id="1117" template="HidenSpikes.tx" x="-1216" y="2336"/>
  <object id="1461" template="HidenSpikes.tx" x="-2624" y="1824"/>
  <object id="1462" template="HidenSpikes.tx" x="-2624" y="1792"/>
  <object id="1463" template="HidenSpikes.tx" x="-2688" y="1824"/>
  <object id="1464" template="HidenSpikes.tx" x="-2688" y="1792"/>
  <object id="1465" template="HidenSpikes.tx" x="-2752" y="1824"/>
  <object id="1466" template="HidenSpikes.tx" x="-2752" y="1792"/>
  <object id="1592" template="HidenSpikes.tx" x="-2592" y="544"/>
  <object id="1593" template="HidenSpikes.tx" x="-2656" y="672"/>
  <object id="1594" template="HidenSpikes.tx" x="-2848" y="896"/>
  <object id="1595" template="HidenSpikes.tx" x="-2880" y="896"/>
  <object id="1596" template="HidenSpikes.tx" x="-2912" y="896"/>
  <object id="1597" template="HidenSpikes.tx" x="-2944" y="896"/>
  <object id="1598" template="HidenSpikes.tx" x="-2944" y="832"/>
  <object id="1599" template="HidenSpikes.tx" x="-2912" y="832"/>
  <object id="1600" template="HidenSpikes.tx" x="-2880" y="832"/>
  <object id="1601" template="HidenSpikes.tx" x="-2848" y="832"/>
  <object id="1602" template="HidenSpikes.tx" x="-2816" y="832"/>
  <object id="1603" template="HidenSpikes.tx" x="-2784" y="800"/>
  <object id="1992" template="HidenSpikes.tx" x="-1760" y="288"/>
  <object id="1993" template="HidenSpikes.tx" x="-1792" y="288"/>
  <object id="1994" template="HidenSpikes.tx" x="-1824" y="256"/>
  <object id="1995" template="HidenSpikes.tx" x="-1824" y="224"/>
  <object id="1996" template="HidenSpikes.tx" x="-1824" y="192"/>
  <object id="1997" template="HidenSpikes.tx" x="-1824" y="160"/>
  <object id="1998" template="HidenSpikes.tx" x="-1792" y="128"/>
  <object id="1999" template="HidenSpikes.tx" x="-1696" y="128"/>
  <object id="2000" template="HidenSpikes.tx" x="-1664" y="64"/>
  <object id="2001" template="HidenSpikes.tx" x="-1632" y="64"/>
  <object id="2002" template="HidenSpikes.tx" x="-1568" y="-32"/>
  <object id="2003" template="HidenSpikes.tx" x="-1728" y="-32"/>
  <object id="2004" template="HidenSpikes.tx" x="-1728" y="-256"/>
  <object id="2005" template="HidenSpikes.tx" x="-1568" y="-256"/>
  <object id="2006" template="HidenSpikes.tx" x="-1856" y="-480"/>
  <object id="2007" template="HidenSpikes.tx" x="-1888" y="-480"/>
  <object id="2008" template="HidenSpikes.tx" x="-1920" y="-480"/>
  <object id="2009" template="HidenSpikes.tx" x="-1920" y="-384"/>
  <object id="2010" template="HidenSpikes.tx" x="-1952" y="-384"/>
  <object id="2011" template="HidenSpikes.tx" x="-1984" y="-384"/>
  <object id="2012" template="HidenSpikes.tx" x="-2048" y="-448"/>
  <object id="2013" template="HidenSpikes.tx" x="-2080" y="-416"/>
  <object id="2014" template="HidenSpikes.tx" x="-2112" y="-448"/>
  <object id="2015" template="HidenSpikes.tx" x="-2144" y="-416"/>
  <object id="2016" template="HidenSpikes.tx" x="-2016" y="-736"/>
  <object id="2017" template="HidenSpikes.tx" x="-1920" y="-736"/>
  <object id="2018" template="HidenSpikes.tx" x="-1536" y="-832"/>
  <object id="2019" template="HidenSpikes.tx" x="-1472" y="-864"/>
  <object id="2020" template="HidenSpikes.tx" x="-1408" y="-800"/>
  <object id="2021" template="HidenSpikes.tx" x="-1568" y="-928"/>
  <object id="2022" template="HidenSpikes.tx" x="-1536" y="-928"/>
  <object id="2023" template="HidenSpikes.tx" x="-1504" y="-928"/>
  <object id="2024" template="HidenSpikes.tx" x="-1440" y="-928"/>
  <object id="2025" template="HidenSpikes.tx" x="-1408" y="-928"/>
  <object id="2026" template="HidenSpikes.tx" x="-1376" y="-928"/>
  <object id="2027" template="HidenSpikes.tx" x="-928" y="-960"/>
  <object id="2028" template="HidenSpikes.tx" x="-1056" y="-1024"/>
  <object id="2029" template="HidenSpikes.tx" x="-1120" y="-576"/>
  <object id="2030" template="HidenSpikes.tx" x="-1088" y="-576"/>
  <object id="2031" template="HidenSpikes.tx" x="-1024" y="-576"/>
  <object id="2032" template="HidenSpikes.tx" x="-960" y="-576"/>
  <object id="2033" template="HidenSpikes.tx" x="-896" y="-576"/>
  <object id="2034" template="HidenSpikes.tx" x="-864" y="-576"/>
  <object id="2035" template="HidenSpikes.tx" x="-576" y="-864"/>
  <object id="2036" template="HidenSpikes.tx" x="-576" y="-896"/>
  <object id="2037" template="HidenSpikes.tx" x="-608" y="-896"/>
  <object id="2038" template="HidenSpikes.tx" x="-608" y="-928"/>
  <object id="2039" template="HidenSpikes.tx" x="-608" y="-960"/>
  <object id="2040" template="HidenSpikes.tx" x="-576" y="-960"/>
  <object id="2041" template="HidenSpikes.tx" x="-544" y="-960"/>
  <object id="2042" template="HidenSpikes.tx" x="-544" y="-928"/>
  <object id="2043" template="HidenSpikes.tx" x="-544" y="-896"/>
  <object id="2044" template="HidenSpikes.tx" x="-448" y="-800"/>
  <object id="2045" template="HidenSpikes.tx" x="-416" y="-800"/>
  <object id="2046" template="HidenSpikes.tx" x="-416" y="-768"/>
  <object id="2047" template="HidenSpikes.tx" x="-448" y="-768"/>
  <object id="2048" template="HidenSpikes.tx" x="-512" y="-672"/>
  <object id="2049" template="HidenSpikes.tx" x="-512" y="-640"/>
  <object id="2050" template="HidenSpikes.tx" x="-512" y="-608"/>
  <object id="2051" template="HidenSpikes.tx" x="-384" y="-672"/>
  <object id="2052" template="HidenSpikes.tx" x="-384" y="-640"/>
  <object id="2053" template="HidenSpikes.tx" x="-384" y="-608"/>
  <object id="2054" template="HidenSpikes.tx" x="-320" y="-800"/>
  <object id="2057" template="HidenSpikes.tx" x="-320" y="-672"/>
  <object id="2058" template="HidenSpikes.tx" x="-320" y="-640"/>
 </objectgroup>
 <layer id="113" name="MovingSpikes" width="32" height="32">
  <data encoding="csv">
   <chunk x="-32" y="-32" width="16" height="16">
0,0,0,0,0,0,0,0,0,0,0,0,0,0,0,0,
0,522,0,0,0,0,0,0,0,0,0,0,0,0,0,0,
0,522,0,0,0,0,0,0,0,0,0,0,0,0,0,0,
0,0,0,0,0,0,0,0,0,0,0,0,0,0,0,0,
0,0,0,0,0,0,0,0,0,0,0,0,0,0,0,0,
0,0,0,0,0,0,0,0,0,0,0,0,522,522,522,522,
0,0,0,0,0,0,0,0,0,0,0,0,0,0,0,0,
0,0,0,0,0,0,0,0,0,0,0,0,0,0,0,0,
0,0,0,0,0,0,0,0,0,0,0,0,0,0,0,0,
0,0,0,0,0,0,0,0,0,0,0,0,0,0,0,0,
0,0,0,0,0,0,0,0,0,0,0,0,0,522,522,522,
0,0,0,0,0,0,0,0,0,0,0,0,0,522,0,522,
0,0,0,0,0,0,0,0,0,0,0,0,0,522,522,522,
0,0,0,0,0,0,0,0,0,0,0,0,0,0,0,0,
0,0,0,0,0,0,0,0,0,0,0,0,0,0,0,0,
0,0,0,0,0,0,0,0,0,0,0,0,0,0,0,0
</chunk>
   <chunk x="-16" y="-32" width="16" height="16">
0,0,0,0,0,0,0,0,0,0,0,0,0,0,0,0,
0,0,0,0,0,0,0,0,0,0,0,0,0,0,0,0,
0,0,0,0,0,0,0,0,0,0,0,0,0,0,0,0,
0,0,0,0,0,0,0,0,0,0,0,0,0,0,0,0,
0,0,0,0,0,0,0,0,0,0,0,0,0,0,0,0,
522,522,522,522,522,522,522,0,0,0,0,0,0,0,0,0,
0,0,0,0,0,0,0,0,0,0,0,0,0,0,0,0,
0,0,0,0,0,0,0,542,0,0,0,0,0,0,0,0,
0,0,0,0,0,0,0,0,0,0,0,0,0,0,0,0,
0,0,0,0,0,0,0,526,0,0,0,0,0,0,0,0,
0,522,522,522,0,0,0,0,0,0,0,0,0,0,0,0,
0,522,0,522,0,0,0,0,0,0,0,0,0,0,0,0,
0,522,522,522,0,0,0,0,0,0,0,0,0,0,0,0,
0,0,0,0,0,0,0,0,0,0,0,0,0,0,0,0,
0,0,0,0,0,0,0,0,0,0,0,0,0,0,0,0,
0,0,0,0,0,0,0,0,0,0,0,0,0,0,0,0
</chunk>
   <chunk x="-64" y="-16" width="16" height="16">
0,0,0,0,0,0,0,0,0,0,0,0,0,0,0,0,
0,0,0,0,0,0,0,0,0,0,522,0,522,0,0,0,
0,0,0,0,0,522,0,0,0,522,0,522,0,522,0,0,
0,0,0,0,0,0,0,0,0,0,0,0,0,0,0,0,
0,0,0,0,0,0,0,0,0,0,0,0,0,0,0,0,
0,0,0,0,0,0,0,0,0,0,0,0,0,0,0,0,
0,0,0,0,0,0,0,0,0,0,0,0,0,0,0,0,
0,0,0,0,0,0,0,0,0,0,0,0,0,0,0,0,
0,0,0,0,0,0,0,0,0,0,0,0,0,0,0,0,
0,0,0,0,0,0,0,0,0,0,0,0,0,0,0,0,
0,0,0,0,0,0,0,0,0,0,0,0,0,0,0,0,
0,0,0,0,0,0,0,0,0,0,0,0,0,0,0,0,
0,0,0,0,0,0,0,0,0,0,0,0,0,0,0,0,
0,0,0,0,0,0,0,0,0,0,0,0,0,0,0,0,
0,0,0,0,0,0,0,0,0,0,0,0,0,0,0,0,
0,0,0,0,0,0,0,0,0,0,0,0,0,0,0,0
</chunk>
   <chunk x="-64" y="0" width="16" height="16">
0,0,0,0,0,0,0,0,0,0,0,0,522,522,0,0,
0,0,0,0,0,0,0,0,0,0,0,0,0,0,0,0,
0,0,0,0,0,0,0,0,0,0,0,0,522,522,0,0,
0,0,0,0,0,0,0,0,0,522,522,0,0,0,0,0,
0,0,0,0,0,0,0,0,0,0,0,0,0,0,0,0,
0,0,0,0,0,0,0,0,0,0,0,0,0,0,0,0,
0,0,0,0,0,0,0,0,0,0,0,0,0,0,0,0,
0,0,0,0,0,0,0,0,0,0,0,0,0,0,0,0,
0,0,0,0,0,0,0,0,0,0,0,0,0,0,0,0,
0,0,0,0,0,0,0,0,0,0,0,0,0,0,0,0,
0,0,0,0,0,0,0,0,0,0,0,0,0,0,0,0,
0,0,0,0,0,0,0,0,0,0,0,0,0,0,0,0,
0,0,0,0,0,0,0,0,0,0,0,0,0,0,0,0,
0,0,0,0,0,0,0,0,0,0,0,0,0,0,0,0,
0,0,0,0,0,0,0,0,0,0,0,0,0,0,0,0,
0,0,0,0,0,0,0,0,0,0,0,0,0,0,0,0
</chunk>
   <chunk x="-96" y="16" width="16" height="16">
0,0,0,0,0,0,0,0,0,0,0,0,0,0,0,0,
0,0,0,0,0,0,0,0,0,0,0,0,0,0,0,0,
0,0,0,0,0,0,0,0,0,0,0,0,0,0,0,0,
0,0,0,0,0,0,0,0,0,0,0,0,0,0,0,0,
0,0,0,0,0,0,0,0,0,0,0,0,0,0,0,0,
0,0,0,0,0,0,0,0,0,0,0,0,0,0,0,0,
0,0,0,0,0,0,0,0,0,0,0,0,0,0,0,0,
0,0,0,0,0,0,0,0,0,0,0,0,0,0,0,0,
0,0,0,0,0,0,0,0,0,0,0,0,0,0,0,0,
0,0,0,0,0,0,0,0,0,0,0,0,0,0,0,0,
0,0,0,0,0,0,0,0,0,0,0,0,0,0,0,0,
0,0,0,0,0,0,0,0,0,0,0,0,0,0,0,0,
0,0,0,0,0,0,0,0,0,0,0,0,0,0,0,0,
0,0,0,0,0,0,0,0,0,0,0,0,0,0,0,0,
0,0,0,0,0,522,522,522,522,0,0,0,0,0,0,0,
0,0,0,0,0,0,0,0,0,0,0,0,0,0,0,0
</chunk>
   <chunk x="0" y="32" width="16" height="16">
0,0,0,0,0,0,0,0,0,0,0,0,0,0,0,0,
0,0,0,0,0,0,0,0,0,0,0,0,0,0,0,0,
0,0,0,0,0,0,0,0,0,0,0,0,0,0,0,0,
0,0,0,0,0,0,0,0,0,0,0,0,0,0,0,0,
0,0,0,0,0,0,0,0,0,0,0,0,0,0,0,0,
0,0,0,0,0,0,0,0,0,0,0,0,0,522,0,0,
0,0,0,0,0,0,0,0,0,0,0,0,522,522,522,0,
0,0,0,0,0,0,0,0,0,0,0,0,522,522,522,0,
0,0,0,0,0,0,0,0,0,0,0,522,522,522,0,522,
0,0,0,0,0,0,0,0,0,0,0,522,522,522,0,522,
0,0,0,0,0,0,0,0,0,0,0,0,522,522,522,0,
0,0,0,0,0,0,0,0,0,0,0,0,522,0,0,0,
0,0,0,0,0,0,0,0,0,0,0,0,522,522,522,0,
0,0,0,0,0,0,0,0,0,0,0,0,0,522,522,0,
0,0,0,0,0,0,0,0,0,0,0,0,522,0,522,0,
0,0,0,0,0,526,0,0,0,0,0,0,0,0,0,0
</chunk>
   <chunk x="-96" y="48" width="16" height="16">
0,0,0,0,0,0,522,0,522,0,0,0,0,0,0,0,
0,0,0,0,0,0,522,0,522,0,0,0,0,0,0,0,
0,0,0,0,0,0,522,0,522,0,0,0,0,0,0,0,
0,0,0,0,0,0,522,0,522,0,0,0,0,0,0,0,
0,0,0,0,0,0,522,0,522,0,0,0,0,0,0,0,
0,0,0,0,0,0,0,0,0,0,0,0,0,0,0,0,
0,0,0,0,0,0,0,0,0,0,0,0,0,0,0,0,
0,0,0,0,0,0,0,0,0,0,0,522,0,0,0,522,
0,0,0,0,0,0,0,0,0,522,0,0,0,522,0,0,
0,0,0,0,0,0,0,0,0,0,0,0,0,0,0,0,
0,0,0,0,0,0,0,0,0,0,0,0,0,0,0,0,
0,0,0,0,0,0,0,0,0,0,0,0,0,0,0,0,
0,0,0,0,0,0,0,0,0,0,0,0,0,0,0,0,
0,0,0,0,0,0,0,0,0,0,0,0,0,0,0,0,
0,0,0,0,0,0,0,0,0,0,0,0,0,0,0,0,
0,0,0,0,0,0,0,0,0,0,0,0,0,0,0,0
</chunk>
   <chunk x="-64" y="48" width="16" height="16">
0,0,0,0,0,0,0,0,0,0,0,0,0,0,0,0,
0,0,0,0,0,0,0,0,0,0,0,0,0,0,0,0,
0,0,0,0,0,0,0,0,0,0,0,0,0,0,0,0,
0,0,0,0,0,0,0,0,0,0,0,0,0,0,0,0,
0,0,0,0,0,0,0,0,0,0,0,0,0,0,0,0,
0,0,0,0,0,0,0,0,0,0,0,0,0,0,0,0,
0,0,0,0,0,0,0,0,0,0,0,0,0,0,0,0,
0,0,0,0,0,0,0,0,0,0,0,0,0,0,0,0,
0,0,0,0,0,0,0,0,0,0,0,0,0,0,0,0,
0,0,0,0,0,0,0,0,0,0,0,0,0,0,0,0,
0,0,0,0,0,0,0,0,0,0,0,0,0,0,0,0,
0,0,0,0,0,0,0,0,0,0,0,0,0,0,0,0,
0,0,0,0,0,0,0,0,0,0,0,0,0,0,0,0,
0,0,0,0,0,522,0,0,0,0,0,0,0,0,0,0,
0,0,0,0,0,522,0,0,0,0,0,0,0,0,0,0,
0,0,0,0,0,522,0,0,0,0,0,0,0,0,0,0
</chunk>
   <chunk x="-48" y="48" width="16" height="16">
0,0,0,0,0,0,0,0,0,0,0,0,0,0,0,0,
0,0,0,0,0,0,0,0,0,0,0,0,0,0,0,0,
0,0,0,0,0,0,0,0,0,0,0,0,0,0,0,0,
0,0,0,0,0,0,0,0,0,0,0,0,0,0,0,0,
0,0,0,0,0,0,0,0,0,0,0,0,0,0,0,0,
0,0,0,0,0,0,0,0,0,0,0,0,0,0,0,0,
0,0,0,0,0,0,0,0,0,0,0,0,0,0,0,0,
0,0,0,0,0,0,0,0,0,0,0,0,0,0,0,0,
0,0,0,0,0,0,0,0,0,0,0,0,0,0,0,0,
0,0,0,0,0,0,0,0,0,0,0,0,0,0,0,0,
0,0,0,0,0,0,0,0,0,0,0,0,0,0,0,0,
522,0,0,0,0,0,0,0,0,0,0,0,0,0,0,0,
0,0,0,0,0,0,0,0,0,0,0,0,0,0,0,0,
0,0,0,0,0,0,0,0,0,0,0,0,0,0,0,0,
0,0,0,0,0,0,0,0,0,0,0,0,0,0,0,0,
0,0,0,0,0,0,0,0,0,0,0,0,0,0,0,0
</chunk>
   <chunk x="-32" y="48" width="16" height="16">
0,0,0,0,0,0,0,0,0,0,0,0,0,0,0,0,
0,0,0,0,0,0,0,0,0,0,0,0,0,0,0,0,
0,0,0,0,0,0,0,0,0,0,0,0,0,0,0,0,
0,0,0,0,0,0,0,0,0,0,0,0,0,0,0,0,
0,0,0,0,0,0,0,0,0,0,0,0,0,0,0,0,
0,0,0,0,0,0,0,0,0,0,0,0,0,0,0,0,
0,0,0,0,0,0,0,0,0,0,0,0,0,0,0,0,
0,0,0,0,0,0,0,0,0,0,0,0,0,0,0,0,
0,0,0,0,0,0,0,0,0,0,0,0,0,0,0,0,
0,0,0,0,0,0,0,0,0,0,0,0,0,0,0,0,
0,0,0,0,0,0,0,0,0,0,0,0,0,0,0,0,
0,0,0,0,0,0,0,0,0,0,0,0,0,0,0,0,
0,0,0,0,0,0,0,0,0,0,0,0,0,0,0,0,
0,0,0,0,0,0,0,0,0,0,0,0,0,0,0,0,
0,0,0,0,0,0,0,0,522,0,0,0,0,0,0,0,
0,0,0,0,0,0,0,522,0,522,0,0,0,0,0,0
</chunk>
   <chunk x="0" y="48" width="16" height="16">
0,0,526,0,0,522,0,0,0,0,0,0,0,0,0,0,
0,0,522,0,0,522,0,0,0,0,0,0,0,0,0,0,
0,0,0,522,522,522,0,0,0,0,0,0,0,0,0,0,
0,0,0,0,0,0,0,0,0,0,0,0,0,0,0,0,
0,0,0,0,0,0,0,0,0,0,0,0,0,0,0,0,
0,0,0,0,0,0,0,0,0,0,0,0,0,0,0,0,
0,0,0,522,0,0,0,0,0,0,0,0,0,0,0,0,
0,0,0,0,522,0,0,0,0,0,0,0,0,0,0,0,
0,0,0,0,0,0,0,0,0,0,0,0,0,0,0,0,
0,0,0,0,0,0,0,0,0,0,0,0,0,0,0,0,
0,0,0,0,0,522,0,0,522,0,0,0,0,0,0,0,
0,0,0,0,0,0,0,0,0,0,0,0,0,0,0,0,
0,0,0,0,0,0,0,0,0,0,0,0,0,0,0,0,
0,0,0,0,0,0,0,522,0,0,0,522,0,0,0,0,
0,0,0,0,0,0,0,0,0,0,0,0,0,0,0,0,
0,0,0,0,0,0,0,522,0,0,0,0,0,0,0,0
</chunk>
   <chunk x="-64" y="64" width="16" height="16">
0,0,0,0,0,522,0,0,0,0,0,0,0,0,0,0,
0,0,0,0,0,522,0,0,0,0,0,0,0,0,0,0,
0,0,0,0,0,522,0,0,0,0,0,0,0,0,0,0,
0,0,0,0,0,522,0,0,0,0,0,0,0,0,0,0,
0,0,0,0,0,522,0,0,0,0,0,0,0,0,0,0,
0,0,0,0,0,0,0,0,0,0,0,0,0,0,0,0,
0,0,0,0,0,0,0,0,0,0,0,0,0,0,0,0,
0,0,0,0,0,0,0,0,0,0,0,0,0,0,0,0,
0,0,0,0,0,0,0,0,0,0,0,0,0,0,0,0,
0,0,0,0,0,0,0,0,0,0,0,0,0,0,0,0,
0,0,0,0,0,0,0,0,0,0,0,0,0,0,0,0,
0,0,0,0,0,0,0,0,0,0,0,0,0,0,0,0,
0,0,0,0,0,0,0,0,0,0,0,0,0,0,0,0,
0,0,0,0,0,0,0,0,0,0,0,0,0,0,0,0,
0,0,0,0,0,0,0,0,0,0,0,0,0,0,0,0,
0,0,0,0,0,0,0,0,0,0,0,0,0,0,0,0
</chunk>
   <chunk x="-32" y="64" width="16" height="16">
0,0,0,0,0,0,522,0,522,0,0,0,0,0,0,0,
0,0,0,0,0,0,0,522,0,0,0,0,0,0,0,0,
0,0,0,0,0,0,522,0,0,522,0,0,0,0,0,0,
0,0,0,0,0,0,0,0,522,0,0,0,0,0,0,0,
0,0,0,0,0,0,0,0,0,522,0,0,0,0,0,0,
0,0,0,0,0,0,0,0,0,0,0,0,0,0,0,0,
0,0,0,0,0,0,0,0,0,0,0,0,0,0,0,0,
0,0,0,0,0,0,0,0,0,0,0,0,0,0,0,0,
0,0,0,0,0,0,0,0,0,0,0,0,0,0,0,0,
0,0,0,0,0,0,0,0,0,0,0,0,0,0,0,0,
0,0,0,0,0,0,0,0,0,522,0,0,0,0,0,0,
0,0,0,0,0,0,0,0,0,522,0,0,0,0,0,0,
0,0,0,0,0,0,0,0,0,0,0,0,0,0,0,0,
0,0,0,0,0,0,0,0,0,0,0,0,0,0,0,0,
0,0,0,0,0,0,0,0,0,0,0,0,0,0,0,0,
0,0,0,0,0,0,0,0,0,0,0,0,0,0,0,0
</chunk>
   <chunk x="0" y="64" width="16" height="16">
0,0,0,0,0,522,0,0,0,0,0,0,0,0,0,0,
0,0,0,0,0,0,0,0,0,0,0,0,0,522,0,0,
0,0,0,0,0,0,0,0,0,0,0,522,0,0,0,0,
0,0,0,0,0,0,0,0,0,0,0,0,0,0,0,0,
0,0,0,0,0,0,0,0,0,0,0,0,0,522,0,0,
0,0,0,0,0,0,0,0,0,0,0,0,0,0,0,0,
0,0,0,0,0,0,0,0,0,0,0,0,0,0,0,0,
0,0,0,0,0,0,0,0,0,0,0,0,0,0,0,0,
0,0,0,0,0,0,0,0,0,0,0,0,0,0,0,0,
0,0,0,0,0,0,0,0,0,0,0,0,0,0,0,0,
0,0,0,0,0,0,0,0,0,0,0,0,0,0,0,0,
0,0,0,0,0,0,0,0,0,0,0,0,0,0,0,0,
0,0,0,0,0,0,0,0,0,0,0,0,0,0,0,0,
0,0,0,0,0,0,0,0,0,0,0,0,0,0,0,0,
0,0,0,0,0,0,0,0,0,0,0,0,0,0,0,0,
0,0,0,0,0,0,0,0,0,0,0,0,0,0,0,0
</chunk>
  </data>
 </layer>
 <layer id="116" name="FakeMovingSpikes" width="32" height="32">
  <data encoding="csv">
   <chunk x="-64" y="-16" width="16" height="16">
0,0,0,0,0,0,0,0,0,0,0,0,0,0,0,0,
0,0,0,0,0,0,0,0,0,524,0,524,0,524,0,0,
0,0,0,0,0,0,0,0,0,0,524,0,524,0,0,0,
0,0,0,0,0,0,0,0,0,0,0,0,0,0,0,0,
0,0,0,0,0,0,0,0,0,0,0,0,0,0,0,0,
0,0,0,0,0,0,0,0,0,0,0,0,0,0,0,0,
0,0,0,0,0,0,0,0,0,0,0,0,0,0,0,0,
0,0,0,0,0,0,0,0,0,0,0,0,0,0,0,0,
0,0,0,0,0,0,0,0,0,0,0,0,0,0,0,0,
0,0,0,0,0,0,0,0,0,0,0,0,0,0,0,0,
0,0,0,0,0,0,0,0,0,0,0,0,0,0,0,0,
0,0,0,0,0,0,0,0,0,0,0,0,0,0,0,0,
0,0,0,0,0,0,0,0,0,0,0,0,0,0,0,0,
0,0,0,0,0,0,0,0,0,0,0,0,0,0,0,0,
0,0,0,0,0,0,0,0,0,0,0,0,0,0,0,0,
0,0,0,0,0,0,0,0,0,0,0,0,0,0,0,0
</chunk>
  </data>
 </layer>
 <layer id="112" name="Spikes" width="32" height="32">
  <properties>
   <property name="damageable" type="bool" value="false"/>
  </properties>
  <data encoding="csv">
   <chunk x="-64" y="-16" width="16" height="16">
0,0,521,0,0,0,0,0,521,0,0,0,0,0,0,0,
0,0,0,0,0,0,0,0,0,0,0,0,0,0,0,0,
0,0,0,0,0,0,0,0,0,0,0,0,0,0,0,0,
0,0,0,0,0,521,0,0,0,0,0,0,0,0,0,0,
0,0,0,0,0,0,0,0,0,0,0,0,0,0,0,0,
0,0,0,0,0,0,0,0,0,0,0,0,0,0,0,0,
0,0,0,0,0,0,0,0,0,0,0,0,0,0,0,0,
0,0,0,0,0,0,0,0,0,0,0,0,0,0,0,0,
0,0,0,0,0,0,0,0,0,0,0,0,0,0,0,0,
0,0,0,0,0,0,0,0,0,0,0,0,0,0,0,0,
0,0,0,0,0,0,0,0,0,0,0,0,0,0,0,0,
0,0,0,0,0,0,0,0,0,0,0,0,0,0,0,0,
0,0,0,0,0,0,0,0,0,0,0,0,0,0,0,0,
0,0,0,0,0,0,0,0,0,521,0,0,0,0,0,0,
0,0,0,0,0,0,0,0,0,0,0,0,0,0,0,0,
0,0,0,0,0,0,0,0,0,0,0,0,0,0,0,0
</chunk>
   <chunk x="-48" y="-16" width="16" height="16">
0,0,0,0,0,0,0,0,0,0,0,0,0,0,0,0,
0,0,0,0,0,0,0,0,0,0,0,0,0,0,0,0,
0,0,0,0,0,0,0,0,0,0,0,0,0,0,0,0,
0,0,0,0,0,0,0,0,0,0,0,0,0,0,0,0,
0,0,0,0,0,0,0,0,0,0,0,0,0,0,0,0,
0,0,0,0,0,0,0,0,0,0,0,0,0,0,0,0,
0,0,0,0,0,0,0,0,0,0,0,0,0,0,0,0,
0,0,0,0,0,0,0,0,0,0,0,0,0,0,0,0,
0,0,0,0,0,0,0,0,0,0,0,0,0,0,0,0,
0,0,0,0,0,0,0,0,0,0,0,0,0,0,0,0,
0,0,0,0,0,0,0,0,0,0,0,0,0,0,0,0,
0,0,0,0,0,0,0,0,0,0,0,0,0,0,0,0,
0,0,0,0,0,0,0,0,0,0,0,0,0,0,0,0,
521,0,0,0,0,0,0,0,0,0,0,0,0,0,0,0,
0,0,0,0,0,0,0,0,0,0,0,0,0,0,0,0,
0,0,0,0,0,0,0,0,0,0,0,0,0,0,0,0
</chunk>
   <chunk x="-32" y="-16" width="16" height="16">
0,0,0,0,0,0,0,0,0,0,0,0,0,0,0,0,
0,0,0,0,0,0,0,0,0,0,0,0,0,0,0,0,
0,0,0,0,0,0,0,0,0,0,0,0,0,0,0,0,
0,0,0,0,0,0,0,0,0,0,0,0,0,0,0,0,
0,0,0,0,0,0,0,0,0,0,0,0,0,0,0,0,
0,0,0,0,0,0,0,0,0,0,0,0,0,0,0,0,
0,0,0,0,0,0,0,0,0,0,0,0,0,0,0,0,
0,0,0,0,0,0,0,0,0,0,0,0,0,0,0,0,
0,0,0,0,0,0,0,0,0,0,0,0,0,0,0,0,
0,0,0,0,0,0,0,0,0,0,0,0,0,0,0,0,
0,0,0,0,0,0,0,0,0,0,0,0,0,0,0,0,
0,0,0,0,0,0,0,0,0,0,0,0,0,0,0,0,
0,0,0,0,0,0,0,0,0,0,0,0,0,0,0,0,
0,0,0,0,0,0,0,0,0,0,0,0,0,0,0,0,
0,0,0,0,0,0,0,0,0,0,0,0,0,0,529,525,
0,0,0,0,0,0,0,0,0,0,0,0,0,0,533,521
</chunk>
   <chunk x="-96" y="0" width="16" height="16">
0,0,0,0,0,0,0,0,0,0,0,0,0,0,0,0,
0,0,0,0,0,0,0,0,0,0,0,0,0,0,0,0,
0,0,0,0,0,0,0,0,0,0,0,0,0,0,0,0,
0,0,0,0,0,0,0,0,0,0,0,0,0,0,0,0,
0,0,0,0,0,0,0,0,0,0,0,0,0,0,0,0,
0,0,0,0,0,0,0,0,0,0,0,0,0,0,0,0,
0,0,0,0,0,0,0,0,0,0,0,0,0,0,0,0,
0,0,0,0,0,0,0,0,0,0,0,0,0,0,0,0,
0,0,0,0,0,0,0,0,0,0,0,0,0,0,0,0,
0,0,0,0,0,0,0,0,0,0,0,0,0,0,0,0,
0,0,0,0,0,0,0,0,0,0,0,0,0,0,0,0,
0,0,0,0,0,0,0,0,0,0,0,0,0,0,0,0,
0,0,0,0,0,0,0,0,0,0,0,0,0,0,0,0,
0,0,0,0,0,0,0,0,0,0,0,0,0,0,0,0,
0,0,0,0,0,0,0,0,0,0,0,0,0,0,0,0,
0,0,0,0,0,0,0,0,0,0,521,0,0,521,0,0
</chunk>
   <chunk x="-64" y="0" width="16" height="16">
0,0,0,0,0,0,0,0,0,0,0,0,0,0,0,0,
0,0,0,0,0,0,0,0,0,0,0,0,0,0,0,0,
0,0,0,0,0,0,0,0,0,0,0,0,0,0,0,0,
0,0,0,0,0,0,0,0,0,0,0,0,0,0,0,0,
0,0,0,0,0,0,0,0,0,0,0,0,0,0,0,0,
0,0,0,0,0,0,0,0,0,0,0,0,0,0,0,0,
0,0,0,0,0,0,0,0,0,0,0,0,0,0,0,0,
0,0,0,0,0,0,0,0,0,0,0,0,0,0,0,0,
0,0,0,0,0,0,0,0,0,0,0,0,0,0,0,0,
0,0,0,0,0,0,0,0,0,0,0,0,0,0,0,0,
0,0,0,0,0,0,0,0,0,0,0,0,0,0,0,0,
0,0,0,0,0,0,0,0,0,0,0,0,0,2147484193,0,0,
0,0,0,0,0,0,0,0,0,0,0,0,0,0,0,0,
0,0,0,0,0,0,0,0,0,0,0,0,0,0,2147484177,0,
0,0,0,0,0,0,0,0,0,0,0,0,0,0,0,0,
0,0,0,0,0,0,0,0,0,0,0,0,0,0,0,0
</chunk>
   <chunk x="-96" y="16" width="16" height="16">
0,0,0,0,0,0,0,0,0,0,0,0,0,0,0,0,
0,0,0,0,0,0,0,0,0,521,0,0,521,0,0,0,
0,0,0,0,0,0,0,0,0,0,0,0,0,0,0,0,
0,0,0,0,0,0,0,0,0,0,0,0,521,0,0,0,
0,0,0,0,0,0,0,0,0,0,0,521,0,0,0,0,
0,0,0,0,0,0,0,0,0,0,0,0,0,0,521,0,
0,0,0,0,0,0,0,0,0,0,0,0,0,0,0,0,
0,0,0,0,0,0,0,0,0,0,0,0,0,0,0,0,
0,0,0,0,0,0,0,0,0,0,0,0,0,0,0,0,
0,0,0,0,0,0,0,0,0,0,0,0,0,0,0,0,
0,0,0,0,0,0,0,0,0,0,0,0,0,0,0,0,
0,0,0,0,0,0,0,0,0,0,0,0,0,0,0,0,
0,0,0,0,0,0,0,0,0,0,0,0,0,0,0,0,
0,0,0,0,0,0,0,0,0,0,0,0,0,0,0,0,
0,0,0,0,0,0,0,0,0,0,0,0,0,0,0,0,
0,0,0,0,0,0,0,0,0,0,0,0,0,0,0,0
</chunk>
   <chunk x="-32" y="16" width="16" height="16">
0,0,0,0,0,0,0,0,0,0,0,0,0,0,0,0,
0,0,0,0,0,0,0,0,0,0,0,0,0,0,0,0,
0,0,0,0,0,0,0,0,0,0,0,0,0,0,0,0,
0,0,0,0,0,0,0,0,0,0,0,0,0,0,0,0,
0,0,0,0,0,0,0,0,0,0,0,0,0,0,0,0,
0,0,0,0,0,0,0,0,0,0,0,0,0,0,0,0,
0,0,0,0,0,0,0,529,0,0,2147484177,0,0,0,0,0,
0,0,0,0,0,0,529,0,0,0,0,2147484177,0,0,0,0,
0,0,0,0,0,0,0,0,0,0,0,0,0,0,0,0,
0,0,0,0,0,0,0,0,521,521,0,0,0,0,0,0,
0,0,0,0,0,0,0,0,0,0,0,0,0,0,0,0,
0,0,0,0,0,0,529,0,0,0,0,2147484177,0,0,0,0,
0,0,0,0,0,0,0,521,0,0,521,0,0,0,0,0,
0,0,0,0,0,0,0,0,0,0,0,0,0,0,0,0,
0,0,0,0,0,0,0,0,0,0,0,0,0,0,0,0,
0,0,0,0,0,0,0,0,0,0,0,0,0,0,0,0
</chunk>
   <chunk x="-112" y="32" width="16" height="16">
0,0,0,0,0,0,0,0,0,0,0,0,0,0,0,0,
0,0,0,0,0,0,0,0,0,0,0,0,0,0,0,0,
0,0,0,0,0,0,0,0,0,0,0,0,0,0,0,0,
0,0,0,0,0,0,0,0,0,0,0,0,0,0,0,0,
0,0,0,0,0,0,0,0,0,0,0,0,0,0,0,0,
0,0,0,0,0,0,0,0,0,0,0,0,0,0,0,0,
0,0,0,0,0,0,0,0,0,0,0,0,0,521,0,0,
0,0,0,0,0,0,0,0,0,0,0,0,0,0,0,0,
0,0,0,0,0,0,0,0,0,0,0,0,0,0,0,0,
0,0,0,0,0,0,0,0,0,0,0,0,0,0,0,0,
0,0,0,0,0,0,0,0,0,0,0,0,0,0,0,0,
0,0,0,0,0,0,0,0,0,0,0,0,0,0,0,0,
0,0,0,0,0,0,0,0,0,0,0,0,0,0,0,0,
0,0,0,0,0,0,0,0,0,0,0,0,0,0,0,0,
0,0,0,0,0,0,0,0,0,0,0,0,0,0,0,0,
0,0,0,0,0,0,0,0,0,0,0,0,0,0,0,0
</chunk>
   <chunk x="-96" y="32" width="16" height="16">
0,0,0,0,0,0,0,0,0,0,0,0,0,0,0,0,
0,0,0,0,0,0,0,0,0,0,0,0,0,0,0,0,
0,0,0,0,0,0,0,0,0,0,0,0,0,0,0,0,
0,0,0,0,0,0,0,0,0,0,0,0,0,0,0,0,
0,0,0,0,0,0,0,0,0,0,0,0,0,0,0,0,
525,0,0,0,0,0,0,0,0,0,0,0,0,0,0,0,
0,0,0,521,0,0,0,0,0,0,0,0,0,0,0,0,
0,0,0,0,0,0,0,0,0,0,0,0,0,0,0,0,
0,0,0,0,0,0,0,0,0,0,0,0,0,0,0,0,
0,0,0,0,0,0,0,0,0,0,0,0,0,0,0,0,
0,0,0,0,0,0,0,0,0,0,0,0,0,0,0,0,
0,0,0,0,0,0,0,0,0,0,0,0,0,0,0,0,
0,0,0,0,0,0,0,0,0,0,0,0,0,0,0,0,
0,0,0,0,0,0,0,0,0,0,0,0,0,0,0,0,
0,0,0,0,0,0,0,0,0,0,0,0,0,0,0,0,
0,0,0,0,0,0,0,0,0,0,0,0,0,0,0,0
</chunk>
   <chunk x="-32" y="32" width="16" height="16">
0,0,0,0,0,0,0,0,0,0,0,0,0,0,0,0,
0,0,0,0,0,0,0,0,0,0,0,0,0,0,0,0,
0,0,0,0,0,0,0,0,0,0,2147484177,0,0,0,0,0,
0,0,0,0,0,529,0,0,0,0,0,0,0,0,0,0,
0,0,0,0,529,0,0,0,0,0,0,2147484177,0,0,0,0,
0,0,0,529,521,0,529,0,0,2147484177,0,0,0,0,0,0,
0,0,0,533,0,0,0,0,0,521,2147484181,0,0,0,0,0,
0,0,0,533,0,529,0,0,0,0,0,0,0,0,0,0,
0,0,0,0,0,0,0,0,0,0,0,2147484181,0,0,0,0,
0,0,0,0,533,0,0,0,0,0,0,0,0,0,0,0,
0,0,0,0,545,0,0,0,0,0,2147484185,0,2147484177,0,0,0,
0,0,0,0,0,521,0,0,0,521,521,0,0,0,525,0,
0,0,0,533,0,0,521,0,0,541,0,0,0,0,0,0,
0,0,0,0,521,0,0,0,0,0,0,521,0,0,0,521,
0,0,0,0,0,521,0,0,525,0,521,521,521,0,0,0,
0,0,0,0,0,0,0,0,0,0,0,0,0,0,0,0
</chunk>
   <chunk x="-16" y="32" width="16" height="16">
0,0,0,0,0,0,0,0,0,0,0,0,0,0,0,0,
0,0,0,0,0,0,0,0,0,0,0,0,0,0,0,0,
0,0,0,0,0,0,0,0,0,0,0,0,0,0,0,0,
0,0,0,0,0,0,0,0,0,0,0,0,0,0,0,0,
0,0,0,0,0,0,0,0,0,0,0,0,0,0,0,0,
0,0,0,0,0,0,0,0,0,0,0,0,0,0,0,0,
0,0,0,0,0,0,0,0,0,0,0,0,0,0,0,0,
0,0,0,0,0,0,0,0,0,0,0,0,0,0,0,0,
0,0,0,0,0,0,0,0,0,0,0,0,0,0,0,0,
0,0,0,0,0,0,0,0,0,0,0,0,0,0,521,0,
0,545,0,0,0,0,0,0,0,0,521,0,521,0,0,0,
521,0,0,525,0,525,0,521,0,0,0,0,0,0,521,0,
0,0,0,0,0,0,0,0,0,521,0,0,0,0,0,0,
0,521,0,529,0,2147484177,0,529,0,0,0,0,0,521,0,521,
0,0,529,0,0,0,0,0,0,0,0,0,0,521,521,0,
0,0,0,0,0,0,0,0,0,0,0,0,0,0,0,0
</chunk>
   <chunk x="0" y="32" width="16" height="16">
0,0,0,0,0,0,0,0,0,0,0,0,0,0,0,0,
0,0,0,0,0,0,0,0,0,0,0,0,0,0,0,0,
0,0,0,0,0,0,0,0,0,0,0,0,0,0,0,0,
0,0,0,0,0,0,0,0,0,0,0,0,0,0,0,0,
0,0,0,0,0,0,0,0,0,0,0,0,0,0,0,0,
0,0,0,0,0,0,0,0,0,0,0,0,521,0,521,0,
0,0,0,0,0,0,0,0,0,0,0,0,0,0,0,0,
0,0,0,0,0,0,0,0,0,0,0,0,0,0,0,0,
0,0,0,0,0,0,0,0,0,0,0,0,0,0,0,0,
0,0,0,0,0,0,0,0,0,0,0,0,0,0,521,0,
0,0,0,0,0,0,0,0,0,0,0,0,0,0,0,521,
0,0,0,0,0,0,0,0,0,0,0,0,0,521,0,0,
0,0,0,0,0,0,0,0,0,0,0,0,0,0,0,0,
0,0,0,0,0,0,0,0,0,0,0,0,521,0,0,0,
0,0,0,0,0,0,0,0,0,0,0,0,0,0,0,0,
0,0,0,0,0,0,0,0,0,0,0,0,0,0,0,0
</chunk>
   <chunk x="-96" y="48" width="16" height="16">
0,0,0,0,0,0,0,0,0,0,0,0,0,0,0,0,
0,0,0,0,0,0,0,0,0,0,0,0,0,0,0,0,
0,0,0,0,0,0,0,0,0,0,0,0,0,0,0,0,
0,0,0,0,0,0,0,0,0,0,0,0,0,0,0,0,
0,0,0,0,0,0,0,0,0,0,0,0,0,0,0,0,
0,0,0,0,0,0,0,0,0,0,0,0,0,0,0,0,
0,0,0,0,0,0,0,0,0,525,525,525,525,525,525,525,
0,0,0,0,0,0,0,0,0,0,0,0,0,0,0,0,
0,0,0,0,0,0,0,0,0,0,0,0,0,0,0,0,
0,0,0,0,0,0,0,0,0,0,0,0,0,0,0,0,
0,0,0,0,0,0,0,0,0,0,0,0,0,0,0,0,
0,0,0,0,0,0,0,0,0,0,0,0,0,0,0,0,
0,0,0,0,0,0,0,0,0,0,0,0,0,0,0,0,
0,0,0,0,0,0,0,0,0,0,0,0,0,0,0,0,
0,0,0,0,0,0,0,0,0,0,0,0,0,0,0,0,
0,0,0,0,0,0,0,0,0,0,0,0,0,0,0,0
</chunk>
   <chunk x="0" y="48" width="16" height="16">
0,0,0,0,0,0,0,0,0,533,0,0,0,0,521,0,
0,0,0,0,0,0,0,0,0,0,0,0,521,0,0,0,
0,0,0,0,0,0,0,0,0,0,0,0,0,0,0,0,
0,0,0,0,0,0,0,0,0,0,0,0,0,0,0,0,
0,0,0,0,0,0,0,0,0,0,0,0,0,0,0,0,
0,0,0,0,0,0,0,0,0,0,0,0,0,0,0,0,
0,0,0,0,0,0,0,0,0,0,0,0,0,0,0,0,
0,0,0,0,0,0,0,0,0,0,0,0,0,0,0,0,
0,0,0,0,0,0,0,0,0,0,0,0,0,0,0,0,
0,0,0,0,0,0,0,0,0,0,0,0,0,0,0,0,
0,0,0,0,0,0,0,0,0,0,0,0,0,0,0,0,
0,0,0,0,0,0,0,0,0,0,0,0,0,0,0,0,
0,0,0,0,521,0,521,0,0,0,0,0,0,0,0,0,
0,0,0,0,0,0,0,0,0,0,0,0,0,521,0,0,
0,0,0,0,0,0,0,0,0,0,0,0,0,0,0,0,
0,0,0,0,0,0,0,0,0,0,0,0,521,0,521,0
</chunk>
   <chunk x="-32" y="64" width="16" height="16">
0,0,0,0,0,0,0,0,0,0,0,0,0,0,0,0,
0,0,0,0,0,0,0,0,0,0,0,0,0,0,0,0,
0,0,0,0,0,0,0,0,0,0,0,0,0,0,0,0,
0,0,0,0,0,0,0,0,0,0,0,0,0,0,0,0,
0,0,0,0,0,0,0,0,0,0,0,0,0,0,0,0,
0,0,0,0,0,0,0,0,0,0,0,0,521,0,0,521,
0,0,0,0,0,0,0,0,0,0,0,0,0,0,0,0,
0,0,0,0,0,0,0,521,0,0,521,0,521,0,0,0,
0,0,0,0,0,0,0,521,521,0,0,0,0,0,0,521,
0,0,0,0,0,0,0,0,0,0,0,521,0,0,0,0,
0,0,0,0,0,0,0,0,0,0,0,0,0,0,0,0,
0,0,0,0,0,0,521,0,0,0,0,0,0,0,0,0,
0,0,0,0,0,0,0,0,0,0,521,0,0,0,0,0,
0,0,0,0,0,0,0,521,0,0,0,0,0,0,0,0,
0,0,0,0,0,0,0,0,0,521,0,521,0,0,0,0,
0,0,0,0,0,0,0,521,0,0,0,0,0,0,0,0
</chunk>
   <chunk x="-16" y="64" width="16" height="16">
0,0,0,0,0,0,0,0,0,0,0,0,0,0,0,0,
0,0,0,0,0,0,0,0,0,0,0,0,0,0,0,0,
0,0,0,0,0,0,0,0,0,0,0,0,0,0,0,0,
0,0,0,0,0,0,0,0,0,0,0,0,0,0,0,0,
0,0,0,0,0,0,0,0,0,0,0,0,0,0,0,0,
521,0,0,0,0,0,0,0,0,0,0,0,0,0,0,0,
521,0,0,0,0,0,0,0,0,0,0,0,0,0,0,0,
0,0,0,0,0,0,0,0,0,0,0,0,0,0,0,0,
0,0,0,0,0,0,0,0,521,0,0,0,0,0,0,0,
0,0,0,0,0,0,0,0,0,0,0,0,0,0,0,0,
521,521,0,0,0,0,0,0,0,0,0,0,0,0,0,0,
0,0,0,0,0,0,0,0,0,0,0,0,0,0,0,0,
0,0,0,0,0,0,0,0,0,0,0,0,0,0,0,0,
521,0,0,0,521,0,0,0,0,521,0,0,0,0,0,0,
0,521,0,0,0,0,0,521,521,0,0,0,0,0,0,0,
0,0,0,0,0,0,0,0,0,0,0,0,0,0,0,0
</chunk>
   <chunk x="0" y="64" width="16" height="16">
0,0,0,0,0,0,0,0,0,0,0,0,0,0,0,0,
0,0,0,0,0,0,0,0,0,0,0,0,0,0,0,0,
0,0,0,0,0,0,0,0,0,0,0,0,0,0,0,0,
0,0,0,0,0,0,0,0,0,0,0,0,521,0,0,0,
0,0,0,0,0,0,0,0,0,0,0,0,0,0,0,0,
0,0,0,0,0,0,0,0,0,0,0,0,0,0,0,0,
0,0,0,0,0,0,0,0,0,0,0,0,0,0,0,0,
0,0,0,0,0,0,0,0,0,0,0,0,0,0,0,0,
0,0,0,0,0,0,0,0,0,0,0,0,0,0,0,0,
0,0,0,0,0,0,0,0,0,0,0,0,0,0,0,0,
0,0,0,0,0,0,0,0,0,0,0,0,0,0,0,0,
0,0,0,0,0,0,0,0,0,0,0,0,0,0,0,0,
0,0,0,0,0,0,0,0,0,0,0,0,0,0,0,0,
0,0,0,0,0,0,0,0,0,0,0,0,0,0,0,0,
0,0,0,0,0,0,0,0,0,0,0,0,0,0,0,0,
0,0,0,0,0,0,0,0,0,0,0,0,0,0,0,0
</chunk>
  </data>
 </layer>
 <layer id="105" name="CircularsawRatLine" width="32" height="32">
  <data encoding="csv">
   <chunk x="-48" y="-32" width="16" height="16">
0,0,0,0,0,0,0,0,0,0,0,0,1340,1340,1340,1340,
0,0,0,0,0,0,0,0,0,0,0,0,0,0,0,0,
0,0,0,0,0,0,0,0,0,0,0,0,0,0,0,0,
0,0,0,0,0,0,0,0,0,0,0,0,0,0,0,0,
0,0,0,0,0,0,0,0,0,0,0,0,0,0,0,0,
0,0,0,0,0,0,0,0,0,0,0,0,0,0,0,0,
0,0,0,0,0,0,0,0,0,0,0,0,0,0,0,0,
0,0,0,0,0,0,0,0,0,0,0,0,0,0,0,0,
0,0,0,0,0,0,0,0,0,0,0,0,0,0,0,0,
0,0,0,0,0,0,0,0,0,0,0,0,0,0,0,0,
0,0,0,0,0,0,0,0,0,0,0,0,0,0,0,1335,
0,0,0,0,0,0,0,0,0,0,0,0,0,0,0,1335,
0,0,0,0,0,0,0,0,0,0,0,0,0,0,0,1335,
0,0,0,0,0,0,0,0,0,0,0,0,0,0,0,1335,
0,0,0,0,0,0,0,0,0,0,0,0,0,0,0,1335,
0,0,0,0,0,0,0,0,0,0,0,0,0,0,0,1335
</chunk>
   <chunk x="-32" y="-32" width="16" height="16">
1340,1340,1340,1340,1340,1340,1340,0,0,0,0,0,0,0,0,0,
0,0,0,0,0,0,0,0,0,0,0,0,0,0,0,0,
0,0,0,0,0,0,0,0,0,0,0,0,0,0,0,0,
0,0,0,0,0,0,0,0,0,0,0,0,0,0,0,0,
0,0,0,0,0,0,0,0,0,0,0,0,0,0,0,0,
0,0,0,0,0,0,0,0,0,0,0,0,0,0,0,0,
0,0,0,0,0,0,0,0,0,0,0,0,0,0,0,0,
0,0,0,0,0,0,0,0,0,0,0,0,0,0,0,0,
0,0,0,0,0,0,0,0,0,0,0,0,0,0,0,0,
0,1335,0,0,0,0,0,0,0,0,0,0,0,0,0,0,
0,1335,0,1335,0,0,0,0,0,0,0,0,0,0,0,0,
0,1335,0,1335,0,0,0,0,0,0,0,0,0,0,0,0,
0,1335,0,1335,0,0,0,0,0,0,0,0,0,0,0,0,
0,1335,0,1335,0,0,0,0,0,0,0,0,0,0,0,0,
0,1335,0,1335,0,0,0,0,0,0,0,0,0,0,0,0,
0,1335,0,1335,0,0,0,0,0,0,0,0,0,0,0,0
</chunk>
   <chunk x="-16" y="-32" width="16" height="16">
0,0,0,0,0,0,0,0,0,0,0,0,0,0,0,0,
0,0,0,0,0,0,0,0,0,0,0,0,0,0,0,0,
0,0,0,0,0,0,0,0,0,0,0,0,0,0,0,0,
0,0,0,0,0,0,0,0,0,0,0,0,0,0,0,0,
0,0,0,0,0,0,0,0,0,0,0,1340,1340,1340,1340,1340,
0,0,0,0,0,0,0,0,0,0,0,0,0,0,0,0,
0,0,0,0,0,0,0,0,0,0,0,0,0,0,0,0,
0,0,0,0,0,0,0,0,0,0,0,0,0,0,0,0,
0,0,0,0,0,0,0,0,0,0,0,0,0,0,0,0,
0,0,0,0,0,0,0,0,0,0,0,0,0,0,0,0,
0,0,0,0,0,0,0,0,0,0,0,0,0,0,0,0,
0,0,0,0,0,0,0,0,0,0,0,0,0,0,0,0,
0,0,0,0,0,0,0,0,0,0,0,0,0,0,0,0,
0,0,0,0,0,0,0,0,0,0,0,0,0,0,0,0,
0,0,0,0,0,0,0,0,0,0,0,0,0,0,0,0,
0,0,0,0,0,0,0,0,0,0,0,0,0,0,0,0
</chunk>
   <chunk x="-48" y="-16" width="16" height="16">
0,0,0,0,0,0,0,0,0,0,0,0,0,0,0,1335,
0,0,0,0,0,0,0,0,0,0,0,0,0,0,0,0,
0,0,0,0,0,0,0,0,0,0,0,0,0,0,0,0,
0,0,0,0,0,0,0,0,0,0,0,0,0,0,0,0,
0,0,0,0,0,0,0,0,0,0,0,0,0,0,0,0,
0,0,0,0,0,0,0,0,0,0,0,0,0,0,0,0,
0,0,0,0,0,0,0,0,0,0,0,0,0,0,0,0,
0,0,0,0,0,0,0,0,0,0,0,0,0,0,0,0,
0,0,0,0,0,0,0,0,0,0,0,0,0,0,0,0,
0,0,0,0,0,0,0,0,0,0,0,0,0,0,0,0,
0,0,0,0,0,0,0,0,0,0,0,0,0,0,0,0,
0,0,0,0,0,0,0,0,0,0,0,0,0,0,0,0,
0,0,0,0,0,0,0,0,0,0,0,0,0,0,0,0,
0,0,0,0,0,0,0,0,0,0,0,0,0,0,0,0,
0,0,0,0,0,0,0,0,0,0,0,0,0,0,0,0,
0,0,0,0,0,0,0,0,0,0,0,0,0,0,0,0
</chunk>
   <chunk x="-32" y="-16" width="16" height="16">
0,1335,0,0,0,0,0,0,0,0,0,0,0,0,0,0,
0,0,0,0,0,0,0,0,0,0,0,0,0,0,0,0,
0,0,0,0,0,0,0,0,0,0,0,0,0,0,0,0,
0,0,0,0,0,0,0,0,0,0,0,0,0,0,0,0,
0,0,0,0,0,0,0,0,0,0,0,0,0,0,0,0,
0,0,0,0,0,0,0,0,0,0,0,0,0,0,0,0,
0,0,0,0,0,0,0,0,0,0,0,0,0,0,0,0,
0,0,0,0,0,0,0,0,0,0,0,0,0,0,0,0,
0,0,0,0,0,0,0,0,0,0,0,0,0,0,0,0,
0,0,0,0,0,0,0,0,0,0,0,0,0,0,0,0,
0,0,0,0,0,0,0,0,0,0,0,0,0,0,0,0,
0,0,0,0,0,0,0,0,0,0,0,0,0,0,0,0,
0,0,0,0,0,0,0,0,0,0,0,0,0,0,0,0,
0,0,0,0,0,0,0,0,0,0,0,0,0,0,0,0,
0,0,0,0,0,0,0,0,0,0,0,0,0,0,0,0,
0,0,0,0,0,0,0,0,0,0,0,0,0,0,0,0
</chunk>
  </data>
 </layer>
 <objectgroup id="106" name="CircularsawRat">
  <object id="2391" template="CircularsawRatHorisontal.tx" x="-1152" y="-992"/>
  <object id="2392" template="CircularsawRatVertical.tx" class="CircularsawRatVertical" x="-1056" y="-672"/>
  <object id="2393" template="CircularsawRatVertical.tx" x="-992" y="-704"/>
  <object id="2394" template="CircularsawRatVertical.tx" x="-928" y="-672"/>
 </objectgroup>
 <objectgroup id="92" name="DecorObjects">
  <object id="1433" template="Bones5.tx" x="-2296.5" y="1609"/>
  <object id="1434" template="Bones2.tx" x="-2432" y="1696"/>
  <object id="1437" template="Bones3.tx" gid="2147485192" x="-2565" y="1702.5" rotation="0"/>
  <object id="1438" template="Bones3.tx" x="-2555" y="1861.5"/>
  <object id="1504" template="Bones3.tx" x="-2906.5" y="1861.5"/>
  <object id="1505" template="Bones2.tx" x="-2880" y="1856"/>
  <object id="1506" template="Bones4.tx" x="-2848" y="1541.5"/>
  <object id="1507" template="Bones5.tx" x="-2777" y="1543"/>
  <object id="1573" template="Bones1.tx" x="-2912" y="1088"/>
  <object id="1574" template="Bones2.tx" x="-2816" y="1024"/>
  <object id="1575" template="Bones3.tx" x="-2842.5" y="966"/>
  <object id="1576" template="Bones4.tx" x="-2783.5" y="644.5"/>
  <object id="1577" template="Bones2.tx" x="-2688" y="544"/>
  <object id="1578" template="Bones4.tx" x="-2624" y="640"/>
  <object id="1579" template="Bones1.tx" x="-2656" y="704"/>
  <object id="2448" template="Bones2.tx" x="-1696" y="-64"/>
  <object id="2451" template="Bones4.tx" x="-1810" y="-399"/>
  <object id="2452" template="Bones3.tx" x="-1911.5" y="-453"/>
  <object id="2453" template="Bones1.tx" x="-2016" y="-448"/>
  <object id="2454" template="Bones5.tx" x="-2144" y="-544"/>
  <object id="2460" template="Skull.tx" x="-1807" y="-768.5"/>
  <object id="2461" template="Bones1.tx" x="-1536" y="-608"/>
  <object id="2464" template="Bones3.tx" x="-1392.5" y="-868"/>
  <object id="2466" template="Bones5.tx" x="-750" y="-808"/>
  <object id="2468" template="Bones1.tx" x="-659.5" y="-789.5"/>
  <object id="2469" template="Bones1.tx" x="-247" y="-717.5"/>
  <object id="2470" template="Bones5.tx" x="-231" y="-768"/>
  <object id="2471" template="Bones3.tx" x="-200.5" y="-729"/>
  <object id="2472" template="Bones4.tx" gid="2147485193" x="-272" y="-738.5" rotation="0"/>
  <object id="1699" template="ChainsTop.tx" x="-2432" y="576"/>
  <object id="1700" template="ChainsTop.tx" x="-2304" y="576"/>
  <object id="1701" template="ChainsTop.tx" x="-2208" y="544"/>
  <object id="1702" template="ChainsTop.tx" x="-2080" y="544"/>
  <object id="1703" template="ChainsTop.tx" x="-1952" y="544"/>
  <object id="1704" template="ChainsTop.tx" x="-1824" y="544"/>
  <object id="1705" template="Chains.tx" x="-2432" y="608"/>
  <object id="1706" template="Chains.tx" x="-2304" y="608"/>
  <object id="1707" template="ChainsDown.tx" x="-2432" y="640"/>
  <object id="1708" template="ChainsDown.tx" x="-2304" y="640"/>
  <object id="1709" template="ChainsCandles.tx" x="-2368" y="608"/>
  <object id="1710" template="ChainsTop.tx" x="-2368" y="576"/>
  <object id="1711" template="ChainsCandles.tx" x="-2208" y="576"/>
  <object id="1712" template="ChainsCandles.tx" x="-2080" y="576"/>
  <object id="1713" template="ChainsCandles.tx" x="-1952" y="576"/>
  <object id="1714" template="ChainsCandles.tx" x="-1824" y="576"/>
  <object id="1715" template="BannerSword.tx" x="-2272" y="576"/>
  <object id="1716" template="BannerOilLamp.tx" x="-2144" y="576"/>
  <object id="1717" template="BannerHammer.tx" x="-2016" y="576"/>
  <object id="1718" template="BannerWheel.tx" x="-1888" y="576"/>
  <object id="1719" template="BannerSword.tx" x="-1760" y="576"/>
  <object id="1288" template="VaseRed3.tx" class="VaseRed3" x="-928" y="1920"/>
  <object id="1290" template="VaseRed1.tx" x="-896" y="1952"/>
  <object id="1291" template="VaseRed2.tx" x="-960" y="1952"/>
  <object id="1292" template="WoodenBarrel.tx" x="-1024" y="1888"/>
  <object id="1295" template="SpikyShard2.tx" x="-768" y="1888"/>
  <object id="1296" template="SpikyShard2.tx" x="-800" y="1920"/>
  <object id="1297" template="SpikyShard1.tx" x="-1088" y="1952"/>
  <object id="1421" template="CrossbowStandLeft.tx" x="-2304" y="1824"/>
  <object id="1422" template="CrossbowStandUp.tx" x="-2432" y="1728"/>
  <object id="1423" template="CrossbowStandDown.tx" x="-2528" y="1600"/>
  <object id="1424" template="CrossbowStandDown.tx" x="-2304" y="1600"/>
  <object id="1490" template="HaySheaf.tx" x="-2784" y="2048"/>
  <object id="1491" template="CrossbowStandLeft.tx" x="-2784" y="2080"/>
  <object id="1493" template="StonePedestalTroll.tx" x="-2656" y="2048"/>
  <object id="1494" template="Stone1.tx" x="-2592" y="2048"/>
  <object id="1496" template="CrossbowStandLeft.tx" x="-2944" y="1856"/>
  <object id="1499" template="HaySheaf.tx" x="-2912" y="1760"/>
  <object id="1500" template="HaySheaf.tx" class="HaySheaf" x="-2784" y="1728"/>
  <object id="1501" template="WoodenBarrelHay.tx" x="-2912" y="1792"/>
  <object id="1502" template="WoodenBarrelHay.tx" x="-2912" y="1824"/>
  <object id="1503" template="WoodenTabletStand.tx" x="-2848" y="1792"/>
  <object id="1526" template="CrossbowStandDown.tx" x="-2944" y="1536"/>
  <object id="1527" template="CrossbowStandDown.tx" x="-2880" y="1536"/>
  <object id="1528" template="CrossbowStandDown.tx" x="-2816" y="1536"/>
  <object id="1532" template="TorchDurableStick.tx" x="-2720" y="1568"/>
  <object id="1533" template="TorchDurableStick.tx" x="-2848" y="1472"/>
  <object id="1534" template="TorchDurableFire.tx" x="-2848" y="1440"/>
  <object id="1535" template="TorchDurableFire.tx" x="-2720" y="1536"/>
  <object id="1536" template="WoodenFlag.tx" x="-2999" y="1504"/>
  <object id="1604" template="AutobowStandLeft.tx" x="-2944" y="1056"/>
  <object id="1605" template="AutobowStandLeft.tx" gid="1277" x="-2944" y="992" rotation="0"/>
  <object id="1607" template="AutobowStandLeft.tx" gid="2147484925" x="-2848" y="1120" rotation="0"/>
  <object id="1608" template="AutobowStandLeft.tx" gid="2147484925" x="-2880" y="928" rotation="0"/>
  <object id="1609" template="AutobowStandLeft.tx" x="-2976" y="864"/>
  <object id="1610" template="AutobowStandLeft.tx" x="-2816" y="736"/>
  <object id="1611" template="AutobowStandLeft.tx" x="-2816" y="672"/>
  <object id="1612" template="AutobowStandLeft.tx" x="-2816" y="608"/>
  <object id="1613" template="AutobowStandDown.tx" x="-2720" y="512"/>
  <object id="1624" template="CrossbowStandDown.tx" x="-2784" y="480"/>
  <object id="1625" template="CrossbowStandDown.tx" x="-2656" y="480"/>
  <object id="1626" template="CrossbowStandLeft.tx" x="-2848" y="512"/>
  <object id="77" template="ChainsTop.tx" class="ChainsTop" x="-96" y="160"/>
  <object id="91" template="ChainsCandlesEmpty.tx" class="ChainsCandlesEmpty" x="-96" y="192"/>
  <object id="96" template="ChainsCandles.tx" class="ChainsCandles" x="-192" y="192"/>
  <object id="428" template="ShacklesOpen.tx" class="ShacklesOpen" x="-160" y="-96"/>
  <object id="431" template="ShacklesClosed.tx" class="ShacklesClosed" x="-544" y="-96"/>
  <object id="432" template="ShacklesOpen.tx" class="ShacklesOpen" x="-352" y="-96"/>
  <object id="452" template="ChainsTop.tx" x="-192" y="160"/>
  <object id="453" template="ChainsTop.tx" x="-288" y="160"/>
  <object id="454" template="ChainsTop.tx" x="-384" y="160"/>
  <object id="455" template="ChainsTop.tx" class="ChainsTop" x="-480" y="160"/>
  <object id="456" template="ChainsTop.tx" class="ChainsTop" x="-576" y="160"/>
  <object id="457" template="ChainsCandles.tx" x="-288" y="192"/>
  <object id="458" template="ChainsCandles.tx" x="-384" y="192"/>
  <object id="459" template="ChainsCandles.tx" class="ChainsCandles" x="-576" y="192"/>
  <object id="460" template="ChainsCandlesEmpty.tx" class="ChainsCandlesEmpty" x="-480" y="192"/>
  <object id="461" template="ChainsTop.tx" x="-832" y="32"/>
  <object id="462" template="ChainsTop.tx" x="-672" y="32" visible="1"/>
  <object id="463" template="ChainsTop.tx" x="-928" y="160"/>
  <object id="464" template="ChainsTop.tx" x="-1024" y="160" visible="1"/>
  <object id="465" template="Chains.tx" class="Chains" x="-832" y="64"/>
  <object id="468" template="Chains.tx" x="-672" y="64"/>
  <object id="469" template="Chains.tx" x="-928" y="192"/>
  <object id="470" template="Chains.tx" class="Chains" x="-1024" y="192"/>
  <object id="471" template="ChainsDown.tx" class="ChainsDown" x="-832" y="96" visible="1"/>
  <object id="472" class="ChainsDown" gid="1494" x="-672" y="96" width="32" height="32"/>
  <object id="473" class="ChainsDown" gid="1494" x="-928" y="224" width="32" height="32"/>
  <object id="474" class="ChainsDown" gid="1494" x="-1024" y="224" width="32" height="32"/>
  <object id="509" template="LeverDungeonOFF.tx" class="LeverDungeonOFF" x="-800" y="64"/>
  <object id="526" template="LongWeapon.tx" class="LongWeapon" x="-896" y="256"/>
  <object id="482" template="WoodenBarrelClosed.tx" class="WoodenBarrelClosed" x="-512" y="64"/>
  <object id="483" template="WoodenBarrelGold.tx" class="WoodenBarrelGold" x="-288" y="576"/>
  <object id="507" template="WoodenBarrelClosed.tx" x="-544" y="544"/>
  <object id="522" template="WoodenBarrel.tx" class="WoodenBarrel" x="-672" y="128"/>
  <object id="523" template="WoodenBarrelClosed.tx" x="-704" y="128"/>
  <object id="524" template="WoodenBarrelClosed.tx" class="WoodenBarrelClosed" x="-1024" y="256"/>
  <object id="527" template="WoodenStool.tx" class="WoodenStool" x="-736" y="128"/>
  <object id="528" template="WoodenBarrelClosed.tx" x="-672" y="160"/>
  <object id="529" template="WoodenStool.tx" class="WoodenStool" x="-678.667" y="190.333"/>
  <object id="530" template="WoodenTable1.tx" class="WoodenTable1" x="-800" y="224"/>
  <object id="532" class="WoodenStool" gid="2147485290" x="-768" y="232" width="32" height="32"/>
  <object id="31" template="DeadButterfly.tx" class="DeadButterfly" x="-128" y="0"/>
  <object id="56" template="Moss.tx" class="Moss" x="-288" y="-32"/>
  <object id="57" template="PapyrusNote.tx" class="PapyrusNote" x="-288" y="480"/>
  <object id="433" template="Grass1.tx" class="Grass1" x="-192" y="-32"/>
  <object id="434" template="Grass2.tx" class="Grass2" x="-189" y="-11"/>
  <object id="435" template="Grass1.tx" gid="1562" x="-382" y="-31" rotation="0"/>
  <object id="436" template="Grass1.tx" gid="2147485210" x="-287" y="4" rotation="0"/>
  <object id="437" template="Grass1.tx" gid="2147485210" x="-379" y="-18" rotation="0"/>
  <object id="438" template="Grass1.tx" x="-479.667" y="-29.6667"/>
  <object id="439" template="Grass1.tx" gid="2147485210" x="-352" y="226" rotation="0"/>
  <object id="440" template="Grass1.tx" class="Grass1" x="-291" y="254"/>
  <object id="441" template="Grass2.tx" gid="1563" x="-176.667" y="-26.6667" rotation="0"/>
  <object id="443" template="Grass2.tx" x="-361" y="-33"/>
  <object id="444" template="Grass2.tx" gid="2147485211" x="-318" y="-35" rotation="0"/>
  <object id="446" template="Grass2.tx" class="Grass2" gid="2147485211" x="-305" y="60" rotation="0"/>
  <object id="447" template="Grass2.tx" class="Grass2" gid="2147485211" x="-314" y="286" rotation="0"/>
  <object id="448" template="Grass2.tx" class="Grass2" x="-351" y="381.333"/>
  <object id="495" template="Bones1.tx" class="Bones1" x="-544" y="448"/>
  <object id="497" template="Skull.tx" x="-512" y="448"/>
  <object id="498" template="Bones2.tx" gid="2147485191" x="-544" y="480" rotation="0"/>
  <object id="499" template="Bones5.tx" x="-569" y="488.333"/>
  <object id="500" template="Bones1.tx" gid="2147485190" x="-512" y="480" rotation="0"/>
  <object id="501" template="Bones4.tx" x="-480" y="484.667"/>
  <object id="502" template="Bones2.tx" x="-480" y="512"/>
  <object id="503" template="Bones3.tx" x="-507" y="518.333"/>
  <object id="504" template="Bones6.tx" x="-537.667" y="504.667"/>
  <object id="505" template="Bones3.tx" x="-570.667" y="550.333"/>
  <object id="521" template="MapDungeonsJail.tx" class="MapDungeonsJail" x="-736" y="64"/>
  <object id="553" template="Stone2.tx" class="Stone2" x="-800" y="768"/>
  <object id="557" class="Stone3" gid="1629" x="-704" y="896" width="32" height="64"/>
  <object id="559" class="Stalagmite2" gid="1631" x="-800" y="896" width="32" height="64"/>
  <object id="560" template="Stalagmite1.tx" class="Stalagmite1" x="-672" y="832"/>
  <object id="561" template="Vase1.tx" class="Vase1" x="-704" y="768"/>
  <object id="562" template="Vase2.tx" class="Vase2" x="-832" y="832"/>
  <object id="564" template="Vase3.tx" x="-768" y="992"/>
  <object id="565" template="Vase2.tx" x="-736" y="1056"/>
  <object id="633" template="Vase3.tx" class="Vase3" x="-704" y="1152"/>
  <object id="637" template="TorchDurableStick.tx" class="TorchDurableStick" x="-832" y="1280"/>
  <object id="639" template="TorchDurableStick.tx" x="-768" y="1376"/>
  <object id="640" template="TorchDurableFire.tx" class="TorchDurableFire" x="-832" y="1248"/>
  <object id="641" template="TorchDurableFire.tx" x="-768" y="1344"/>
  <object id="642" template="Bones5.tx" x="-888.667" y="1256.33"/>
  <object id="643" template="Bones2.tx" x="-864" y="1440"/>
  <object id="644" template="Bones3.tx" x="-699" y="1446"/>
  <object id="645" template="WoodenBarrelMeat.tx" class="WoodenBarrelMeat" x="-832" y="1504"/>
  <object id="646" template="WoodenBarrelClosed.tx" x="-800" y="1504"/>
  <object id="648" template="Stalagmite1.tx" gid="2147485278" x="-736" y="1504" rotation="0"/>
  <object id="649" template="Stalagmite2.tx" class="Stalagmite2" x="-640" y="1472"/>
  <object id="650" template="Stone2.tx" x="-608" y="1504"/>
  <object id="652" template="WoodenBarrelClosed.tx" x="-608" y="1408"/>
  <object id="653" template="WoodenBarrel.tx" x="-512" y="1344"/>
  <object id="654" template="WoodenBarrel.tx" x="-480" y="1536"/>
  <object id="679" template="Bones3.tx" gid="2147485192" x="-389.667" y="1414.67" rotation="0"/>
  <object id="680" template="TorchDurableStick.tx" x="-416" y="1536"/>
  <object id="681" template="TorchDurableStick.tx" x="-320" y="1408"/>
  <object id="682" template="TorchDurableStick.tx" x="0" y="1440"/>
  <object id="683" template="TorchDurableStick.tx" x="-128" y="1312"/>
  <object id="684" template="TorchDurableFire.tx" x="-416" y="1504"/>
  <object id="685" template="TorchDurableFire.tx" x="-320" y="1376"/>
  <object id="686" template="TorchDurableFire.tx" x="-128" y="1280"/>
  <object id="687" template="TorchDurableFire.tx" x="0" y="1408"/>
  <object id="688" template="TorchDurableFire.tx" x="-64" y="1632"/>
  <object id="689" template="TorchDurableStick.tx" x="-64" y="1664"/>
  <object id="690" template="StoneThorns.tx" class="StoneThorns" x="-320" y="1440"/>
  <object id="694" template="WoodenFlag.tx" class="WoodenFlag" x="-248" y="1376"/>
  <object id="699" template="WoodenBarrel.tx" x="-64" y="1472"/>
  <object id="709" template="Vase1.tx" x="-160" y="1568"/>
  <object id="710" template="Vase2.tx" x="-160" y="1600"/>
  <object id="711" template="Vase3.tx" x="-128" y="1600"/>
  <object id="718" template="WoodenTabletStandLeft.tx" gid="1705" x="-800" y="1184" rotation="0"/>
  <object id="720" template="WoodenTabletStandLeft.tx" gid="2147485353" x="-768" y="1184" rotation="0"/>
  <object id="721" template="WoodenTabletStandDown.tx" class="WoodenTabletStandDown" x="-224" y="1536"/>
  <object id="722" template="WoodenTabletStand.tx" x="-128" y="1472"/>
  <object id="729" template="WoodenTablet.tx" class="WoodenTablet" x="32" y="1504"/>
  <object id="731" template="WoodenBarrelSpikes.tx" class="WoodenBarrelSpikes" x="96" y="1536"/>
  <object id="775" template="Stone1.tx" x="192" y="1536"/>
  <object id="776" template="Stalagmite2.tx" x="192" y="1568"/>
  <object id="777" template="Stalagmite1.tx" x="224" y="1600"/>
  <object id="778" template="Stalagmite1.tx" x="192" y="1728"/>
  <object id="779" template="Stalagmite2.tx" x="192" y="1760"/>
  <object id="780" template="Stone2.tx" x="192" y="1792"/>
  <object id="781" template="Stalagmite1.tx" x="160" y="1792"/>
  <object id="782" template="WoodenBarrelGold.tx" x="96" y="1792"/>
  <object id="821" template="Vase2.tx" x="288" y="1536"/>
  <object id="822" template="WoodenBarrel.tx" x="448" y="1184"/>
  <object id="823" template="WoodenBarrelClosed.tx" x="384" y="1184"/>
  <object id="824" template="TorchDurableStick.tx" x="352" y="1440"/>
  <object id="825" template="TorchDurableStick.tx" x="480" y="1440"/>
  <object id="826" template="TorchDurableStick.tx" x="480" y="1280"/>
  <object id="827" template="TorchDurableStick.tx" x="352" y="1280"/>
  <object id="828" template="TorchDurableFire.tx" x="352" y="1248"/>
  <object id="829" template="TorchDurableFire.tx" x="480" y="1248"/>
  <object id="830" template="TorchDurableFire.tx" x="352" y="1408"/>
  <object id="831" template="TorchDurableFire.tx" x="480" y="1408"/>
  <object id="832" template="TorchDurableStick.tx" x="384" y="1664"/>
  <object id="833" template="TorchDurableFire.tx" x="384" y="1632"/>
  <object id="834" template="TorchDurableFire.tx" x="384" y="1824"/>
  <object id="835" template="TorchDurableStick.tx" x="384" y="1856"/>
  <object id="836" template="TorchDurableStick.tx" x="32" y="1792"/>
  <object id="837" template="TorchDurableFire.tx" x="32" y="1760"/>
  <object id="838" template="TorchDurableStick.tx" x="64" y="1920"/>
  <object id="839" template="TorchDurableFire.tx" x="64" y="1888"/>
  <object id="840" template="TorchDurableFire.tx" x="512" y="1984"/>
  <object id="841" template="TorchDurableStick.tx" x="512" y="2016"/>
  <object id="842" template="TorchDurableStick.tx" x="256" y="2240"/>
  <object id="843" template="TorchDurableFire.tx" x="256" y="2208"/>
  <object id="844" template="WoodenChestGold.tx" class="WoodenChestGold" x="416" y="1056"/>
  <object id="848" template="BasketWithSpikes.tx" class="BasketWithSpikes" x="448" y="1088"/>
  <object id="849" template="Bones2.tx" x="384" y="1120"/>
  <object id="850" template="Bones4.tx" x="416" y="1157.33"/>
  <object id="851" template="Bones3.tx" x="133" y="1542.33"/>
  <object id="852" template="Bones4.tx" x="224.333" y="1733.33"/>
  <object id="853" template="Bones1.tx" x="256" y="1760"/>
  <object id="854" template="WoodenTabletStand.tx" class="WoodenTabletStand" x="320" y="1696"/>
  <object id="855" template="WoodenTable2.tx" class="WoodenTable2" x="320" y="1792"/>
  <object id="861" class="WoodenStool" gid="1642" x="313" y="1758" width="32" height="32"/>
  <object id="862" class="WoodenStool" gid="1642" x="312" y="1726" width="32" height="32"/>
  <object id="905" template="WoodPin1.tx" class="WoodPin1" x="288" y="2016"/>
  <object id="906" template="WoodPin2.tx" class="WoodPin2" x="352" y="2176"/>
  <object id="907" template="WoodenBarrel.tx" x="352" y="2208"/>
  <object id="908" template="WoodenBarrelClosed.tx" x="352" y="2240"/>
  <object id="909" template="WoodenTabletStandLeft.tx" gid="2147485353" x="320" y="1952" rotation="0"/>
  <object id="910" template="WoodenTabletStandLeft.tx" x="480" y="2144"/>
  <object id="911" template="Bones5.tx" x="134.5" y="1896.5"/>
  <object id="912" template="Bones3.tx" x="164.5" y="1925.5"/>
  <object id="913" template="Bones6.tx" gid="2147485195" x="121" y="1976.5" rotation="0"/>
  <object id="914" template="Bones4.tx" x="383.5" y="2213"/>
  <object id="915" template="Bones3.tx" x="325" y="2118.5"/>
  <object id="916" template="WoodenChest.tx" class="WoodenChest" x="-32" y="2080"/>
  <object id="917" template="ChainsTop.tx" x="-64" y="1984"/>
  <object id="919" template="Chains.tx" x="-64" y="2016"/>
  <object id="921" template="ChainsDown.tx" x="-64" y="2048"/>
  <object id="923" template="ChainsBlackTop.tx" class="ChainsBlackTop" x="32" y="1984"/>
  <object id="924" template="ChainsBlack.tx" class="ChainsBlack" x="32" y="2016"/>
  <object id="925" template="ChainsBlack.tx" x="32" y="2048"/>
  <object id="926" template="WallHammer.tx" class="WallHammer" x="-32" y="2016"/>
  <object id="936" template="Vase2.tx" x="-96" y="2080"/>
  <object id="937" template="Vase1.tx" x="-64" y="2080"/>
  <object id="938" template="Vase3.tx" x="-96" y="2112"/>
  <object id="939" template="Vase3.tx" x="-64" y="2112"/>
  <object id="940" template="Vase1.tx" x="-32" y="2144"/>
  <object id="941" template="Vase2.tx" x="0" y="2208"/>
  <object id="942" template="Vase3.tx" x="-32" y="2240"/>
  <object id="945" template="Bones2.tx" x="-64" y="2144"/>
  <object id="943" template="StatueArchitect1.tx" class="StatueArchitect1" x="-96" y="2144"/>
  <object id="944" template="StatueArchitect2.tx" class="StatueArchitect2" x="32" y="2144"/>
  <object id="948" template="Candle1Fire.tx" class="Candle1Fire" x="-96" y="2176"/>
  <object id="949" template="Candle2Fire.tx" class="Candle2Fire" x="64" y="2176"/>
  <object id="958" template="WoodenBarrelClosed.tx" x="-64" y="2208"/>
  <object id="959" template="WoodenBarrel.tx" x="-64" y="2240"/>
  <object id="960" template="WoodenBarrel.tx" x="32" y="2208"/>
  <object id="961" template="WoodenBarrelClosed.tx" x="32" y="2240"/>
  <object id="962" template="ChainsTop.tx" x="-128" y="2144"/>
  <object id="963" template="Chains.tx" x="-128" y="2176"/>
  <object id="964" template="ChainsDown.tx" x="-128" y="2208"/>
  <object id="965" template="TorchDurableStick.tx" x="-128" y="2272"/>
  <object id="966" template="TorchDurableStick.tx" x="-128" y="2432"/>
  <object id="967" template="TorchDurableFire.tx" x="-128" y="2400"/>
  <object id="968" template="TorchDurableFire.tx" x="-128" y="2240"/>
  <object id="970" template="WoodenFlag.tx" x="64" y="2048"/>
  <object id="971" template="Stone2.tx" x="32" y="2336"/>
  <object id="972" template="Stone3.tx" class="Stone3" x="32" y="2368"/>
  <object id="973" template="Stone1.tx" x="0" y="2368"/>
  <object id="974" template="Bones1.tx" x="-96" y="2336"/>
  <object id="975" template="Bones4.tx" x="-64.5" y="2340.5"/>
  <object id="976" template="Bones4.tx" x="-32" y="2341.5"/>
  <object id="977" template="WoodenTabletStand.tx" x="-192" y="2272"/>
  <object id="978" template="WoodenBarrel.tx" x="-160" y="2496"/>
  <object id="979" template="WoodenBarrelGold.tx" class="WoodenBarrelGold" x="-320" y="2400"/>
  <object id="1174" template="PuppetOnPole1.tx" class="PuppetOnPole1" x="-320" y="2624"/>
  <object id="1175" template="PuppetOnPole2.tx" class="PuppetOnPole2" x="-96" y="2464"/>
  <object id="1176" template="PuppetOnPole3.tx" class="PuppetOnPole3" x="-416" y="2464"/>
  <object id="1177" template="PuppetOnPole4.tx" class="PuppetOnPole4" x="-896" y="2496"/>
  <object id="1178" template="PuppetOnPole2.tx" class="PuppetOnPole2" x="-352" y="2304"/>
  <object id="1179" template="PuppetOnPole3.tx" x="-480" y="2240"/>
  <object id="1181" template="PuppetOnPole1.tx" gid="2147485228" x="-640" y="2400" rotation="0"/>
  <object id="1182" template="PuppetOnPole1.tx" x="-768" y="2656"/>
  <object id="1183" template="PuppetOnPole1.tx" x="-864" y="2304"/>
  <object id="1185" template="PuppetOnPole2.tx" gid="2147485229" x="-960" y="2080" rotation="0"/>
  <object id="1186" template="PuppetOnPole2.tx" x="-640" y="2144"/>
  <object id="1187" template="PuppetOnPole1.tx" class="PuppetOnPole1" x="-736" y="1888"/>
  <object id="1188" template="PuppetOnPole2.tx" x="-896" y="1856"/>
  <object id="1189" template="PuppetOnPole3.tx" x="-1088" y="1824"/>
  <object id="1190" template="PuppetOnPole2.tx" x="-1312" y="1856"/>
  <object id="1191" template="PuppetOnPole2.tx" x="-1504" y="1888"/>
  <object id="1192" template="PuppetOnPole3.tx" gid="2147485230" x="-1536" y="2016" rotation="0"/>
  <object id="1193" template="PuppetOnPole3.tx" gid="2147485230" x="-1376" y="2080" rotation="0"/>
  <object id="1194" template="PuppetOnPole1.tx" x="-1152" y="2080"/>
  <object id="1195" template="PuppetOnPole2.tx" x="-1344" y="2304"/>
  <object id="1196" template="PuppetOnPole3.tx" x="-1152" y="2304"/>
  <object id="1197" template="TorchDurableStick.tx" x="-416" y="2592"/>
  <object id="1198" template="TorchDurableStick.tx" x="-448" y="2336"/>
  <object id="1199" template="TorchDurableStick.tx" x="-640" y="2624"/>
  <object id="1200" template="TorchDurableStick.tx" x="-864" y="2624"/>
  <object id="1201" template="TorchDurableStick.tx" x="-864" y="2400"/>
  <object id="1202" template="TorchDurableStick.tx" x="-1024" y="2176"/>
  <object id="1203" template="TorchDurableStick.tx" x="-960" y="2016"/>
  <object id="1204" template="TorchDurableStick.tx" x="-1120" y="2016"/>
  <object id="1205" template="TorchDurableStick.tx" x="-1120" y="1856"/>
  <object id="1206" template="TorchDurableStick.tx" x="-960" y="1856"/>
  <object id="1207" template="TorchDurableStick.tx" x="-800" y="1856"/>
  <object id="1208" template="TorchDurableStick.tx" x="-704" y="1952"/>
  <object id="1209" template="TorchDurableStick.tx" x="-1280" y="1856"/>
  <object id="1210" template="TorchDurableStick.tx" x="-1408" y="1888"/>
  <object id="1211" template="TorchDurableStick.tx" x="-1408" y="1984"/>
  <object id="1212" template="TorchDurableStick.tx" x="-1472" y="2176"/>
  <object id="1213" template="TorchDurableStick.tx" x="-1248" y="2400"/>
  <object id="1214" template="TorchDurableFire.tx" x="-416" y="2560"/>
  <object id="1215" template="TorchDurableFire.tx" x="-448" y="2304"/>
  <object id="1216" template="TorchDurableFire.tx" x="-640" y="2592"/>
  <object id="1217" template="TorchDurableFire.tx" x="-864" y="2592"/>
  <object id="1218" template="TorchDurableFire.tx" x="-864" y="2368"/>
  <object id="1219" template="TorchDurableFire.tx" x="-704" y="1920"/>
  <object id="1220" template="TorchDurableFire.tx" x="-800" y="1824"/>
  <object id="1221" template="TorchDurableFire.tx" x="-960" y="1824"/>
  <object id="1222" template="TorchDurableFire.tx" x="-960" y="1984"/>
  <object id="1223" template="TorchDurableFire.tx" x="-1120" y="1984"/>
  <object id="1224" template="TorchDurableFire.tx" x="-1120" y="1824"/>
  <object id="1225" template="TorchDurableFire.tx" x="-1408" y="1952"/>
  <object id="1226" template="TorchDurableFire.tx" x="-1408" y="1856"/>
  <object id="1227" template="TorchDurableFire.tx" x="-1472" y="2144"/>
  <object id="1228" template="TorchDurableFire.tx" x="-1248" y="2368"/>
  <object id="1229" template="TorchDurableFire.tx" x="-1024" y="2144"/>
  <object id="1230" template="WoodenTabletStand.tx" x="-576" y="2528"/>
  <object id="1231" template="WoodenTabletStandLeft.tx" x="-704" y="2272"/>
  <object id="1232" template="WoodenBarrelGold.tx" x="-832" y="2400"/>
  <object id="1233" template="Bones4.tx" x="-767.5" y="2437"/>
  <object id="1234" template="PedestalWithPotatoe.tx" class="PedestalWithPotatoe" x="-576" y="2208"/>
  <object id="1247" template="SpikyLog.tx" class="SpikyLog" x="-736" y="2176"/>
  <object id="1263" template="SpikyLog.tx" x="-832" y="2112"/>
  <object id="1264" template="SpikyLog.tx" x="-768" y="2048"/>
  <object id="1265" template="SpikyLog.tx" x="-832" y="1888"/>
  <object id="1266" template="SpikyLog.tx" x="-928" y="1952"/>
  <object id="1267" template="SpikyLog.tx" x="-992" y="1888"/>
  <object id="1268" template="SpikyLog.tx" x="-1024" y="1920"/>
  <object id="1269" template="SpikyLog.tx" x="-1088" y="1888"/>
  <object id="1270" template="SpikyLog.tx" x="-1184" y="1920"/>
  <object id="1271" template="SpikyLog.tx" x="-1248" y="1920"/>
  <object id="1272" template="SpikyLog.tx" x="-1312" y="1920"/>
  <object id="1273" template="SpikyLog.tx" x="-1248" y="2048"/>
  <object id="1274" template="SpikyLog.tx" x="-1376" y="2176"/>
  <object id="1275" template="SpikyLog.tx" x="-1248" y="2304"/>
  <object id="1276" template="SpikyLog.tx" x="-1120" y="2176"/>
  <object id="1277" template="WoodenTabletStandUp.tx" class="WoodenTabletStandUp" x="-864" y="2176"/>
  <object id="1278" template="WoodenTabletStandUp.tx" class="WoodenTabletStandUp" x="-704" y="2176"/>
  <object id="1279" template="WoodenTabletStandUp.tx" class="WoodenTabletStandUp" x="-704" y="2112"/>
  <object id="1280" template="WoodenTabletStandUp.tx" class="WoodenTabletStandUp" x="-864" y="2112"/>
  <object id="1281" template="WoodenTabletStandUp.tx" class="WoodenTabletStandUp" x="-864" y="2048"/>
  <object id="1282" template="WoodenTabletStandUp.tx" class="WoodenTabletStandUp" x="-704" y="2048"/>
  <object id="1283" template="WoodenTabletStand.tx" x="-768" y="1920"/>
  <object id="1286" template="VaseRed1.tx" class="VaseRed1" x="-800" y="1888"/>
  <object id="1287" template="VaseRed2.tx" class="ViseRed2" x="-832" y="1920"/>
  <object id="1289" template="VaseRed1.tx" x="-864" y="1888"/>
  <object id="1298" template="WoodenTabletStandLeft.tx" x="-1248" y="1856"/>
  <object id="1299" template="VaseRed1.tx" x="-1312" y="2112"/>
  <object id="1300" template="VaseRed2.tx" x="-1312" y="2240"/>
  <object id="1301" template="VaseRed3.tx" x="-1184" y="2112"/>
  <object id="1302" template="VaseRed1.tx" gid="2147485327" x="-1184" y="2240" rotation="0"/>
  <object id="1303" template="Bones2.tx" x="-832" y="2176"/>
  <object id="1304" template="Bones3.tx" x="-731" y="2118"/>
  <object id="1305" template="Bones2.tx" x="-768" y="1984"/>
  <object id="1306" template="Bones4.tx" x="-1056" y="1894"/>
  <object id="1307" template="TorchDurableFire.tx" x="-1280" y="1824"/>
  <object id="1308" template="ChainsTop.tx" x="-1696" y="1760"/>
  <object id="1309" template="ChainsTop.tx" x="-1792" y="1824"/>
  <object id="1310" template="ChainsTop.tx" x="-2176" y="1824"/>
  <object id="1311" template="ChainsTop.tx" x="-2112" y="1824"/>
  <object id="1312" template="ChainsTop.tx" x="-2048" y="1792"/>
  <object id="1313" template="ChainsTop.tx" x="-1952" y="1824"/>
  <object id="1314" template="ChainsCandlesFire.tx" class="ChainsCandlesFire" x="-1600" y="1792"/>
  <object id="1319" template="ChainsCandlesFire.tx" class="ChainsCandlesFire" x="-1696" y="1792"/>
  <object id="1320" template="ChainsCandlesFire.tx" x="-1792" y="1856"/>
  <object id="1321" template="ChainsCandlesFire.tx" x="-1952" y="1856"/>
  <object id="1322" template="ChainsCandlesFire.tx" x="-2048" y="1824"/>
  <object id="1323" template="ChainsBlackTop.tx" x="-1600" y="1760"/>
  <object id="1324" template="Chains.tx" x="-2112" y="1856"/>
  <object id="1325" template="Chains.tx" x="-2176" y="1856"/>
  <object id="1326" template="ChainsDown.tx" x="-2176" y="1888"/>
  <object id="1327" template="ChainsDown.tx" x="-2112" y="1888"/>
  <object id="1328" template="WoodenBarrel.tx" x="-1664" y="1856"/>
  <object id="1329" template="WoodenBarrel.tx" x="-1728" y="1888"/>
  <object id="1330" template="WoodenBarrelClosed.tx" x="-1696" y="1856"/>
  <object id="1331" template="Lute.tx" class="Lute" x="-1632" y="1856"/>
  <object id="1334" template="DurableFlag.tx" class="DurableFlag" x="-1574" y="1856"/>
  <object id="1335" template="LoungerWooden.tx" class="LoungerWooden" x="-1600" y="1920"/>
  <object id="1337" template="LoungerWooden.tx" gid="2147485330" x="-1696" y="1920" rotation="0"/>
  <object id="1340" template="PuppetMedievalLying.tx" x="-1600" y="1920"/>
  <object id="1341" template="PuppetMedievalLying.tx" gid="2147485331" x="-1696" y="1920" rotation="0"/>
  <object id="1342" template="StatueArrowWithBow.tx" class="StatueArrowWithBow" x="-1696" y="1920"/>
  <object id="1343" template="WoodenChest.tx" x="-1664" y="1952"/>
  <object id="1344" template="Vase1.tx" x="-1920" y="1632"/>
  <object id="1345" template="Vase2.tx" x="-1888" y="1632"/>
  <object id="1346" template="Vase3.tx" x="-1856" y="1632"/>
  <object id="1347" template="Vase2.tx" x="-1920" y="1664"/>
  <object id="1348" template="Vase1.tx" x="-1856" y="1664"/>
  <object id="1349" template="Vase3.tx" x="-1920" y="1696"/>
  <object id="1350" template="Vase1.tx" x="-1888" y="1696"/>
  <object id="1351" template="Vase2.tx" x="-1856" y="1696"/>
  <object id="1352" template="Vase2.tx" x="-1888" y="2272"/>
  <object id="1353" template="Vase2.tx" x="-1984" y="1856"/>
  <object id="1354" template="Vase3.tx" x="-2080" y="1888"/>
  <object id="1355" template="Vase1.tx" x="-2016" y="1920"/>
  <object id="1356" template="Vase2.tx" x="-2080" y="1952"/>
  <object id="1357" template="Vase1.tx" x="-2016" y="1984"/>
  <object id="1360" template="BannerHammer.tx" class="BannerHammer" x="-1888" y="1568"/>
  <object id="1363" template="BannerHammer.tx" x="-1856" y="1824"/>
  <object id="1364" template="BannerHammer.tx" x="-1920" y="1824"/>
  <object id="1365" template="WoodenTabletStand.tx" x="-1888" y="1920"/>
  <object id="1366" template="BannerWheel.tx" x="-2144" y="1856"/>
  <object id="1375" template="TorchDurableStick.tx" x="-1792" y="2304"/>
  <object id="1376" template="TorchDurableStick.tx" x="-1888" y="2400"/>
  <object id="1377" template="TorchDurableStick.tx" x="-1984" y="2304"/>
  <object id="1378" template="TorchDurableStick.tx" x="-1952" y="2112"/>
  <object id="1379" template="TorchDurableStick.tx" x="-1824" y="2112"/>
  <object id="1380" template="TorchDurableFire.tx" x="-1952" y="2080"/>
  <object id="1381" template="TorchDurableFire.tx" x="-1824" y="2080"/>
  <object id="1382" template="TorchDurableFire.tx" x="-1792" y="2272"/>
  <object id="1383" template="TorchDurableFire.tx" x="-1888" y="2368"/>
  <object id="1384" template="TorchDurableFire.tx" x="-1984" y="2272"/>
  <object id="1385" template="ChainsTop.tx" x="-2240" y="1504"/>
  <object id="1386" template="ChainsTop.tx" x="-2304" y="1504"/>
  <object id="1387" template="ChainsTop.tx" x="-2336" y="1536"/>
  <object id="1388" template="ChainsTop.tx" x="-2432" y="1536"/>
  <object id="1389" template="ChainsTop.tx" x="-2464" y="1504"/>
  <object id="1390" template="ChainsTop.tx" x="-2528" y="1504"/>
  <object id="1391" template="Chains.tx" x="-2528" y="1536"/>
  <object id="1392" template="Chains.tx" x="-2464" y="1536"/>
  <object id="1393" template="Chains.tx" x="-2304" y="1536"/>
  <object id="1394" template="Chains.tx" x="-2240" y="1536"/>
  <object id="1395" template="ChainsCandlesFire.tx" x="-2336" y="1568"/>
  <object id="1396" template="ChainsCandlesFire.tx" x="-2432" y="1568"/>
  <object id="1397" template="ChainsDown.tx" x="-2528" y="1568"/>
  <object id="1398" template="ChainsDown.tx" x="-2464" y="1568"/>
  <object id="1399" template="ChainsDown.tx" x="-2304" y="1568"/>
  <object id="1400" template="ChainsDown.tx" x="-2240" y="1568"/>
  <object id="1401" template="BannerWheel.tx" x="-2560" y="1568"/>
  <object id="1402" template="BannerWheel.tx" x="-2208" y="1568"/>
  <object id="1429" template="CrossbowChargedLeft.tx" x="-2304" y="1824"/>
  <object id="1430" template="CrossbowChargedUp.tx" x="-2432" y="1728"/>
  <object id="1431" template="CrossbowChargedDown.tx" x="-2304" y="1600"/>
  <object id="1432" template="CrossbowChargedDown.tx" x="-2528" y="1600"/>
  <object id="1439" template="Vase1.tx" x="-2208" y="1632"/>
  <object id="1440" template="WoodenBarrelArrows.tx" x="-2560" y="1632"/>
  <object id="1443" template="WoodenTabletStand.tx" x="-2528" y="1824"/>
  <object id="1444" template="ChainsTop.tx" x="-2624" y="1664"/>
  <object id="1445" template="ChainsTop.tx" x="-2720" y="1664"/>
  <object id="1446" template="ChainsCandlesFire.tx" x="-2720" y="1696"/>
  <object id="1447" template="ChainsCandlesFire.tx" x="-2624" y="1696"/>
  <object id="1448" template="BannerOilLamp.tx" x="-2592" y="1696"/>
  <object id="1449" template="BannerOilLamp.tx" x="-2752" y="1696"/>
  <object id="1467" template="SpikyLog.tx" x="-2592" y="1824"/>
  <object id="1468" template="SpikyLog.tx" x="-2656" y="1792"/>
  <object id="1469" template="SpikyLog.tx" x="-2720" y="1824"/>
  <object id="1470" template="SpikyLog.tx" x="-2784" y="1792"/>
  <object id="1471" template="VaseRed2.tx" x="-2592" y="1856"/>
  <object id="1472" template="VaseRed2.tx" x="-2656" y="1856"/>
  <object id="1473" template="VaseRed2.tx" x="-2720" y="1856"/>
  <object id="1474" template="VaseRed2.tx" x="-2784" y="1856"/>
  <object id="1475" template="BannerOilLamp.tx" x="-2784" y="1984"/>
  <object id="1476" template="BannerOilLamp.tx" x="-2592" y="1984"/>
  <object id="1477" template="ChainsTop.tx" x="-2752" y="1952"/>
  <object id="1478" template="ChainsTop.tx" x="-2624" y="1952"/>
  <object id="1479" template="ChainsCandlesFire.tx" x="-2752" y="1984"/>
  <object id="1480" template="ChainsCandlesFire.tx" x="-2624" y="1984"/>
  <object id="1492" template="CrossbowChargedLeft.tx" x="-2784" y="2080"/>
  <object id="1495" template="WoodenBarrelGold.tx" x="-2592" y="2080"/>
  <object id="1498" template="CrossbowChargedLeft.tx" x="-2944" y="1856"/>
  <object id="1508" template="MovingRock.tx" class="MovingRock" x="-2848" y="1568"/>
  <object id="1510" template="MovingRock.tx" x="-2784" y="1600"/>
  <object id="1511" template="MovingRock.tx" x="-2912" y="1600"/>
  <object id="1512" template="MovingRock.tx" x="-2912" y="1664"/>
  <object id="1513" template="MovingRock.tx" x="-2784" y="1664"/>
  <object id="1514" template="MovingRock.tx" x="-2848" y="1696"/>
  <object id="1515" template="WoodenBarrel.tx" x="-2848" y="1632"/>
  <object id="1529" template="CrossbowChargedDown.tx" x="-2944" y="1536"/>
  <object id="1530" template="CrossbowChargedDown.tx" x="-2880" y="1536"/>
  <object id="1531" template="CrossbowChargedDown.tx" x="-2816" y="1536"/>
  <object id="1537" template="MannequinWooden1.tx" class="MannequinWooden1" x="-3168" y="1440"/>
  <object id="1538" template="MannequinWooden2.tx" class="MannequinWooden2" x="-3104" y="1440"/>
  <object id="1539" template="MannequinBone1.tx" class="MannequinBone1" x="-3136" y="1472"/>
  <object id="1543" template="Candle1Fire.tx" x="-3200" y="1568"/>
  <object id="1544" template="Candle2Fire.tx" x="-3195.5" y="1588.5"/>
  <object id="1545" template="Candle2Fire.tx" x="-3072" y="1632"/>
  <object id="1546" template="WoodenBarrelClosed.tx" x="-3136" y="1600"/>
  <object id="1547" template="WoodenBarrelClosed.tx" x="-3200" y="1632"/>
  <object id="1548" template="HaySheaf.tx" class="HaySheaf" x="-3104" y="1600"/>
  <object id="1549" template="WoodenBarrel.tx" x="-3104" y="1632"/>
  <object id="1550" template="WallWheel.tx" class="WallWheel" x="-1664" y="1792"/>
  <object id="1555" template="AutobowStandLeft.tx" x="-3232" y="1280"/>
  <object id="1556" template="AutobowStandDown.tx" x="-3168" y="1216"/>
  <object id="1557" template="AutobowStandDown.tx" x="-3072" y="1216"/>
  <object id="1558" template="AutobowChargedLeft.tx" x="-3232" y="1280"/>
  <object id="1559" template="AutobowChargedDown.tx" x="-3168" y="1216"/>
  <object id="1560" template="AutobowChargedDown.tx" x="-3072" y="1216"/>
  <object id="1565" template="Bones2.tx" x="-3136" y="1248"/>
  <object id="1566" template="Bones4.tx" x="-3040" y="1253.5"/>
  <object id="1567" template="BannerSword.tx" x="-3232" y="1184"/>
  <object id="1568" template="BannerSword.tx" x="-3136" y="1120"/>
  <object id="1569" template="BannerSword.tx" x="-3040" y="1120"/>
  <object id="1570" template="WallShield.tx" x="-3200" y="1152"/>
  <object id="1571" template="WallShield.tx" x="-3104" y="1152"/>
  <object id="1572" template="WallShield.tx" x="-3008" y="1152"/>
  <object id="1614" template="AutobowChargedLeft.tx" x="-2944" y="1056"/>
  <object id="1615" template="AutobowChargedLeft.tx" x="-2944" y="992"/>
  <object id="1616" template="AutobowChargedLeft.tx" gid="2147484930" x="-2848" y="1120" rotation="0"/>
  <object id="1618" template="AutobowChargedLeft.tx" gid="2147484930" x="-2880" y="928" rotation="0"/>
  <object id="1619" template="AutobowChargedLeft.tx" x="-2976" y="864"/>
  <object id="1620" template="AutobowChargedLeft.tx" x="-2816" y="736"/>
  <object id="1621" template="AutobowChargedLeft.tx" x="-2816" y="672"/>
  <object id="1622" template="AutobowChargedLeft.tx" x="-2816" y="608"/>
  <object id="1623" template="AutobowChargedDown.tx" x="-2720" y="512"/>
  <object id="1627" template="CrossbowChargedLeft.tx" x="-2848" y="512"/>
  <object id="1628" template="CrossbowChargedDown.tx" x="-2784" y="480"/>
  <object id="1629" template="CrossbowChargedDown.tx" x="-2656" y="480"/>
  <object id="1637" template="WoodTarget2.tx" x="-2784" y="992"/>
  <object id="1638" template="ChainsTop.tx" x="-2688" y="896"/>
  <object id="1640" template="ChainsCandles.tx" x="-2688" y="928"/>
  <object id="1641" template="BannerWheel.tx" x="-2624" y="896"/>
  <object id="1642" template="BannerOilLamp.tx" x="-2528" y="896"/>
  <object id="1643" template="StoneFace1.tx" x="-2624" y="960"/>
  <object id="1644" template="StoneFace2.tx" x="-2528" y="960"/>
  <object id="1651" template="StoneAccessoirBow.tx" x="-2624" y="1024"/>
  <object id="1652" template="StoneAccessoirApple.tx" x="-2528" y="960"/>
  <object id="1653" template="StoneAccessoirArrow.tx" x="-2624" y="960"/>
  <object id="1654" template="WoodenChest.tx" x="-2592" y="928"/>
  <object id="1655" template="WallWheel.tx" x="-2592" y="864"/>
  <object id="1656" template="Stone3.tx" gid="2147485277" x="-2816" y="800" rotation="0"/>
  <object id="1657" template="Stone2.tx" x="-2848" y="800"/>
  <object id="1658" template="Stone3.tx" x="-2912" y="800"/>
  <object id="1659" template="Stone1.tx" x="-2944" y="800"/>
  <object id="1660" template="Stone2.tx" x="-2816" y="864"/>
  <object id="1661" template="Stone1.tx" x="-2848" y="864"/>
  <object id="1662" template="Stone1.tx" class="Stone1" x="-2912" y="864"/>
  <object id="1663" template="Stone1.tx" gid="2147485275" x="-2976" y="864" rotation="0"/>
  <object id="1664" template="Stone3.tx" gid="2147485277" x="-2976" y="896" rotation="0"/>
  <object id="1665" template="Stone2.tx" x="-2944" y="928"/>
  <object id="1667" template="Stone3.tx" class="Stone3" x="-2912" y="928"/>
  <object id="1668" template="Stone1.tx" gid="2147485275" x="-2848" y="928" rotation="0"/>
  <object id="1669" template="Stone3.tx" x="-2816" y="928"/>
  <object id="1686" template="WoodenBarrel.tx" x="-2880" y="864"/>
  <object id="1687" template="WoodenBarrel.tx" x="-2592" y="608"/>
  <object id="1688" template="WoodenBarrel.tx" x="-2720" y="608"/>
  <object id="1689" template="DurableFlag.tx" x="-2560" y="640"/>
  <object id="1690" template="TorchDurableStick.tx" x="-3040" y="864"/>
  <object id="1691" template="TorchDurableFire.tx" x="-3040" y="832"/>
  <object id="1692" template="TorchDurableStick.tx" x="-2816" y="448"/>
  <object id="1693" template="TorchDurableFire.tx" x="-2816" y="416"/>
  <object id="1694" template="TorchDurableStick.tx" x="-2560" y="448"/>
  <object id="1695" template="TorchDurableFire.tx" x="-2560" y="416"/>
  <object id="1696" template="MovingRock.tx" x="-2624" y="576"/>
  <object id="1697" template="TorchGiant.tx" class="TorchGiant" x="-3008" y="672"/>
  <object id="1720" template="WoodenBarrel.tx" x="-2272" y="640"/>
  <object id="1721" template="WoodenBarrelHay.tx" x="-2240" y="640"/>
  <object id="1722" template="WoodTarget1.tx" gid="2147485338" x="-2272" y="704" rotation="0"/>
  <object id="1723" template="WoodTarget2.tx" x="-2208" y="640"/>
  <object id="1724" template="WoodenBarrelMeat.tx" x="-2112" y="640"/>
  <object id="1725" template="WoodenBarrelClosed.tx" x="-2080" y="640"/>
  <object id="1726" template="WoodenBarrelArrows.tx" x="-2048" y="640"/>
  <object id="1727" template="WoodTarget1.tx" gid="2147485338" x="-2016" y="640" rotation="0"/>
  <object id="1728" template="WoodenBarrelClosed.tx" x="-1952" y="640"/>
  <object id="1730" template="Hay.tx" class="Hay" x="-1888" y="640"/>
  <object id="1732" template="WoodenBarrelHay.tx" class="WoodenBarrelHay" x="-1856" y="640"/>
  <object id="1733" template="WoodenBarrelHay.tx" gid="2147485177" x="-1888" y="704" rotation="0"/>
  <object id="1734" template="WoodenBarrelSpikes.tx" gid="2147485176" x="-1824" y="640" rotation="0"/>
  <object id="1735" template="WoodenBarrel.tx" x="-1664" y="640"/>
  <object id="1736" template="WoodenBarrelDrum.tx" class="WoodenBarrelDrum" x="-1696" y="672"/>
  <object id="1737" template="FakeStone1.tx" class="FakeStone1" x="-2144" y="672"/>
  <object id="1741" template="FakeStone2_1.tx" x="-1952" y="672"/>
  <object id="1742" template="FakeStone3.tx" x="-1920" y="640"/>
  <object id="1743" template="Vase3.tx" x="-2080" y="672"/>
  <object id="1744" template="Vase1.tx" x="-2048" y="672"/>
  <object id="1745" template="Vase2.tx" x="-2176" y="704"/>
  <object id="1746" template="Vase2.tx" x="-2048" y="704"/>
  <object id="1747" template="WoodenBarrelClosed.tx" x="-2016" y="704"/>
  <object id="1748" template="WoodenBarrel.tx" x="-1856" y="704"/>
  <object id="1749" template="WoodenBarrelClosed.tx" x="-1824" y="704"/>
  <object id="1750" gid="1725" x="-1772" y="686" width="96" height="96"/>
  <object id="1751" template="SwingingBall1.tx" class="SwingingBall1" x="-1744" y="416"/>
  <object id="1806" template="SwingingBall2.tx" x="-1856" y="224"/>
  <object id="1817" template="SwingingBall1.tx" x="-1680" y="64"/>
  <object id="1818" template="SwingingBall2.tx" x="-1568" y="-128"/>
  <object id="1819" template="SwingingBallSus.tx" x="-1792" y="-128"/>
  <object id="1820" template="SwingingBall1.tx" x="-1680" y="-320"/>
  <object id="1824" template="SwingingBall1.tx" x="-1984" y="-384"/>
  <object id="1825" template="SwingingBall2.tx" x="-1888" y="-480"/>
  <object id="1826" template="SwingingBall2.tx" x="-2160" y="-544"/>
  <object id="1827" template="SwingingBallSmile.tx" x="-2176" y="-736"/>
  <object id="1858" template="SwingingBall2.tx" x="-1184" y="-928"/>
  <object id="1859" template="SwingingBall1.tx" x="-864" y="-928"/>
  <object id="1860" template="SwingingBall1.tx" x="-1184" y="-832"/>
  <object id="1861" template="SwingingBall2.tx" x="-864" y="-832"/>
  <object id="1862" template="SwingingBall2.tx" x="-1184" y="-608"/>
  <object id="1863" template="SwingingBall1.tx" x="-864" y="-608"/>
  <object id="1897" template="WoodenTable3.tx" class="WoodenTable3" x="-1568" y="416"/>
  <object id="1898" template="MannequinWooden1.tx" x="-1600" y="384"/>
  <object id="1899" template="MannequinWooden1.tx" gid="2147485223" x="-1504" y="416" rotation="0"/>
  <object id="2121" template="LoungerWooden.tx" x="-2080" y="224"/>
  <object id="2122" template="PapyrusNote.tx" x="-2048" y="224"/>
  <object id="2125" template="CrossbowStandLeft.tx" gid="2147484918" x="-2048" y="192" rotation="0"/>
  <object id="2126" template="CrossbowChargedLeft.tx" gid="2147484891" x="-2048" y="192" rotation="0"/>
  <object id="2127" template="Stone1.tx" gid="2147485275" x="-1856" y="64" rotation="0"/>
  <object id="2128" template="Stone2.tx" x="-1888" y="32"/>
  <object id="2129" template="Stone3.tx" gid="2147485277" x="-1856" y="32" rotation="0"/>
  <object id="2130" template="Stone1.tx" x="-1568" y="32"/>
  <object id="2131" template="Stone2.tx" x="-1728" y="32"/>
  <object id="2132" template="CrossbowStandLeft.tx" x="-1856" y="-64"/>
  <object id="2133" template="CrossbowStandLeft.tx" gid="2147484918" x="-1504" y="-64" rotation="0"/>
  <object id="2134" template="CrossbowChargedLeft.tx" x="-1856" y="-64"/>
  <object id="2135" template="CrossbowChargedLeft.tx" gid="2147484891" x="-1504" y="-64" rotation="0"/>
  <object id="2136" template="AutobowStandDown.tx" x="-1760" y="-320"/>
  <object id="2137" template="AutobowStandDown.tx" x="-1600" y="-320"/>
  <object id="2138" template="AutobowChargedDown.tx" x="-1760" y="-320"/>
  <object id="2139" template="AutobowChargedDown.tx" x="-1600" y="-320"/>
  <object id="2153" template="RatHouseOrange.tx" class="RatHouseOrange" x="-2016" y="-288"/>
  <object id="2154" template="RatHouseBlue.tx" class="RatHouseBlue" x="-1952" y="-256"/>
  <object id="2155" template="Cheese.tx" class="Cheese" x="-1984" y="-256"/>
  <object id="2158" template="SpikyLog.tx" x="-1824" y="-416"/>
  <object id="2159" template="SpikyLog.tx" x="-1888" y="-448"/>
  <object id="2161" template="SpikyLog.tx" x="-1984" y="-448"/>
  <object id="2163" template="Stone1.tx" x="-1952" y="-576"/>
  <object id="2164" template="Stone3.tx" x="-1888" y="-576"/>
  <object id="2165" template="WoodenBarrel.tx" x="-1952" y="-608"/>
  <object id="2166" template="CrossbowStandLeft.tx" x="-2240" y="-512"/>
  <object id="2167" template="CrossbowChargedLeft.tx" x="-2240" y="-512"/>
  <object id="2172" template="AutobowStandLeft.tx" gid="2147484925" x="-2112" y="-544" rotation="0"/>
  <object id="2173" template="AutobowChargedLeft.tx" gid="2147484930" x="-2112" y="-544" rotation="0"/>
  <object id="2174" template="Stone2.tx" x="-2688" y="768"/>
  <object id="2175" template="Stone3.tx" x="-2432" y="-576"/>
  <object id="2176" template="WoodenBarrelClosed.tx" x="-2400" y="-768"/>
  <object id="2177" template="WoodenBarrelClosed.tx" x="-2368" y="-768"/>
  <object id="2178" template="WoodenBarrelGold.tx" x="-2336" y="-768"/>
  <object id="2179" template="WoodenBarrelMeat.tx" x="-2400" y="-736"/>
  <object id="2180" template="LeverDungeonOFF.tx" x="-2304" y="-800"/>
  <object id="2181" template="MovingRock.tx" x="-2016" y="-800"/>
  <object id="2182" template="MovingRock.tx" x="-1920" y="-800"/>
  <object id="2183" template="MovingRock.tx" x="-2016" y="-672"/>
  <object id="2184" template="MovingRock.tx" x="-1920" y="-672"/>
  <object id="2187" template="TorchDurableStick.tx" x="-1568" y="-416"/>
  <object id="2188" template="TorchDurableStick.tx" x="-1696" y="-480"/>
  <object id="2189" template="TorchDurableStick.tx" x="-2208" y="-416"/>
  <object id="2190" template="TorchDurableStick.tx" x="-2208" y="-608"/>
  <object id="2191" template="TorchDurableStick.tx" x="-2048" y="-608"/>
  <object id="2192" template="TorchDurableStick.tx" x="-2176" y="-800"/>
  <object id="2193" template="TorchDurableStick.tx" x="-2080" y="-800"/>
  <object id="2194" template="TorchDurableStick.tx" x="-1856" y="-640"/>
  <object id="2195" template="TorchDurableStick.tx" x="-1856" y="-800"/>
  <object id="2196" template="TorchDurableStick.tx" x="-1728" y="-640"/>
  <object id="2197" template="TorchDurableStick.tx" x="-1728" y="-800"/>
  <object id="2198" template="TorchDurableStick.tx" x="-1280" y="-608"/>
  <object id="2199" template="TorchDurableStick.tx" x="-1280" y="-832"/>
  <object id="2200" template="TorchDurableStick.tx" x="-1120" y="-480"/>
  <object id="2201" template="TorchDurableStick.tx" x="-1088" y="-736"/>
  <object id="2202" template="TorchDurableStick.tx" x="-1120" y="-1024"/>
  <object id="2203" template="TorchDurableStick.tx" x="-992" y="-1024"/>
  <object id="2204" template="TorchDurableStick.tx" x="-864" y="-1024"/>
  <object id="2205" template="TorchDurableStick.tx" x="-992" y="-736"/>
  <object id="2206" template="TorchDurableStick.tx" x="-896" y="-736"/>
  <object id="2207" template="TorchDurableStick.tx" x="-864" y="-480"/>
  <object id="2208" template="TorchDurableStick.tx" x="-704" y="-608"/>
  <object id="2209" template="TorchDurableStick.tx" x="-704" y="-832"/>
  <object id="2210" template="TorchDurableStick.tx" x="-576" y="-736"/>
  <object id="2211" template="TorchDurableStick.tx" x="-576" y="-512"/>
  <object id="2212" template="TorchDurableStick.tx" x="-448" y="-512"/>
  <object id="2213" template="TorchDurableStick.tx" x="-416" y="-864"/>
  <object id="2214" template="TorchDurableStick.tx" x="-256" y="-800"/>
  <object id="2215" template="TorchDurableStick.tx" x="-256" y="-640"/>
  <object id="2216" template="TorchDurableFire.tx" x="-1568" y="-448"/>
  <object id="2217" template="TorchDurableFire.tx" x="-1696" y="-512"/>
  <object id="2218" template="TorchDurableFire.tx" x="-2208" y="-448"/>
  <object id="2219" template="TorchDurableFire.tx" x="-2208" y="-640"/>
  <object id="2220" template="TorchDurableFire.tx" x="-2048" y="-640"/>
  <object id="2221" template="TorchDurableFire.tx" x="-2176" y="-832"/>
  <object id="2222" template="TorchDurableFire.tx" x="-2080" y="-832"/>
  <object id="2223" template="TorchDurableFire.tx" x="-1856" y="-672"/>
  <object id="2224" template="TorchDurableFire.tx" x="-1856" y="-832"/>
  <object id="2225" template="TorchDurableFire.tx" x="-1728" y="-832"/>
  <object id="2226" template="TorchDurableFire.tx" x="-1728" y="-672"/>
  <object id="2227" template="TorchDurableFire.tx" x="-1280" y="-640"/>
  <object id="2228" template="TorchDurableFire.tx" x="-1280" y="-864"/>
  <object id="2229" template="TorchDurableFire.tx" x="-1120" y="-512"/>
  <object id="2230" template="TorchDurableFire.tx" x="-864" y="-512"/>
  <object id="2231" template="TorchDurableFire.tx" x="-1088" y="-768"/>
  <object id="2232" template="TorchDurableFire.tx" x="-992" y="-768"/>
  <object id="2233" template="TorchDurableFire.tx" x="-896" y="-768"/>
  <object id="2234" template="TorchDurableFire.tx" x="-1120" y="-1056"/>
  <object id="2235" template="TorchDurableFire.tx" x="-992" y="-1056"/>
  <object id="2236" template="TorchDurableFire.tx" x="-864" y="-1056"/>
  <object id="2237" template="TorchDurableFire.tx" x="-704" y="-640"/>
  <object id="2238" template="TorchDurableFire.tx" x="-704" y="-864"/>
  <object id="2239" template="TorchDurableFire.tx" x="-576" y="-544"/>
  <object id="2240" template="TorchDurableFire.tx" x="-448" y="-544"/>
  <object id="2241" template="TorchDurableFire.tx" x="-416" y="-896"/>
  <object id="2242" template="TorchDurableFire.tx" x="-576" y="-768"/>
  <object id="2243" template="TorchDurableFire.tx" x="-256" y="-832"/>
  <object id="2244" template="TorchDurableFire.tx" x="-256" y="-672"/>
  <object id="2245" template="TorchDurableStick.tx" x="-1632" y="352"/>
  <object id="2246" template="TorchDurableStick.tx" x="-1792" y="352"/>
  <object id="2247" template="TorchDurableStick.tx" x="-1888" y="192"/>
  <object id="2248" template="TorchDurableStick.tx" x="-1760" y="192"/>
  <object id="2249" template="TorchDurableStick.tx" x="-1568" y="128"/>
  <object id="2250" template="TorchDurableStick.tx" x="-1760" y="96"/>
  <object id="2251" template="TorchDurableStick.tx" x="-1824" y="-160"/>
  <object id="2252" template="TorchDurableStick.tx" x="-1472" y="-160"/>
  <object id="2253" template="TorchDurableStick.tx" x="-1824" y="-288"/>
  <object id="2254" template="TorchDurableStick.tx" x="-1920" y="-288"/>
  <object id="2255" template="TorchDurableStick.tx" x="-2112" y="-320"/>
  <object id="2256" template="TorchDurableFire.tx" x="-1792" y="320"/>
  <object id="2257" template="TorchDurableFire.tx" x="-1632" y="320"/>
  <object id="2258" template="TorchDurableFire.tx" x="-1888" y="160"/>
  <object id="2259" template="TorchDurableFire.tx" x="-1760" y="160"/>
  <object id="2260" template="TorchDurableFire.tx" x="-1760" y="64"/>
  <object id="2261" template="TorchDurableFire.tx" class="TorchDurableFire" x="-1568" y="96"/>
  <object id="2262" template="TorchDurableFire.tx" x="-1824" y="-192"/>
  <object id="2263" template="TorchDurableFire.tx" x="-1824" y="-320"/>
  <object id="2264" template="TorchDurableFire.tx" x="-1472" y="-192"/>
  <object id="2265" template="TorchDurableFire.tx" x="-1920" y="-320"/>
  <object id="2266" template="TorchDurableFire.tx" x="-2112" y="-352"/>
  <object id="2269" template="StoneCrystal.tx" class="StoneCrystal" x="-1856" y="-768"/>
  <object id="2270" template="StoneCrystal.tx" x="-1728" y="-768"/>
  <object id="2271" template="StatueDeceasedGuard.tx" class="StatueDeceasedGuard" x="-1824" y="-736"/>
  <object id="2272" template="WoodenTabletStand.tx" x="-1760" y="-736"/>
  <object id="2279" template="WoodenTabletStand.tx" x="-1216" y="-768"/>
  <object id="2280" template="WoodenTabletStand.tx" x="-608" y="-768"/>
  <object id="2281" template="WoodenTabletStand.tx" x="-1664" y="-768"/>
  <object id="2282" template="CrossbowStandDown.tx" x="-1600" y="-928"/>
  <object id="2283" template="CrossbowStandDown.tx" x="-1568" y="-928"/>
  <object id="2284" template="CrossbowStandDown.tx" x="-1536" y="-928"/>
  <object id="2285" template="CrossbowStandDown.tx" x="-1472" y="-928"/>
  <object id="2286" template="CrossbowStandDown.tx" x="-1440" y="-928"/>
  <object id="2287" template="CrossbowStandDown.tx" x="-1408" y="-928" visible="1"/>
  <object id="2294" template="AutobowStandDown.tx" x="-1504" y="-896"/>
  <object id="2295" template="AutobowChargedDown.tx" x="-1504" y="-896"/>
  <object id="2296" template="CrossbowStandUp.tx" x="-1600" y="-512"/>
  <object id="2297" template="CrossbowStandUp.tx" x="-1568" y="-512"/>
  <object id="2298" template="CrossbowStandUp.tx" x="-1536" y="-512"/>
  <object id="2299" template="CrossbowStandUp.tx" x="-1504" y="-512"/>
  <object id="2300" template="CrossbowStandUp.tx" x="-1472" y="-512"/>
  <object id="2301" template="CrossbowStandUp.tx" x="-1440" y="-512"/>
  <object id="2302" template="CrossbowStandUp.tx" x="-1408" y="-512"/>
  <object id="2311" template="CrossbowChargedUp.tx" x="-1600" y="-512"/>
  <object id="2312" template="CrossbowChargedUp.tx" x="-1536" y="-512"/>
  <object id="2313" template="CrossbowChargedUp.tx" x="-1472" y="-512"/>
  <object id="2314" template="CrossbowChargedUp.tx" x="-1408" y="-512"/>
  <object id="2315" template="CrossbowChargedUp.tx" x="-1568" y="-512"/>
  <object id="2316" template="CrossbowChargedUp.tx" x="-1504" y="-512"/>
  <object id="2317" template="CrossbowChargedUp.tx" x="-1440" y="-512"/>
  <object id="2318" template="CrossbowChargedDown.tx" x="-1600" y="-928"/>
  <object id="2319" template="CrossbowChargedDown.tx" x="-1536" y="-928"/>
  <object id="2320" template="CrossbowChargedDown.tx" x="-1472" y="-928"/>
  <object id="2321" template="CrossbowChargedDown.tx" x="-1408" y="-928"/>
  <object id="2322" template="CrossbowChargedDown.tx" x="-1440" y="-928"/>
  <object id="2323" template="CrossbowChargedDown.tx" x="-1568" y="-928"/>
  <object id="2324" template="MovingRock.tx" x="-1568" y="-896"/>
  <object id="2325" template="MovingRock.tx" x="-1536" y="-896"/>
  <object id="2326" template="MovingRock.tx" x="-1504" y="-896"/>
  <object id="2327" template="MovingRock.tx" x="-1440" y="-896"/>
  <object id="2328" template="MovingRock.tx" x="-1408" y="-896"/>
  <object id="2329" template="MovingRock.tx" class="MovingRock" x="-1376" y="-896"/>
  <object id="2330" template="MovingRock.tx" x="-1568" y="-576"/>
  <object id="2331" template="MovingRock.tx" x="-1536" y="-576"/>
  <object id="2332" template="MovingRock.tx" x="-1504" y="-576"/>
  <object id="2333" template="MovingRock.tx" x="-1472" y="-576"/>
  <object id="2334" template="MovingRock.tx" x="-1440" y="-576"/>
  <object id="2335" template="MovingRock.tx" x="-1408" y="-576"/>
  <object id="2336" template="MovingRock.tx" x="-1376" y="-576"/>
  <object id="2337" template="WoodenTabletStandLeft.tx" gid="2147485353" x="-1600" y="-928" rotation="0"/>
  <object id="2338" template="WoodenTabletStandLeft.tx" gid="2147485353" x="-1344" y="-928" rotation="0"/>
  <object id="2339" template="WoodenTabletStandLeft.tx" gid="2147485353" x="-1600" y="-544" rotation="0"/>
  <object id="2340" template="WoodenTabletStandLeft.tx" gid="2147485353" x="-1344" y="-544" rotation="0"/>
  <object id="2341" template="WoodenTabletStandLeft.tx" x="-64" y="-704"/>
  <object id="2342" template="WoodenTabletStandLeft.tx" gid="2147485353" x="576" y="-768" rotation="0"/>
  <object id="2343" template="WoodenTabletStandLeft.tx" gid="2147485353" x="576" y="-640" rotation="0"/>
  <object id="2344" template="WoodenTabletStandLeft.tx" gid="2147485353" x="672" y="-608" rotation="0"/>
  <object id="2345" template="WoodenTabletStandLeft.tx" gid="2147485353" x="768" y="-608" rotation="0"/>
  <object id="2346" template="WoodenBarrelPoison.tx" x="-1568" y="-864"/>
  <object id="2347" template="WoodenBarrelPoison.tx" x="-1536" y="-800"/>
  <object id="2348" template="WoodenBarrelPoison.tx" x="-1408" y="-768"/>
  <object id="2349" template="WoodenBarrelPoison.tx" x="-1280" y="-768"/>
  <object id="2350" template="WoodenBarrelPoison.tx" x="-1280" y="-704"/>
  <object id="2352" template="VaseRed3.tx" x="-1504" y="-864"/>
  <object id="2353" template="VaseRed1.tx" x="-1440" y="-832"/>
  <object id="2354" template="VaseRed2.tx" x="-1376" y="-800"/>
  <object id="2355" template="Vase2.tx" x="-1504" y="-768"/>
  <object id="2356" template="VaseRed1.tx" x="-1568" y="-704"/>
  <object id="2357" template="VaseRed1.tx" x="-1504" y="-672"/>
  <object id="2358" template="VaseRed1.tx" x="-1408" y="-704"/>
  <object id="2359" template="VaseRed1.tx" gid="2147485327" x="-1408" y="-640" rotation="0"/>
  <object id="2361" template="VaseRed1.tx" gid="2147485327" x="-1376" y="-608" rotation="0"/>
  <object id="2362" template="VaseRed2.tx" x="-1536" y="-704"/>
  <object id="2363" template="VaseRed2.tx" x="-1440" y="-608"/>
  <object id="2364" template="VaseRed2.tx" x="-1472" y="-672"/>
  <object id="2365" template="VaseRed2.tx" gid="2147485328" x="-1376" y="-704" rotation="0"/>
  <object id="2366" template="VaseRed2.tx" gid="2147485328" x="-1568" y="-608" rotation="0"/>
  <object id="2367" template="VaseRed3.tx" gid="2147485329" x="-1568" y="-640" rotation="0"/>
  <object id="2368" template="VaseRed3.tx" x="-1504" y="-704"/>
  <object id="2369" template="VaseRed3.tx" gid="2147485329" x="-1504" y="-640" rotation="0"/>
  <object id="2370" template="VaseRed3.tx" gid="1681" x="-1376" y="-640" rotation="0"/>
  <object id="2371" template="WoodenBarrelMeat.tx" x="-1472" y="-704"/>
  <object id="2372" template="Stone1.tx" x="-1600" y="-736"/>
  <object id="2373" template="Stone3.tx" x="-1472" y="-800"/>
  <object id="2374" template="WoodenBarrelClosed.tx" x="-1440" y="-768"/>
  <object id="2375" template="WoodenBarrelGold.tx" x="-1408" y="-608"/>
  <object id="2395" template="WoodenBarrel.tx" x="-1024" y="-608"/>
  <object id="2396" template="WoodenBarrel.tx" x="-960" y="-544"/>
  <object id="2397" template="WoodenBarrel.tx" x="-1024" y="-896"/>
  <object id="2398" template="WoodenBarrel.tx" x="-960" y="-896"/>
  <object id="2399" template="WoodenBarrelClosed.tx" x="-960" y="-864"/>
  <object id="2400" template="WoodenChest.tx" x="-1024" y="-864"/>
  <object id="2401" template="WoodenBarrelClosed.tx" x="-704" y="-768"/>
  <object id="2402" template="WoodenBarrelClosed.tx" x="-704" y="-704"/>
  <object id="2403" template="WoodenBarrel.tx" x="-640" y="-928"/>
  <object id="2404" template="WoodenBarrel.tx" x="-512" y="-928"/>
  <object id="2405" template="WoodenChestGold.tx" x="-512" y="-768"/>
  <object id="2406" template="WoodenBarrel.tx" x="-512" y="-704"/>
  <object id="2407" template="WoodenBarrelMeat.tx" x="-384" y="-576"/>
  <object id="2408" template="SpikyLog.tx" x="-576" y="-640"/>
  <object id="2409" template="SpikyLog.tx" x="-448" y="-640"/>
  <object id="2410" template="CrossbowStandLeft.tx" gid="2147484918" x="-288" y="-736" rotation="0"/>
  <object id="2411" template="CrossbowChargedLeft.tx" gid="2147484891" x="-288" y="-736" rotation="0"/>
  <object id="2412" template="BagOfBalls.tx" class="BagOfBalls" x="-128" y="-704"/>
  <object id="2413" template="ChainsTop.tx" x="-160" y="-960"/>
  <object id="2414" template="ChainsTop.tx" x="-128" y="-960"/>
  <object id="2415" template="ChainsTop.tx" x="-64" y="-960"/>
  <object id="2416" template="ChainsTop.tx" x="-32" y="-960"/>
  <object id="2417" template="ChainsDown.tx" x="-160" y="-928"/>
  <object id="2418" template="ChainsDown.tx" x="-32" y="-928"/>
  <object id="2419" template="Chains.tx" x="-128" y="-928"/>
  <object id="2420" template="Chains.tx" x="-64" y="-928"/>
  <object id="2421" template="ChainsDown.tx" x="-128" y="-896"/>
  <object id="2422" template="ChainsDown.tx" x="-64" y="-896"/>
  <object id="2423" template="ChainsBlack.tx" x="-160" y="-896"/>
  <object id="2424" template="ChainsBlack.tx" x="-32" y="-896"/>
  <object id="2425" template="MannequinBaby.tx" class="MannequinBaby" x="-128" y="-864"/>
  <object id="2426" template="StoneCrystal.tx" x="768" y="-1376"/>
  <object id="2427" template="StoneCrystal.tx" x="896" y="-1376"/>
  <object id="2428" template="WoodenTabletStand.tx" x="96" y="-768"/>
  <object id="2429" template="TorchDurableStick.tx" x="192" y="-640"/>
  <object id="2430" template="TorchDurableStick.tx" x="320" y="-640"/>
  <object id="2431" template="TorchDurableStick.tx" x="256" y="-800"/>
  <object id="2432" template="TorchDurableFire.tx" x="192" y="-672"/>
  <object id="2433" template="TorchDurableFire.tx" x="320" y="-672"/>
  <object id="2434" template="TorchDurableFire.tx" x="256" y="-832"/>
  <object id="2435" template="MannequinWooden3.tx" x="160" y="-736"/>
  <object id="2436" template="MannequinWooden4.tx" x="256" y="-736"/>
  <object id="2437" template="MannequinWooden5.tx" x="352" y="-736"/>
  <object id="2440" template="BottlePotion1.tx" x="257" y="-676.5"/>
  <object id="2441" template="BottlePotion2.tx" x="346.5" y="-814.5"/>
  <object id="2442" template="BottlePotion3.tx" x="357" y="-799"/>
  <object id="2443" template="Pouch2.tx" x="157" y="-812.333"/>
  <object id="2444" template="Pouch1.tx" x="163" y="-798.333"/>
  <object id="2445" template="BottlePotion4.tx" x="264" y="-693"/>
  <object id="2446" template="StatueLikeShaped.tx" class="StatueLikeShaped" x="640" y="-800"/>
  <object id="2473" template="Bones4.tx" x="-1477.5" y="-650.5"/>
  <object id="2474" template="Bones2.tx" x="-1430" y="-695"/>
  <object id="2475" template="Bones5.tx" x="-1592.5" y="-707"/>
  <object id="2476" template="Bones2.tx" x="-1595.5" y="-663.5"/>
  <object id="2478" template="Bones3.tx" x="-1571" y="-683.5"/>
  <object id="2479" template="Bones3.tx" x="-1224" y="-678"/>
  <object id="2480" template="Bones2.tx" x="-1175" y="-801.5"/>
  <object id="2481" template="Bones3.tx" x="-1158.5" y="-805.5"/>
  <object id="2482" template="Bones4.tx" x="-1087" y="-899"/>
  <object id="2483" template="Bones4.tx" x="-639.5" y="-675"/>
  <object id="2484" template="Bones5.tx" x="-635.5" y="-645.5"/>
  <object id="2485" template="WallWheel.tx" x="-2688" y="1696"/>
  <object id="2486" template="WoodenTabletStand.tx" x="832" y="-1888"/>
  <object id="2487" template="WoodenTabletStand.tx" x="928" y="-1920"/>
  <object id="2489" template="WoodenTabletStand.tx" x="1024" y="-1920"/>
  <object id="2490" template="WoodenTabletStand.tx" x="1120" y="-1920"/>
  <object id="2491" template="ChainsTop.tx" x="832" y="-2048"/>
  <object id="2492" template="ChainsTop.tx" x="1152" y="-2048"/>
  <object id="2493" template="ChainsTop.tx" x="1056" y="-2048"/>
  <object id="2494" template="ChainsTop.tx" x="928" y="-2048"/>
  <object id="2495" template="ChainsCandlesFire.tx" x="832" y="-2016"/>
  <object id="2496" template="ChainsCandlesFire.tx" x="928" y="-2016"/>
  <object id="2497" template="ChainsCandlesFire.tx" x="1056" y="-2016"/>
  <object id="2498" template="ChainsCandlesFire.tx" x="1152" y="-2016"/>
  <object id="2499" template="LeverDungeonOFF.tx" x="416" y="992"/>
 </objectgroup>
 <objectgroup id="103" name="Entities">
  <object id="2123" gid="1356" x="-2080" y="192" width="32" height="32"/>
  <object id="2141" gid="1457" x="-1856" y="64" width="32" height="32"/>
  <object id="2145" gid="1460" x="-1888" y="64" width="32" height="32"/>
  <object id="2146" gid="1461" x="-1856" y="64" width="32" height="32"/>
  <object id="2147" gid="1459" x="-1920" y="64" width="32" height="32"/>
  <object id="2148" gid="1354" x="-2048" y="-256" width="32" height="32"/>
  <object id="2151" gid="2147485002" x="-1984" y="-288" width="32" height="32"/>
  <object id="2152" gid="1356" x="-2016" y="-224" width="32" height="32"/>
 </objectgroup>
 <objectgroup id="102" name="SwingingBallChainsParts" visible="0">
  <object id="1814" template="SwingingBallChains0.tx" x="-1824" y="160"/>
  <object id="1815" template="SwingingBallChains1.tx" x="-1824" y="128"/>
  <object id="1816" template="SwingingBallChains1.tx" x="-1824" y="96"/>
  <object id="1828" template="SwingingBallChains0.tx" x="-1648" y="0.5"/>
  <object id="1829" template="SwingingBallChains1.tx" x="-1648" y="-31.5"/>
  <object id="1830" template="SwingingBallChains1.tx" x="-1648" y="-63.5"/>
  <object id="1834" template="SwingingBallChains0.tx" x="-1536" y="-192"/>
  <object id="1835" template="SwingingBallChains1.tx" x="-1536" y="-224"/>
  <object id="1836" template="SwingingBallChains1.tx" x="-1536" y="-256"/>
  <object id="1837" template="SwingingBallChains0.tx" x="-1760" y="-192"/>
  <object id="1838" template="SwingingBallChains1.tx" x="-1760" y="-224"/>
  <object id="1839" template="SwingingBallChains1.tx" x="-1760" y="-256"/>
  <object id="1840" template="SwingingBallChains0.tx" x="-1648" y="-384"/>
  <object id="1841" template="SwingingBallChains1.tx" x="-1648" y="-416"/>
  <object id="1842" template="SwingingBallChains1.tx" x="-1648" y="-448"/>
  <object id="1846" template="SwingingBallChains0.tx" x="-1952" y="-448"/>
  <object id="1847" template="SwingingBallChains1.tx" x="-1952" y="-480"/>
  <object id="1848" template="SwingingBallChains1.tx" x="-1952" y="-512"/>
  <object id="1849" template="SwingingBallChains0.tx" x="-1856" y="-544"/>
  <object id="1850" template="SwingingBallChains1.tx" x="-1856" y="-576"/>
  <object id="1851" template="SwingingBallChains1.tx" x="-1856" y="-608"/>
  <object id="1852" template="SwingingBallChains0.tx" x="-2128" y="-608"/>
  <object id="1853" template="SwingingBallChains1.tx" x="-2128" y="-640"/>
  <object id="1854" template="SwingingBallChains1.tx" x="-2128" y="-672"/>
  <object id="1855" template="SwingingBallChains0.tx" x="-2144" y="-800"/>
  <object id="1856" template="SwingingBallChains1.tx" x="-2144" y="-832"/>
  <object id="1857" template="SwingingBallChains1.tx" x="-2144" y="-864"/>
  <object id="1870" template="SwingingBallChains0.tx" x="-1152" y="-992"/>
  <object id="1871" template="SwingingBallChains1.tx" x="-1152" y="-1024"/>
  <object id="1872" template="SwingingBallChains1.tx" x="-1152" y="-1056"/>
  <object id="1873" template="SwingingBallChains0.tx" x="-832" y="-992"/>
  <object id="1874" template="SwingingBallChains1.tx" x="-832" y="-1024"/>
  <object id="1875" template="SwingingBallChains1.tx" x="-832" y="-1056"/>
  <object id="1876" template="SwingingBallChains0.tx" x="-1152" y="-896"/>
  <object id="1877" template="SwingingBallChains1.tx" x="-1152" y="-928"/>
  <object id="1878" template="SwingingBallChains1.tx" x="-1152" y="-960"/>
  <object id="1888" template="SwingingBallChains0.tx" x="-832" y="-896"/>
  <object id="1889" template="SwingingBallChains1.tx" class="SwingingBallChains1" x="-832" y="-928"/>
  <object id="1890" template="SwingingBallChains1.tx" x="-832" y="-960"/>
  <object id="1891" template="SwingingBallChains0.tx" x="-1152.5" y="-670.5"/>
  <object id="1892" template="SwingingBallChains1.tx" x="-1152.5" y="-702.5"/>
  <object id="1893" template="SwingingBallChains1.tx" x="-1152.5" y="-734.5"/>
  <object id="1894" template="SwingingBallChains0.tx" x="-832" y="-672"/>
  <object id="1895" template="SwingingBallChains1.tx" x="-832" y="-704"/>
  <object id="1896" template="SwingingBallChains1.tx" x="-832" y="-736"/>
 </objectgroup>
 <objectgroup id="101" name="SwingingBallChainsPart2" visible="0">
  <object id="1795" template="SwingingBallChainsPart2.tx" x="-1712" y="336"/>
  <object id="1797" template="SwingingBallChainsPart2.tx" x="-1712" y="304"/>
 </objectgroup>
 <objectgroup id="100" name="SwingingBallChainsPart1" visible="0">
  <object id="1792" template="SwingingBallChainsPart1.tx" x="-1712" y="288"/>
  <object id="1793" template="SwingingBallChainsPart1.tx" x="-1712" y="320"/>
  <object id="1794" template="SwingingBallChainsPart1.tx" x="-1712" y="352"/>
 </objectgroup>
 <objectgroup id="79" name="OnTable">
  <object id="531" template="CardsOnTable.tx" class="CardsOnTable" x="-800" y="192" visible="0"/>
  <object id="1902" template="BoardGameMedieval.tx" class="BoardGameMedieval" x="-1568" y="384"/>
  <object id="1944" template="TorchDurableStick.tx" x="736" y="-736"/>
  <object id="1945" template="TorchDurableStick.tx" x="864" y="-736"/>
  <object id="1946" template="TorchDurableStick.tx" x="896" y="-992"/>
  <object id="1947" template="TorchDurableStick.tx" x="768" y="-992"/>
  <object id="1988" template="TorchDurableFire.tx" x="864" y="-768"/>
  <object id="1989" template="TorchDurableFire.tx" x="736" y="-768"/>
  <object id="1990" template="TorchDurableFire.tx" x="896" y="-1024"/>
  <object id="1991" template="TorchDurableFire.tx" x="768" y="-1024"/>
 </objectgroup>
 <layer id="4" name="Roof" width="32" height="32">
  <data encoding="csv">
   <chunk x="16" y="-80" width="16" height="16">
0,0,0,0,0,0,0,0,0,0,0,0,0,0,0,0,
0,0,0,0,0,0,0,0,0,0,0,0,0,0,0,0,
0,0,0,0,0,0,0,0,0,0,0,0,0,0,0,0,
0,0,0,0,0,0,0,0,0,0,0,0,0,0,0,0,
0,0,0,0,0,0,0,0,0,0,0,0,0,0,0,0,
0,0,0,0,0,0,0,0,0,0,0,0,0,0,0,0,
0,0,0,0,0,0,0,0,0,0,0,0,0,0,0,0,
0,0,0,0,0,0,0,0,0,0,0,0,0,0,0,0,
0,0,0,0,0,0,0,0,0,0,0,0,0,0,0,0,
0,0,0,0,0,0,0,0,0,0,0,0,0,0,0,0,
0,0,0,0,0,0,0,0,0,0,0,0,0,0,0,0,
0,0,0,0,0,0,0,0,0,0,0,0,0,0,0,0,
0,0,0,0,0,0,0,0,0,0,0,0,0,0,0,0,
0,0,0,0,0,0,0,0,0,0,0,0,0,0,0,0,
0,0,0,0,0,0,0,0,1,2,2,2,2,2,2,2,
0,0,0,0,0,0,0,0,17,0,0,0,0,0,0,0
</chunk>
   <chunk x="32" y="-80" width="16" height="16">
0,0,0,0,0,0,0,0,0,0,0,0,0,0,0,0,
0,0,0,0,0,0,0,0,0,0,0,0,0,0,0,0,
0,0,0,0,0,0,0,0,0,0,0,0,0,0,0,0,
0,0,0,0,0,0,0,0,0,0,0,0,0,0,0,0,
0,0,0,0,0,0,0,0,0,0,0,0,0,0,0,0,
0,0,0,0,0,0,0,0,0,0,0,0,0,0,0,0,
0,0,0,0,0,0,0,0,0,0,0,0,0,0,0,0,
0,0,0,0,0,0,0,0,0,0,0,0,0,0,0,0,
0,0,0,0,0,0,0,0,0,0,0,0,0,0,0,0,
0,0,0,0,0,0,0,0,0,0,0,0,0,0,0,0,
0,0,0,0,0,0,0,0,0,0,0,0,0,0,0,0,
0,0,0,0,0,0,0,0,0,0,0,0,0,0,0,0,
0,0,0,0,0,0,0,0,0,0,0,0,0,0,0,0,
0,0,0,0,0,0,0,0,0,0,0,0,0,0,0,0,
2,2,2,2,2,2,3,0,0,0,0,0,0,0,0,0,
0,0,0,0,0,0,19,0,0,0,0,0,0,0,0,0
</chunk>
   <chunk x="16" y="-64" width="16" height="16">
0,0,0,0,0,0,0,0,17,0,0,0,0,0,0,0,
0,0,0,0,0,0,0,0,17,0,0,0,0,0,0,0,
0,0,0,0,0,0,0,0,17,0,0,0,0,0,0,0,
0,0,0,0,0,0,0,0,17,0,0,0,0,0,0,0,
0,0,0,0,0,0,0,0,17,0,0,0,0,0,0,0,
0,0,0,0,0,0,0,0,17,0,0,0,0,0,0,0,
0,0,0,0,0,0,0,0,17,0,0,0,4,34,34,34,
0,0,0,0,0,0,0,0,2147483655,0,0,0,7,0,0,0,
0,0,0,0,0,0,0,0,0,0,0,0,0,0,0,0,
0,0,0,0,0,0,0,0,0,0,0,0,0,0,0,0,
0,0,0,0,0,0,0,0,0,0,0,0,0,0,0,0,
0,0,0,0,0,0,0,0,0,0,0,0,0,0,0,0,
0,0,0,0,0,0,0,0,0,0,0,0,0,0,0,0,
0,0,0,0,0,0,0,0,0,0,0,0,0,0,0,0,
0,0,0,0,0,0,0,0,0,0,0,0,0,0,0,0,
0,0,0,0,0,0,0,0,0,0,0,0,0,0,0,0
</chunk>
   <chunk x="32" y="-64" width="16" height="16">
0,0,0,0,0,0,19,0,0,0,0,0,0,0,0,0,
0,0,0,0,0,0,19,0,0,0,0,0,0,0,0,0,
0,0,0,0,0,0,19,0,0,0,0,0,0,0,0,0,
0,0,0,0,0,0,19,0,0,0,0,0,0,0,0,0,
0,0,0,0,0,0,19,0,0,0,0,0,0,0,0,0,
0,0,0,0,0,0,19,0,0,0,0,0,0,0,0,0,
34,34,34,34,34,34,35,0,0,0,0,0,0,0,0,0,
0,0,0,0,0,0,0,0,0,0,0,0,0,0,0,0,
0,0,0,0,0,0,0,0,0,0,0,0,0,0,0,0,
0,0,0,0,0,0,0,0,0,0,0,0,0,0,0,0,
0,0,0,0,0,0,0,0,0,0,0,0,0,0,0,0,
0,0,0,0,0,0,0,0,0,0,0,0,0,0,0,0,
0,0,0,0,0,0,0,0,0,0,0,0,0,0,0,0,
0,0,0,0,0,0,0,0,0,0,0,0,0,0,0,0,
0,0,0,0,0,0,0,0,0,0,0,0,0,0,0,0,
0,0,0,0,0,0,0,0,0,0,0,0,0,0,0,0
</chunk>
   <chunk x="-80" y="-32" width="16" height="16">
0,0,0,0,0,0,0,0,0,0,0,0,0,0,0,0,
0,0,0,0,0,0,0,0,0,0,0,0,0,0,0,0,
0,0,0,0,0,0,0,0,0,0,0,0,0,0,0,0,
0,0,0,0,0,0,9,2,3,0,0,0,0,0,0,0,
0,0,0,0,0,0,0,0,20,8,0,0,0,0,0,0,
0,0,0,0,0,0,0,0,0,0,0,0,0,0,0,0,
0,0,0,0,0,0,0,0,0,0,0,0,0,0,0,0,
0,0,0,0,0,0,0,0,0,0,0,0,0,0,0,0,
0,0,0,0,0,0,0,0,0,0,0,0,0,0,0,0,
0,0,0,0,0,0,0,0,0,0,0,0,0,0,0,0,
0,0,0,0,0,0,0,0,0,0,0,0,0,0,0,0,
0,0,0,0,0,0,0,0,0,0,0,0,0,0,0,0,
0,0,0,0,0,0,0,0,0,0,0,0,0,0,0,0,
0,0,0,0,0,0,0,0,0,0,0,0,0,0,0,0,
0,0,0,0,0,0,0,0,0,0,0,0,0,0,0,0,
0,0,0,0,0,0,0,0,0,0,0,0,0,0,0,0
</chunk>
   <chunk x="-16" y="-32" width="16" height="16">
0,0,0,0,0,0,0,0,0,0,0,9,2,2,2,8,
0,0,0,0,0,0,0,0,0,0,0,0,0,0,0,0,
0,0,0,0,0,0,0,0,0,0,0,0,0,0,0,0,
0,0,0,0,0,0,0,0,0,0,0,0,0,0,0,0,
0,0,0,0,0,0,0,0,0,0,0,0,0,0,0,0,
0,0,0,0,0,0,0,0,0,0,0,0,0,0,0,0,
0,0,0,0,0,0,0,0,0,0,0,0,0,0,0,0,
0,0,0,0,0,0,0,0,0,0,0,0,0,0,0,0,
0,0,0,0,0,0,0,0,0,0,0,0,0,0,0,0,
0,0,0,0,0,0,0,0,0,0,0,0,0,0,0,0,
0,0,0,0,0,0,0,0,0,0,0,0,0,0,0,0,
0,0,0,0,0,0,0,0,0,0,0,0,0,0,0,0,
0,0,0,0,0,0,0,0,0,0,0,0,0,0,0,0,
0,0,0,0,0,0,0,0,0,0,0,0,0,0,0,0,
0,0,0,0,0,0,0,0,0,0,0,0,0,0,0,0,
0,0,0,0,0,0,0,0,0,0,0,0,0,0,0,0
</chunk>
   <chunk x="0" y="-32" width="16" height="16">
0,0,0,0,0,0,190,191,191,191,192,0,0,0,0,0,
0,0,0,0,0,2147483837,221,0,0,0,220,191,191,189,0,0,
0,0,0,0,0,0,0,0,0,0,0,0,0,0,0,0,
0,0,0,0,0,0,0,0,0,0,0,0,0,0,0,0,
0,0,0,0,0,0,0,0,0,0,0,0,0,0,0,0,
0,0,0,0,0,0,0,0,0,0,0,0,0,0,0,0,
0,0,0,0,0,0,0,0,0,0,0,0,0,0,0,0,
0,0,0,0,0,0,0,0,0,0,0,0,0,0,0,0,
0,0,0,0,0,0,0,0,0,0,0,0,0,0,0,0,
0,0,0,0,0,0,0,0,0,0,0,0,0,0,0,0,
0,0,0,0,0,0,0,0,0,0,0,0,0,0,0,0,
0,0,0,0,0,0,0,0,0,0,0,0,0,0,0,0,
0,0,0,0,3221225661,223,1073742013,0,0,0,3221225661,223,223,1073742013,0,0,
0,0,0,0,0,0,0,0,0,0,0,0,0,0,0,0,
0,0,0,0,0,0,0,0,0,0,0,0,0,0,0,0,
0,0,0,0,0,0,0,0,0,0,0,0,0,0,0,0
</chunk>
   <chunk x="-32" y="-16" width="16" height="16">
0,0,0,0,0,0,0,0,0,0,0,0,0,0,0,0,
0,0,0,0,0,0,0,0,0,0,0,0,0,0,0,0,
0,0,0,0,0,0,0,0,0,0,0,0,0,0,0,0,
0,0,0,0,0,0,0,0,0,0,0,0,0,0,0,0,
0,0,0,0,0,0,0,0,0,0,0,0,0,0,0,0,
0,0,0,0,0,0,0,0,0,0,0,0,0,0,0,0,
0,0,0,0,0,0,0,0,0,0,0,0,0,0,0,0,
0,0,0,0,0,0,0,0,0,0,0,0,0,0,0,0,
0,0,0,0,0,0,0,0,0,0,0,0,0,0,0,0,
0,0,0,0,0,0,0,0,0,0,0,0,0,0,0,0,
0,0,0,0,0,0,0,0,0,0,0,0,0,1,2,2,
0,0,0,0,0,0,0,0,0,0,0,0,0,17,0,0,
0,0,0,0,0,0,0,0,0,0,0,0,0,17,0,0,
0,0,0,0,0,0,0,0,0,0,0,0,0,17,0,0,
0,0,0,0,0,0,0,0,0,0,0,0,0,17,0,0,
0,0,0,0,0,1,2,2,2,2,2,2,3,17,0,0
</chunk>
   <chunk x="-16" y="-16" width="16" height="16">
0,0,0,0,0,0,0,0,0,0,0,0,0,0,0,0,
0,0,0,0,0,0,0,0,0,0,0,0,0,0,0,0,
0,0,0,0,0,0,0,0,0,0,0,0,0,0,0,0,
0,0,0,0,0,0,0,0,0,0,0,0,0,0,0,0,
0,0,0,0,0,0,0,0,0,0,0,0,0,0,0,0,
0,0,0,0,0,0,0,0,0,0,0,0,0,0,0,0,
0,0,0,0,0,0,0,0,0,0,0,0,0,0,0,0,
0,0,0,0,0,0,0,0,0,0,0,0,0,0,0,0,
0,0,0,0,0,0,0,0,0,0,0,0,0,0,0,0,
0,0,0,0,0,0,0,0,0,0,0,0,0,0,0,0,
2,2,3,1,2,2,2,2,3,1,2,2,2,2,3,0,
0,0,19,17,0,0,0,0,19,17,0,0,0,0,19,0,
0,0,19,17,0,0,0,0,19,17,0,0,0,0,19,0,
0,0,19,17,0,0,0,0,19,17,0,0,0,0,19,0,
0,0,19,17,0,0,0,0,19,17,0,0,0,0,19,0,
0,0,19,17,0,0,0,0,19,17,0,0,0,0,19,0
</chunk>
   <chunk x="-80" y="0" width="16" height="16">
0,0,0,0,0,0,0,0,0,0,0,0,0,0,0,0,
0,0,0,0,0,0,0,0,0,0,0,0,0,0,0,0,
0,0,0,0,0,0,0,0,0,0,0,0,0,0,0,0,
0,0,0,0,0,0,0,0,0,0,0,0,0,0,0,0,
0,0,0,0,0,0,0,0,0,0,0,0,0,0,0,0,
0,0,0,0,0,0,0,0,0,0,0,0,0,0,0,0,
0,0,0,0,0,0,0,0,0,0,0,0,0,0,0,0,
0,0,0,0,0,0,0,0,0,0,0,0,0,0,0,0,
0,0,0,0,0,0,0,0,0,0,0,0,0,0,0,0,
0,0,0,0,0,0,0,0,0,0,0,0,0,0,0,0,
0,0,0,0,0,0,0,0,0,0,0,0,0,0,0,0,
0,0,0,0,0,0,0,0,0,0,0,0,0,0,0,0,
0,0,0,0,0,0,0,0,0,0,0,0,0,0,0,0,
0,0,0,0,0,0,0,0,0,0,0,0,0,0,0,0,
0,0,0,0,0,0,0,0,0,0,0,0,0,0,0,0,
0,0,0,0,0,0,0,0,1,2,2,2,2,2,2,2
</chunk>
   <chunk x="-64" y="0" width="16" height="16">
0,0,0,0,0,0,0,0,0,0,0,0,0,0,0,0,
0,0,0,0,0,0,0,0,0,0,0,0,0,0,0,0,
0,0,0,0,0,0,0,0,0,0,0,0,0,0,0,0,
0,0,0,0,0,0,0,0,0,0,0,0,0,0,0,0,
0,0,0,0,0,0,0,0,0,0,0,0,0,0,0,0,
0,0,0,0,0,0,0,0,0,0,0,0,0,0,0,0,
0,0,0,0,0,0,0,0,0,0,0,0,0,0,0,0,
0,0,0,0,0,0,0,0,0,0,0,0,0,0,0,0,
0,0,0,0,0,0,0,0,0,0,0,0,0,0,0,0,
0,0,0,0,0,0,0,0,0,0,0,0,0,0,0,0,
0,0,0,0,0,0,0,0,0,0,0,0,0,0,0,0,
0,0,0,0,0,0,0,0,0,0,0,0,0,0,0,0,
0,0,0,0,0,0,0,0,0,0,0,0,0,0,0,0,
0,0,0,0,0,0,0,0,0,491,0,0,491,0,0,0,
0,0,0,0,0,0,0,0,0,3221225479,0,0,1073741831,0,0,0,
2,2,2,2,2,2,2,2,2,21,0,0,20,3,0,0
</chunk>
   <chunk x="-48" y="0" width="16" height="16">
0,0,0,0,0,0,0,0,0,0,0,0,0,0,0,0,
0,0,0,0,0,0,0,0,0,0,0,0,0,0,0,0,
0,0,0,0,0,0,0,0,0,0,0,0,0,0,0,0,
0,0,0,0,0,0,0,0,0,0,0,0,0,0,0,1,
0,0,0,0,0,0,0,0,0,0,0,0,0,0,0,17,
0,0,0,0,0,0,0,0,0,0,0,0,0,0,0,17,
0,0,0,0,0,0,0,0,0,0,0,0,0,0,0,17,
0,0,0,0,0,0,0,0,0,0,0,0,0,0,0,17,
0,0,0,0,0,0,0,0,0,0,0,0,0,0,0,33,
0,0,0,0,0,0,0,0,0,0,0,0,0,0,0,0,
0,0,0,0,0,0,0,0,0,0,0,0,0,0,0,0,
0,0,0,0,0,0,0,0,0,0,0,0,0,0,0,0,
0,0,0,0,0,0,0,0,0,0,0,0,0,0,0,0,
0,0,0,0,0,0,0,0,0,0,0,0,0,0,0,0,
0,0,0,0,0,0,0,0,0,0,0,0,0,0,0,0,
0,0,0,0,0,0,0,0,0,0,0,0,0,0,0,0
</chunk>
   <chunk x="-32" y="0" width="16" height="16">
0,0,0,0,0,17,0,0,0,0,0,0,19,17,0,0,
0,0,0,0,0,17,0,0,0,0,0,0,19,17,0,0,
1610612744,0,0,2684354569,0,17,0,0,0,0,0,0,19,33,5,0,
21,260,261,20,2,21,0,0,0,0,0,0,20,2,21,270,
0,0,0,0,0,0,0,0,0,0,0,0,0,0,0,0,
0,0,0,0,0,0,0,0,0,0,0,0,271,272,0,0,
0,0,0,0,0,0,0,0,0,0,0,0,284,285,0,0,
0,0,0,0,0,0,0,0,0,0,0,0,297,298,0,0,
34,34,34,34,34,34,34,5,260,261,4,34,5,0,0,0,
0,0,0,0,0,0,0,17,0,0,19,0,33,34,5,0,
0,0,0,0,0,0,0,17,0,0,19,0,0,1,21,270,
0,0,0,0,0,0,0,17,0,0,19,0,0,17,0,0,
0,0,0,0,0,0,0,17,0,0,19,0,0,17,0,0,
0,0,0,0,0,0,0,17,0,0,19,0,0,17,0,0,
0,0,0,0,0,0,0,17,0,0,19,0,0,17,0,0,
0,0,0,0,0,0,0,17,0,0,19,0,0,17,0,0
</chunk>
   <chunk x="-16" y="0" width="16" height="16">
0,0,19,17,0,0,0,0,19,17,0,0,0,0,19,0,
0,0,19,17,0,0,0,0,19,17,0,0,0,0,19,0,
0,4,35,33,5,0,0,4,35,33,5,0,0,4,35,0,
2147483918,20,2,2,21,270,2147483918,20,2,2,21,270,2147483918,20,3,0,
0,0,0,0,0,0,0,0,0,0,0,0,0,0,19,0,
0,0,0,0,0,0,0,0,0,0,0,0,0,0,19,0,
0,0,0,0,0,0,0,0,0,0,0,0,0,0,19,0,
0,0,0,0,0,0,0,0,0,0,0,0,0,0,19,0,
0,0,0,0,0,0,0,0,0,0,0,0,0,0,19,0,
0,4,34,34,5,0,0,4,34,34,5,0,0,4,35,0,
2147483918,20,3,1,21,270,2147483918,20,3,1,21,270,2147483918,20,3,0,
0,0,19,17,0,0,0,0,19,17,0,0,0,0,19,0,
0,0,19,17,0,0,0,0,19,17,0,0,0,0,19,0,
0,0,19,17,0,0,0,0,19,17,0,0,0,0,19,0,
0,0,19,17,0,0,0,0,19,17,0,0,0,0,19,0,
0,0,19,17,0,0,0,0,19,17,0,0,0,0,19,0
</chunk>
   <chunk x="-96" y="16" width="16" height="16">
0,0,0,0,0,0,0,0,0,0,0,0,0,0,0,0,
0,0,0,0,0,0,0,0,0,0,0,0,0,0,0,0,
0,0,0,0,0,0,0,0,0,0,0,0,0,0,0,0,
0,0,0,0,0,0,0,0,0,0,0,0,0,0,0,0,
0,0,0,0,0,0,0,0,0,0,0,0,0,0,0,0,
0,0,0,0,0,0,0,0,0,0,0,0,0,0,0,0,
0,0,0,0,0,0,0,0,0,0,0,0,0,0,0,0,
0,0,0,0,0,0,0,0,0,0,0,0,0,0,0,0,
0,0,0,0,0,0,0,0,0,0,0,0,0,0,1,2,
0,0,0,0,0,0,0,0,0,0,0,0,0,1,21,0,
0,0,0,0,0,0,0,0,0,0,9,2,2,21,0,0,
0,0,0,0,0,0,0,0,0,0,0,0,0,0,0,0,
0,0,0,0,0,0,0,0,0,0,0,0,0,0,0,0,
0,0,0,0,0,0,0,0,0,0,0,0,0,0,0,0,
0,0,0,0,0,0,0,0,0,0,0,0,0,0,0,0,
0,0,0,0,0,0,0,0,0,0,491,2147483658,34,5,0,0
</chunk>
   <chunk x="-80" y="16" width="16" height="16">
0,0,0,9,2,2,2,2,21,0,0,0,0,0,0,0,
0,0,0,0,0,0,0,0,0,0,0,0,0,0,0,0,
0,0,0,0,0,0,0,0,0,0,0,0,0,0,0,0,
0,0,0,0,0,0,0,0,0,0,0,0,0,0,0,0,
0,0,0,0,0,0,0,0,0,0,0,0,0,0,0,0,
0,0,0,2147483658,34,34,34,34,5,0,0,0,0,0,0,0,
0,0,0,0,0,0,0,0,33,34,34,34,34,34,34,34,
0,0,0,0,0,0,0,0,0,0,0,0,0,0,0,0,
2,3,0,0,0,0,0,0,0,0,0,0,0,0,0,0,
0,20,3,0,0,0,0,0,0,0,0,0,0,0,0,0,
0,0,19,0,0,0,0,0,0,0,0,0,0,0,0,0,
0,0,19,0,0,0,0,0,0,0,0,0,0,0,0,0,
0,0,19,0,0,0,0,0,0,0,0,0,0,0,0,0,
0,0,19,0,0,0,0,0,0,0,0,0,0,0,0,0,
0,0,19,0,0,0,0,0,0,0,0,0,0,0,0,0,
0,0,19,0,0,0,0,0,0,0,0,0,0,0,0,0
</chunk>
   <chunk x="-64" y="16" width="16" height="16">
0,0,0,0,0,0,0,0,0,0,0,0,0,19,0,0,
0,0,0,0,0,0,0,0,0,0,0,0,0,19,0,0,
0,0,0,0,0,0,0,0,0,0,0,0,0,19,0,0,
0,0,0,0,0,0,0,0,0,0,0,0,0,19,0,0,
0,0,0,0,0,0,0,0,0,0,0,0,0,19,0,0,
0,0,0,0,0,0,0,0,0,0,0,0,0,19,0,0,
34,34,34,34,34,34,34,34,34,34,34,34,34,35,0,0,
0,0,0,0,0,0,0,0,0,0,0,0,0,0,0,0,
0,0,0,0,0,0,0,0,0,0,0,0,0,0,0,0,
0,0,0,0,0,0,0,0,0,0,0,0,0,0,0,0,
0,0,0,0,0,0,0,0,0,0,0,0,0,0,0,0,
0,0,0,0,0,0,0,0,0,0,0,0,0,0,0,0,
0,0,0,0,0,0,0,0,0,0,0,0,0,0,0,0,
0,0,0,0,0,0,0,0,0,0,0,0,0,0,0,0,
0,0,0,0,0,0,0,0,0,0,0,0,0,0,0,0,
0,0,0,0,0,0,0,0,0,0,0,0,0,0,0,0
</chunk>
   <chunk x="-32" y="16" width="16" height="16">
0,0,0,0,0,0,0,17,0,0,19,0,0,17,0,0,
0,0,0,0,0,0,0,17,0,0,19,0,0,17,0,0,
0,0,0,0,0,0,1,21,0,0,20,3,0,33,34,34,
0,0,0,0,0,1,21,0,0,0,0,20,3,0,0,0,
0,0,0,0,0,17,0,0,0,0,0,0,19,0,0,0,
0,0,0,0,0,17,0,0,0,0,0,0,19,0,0,0,
0,0,0,0,0,17,0,0,0,0,0,0,19,0,0,0,
0,0,0,0,0,17,0,0,0,0,0,0,19,0,0,0,
0,0,0,0,0,17,0,0,0,0,0,0,19,0,0,0,
0,0,0,0,0,17,0,0,0,0,0,0,19,0,0,0,
0,0,0,0,0,17,0,0,0,0,0,0,19,0,0,0,
0,0,0,0,0,17,0,0,0,0,0,0,19,0,0,0,
0,0,0,0,0,33,5,0,0,0,0,4,35,0,0,0,
0,0,0,0,0,0,33,5,0,0,4,35,0,0,0,0,
0,0,0,0,0,0,1,21,0,0,20,3,0,0,0,0,
0,0,0,0,1,2,21,0,0,0,0,19,0,0,0,0
</chunk>
   <chunk x="-16" y="16" width="16" height="16">
0,0,19,17,0,0,0,0,19,17,0,0,0,0,19,0,
0,0,19,17,0,0,0,0,19,17,0,0,0,0,19,0,
34,34,35,33,34,34,34,34,35,33,34,34,34,34,35,0,
0,0,0,0,0,0,0,0,0,0,0,0,0,0,0,0,
0,0,0,0,0,0,0,0,0,0,0,0,0,0,0,0,
0,0,0,0,0,0,0,0,0,0,0,0,0,0,0,0,
0,0,0,0,0,0,0,0,0,0,0,0,0,0,0,0,
0,0,0,0,0,0,0,0,0,0,0,0,0,0,0,0,
0,0,0,0,0,0,0,0,0,0,0,0,0,0,0,0,
0,0,0,0,0,0,0,0,0,0,0,0,0,0,0,0,
0,0,0,0,0,0,0,0,0,0,0,0,0,0,0,0,
0,0,0,0,0,0,0,0,0,0,0,0,0,0,0,0,
0,0,0,0,0,0,0,0,0,0,0,0,0,0,0,0,
0,0,0,0,0,0,0,0,0,0,0,0,0,0,0,0,
0,0,0,0,0,0,0,0,0,0,0,0,0,0,0,0,
0,0,0,0,0,0,0,0,0,0,0,0,0,0,0,0
</chunk>
   <chunk x="0" y="16" width="16" height="16">
0,0,0,0,0,0,0,0,0,0,0,0,0,0,0,0,
0,0,0,0,0,0,0,0,0,0,0,0,0,0,0,0,
0,0,0,0,0,0,0,0,0,0,0,0,0,0,0,0,
0,0,0,0,0,0,0,0,0,0,0,0,0,0,0,0,
0,0,0,0,0,0,0,0,0,0,0,0,0,0,0,0,
0,0,0,0,0,0,0,0,0,0,0,0,0,0,0,0,
0,0,0,0,0,0,0,0,0,0,0,0,0,0,0,0,
0,0,0,0,0,0,0,0,0,0,0,0,0,0,0,0,
0,0,0,0,0,0,0,0,0,0,0,0,0,0,0,0,
0,0,0,0,0,0,0,0,0,0,0,0,0,0,0,0,
0,0,0,0,0,0,0,0,0,0,0,0,0,0,0,0,
0,0,0,0,0,0,0,0,0,0,0,0,0,0,0,0,
0,0,0,0,0,0,0,0,0,0,0,0,9,2,8,0,
0,0,0,0,0,0,0,0,0,0,0,0,0,0,0,0,
0,0,0,0,0,0,0,0,0,0,0,0,0,0,0,0,
0,0,0,0,0,0,0,0,0,0,0,0,0,0,0,0
</chunk>
   <chunk x="-112" y="32" width="16" height="16">
0,0,0,0,0,0,0,0,0,0,0,0,0,1,2,3,
0,0,0,0,0,0,0,0,0,0,0,1,2,21,0,20,
0,0,0,0,0,0,0,0,0,0,1,21,0,0,0,0,
0,0,0,0,0,0,0,0,0,0,17,0,0,0,0,0,
0,0,0,0,0,0,0,0,0,0,17,0,0,0,0,0,
0,0,0,0,0,0,0,0,0,0,17,0,0,0,0,0,
0,0,0,0,0,0,0,0,0,0,17,0,0,0,0,0,
0,0,0,0,0,0,0,0,0,0,33,5,0,4,34,34,
0,0,0,0,0,0,0,0,0,0,0,17,0,19,0,0,
0,0,0,0,0,0,0,0,0,0,0,17,0,20,2,2,
0,0,0,0,0,0,0,0,0,0,0,17,0,0,0,0,
0,0,0,0,0,0,0,0,0,0,0,17,0,0,0,0,
0,0,0,0,0,0,0,0,0,0,0,17,0,0,0,0,
0,0,0,0,0,0,0,0,0,0,0,17,0,0,0,0,
0,0,0,0,0,0,0,0,0,0,0,17,0,0,0,0,
0,0,0,0,0,0,0,0,0,0,0,17,0,0,0,0
</chunk>
   <chunk x="-96" y="32" width="16" height="16">
1,2,3,0,3221225479,0,0,0,0,0,0,0,0,33,34,34,
21,0,20,2,21,0,0,0,0,0,0,0,0,0,0,0,
0,0,0,0,0,0,4,10,0,0,0,0,0,0,0,0,
0,0,0,0,0,0,19,0,0,0,0,0,0,0,0,0,
0,0,0,0,0,0,19,0,0,0,0,0,0,0,0,0,
0,0,0,0,0,0,19,0,0,0,0,0,0,0,0,0,
0,0,0,0,4,34,35,0,0,0,0,0,0,0,0,0,
34,34,34,34,35,0,0,0,0,0,0,0,0,0,0,0,
0,0,0,0,0,0,0,0,0,0,0,0,0,0,0,0,
2,3,0,0,0,0,0,0,0,0,0,0,0,0,0,0,
0,19,0,0,0,0,0,0,0,0,0,0,0,0,0,0,
0,20,8,0,0,0,0,0,0,0,0,0,0,0,0,0,
0,0,0,0,0,0,0,0,0,0,0,0,0,0,0,0,
0,0,0,0,0,0,0,0,0,0,0,0,0,0,0,0,
0,0,0,0,0,0,0,0,0,0,0,0,0,0,0,1,
0,0,0,0,0,0,0,0,0,0,0,0,0,0,0,17
</chunk>
   <chunk x="-80" y="32" width="16" height="16">
34,34,35,0,0,0,0,0,0,0,0,0,0,0,0,0,
0,0,0,0,0,0,0,0,0,0,0,0,0,0,0,0,
0,0,0,0,0,0,0,0,0,0,0,0,0,0,0,0,
0,0,0,0,0,0,0,0,0,0,0,0,0,0,0,0,
0,0,0,0,0,0,0,0,0,0,0,0,0,0,0,0,
0,0,0,0,0,0,0,0,0,0,0,0,0,0,0,0,
0,0,0,0,0,0,0,0,0,0,0,0,0,0,0,0,
0,0,0,0,0,0,0,0,0,0,0,0,0,0,0,0,
0,0,0,0,0,0,0,0,0,0,0,0,0,0,0,0,
0,0,0,0,0,0,0,0,0,0,0,0,0,0,0,0,
0,0,0,0,0,0,0,0,0,0,0,0,0,0,0,0,
0,0,0,0,0,0,0,0,0,0,0,0,0,0,0,0,
0,1,2,3,0,0,0,0,1,2,3,0,0,0,0,0,
1,21,0,20,3,0,0,1,21,0,20,3,0,0,0,0,
21,0,0,0,20,2,2,21,0,0,0,20,3,0,0,0,
0,0,0,0,0,0,0,0,0,0,0,0,19,0,0,0
</chunk>
   <chunk x="-64" y="32" width="16" height="16">
0,0,0,0,0,0,0,0,0,0,0,0,0,0,0,0,
0,0,0,0,0,0,0,0,0,0,0,0,0,0,0,0,
0,0,0,0,0,0,0,0,0,0,0,0,0,0,0,0,
0,0,0,0,0,0,0,0,0,0,0,0,0,0,0,0,
0,0,0,0,0,0,0,0,0,0,0,0,0,0,0,0,
0,0,0,0,0,0,0,0,0,0,0,0,0,0,0,0,
0,0,0,0,0,0,0,0,0,0,0,0,0,0,0,0,
0,0,0,0,0,0,0,0,0,0,0,0,0,0,0,0,
0,0,0,0,0,0,0,0,0,0,0,0,0,0,0,0,
0,0,0,0,0,0,0,0,0,0,0,0,0,0,0,0,
0,0,0,0,0,0,0,0,0,0,0,0,0,0,0,0,
0,0,0,0,0,0,0,0,0,0,0,0,0,0,0,0,
0,0,0,0,0,0,0,0,0,0,0,0,0,0,0,0,
0,0,0,0,0,0,0,0,0,0,0,0,0,0,0,0,
0,0,0,1,2,2,2,3,0,0,0,0,0,0,0,0,
0,0,0,17,0,0,0,19,0,0,0,0,0,0,0,0
</chunk>
   <chunk x="-32" y="32" width="16" height="16">
0,0,0,1,21,0,0,0,0,0,0,20,3,0,0,0,
0,0,1,21,0,0,0,0,0,0,0,0,19,0,0,0,
0,0,17,0,0,0,0,0,0,0,0,0,19,0,0,0,
0,0,17,0,0,0,0,0,0,0,0,0,19,0,0,0,
0,0,17,0,0,0,0,0,0,0,0,0,19,0,0,0,
0,0,17,0,0,0,0,0,0,0,0,0,19,0,0,1,
0,0,17,0,0,0,0,0,0,0,0,0,20,3,1,21,
0,0,17,0,0,0,0,0,0,0,0,0,0,20,21,0,
0,0,17,0,0,0,0,0,0,0,0,0,0,0,0,0,
0,0,17,0,0,0,0,0,0,0,0,0,0,0,0,0,
0,0,17,0,0,0,0,0,0,0,0,0,0,0,0,0,
0,0,17,0,0,0,0,0,0,0,0,0,0,0,0,0,
0,0,17,0,0,0,0,0,0,0,0,0,0,0,0,0,
0,0,33,5,0,0,0,0,0,0,0,0,0,0,0,0,
0,0,0,33,5,0,0,0,0,0,0,0,0,0,4,5,
0,0,0,0,33,34,34,34,34,34,34,34,34,34,35,33
</chunk>
   <chunk x="-16" y="32" width="16" height="16">
0,0,0,0,0,0,0,0,0,0,0,0,0,0,0,0,
0,0,0,0,0,0,0,0,0,0,0,0,0,0,0,0,
0,0,0,0,0,0,0,0,0,190,191,191,191,189,0,0,
0,0,0,0,0,0,0,0,190,221,0,0,0,0,0,0,
0,0,0,0,0,0,0,0,1073742012,0,0,0,0,0,0,0,
8,0,0,0,0,0,0,0,0,0,0,0,0,0,0,0,
0,0,0,0,0,0,0,0,0,0,0,0,0,0,0,0,
0,0,0,9,2,8,0,0,0,0,0,0,0,0,0,0,
0,0,0,0,0,0,0,0,0,0,0,0,0,0,0,0,
0,0,0,0,0,0,0,0,0,0,0,0,0,0,0,0,
0,0,0,0,0,0,0,0,0,0,0,0,0,0,0,0,
0,0,0,0,0,0,0,0,0,0,0,0,0,0,0,0,
0,0,0,0,0,0,0,0,0,0,0,0,0,0,0,0,
0,0,0,0,0,0,0,0,0,0,0,0,0,0,0,0,
0,0,0,0,0,0,0,0,0,0,0,0,0,0,0,0,
5,0,0,0,0,0,0,0,0,0,0,0,0,0,0,0
</chunk>
   <chunk x="0" y="32" width="16" height="16">
0,0,0,0,0,0,0,0,0,0,0,0,0,0,0,0,
0,0,0,0,0,0,0,0,0,0,0,0,0,0,0,0,
0,0,0,0,0,0,0,0,0,0,0,0,0,0,0,0,
0,0,0,0,0,0,0,0,0,0,0,0,0,0,0,0,
0,2147483837,189,0,0,0,0,0,0,188,0,0,0,0,0,0,
0,0,0,0,0,0,0,0,0,206,0,0,0,0,0,0,
0,0,0,0,0,0,0,0,0,206,0,0,0,0,0,0,
0,0,0,0,0,0,0,0,0,1073742012,0,0,0,0,0,0,
0,0,0,0,0,0,0,0,0,0,0,0,0,0,0,0,
0,0,0,0,0,0,0,0,0,0,0,0,0,0,0,0,
0,0,0,1610612744,0,2684354569,0,0,0,0,0,0,0,0,0,0,
0,0,1,21,0,20,2,3,1,2147483657,0,0,0,0,0,0,
0,9,21,0,0,0,0,19,17,0,0,0,0,0,0,0,
0,0,0,0,0,0,0,20,21,0,0,0,0,0,0,0,
0,0,0,0,0,0,0,0,0,0,0,0,0,0,0,0,
0,0,0,0,0,0,0,0,0,0,0,0,0,0,0,0
</chunk>
   <chunk x="16" y="32" width="16" height="16">
0,0,0,0,0,0,0,0,0,0,0,0,0,0,0,0,
0,2147483836,0,0,0,0,0,0,0,0,0,0,0,0,0,0,
0,208,0,0,0,0,0,0,0,0,0,0,0,0,0,0,
0,208,0,0,0,0,0,0,0,0,0,0,0,0,0,0,
0,208,0,0,0,0,0,0,0,0,0,0,0,0,0,0,
0,208,0,0,0,0,0,0,0,0,0,0,0,0,0,0,
0,208,0,0,0,0,0,0,0,0,0,0,0,0,0,0,
0,208,0,0,0,0,0,0,0,0,0,0,0,0,0,0,
0,3221225660,0,0,0,0,0,0,0,0,0,0,0,0,0,0,
0,0,0,0,0,0,0,0,0,0,0,0,0,0,0,0,
0,0,0,0,0,0,0,0,0,0,0,0,0,0,0,0,
0,0,0,0,0,0,0,0,0,0,0,0,0,0,0,0,
0,0,0,0,0,0,0,0,0,0,0,0,0,0,0,0,
0,0,0,0,0,0,0,0,0,0,0,0,0,0,0,0,
0,0,0,2147483836,0,0,0,0,0,0,0,0,0,0,0,0,
0,0,0,208,0,0,0,0,0,0,0,0,0,0,0,0
</chunk>
   <chunk x="-112" y="48" width="16" height="16">
0,0,0,0,0,0,0,0,0,0,0,17,0,0,0,0,
0,0,0,0,0,0,0,0,0,0,0,17,0,0,0,0,
0,0,0,0,0,0,0,0,0,0,0,17,0,0,0,0,
0,0,0,0,0,0,0,0,0,0,0,33,34,34,34,34,
0,0,0,0,0,0,0,0,0,0,0,0,0,0,0,0,
0,0,0,0,0,0,0,0,0,0,0,0,0,0,0,0,
0,0,0,0,0,0,0,0,0,0,0,0,0,0,0,0,
0,0,0,0,0,0,0,0,0,0,0,0,0,0,0,0,
0,0,0,0,0,0,0,0,0,0,0,0,0,0,0,0,
0,0,0,0,0,0,0,0,0,0,0,0,0,0,0,0,
0,0,0,0,0,0,0,0,0,0,0,0,0,0,0,0,
0,0,0,0,0,0,0,0,0,0,0,0,0,0,0,0,
0,0,0,0,0,0,0,0,0,0,0,0,0,0,0,0,
0,0,0,0,0,0,0,0,0,0,0,0,0,0,0,0,
0,0,0,0,0,0,0,0,0,0,0,0,0,0,0,0,
0,0,0,0,0,0,0,0,0,0,0,0,0,0,0,0
</chunk>
   <chunk x="-96" y="48" width="16" height="16">
0,4,10,0,0,0,0,0,0,0,0,0,0,0,0,17,
0,19,0,0,3221225479,0,0,0,0,0,1073741831,0,0,0,0,17,
0,19,0,0,17,0,0,0,0,0,20,2,2,2,2,21,
34,35,0,0,17,0,0,0,0,0,0,0,0,0,0,0,
0,0,0,0,17,0,0,0,0,0,0,0,0,0,0,0,
0,0,0,1,21,0,0,0,0,0,0,0,0,0,0,0,
0,0,0,17,0,0,0,0,0,0,0,0,0,0,0,0,
0,0,0,17,0,0,0,0,0,0,0,0,0,0,0,0,
0,0,0,17,0,0,0,0,0,0,0,0,0,0,0,0,
0,0,0,17,0,0,0,0,0,0,0,0,0,0,0,0,
0,0,0,33,34,34,34,34,34,34,34,5,0,4,34,34,
0,0,0,0,0,0,0,0,1,2,2,21,0,20,2,2,
0,0,0,0,0,0,0,0,17,0,0,0,0,0,0,0,
0,0,0,0,0,0,0,0,17,0,0,0,0,0,0,0,
0,0,0,0,0,0,0,0,17,0,0,0,0,0,0,0,
0,0,0,0,0,0,0,0,17,0,0,0,0,0,0,0
</chunk>
   <chunk x="-80" y="48" width="16" height="16">
0,0,0,0,0,0,0,0,0,0,0,0,19,0,0,0,
0,0,0,0,0,0,0,0,0,0,0,0,19,0,0,0,
0,0,0,0,0,0,0,0,0,0,0,0,19,0,0,0,
0,0,0,0,0,0,0,0,0,0,0,0,19,0,0,0,
0,0,4,5,0,0,0,200,193,210,0,0,19,0,0,0,
0,0,19,33,5,0,4,185,0,0,0,0,19,0,0,0,
0,0,19,0,33,34,35,17,0,0,0,0,19,0,1,2,
0,0,19,0,0,0,0,17,0,0,0,0,20,2,21,0,
0,0,19,0,0,0,0,17,0,0,0,0,0,0,0,0,
0,4,35,0,0,0,0,33,34,5,0,0,0,0,0,0,
34,35,0,0,0,0,0,0,0,17,0,0,0,0,0,0,
3,0,0,0,0,0,0,0,0,17,0,0,0,0,0,0,
19,0,0,0,0,0,0,0,0,33,34,34,34,34,5,0,
19,0,0,0,0,0,0,0,0,0,0,0,0,0,33,34,
19,0,0,0,0,0,0,0,0,0,0,0,0,0,0,0,
19,0,0,0,0,0,0,0,0,0,0,0,0,0,0,0
</chunk>
   <chunk x="-64" y="48" width="16" height="16">
0,0,0,17,0,0,0,19,0,0,0,0,0,0,0,0,
0,0,0,17,0,0,0,19,0,0,0,0,0,0,0,0,
0,0,0,17,0,0,0,19,0,0,0,0,0,0,0,0,
0,0,0,17,0,0,0,19,0,0,0,0,0,0,0,0,
0,0,0,17,0,0,0,19,0,0,0,0,0,0,0,0,
1,2,2,169,5,0,4,35,0,0,1,2,2,2,8,0,
21,0,0,168,21,0,20,3,0,1,21,0,0,0,0,0,
0,0,0,162,0,0,0,20,2,21,0,0,0,0,0,0,
0,0,0,0,0,0,0,0,0,0,0,0,0,0,0,0,
0,0,0,0,0,0,0,0,0,0,0,0,0,0,0,0,
0,0,0,0,0,0,0,0,0,0,0,0,0,0,0,0,
0,0,0,0,0,0,0,0,0,0,0,0,0,0,0,0,
0,0,0,0,0,0,0,491,38,5,0,0,0,0,0,0,
5,0,0,2684354569,0,0,0,0,0,33,5,0,0,0,0,0,
33,34,34,35,0,0,0,0,0,0,33,34,34,34,10,0,
0,0,0,0,0,0,0,0,0,0,0,0,0,0,0,0
</chunk>
   <chunk x="-48" y="48" width="16" height="16">
0,0,0,0,0,0,0,0,0,0,0,0,0,0,0,0,
0,0,0,0,0,2147483837,191,191,191,191,191,191,189,0,0,0,
0,0,0,0,0,0,0,0,0,0,0,0,0,0,0,0,
0,0,0,0,0,0,0,0,0,0,0,0,0,0,0,0,
0,0,0,0,0,0,0,0,0,0,0,0,0,0,0,0,
0,0,0,0,0,0,0,0,0,0,0,0,0,0,0,0,
0,0,0,0,0,0,0,0,0,0,0,0,0,0,0,0,
0,0,0,0,0,0,0,0,0,0,0,0,0,0,0,0,
0,0,0,0,0,0,0,0,0,0,0,0,0,0,0,0,
0,0,0,0,0,0,0,0,0,0,0,0,0,0,0,0,
0,0,0,0,0,0,0,0,0,0,0,0,0,0,0,0,
0,0,0,0,0,0,0,0,0,0,0,0,0,0,0,0,
0,0,0,0,0,0,0,0,0,0,0,0,0,0,0,0,
0,0,0,0,0,0,0,0,0,0,0,0,0,0,0,0,
0,0,0,0,0,0,0,0,0,0,0,0,0,0,0,0,
0,0,0,0,0,0,0,0,0,0,0,0,0,0,0,0
</chunk>
   <chunk x="-32" y="48" width="16" height="16">
0,0,0,0,0,0,0,0,0,0,0,0,0,0,0,0,
0,0,0,0,0,0,0,0,0,0,0,0,0,0,0,0,
0,0,0,0,0,0,0,0,0,0,0,0,0,0,0,0,
0,0,0,0,0,0,0,0,0,0,0,0,0,0,0,0,
0,0,0,0,0,0,0,0,0,0,0,0,0,0,0,0,
0,0,0,0,0,0,0,0,0,0,0,0,0,0,0,0,
0,0,0,0,0,0,0,0,0,0,0,0,0,0,0,0,
0,0,0,0,0,0,0,0,0,0,0,0,0,0,0,0,
0,0,0,0,0,0,0,0,0,0,0,0,0,0,0,2147483836,
0,0,0,0,0,0,0,0,0,0,0,0,0,0,0,220,
0,0,0,0,0,0,0,0,0,0,0,0,0,0,0,0,
0,0,0,0,0,0,0,0,0,0,0,0,0,0,0,0,
0,0,0,0,0,0,0,0,0,0,0,0,0,0,0,0,
0,0,0,0,0,0,0,0,0,0,0,0,0,0,0,0,
0,0,0,0,0,0,0,0,0,0,0,0,0,0,0,0,
0,0,0,0,0,0,0,0,0,0,0,0,0,0,0,0
</chunk>
   <chunk x="-16" y="48" width="16" height="16">
33,1073741832,0,0,0,0,0,0,0,0,0,0,0,0,0,0,
0,0,0,0,0,0,0,0,0,0,0,0,0,0,0,0,
0,0,0,0,0,0,0,0,0,0,0,0,0,0,0,0,
0,0,0,3221225661,205,0,0,0,0,0,0,0,0,0,0,0,
0,0,0,0,1073742012,0,0,0,0,0,0,0,0,0,0,0,
0,0,0,0,0,0,0,0,0,0,0,0,0,0,0,0,
0,0,0,0,0,0,0,0,0,0,0,0,0,0,0,0,
0,0,0,0,0,0,0,0,3221225661,205,0,0,0,0,0,0,
0,0,0,0,0,0,0,0,0,222,223,223,205,0,0,0,
191,192,0,0,0,0,0,0,0,0,0,0,222,205,0,0,
0,220,191,192,0,0,0,0,0,0,0,0,0,222,1073742013,0,
0,0,0,208,0,0,0,0,0,0,0,0,0,0,0,0,
0,0,0,208,0,0,0,0,0,0,0,0,1,2,2,2,
0,0,0,208,0,0,0,0,0,0,0,0,17,0,0,0,
0,0,0,220,191,191,192,0,0,0,0,0,17,0,0,0,
0,0,0,0,0,0,3221225660,0,0,0,0,0,17,0,0,0
</chunk>
   <chunk x="0" y="48" width="16" height="16">
0,0,0,0,0,0,0,0,0,0,0,0,0,0,0,0,
0,0,0,0,0,0,0,0,0,0,0,0,0,0,0,0,
0,0,0,0,0,0,0,0,0,0,0,0,0,0,0,0,
0,0,0,0,0,0,0,0,0,0,0,0,0,0,0,0,
0,0,0,0,0,0,0,0,0,0,0,0,0,0,0,0,
0,0,0,0,0,0,0,0,0,0,0,0,0,0,0,0,
0,0,0,0,0,0,0,0,0,0,0,0,0,0,0,0,
0,0,0,0,0,0,0,0,0,0,0,0,0,0,0,0,
0,0,0,0,0,0,0,0,0,0,0,0,0,0,0,0,
0,0,0,0,0,0,0,0,0,0,0,0,0,0,0,0,
0,0,0,0,0,0,0,0,0,0,0,0,0,0,0,0,
0,0,0,0,0,0,0,0,0,0,0,0,0,0,0,0,
2,8,0,0,0,0,0,0,0,0,0,0,0,0,0,0,
0,0,0,0,0,0,0,0,0,0,0,0,0,0,0,0,
0,0,0,0,0,0,0,0,0,0,0,0,0,0,0,0,
0,0,0,0,0,0,0,0,0,0,0,0,0,0,0,0
</chunk>
   <chunk x="16" y="48" width="16" height="16">
0,0,0,3221225660,0,0,0,0,0,0,0,0,0,0,0,0,
0,0,0,0,0,0,0,0,0,0,0,0,0,0,0,0,
0,0,0,0,0,0,0,0,0,0,0,0,0,0,0,0,
0,0,0,0,0,0,0,0,0,0,0,0,0,0,0,0,
0,0,0,0,0,0,0,0,0,0,0,0,0,0,0,0,
0,0,0,0,0,0,0,0,0,0,0,0,0,0,0,0,
0,0,0,0,0,0,0,0,0,0,0,0,0,0,0,0,
0,0,0,0,0,0,0,0,0,0,0,0,0,0,0,0,
0,0,0,0,0,0,0,0,0,0,0,0,0,0,0,0,
0,0,2147483836,0,0,0,0,0,0,0,0,0,0,0,0,0,
0,0,220,191,192,0,0,0,0,0,0,0,0,0,0,0,
0,0,0,0,208,0,0,0,0,0,0,0,0,0,0,0,
0,0,0,0,208,0,0,0,0,0,0,0,0,0,0,0,
0,0,0,0,3221225660,0,0,0,0,0,0,0,0,0,0,0,
0,0,0,0,0,0,0,0,0,0,0,0,0,0,0,0,
0,0,0,0,0,0,0,0,0,0,0,0,0,0,0,0
</chunk>
   <chunk x="-96" y="64" width="16" height="16">
0,0,0,0,0,0,0,0,17,0,0,0,0,0,0,0,
0,0,0,0,0,0,0,0,33,34,34,34,34,34,34,34,
0,0,0,0,0,0,0,0,0,0,0,0,0,0,0,0,
0,0,0,0,0,0,0,0,0,0,0,0,0,0,0,0,
0,0,0,0,0,0,0,0,0,0,0,0,0,0,0,0,
0,0,0,0,0,0,0,0,0,0,0,0,0,0,0,0,
0,0,0,0,0,0,0,0,0,0,0,0,0,0,0,0,
0,0,0,0,0,0,0,0,0,0,0,0,0,0,0,0,
0,0,0,0,0,0,0,0,0,0,0,0,0,0,0,0,
0,0,0,0,0,0,0,0,0,0,0,0,0,0,0,0,
0,0,0,0,0,0,0,0,0,0,0,0,0,0,0,0,
0,0,0,0,0,0,0,0,0,0,0,0,0,0,0,0,
0,0,0,0,0,0,0,0,0,0,0,0,0,0,0,0,
0,0,0,0,0,0,0,0,0,0,0,0,0,0,0,0,
0,0,0,0,0,0,0,0,0,0,0,0,0,0,0,0,
0,0,0,0,0,0,0,0,0,0,0,0,0,0,0,0
</chunk>
   <chunk x="-80" y="64" width="16" height="16">
19,0,0,0,0,0,0,0,0,0,0,0,0,0,0,0,
35,0,0,0,0,0,0,0,0,0,0,0,0,0,0,0,
0,0,0,0,0,0,0,0,0,0,0,0,0,0,0,0,
0,0,0,0,0,0,0,0,0,0,0,0,0,0,0,0,
0,0,0,0,0,0,0,0,0,0,0,0,0,0,0,0,
0,0,0,0,0,0,0,0,0,0,0,0,0,0,0,0,
0,0,0,0,0,0,0,0,0,0,0,0,0,0,0,0,
0,0,0,0,0,0,0,0,0,0,0,0,0,0,0,0,
0,0,0,0,0,0,0,0,0,0,0,0,0,0,0,0,
0,0,0,0,0,0,0,0,0,0,0,0,0,0,0,0,
0,0,0,0,0,0,0,0,0,0,0,0,0,0,0,0,
0,0,0,0,0,0,0,0,0,0,0,0,0,0,0,0,
0,0,0,0,0,0,0,0,0,0,0,0,0,0,0,0,
0,0,0,0,0,0,0,0,0,0,0,0,0,0,0,0,
0,0,0,0,0,0,0,0,0,0,0,0,0,0,0,0,
0,0,0,0,0,0,0,0,0,0,0,0,0,0,0,0
</chunk>
   <chunk x="-48" y="64" width="16" height="16">
0,0,0,0,0,0,0,0,0,0,0,0,0,0,0,0,
0,0,0,0,0,0,0,0,0,0,0,0,0,0,0,0,
0,0,0,0,0,0,0,0,0,0,0,0,0,0,0,0,
0,0,0,0,0,0,0,0,0,0,0,0,0,0,0,0,
0,0,0,0,0,0,0,0,0,0,0,0,0,0,0,0,
0,0,0,0,0,0,0,0,0,0,0,0,0,0,0,0,
0,0,0,0,0,0,0,0,0,0,0,0,0,0,0,0,
0,0,0,0,0,0,0,0,0,0,0,0,0,0,0,0,
0,0,0,0,0,0,0,0,0,0,0,0,0,0,0,0,
0,0,0,0,0,0,0,0,0,0,0,0,0,0,0,0,
0,0,0,0,0,0,0,0,0,0,0,0,0,0,0,0,
0,0,0,0,0,0,0,0,0,0,0,0,0,0,0,0,
0,0,0,0,0,0,0,0,0,0,0,0,0,0,0,0,
0,0,0,3221225661,205,0,0,0,0,0,0,0,0,0,0,0,
0,0,0,0,0,205,0,0,0,0,0,0,0,0,0,0,
0,0,0,0,0,0,223,1073742013,0,0,0,0,0,0,0,0
</chunk>
   <chunk x="-16" y="64" width="16" height="16">
0,0,0,0,0,0,0,0,0,0,0,0,17,0,0,0,
0,0,0,0,0,0,0,0,0,0,0,9,21,0,0,0,
0,0,0,0,0,0,0,0,0,0,0,0,0,0,0,0,
0,0,0,0,0,0,0,0,0,0,0,0,0,0,0,0,
0,0,0,0,0,0,0,0,0,0,0,0,0,0,0,0,
0,0,0,0,0,0,0,0,0,0,0,0,0,0,0,0,
0,0,0,0,0,0,0,0,0,0,0,0,0,0,0,0,
0,0,0,0,0,0,0,0,0,0,0,0,0,0,0,0,
0,0,0,0,0,0,0,0,0,0,0,0,0,0,0,0,
0,0,0,0,0,0,0,0,0,0,0,0,0,0,0,0,
0,0,0,0,0,0,0,0,0,0,0,0,0,0,0,0,
0,0,0,0,0,0,0,0,0,0,0,0,0,0,0,0,
0,0,0,0,0,0,0,0,0,0,0,0,0,0,0,0,
0,0,0,0,0,0,0,0,0,0,0,0,0,0,0,0,
0,0,0,0,0,0,0,0,0,0,0,0,0,0,0,0,
0,0,0,0,0,0,0,0,0,0,0,0,0,0,0,0
</chunk>
   <chunk x="0" y="64" width="16" height="16">
0,0,0,0,0,0,0,0,0,0,0,0,0,0,0,0,
0,0,0,0,0,0,0,0,0,0,0,0,0,0,0,0,
0,0,0,0,0,0,0,0,0,0,0,0,0,0,0,0,
0,0,0,0,0,0,0,0,0,0,0,0,0,0,0,0,
0,0,0,0,0,0,0,0,0,0,0,0,0,0,0,0,
0,0,0,0,0,0,0,0,0,0,0,0,0,0,0,0,
0,0,0,0,0,0,0,0,0,0,0,0,0,0,0,0,
0,0,0,0,0,0,0,0,0,0,0,0,0,0,0,0,
0,0,0,0,0,0,0,0,0,0,0,0,0,0,0,0,
0,0,0,0,0,0,0,0,0,0,0,0,0,0,204,223,
0,0,0,0,0,0,0,0,0,0,3221225661,223,223,223,224,0,
0,0,0,0,0,0,0,0,0,0,0,0,0,0,0,0,
0,0,0,0,0,0,0,0,0,0,0,0,0,0,0,0,
0,0,0,0,0,0,0,0,0,0,0,0,0,0,0,0,
0,0,0,0,0,0,0,0,0,0,0,0,0,0,0,0,
0,0,0,0,0,0,0,0,0,0,0,0,0,0,0,0
</chunk>
   <chunk x="16" y="64" width="16" height="16">
0,0,0,0,0,2147483836,0,0,0,0,0,0,0,0,0,0,
0,0,0,0,0,208,0,0,0,0,0,0,0,0,0,0,
0,0,0,0,0,208,0,0,0,0,0,0,0,0,0,0,
0,0,0,0,0,3221225660,0,0,0,0,0,0,0,0,0,0,
0,0,0,0,0,0,0,0,0,0,0,0,0,0,0,0,
0,0,0,0,0,0,0,0,0,0,0,0,0,0,0,0,
0,0,0,0,0,0,0,0,0,0,0,0,0,0,0,0,
0,0,0,0,0,0,0,0,0,0,0,0,0,0,0,0,
0,0,0,0,0,0,0,0,0,0,0,0,0,0,0,0,
1073742013,0,0,0,0,0,0,0,0,0,0,0,0,0,0,0,
0,0,0,0,0,0,0,0,0,0,0,0,0,0,0,0,
0,0,0,0,0,0,0,0,0,0,0,0,0,0,0,0,
0,0,0,0,0,0,0,0,0,0,0,0,0,0,0,0,
0,0,0,0,0,0,0,0,0,0,0,0,0,0,0,0,
0,0,0,0,0,0,0,0,0,0,0,0,0,0,0,0,
0,0,0,0,0,0,0,0,0,0,0,0,0,0,0,0
</chunk>
   <chunk x="-32" y="80" width="16" height="16">
0,0,0,0,0,0,0,0,0,0,0,0,0,0,0,0,
0,0,0,0,0,0,0,0,0,0,0,0,0,0,0,0,
0,0,0,0,0,0,0,0,0,0,0,0,0,0,0,0,
0,0,0,0,0,0,0,0,0,0,0,0,0,0,0,0,
0,0,0,0,0,0,0,0,0,0,0,0,0,0,0,0,
0,0,0,0,0,0,0,0,0,0,0,0,0,0,0,0,
0,0,0,0,0,0,0,0,0,0,0,0,0,0,0,0,
0,0,0,0,0,3221225661,223,223,223,223,223,223,223,223,223,1073742013,
0,0,0,0,0,0,0,0,0,0,0,0,0,0,0,0,
0,0,0,0,0,0,0,0,0,0,0,0,0,0,0,0,
0,0,0,0,0,0,0,0,0,0,0,0,0,0,0,0,
0,0,0,0,0,0,0,0,0,0,0,0,0,0,0,0,
0,0,0,0,0,0,0,0,0,0,0,0,0,0,0,0,
0,0,0,0,0,0,0,0,0,0,0,0,0,0,0,0,
0,0,0,0,0,0,0,0,0,0,0,0,0,0,0,0,
0,0,0,0,0,0,0,0,0,0,0,0,0,0,0,0
</chunk>
   <chunk x="-16" y="80" width="16" height="16">
0,0,0,0,0,0,0,0,0,0,0,0,0,0,0,0,
0,0,0,0,0,0,0,0,0,0,0,0,0,0,0,0,
0,0,0,0,0,0,0,0,0,0,0,0,0,0,0,0,
0,0,0,0,0,0,0,0,0,0,0,0,0,0,0,0,
0,0,0,0,0,0,0,0,0,0,0,0,0,0,0,0,
0,0,0,0,0,0,0,0,0,0,0,0,0,0,0,0,
0,0,0,0,0,0,3221225661,223,223,1073742013,0,0,0,0,0,0,
0,0,0,0,0,0,0,0,0,0,0,0,0,0,0,0,
0,0,0,0,0,0,0,0,0,0,0,0,0,0,0,0,
0,0,0,0,0,0,0,0,0,0,0,0,0,0,0,0,
0,0,0,0,0,0,0,0,0,0,0,0,0,0,0,0,
0,0,0,0,0,0,0,0,0,0,0,0,0,0,0,0,
0,0,0,0,0,0,0,0,0,0,0,0,0,0,0,0,
0,0,0,0,0,0,0,0,0,0,0,0,0,0,0,0,
0,0,0,0,0,0,0,0,0,0,0,0,0,0,0,0,
0,0,0,0,0,0,0,0,0,0,0,0,0,0,0,0
</chunk>
   <chunk x="0" y="80" width="16" height="16">
0,0,0,0,204,1073742013,0,0,0,0,0,0,0,0,0,0,
0,0,0,204,224,0,0,0,0,0,0,0,0,0,0,0,
0,0,204,224,0,0,0,0,0,0,0,0,0,0,0,0,
0,204,224,0,0,0,0,0,0,0,0,0,0,0,0,0,
3221225661,224,0,0,0,0,0,0,0,0,0,0,0,0,0,0,
0,0,0,0,0,0,0,0,0,0,0,0,0,0,0,0,
0,0,0,0,0,0,0,0,0,0,0,0,0,0,0,0,
0,0,0,0,0,0,0,0,0,0,0,0,0,0,0,0,
0,0,0,0,0,0,0,0,0,0,0,0,0,0,0,0,
0,0,0,0,0,0,0,0,0,0,0,0,0,0,0,0,
0,0,0,0,0,0,0,0,0,0,0,0,0,0,0,0,
0,0,0,0,0,0,0,0,0,0,0,0,0,0,0,0,
0,0,0,0,0,0,0,0,0,0,0,0,0,0,0,0,
0,0,0,0,0,0,0,0,0,0,0,0,0,0,0,0,
0,0,0,0,0,0,0,0,0,0,0,0,0,0,0,0,
0,0,0,0,0,0,0,0,0,0,0,0,0,0,0,0
</chunk>
  </data>
 </layer>
 <layer id="52" name="SecretWay3" width="32" height="32">
  <data encoding="csv">
   <chunk x="0" y="-32" width="16" height="16">
0,0,0,0,0,0,0,0,0,0,0,0,0,0,0,0,
0,0,0,0,0,0,0,491,491,491,0,0,0,0,0,0,
0,0,0,0,0,491,491,0,0,0,491,491,491,491,0,0,
0,0,0,0,0,0,0,0,0,0,0,0,0,0,0,0,
0,0,0,0,0,0,0,491,491,491,0,0,0,0,0,0,
0,0,0,491,491,491,491,491,491,491,491,491,491,491,491,491,
0,0,0,2684354569,491,491,491,491,491,491,491,491,491,491,491,491,
0,0,0,19,491,491,491,491,491,491,491,491,491,491,491,491,
0,0,0,19,491,491,491,491,491,491,491,491,491,491,491,491,
0,0,0,2684354568,491,491,491,491,491,491,491,491,491,491,491,491,
0,0,0,491,491,491,491,491,491,491,491,491,491,491,491,491,
0,0,0,491,491,491,491,491,491,491,491,491,491,491,491,491,
0,0,0,0,0,0,0,0,0,0,0,0,0,0,0,0,
0,0,0,0,0,0,0,0,0,0,0,0,0,0,0,0,
0,0,0,0,0,0,0,0,0,0,0,0,0,0,0,0,
0,0,0,0,0,0,0,0,0,0,0,0,0,0,0,0
</chunk>
   <chunk x="16" y="-32" width="16" height="16">
0,0,0,0,0,0,0,0,0,0,0,0,0,0,0,0,
0,0,0,0,0,0,0,0,0,0,0,0,0,0,0,0,
0,0,0,0,0,0,0,0,0,0,0,0,0,0,0,0,
0,0,0,0,0,0,0,0,0,0,0,0,0,0,0,0,
0,0,0,0,0,0,0,0,0,0,0,0,0,0,0,0,
491,0,0,0,0,0,0,0,0,0,0,0,0,0,0,0,
3221225479,0,0,0,0,0,0,0,0,0,0,0,0,0,0,0,
17,0,0,0,0,0,0,0,0,0,0,0,0,0,0,0,
17,0,0,0,0,0,0,0,0,0,0,0,0,0,0,0,
2147483655,0,0,0,0,0,0,0,0,0,0,0,0,0,0,0,
491,0,0,0,0,0,0,0,0,0,0,0,0,0,0,0,
491,0,0,0,0,0,0,0,0,0,0,0,0,0,0,0,
0,0,0,0,0,0,0,0,0,0,0,0,0,0,0,0,
0,0,0,0,0,0,0,0,0,0,0,0,0,0,0,0,
0,0,0,0,0,0,0,0,0,0,0,0,0,0,0,0,
0,0,0,0,0,0,0,0,0,0,0,0,0,0,0,0
</chunk>
  </data>
 </layer>
 <layer id="23" name="SecretWay1" width="32" height="32">
  <data encoding="csv">
   <chunk x="0" y="32" width="16" height="16">
0,0,0,0,0,0,0,0,0,0,0,122,0,0,0,0,
0,0,0,0,0,0,0,0,0,0,0,122,0,0,0,0,
0,0,0,0,0,0,0,0,0,0,0,122,0,0,0,0,
0,0,0,0,0,0,0,0,0,0,0,0,0,0,0,0,
0,0,0,0,0,0,0,0,0,0,0,0,0,0,0,0,
0,0,0,0,0,0,0,0,0,0,0,0,0,0,0,0,
0,0,0,0,0,0,0,0,0,0,0,0,0,0,0,0,
0,0,0,0,0,0,0,0,0,0,0,0,0,0,0,0,
0,0,0,0,0,0,0,0,0,0,0,0,0,0,0,0,
0,0,0,0,0,0,0,0,0,0,0,0,0,0,0,0,
0,0,0,0,0,0,0,0,0,0,0,0,0,0,0,0,
0,0,0,0,0,0,0,0,0,0,0,0,0,0,0,0,
0,0,0,0,49,0,0,0,0,0,0,0,0,0,0,0,
0,0,0,0,49,0,0,0,0,0,0,0,0,0,0,0,
0,0,0,0,81,0,0,0,0,0,0,0,0,0,0,0,
0,0,0,0,98,0,0,0,0,0,0,0,0,0,0,0
</chunk>
  </data>
 </layer>
 <layer id="119" name="SecterWay1Roof" width="32" height="32">
  <data encoding="csv">
   <chunk x="0" y="32" width="16" height="16">
0,0,0,0,0,0,0,0,0,0,0,0,0,0,0,0,
0,0,0,0,0,0,0,0,0,0,0,0,0,0,0,0,
0,0,0,0,0,0,0,0,0,0,0,0,0,0,0,0,
0,0,0,0,0,0,0,0,0,0,0,0,0,0,0,0,
0,0,0,0,0,0,0,0,0,0,0,0,0,0,0,0,
0,0,0,0,0,0,0,0,0,0,0,0,0,0,0,0,
0,0,0,0,0,0,0,0,0,0,0,0,0,0,0,0,
0,0,0,0,0,0,0,0,0,0,0,0,0,0,0,0,
0,0,0,0,0,0,0,0,0,0,0,0,0,0,0,0,
0,0,0,0,0,0,0,0,0,0,0,0,0,0,0,0,
0,0,0,491,491,491,0,0,0,0,0,0,0,0,0,0,
0,0,0,2,2,2,0,0,0,0,0,0,0,0,0,0,
0,0,0,0,0,0,0,0,0,0,0,0,0,0,0,0,
0,0,0,0,0,0,0,0,0,0,0,0,0,0,0,0,
0,0,0,0,0,0,0,0,0,0,0,0,0,0,0,0,
0,0,0,0,0,0,0,0,0,0,0,0,0,0,0,0
</chunk>
  </data>
 </layer>
 <layer id="108" name="InvisibleWallsAntifly" width="32" height="32" opacity="0">
  <data encoding="csv">
   <chunk x="16" y="-80" width="16" height="16">
0,0,0,0,0,0,0,0,0,0,0,0,0,0,0,0,
0,0,0,0,0,0,0,0,0,0,0,0,0,0,0,0,
0,0,0,0,0,0,0,0,0,0,0,0,0,0,0,0,
0,0,0,0,0,0,0,0,0,0,0,0,0,0,0,0,
0,0,0,0,0,0,0,0,0,0,0,0,0,0,0,0,
0,0,0,0,0,0,0,0,0,0,0,0,0,0,0,0,
0,0,0,0,0,0,0,0,0,0,0,0,0,0,0,0,
0,0,0,0,0,0,0,0,0,0,0,0,0,0,0,0,
0,0,0,0,0,0,0,0,0,0,0,0,0,0,0,0,
0,0,0,0,0,0,0,0,0,0,0,0,0,0,0,0,
0,0,0,0,0,0,0,0,0,0,0,0,0,0,0,0,
0,0,0,0,0,0,0,0,0,0,0,0,0,0,0,0,
0,0,0,0,0,0,0,0,0,0,0,0,0,0,0,0,
0,0,0,0,0,0,0,0,0,0,0,0,0,0,0,0,
0,0,0,0,0,0,0,0,1727,1727,1727,1727,1727,1727,1727,1727,
0,0,0,0,0,0,0,0,1727,1727,1727,1727,1727,1727,1727,1727
</chunk>
   <chunk x="32" y="-80" width="16" height="16">
0,0,0,0,0,0,0,0,0,0,0,0,0,0,0,0,
0,0,0,0,0,0,0,0,0,0,0,0,0,0,0,0,
0,0,0,0,0,0,0,0,0,0,0,0,0,0,0,0,
0,0,0,0,0,0,0,0,0,0,0,0,0,0,0,0,
0,0,0,0,0,0,0,0,0,0,0,0,0,0,0,0,
0,0,0,0,0,0,0,0,0,0,0,0,0,0,0,0,
0,0,0,0,0,0,0,0,0,0,0,0,0,0,0,0,
0,0,0,0,0,0,0,0,0,0,0,0,0,0,0,0,
0,0,0,0,0,0,0,0,0,0,0,0,0,0,0,0,
0,0,0,0,0,0,0,0,0,0,0,0,0,0,0,0,
0,0,0,0,0,0,0,0,0,0,0,0,0,0,0,0,
0,0,0,0,0,0,0,0,0,0,0,0,0,0,0,0,
0,0,0,0,0,0,0,0,0,0,0,0,0,0,0,0,
0,0,0,0,0,0,0,0,0,0,0,0,0,0,0,0,
1727,1727,1727,1727,1727,1727,1727,0,0,0,0,0,0,0,0,0,
1727,1727,1727,1727,1727,1727,1727,0,0,0,0,0,0,0,0,0
</chunk>
   <chunk x="16" y="-64" width="16" height="16">
0,0,0,0,0,0,0,0,1727,1727,1727,1727,1727,1727,1727,1727,
0,0,0,0,0,0,0,0,1727,1727,1727,1727,1727,1727,1727,1727,
0,0,0,0,0,0,0,0,1727,0,0,0,0,0,0,0,
0,0,0,0,0,0,0,0,1727,0,0,0,0,0,0,0,
0,0,0,0,0,0,0,0,1727,0,0,0,0,0,0,0,
0,0,0,0,0,0,0,0,1727,0,0,0,0,0,0,0,
0,0,0,0,0,0,0,0,1727,0,0,0,1727,1727,1727,1727,
0,0,0,0,0,0,0,0,1727,0,0,0,1727,0,0,0,
0,0,0,0,1727,1727,1727,1727,1727,0,0,0,1727,1727,1727,1727,
0,0,0,0,1727,0,0,0,0,0,0,0,0,0,0,0,
0,0,0,0,1727,0,0,0,0,0,0,0,0,0,0,0,
0,0,0,0,1727,0,0,0,0,0,0,0,0,0,0,0,
0,0,0,0,1727,0,0,0,0,0,0,0,0,0,0,0,
0,0,0,0,1727,0,0,0,0,0,0,0,0,0,0,0,
0,0,0,0,1727,0,0,0,0,0,0,0,0,0,0,0,
0,0,0,0,1727,0,0,0,0,0,0,0,0,0,0,0
</chunk>
   <chunk x="32" y="-64" width="16" height="16">
1727,1727,1727,1727,1727,1727,1727,0,0,0,0,0,0,0,0,0,
1727,1727,1727,1727,1727,1727,1727,0,0,0,0,0,0,0,0,0,
0,0,0,0,0,0,1727,0,0,0,0,0,0,0,0,0,
0,0,0,0,0,0,1727,0,0,0,0,0,0,0,0,0,
0,0,0,0,0,0,1727,0,0,0,0,0,0,0,0,0,
0,0,0,0,0,0,1727,0,0,0,0,0,0,0,0,0,
1727,1727,1727,1727,1727,1727,1727,0,0,0,0,0,0,0,0,0,
0,0,0,0,0,0,0,0,0,0,0,0,0,0,0,0,
1727,0,0,0,0,0,0,0,0,0,0,0,0,0,0,0,
1727,0,0,0,0,0,0,0,0,0,0,0,0,0,0,0,
1727,0,0,0,0,0,0,0,0,0,0,0,0,0,0,0,
1727,0,0,0,0,0,0,0,0,0,0,0,0,0,0,0,
1727,0,0,0,0,0,0,0,0,0,0,0,0,0,0,0,
1727,0,0,0,0,0,0,0,0,0,0,0,0,0,0,0,
1727,0,0,0,0,0,0,0,0,0,0,0,0,0,0,0,
1727,0,0,0,0,0,0,0,0,0,0,0,0,0,0,0
</chunk>
   <chunk x="-80" y="-48" width="16" height="16">
0,0,0,0,0,0,0,0,0,0,0,0,0,0,0,0,
0,0,0,0,0,0,0,0,0,0,0,0,0,0,0,0,
0,0,0,0,0,0,0,0,0,0,0,0,0,0,0,0,
0,0,0,0,0,0,0,0,0,0,0,0,0,0,0,0,
0,0,0,0,0,0,0,0,0,0,0,0,0,0,0,0,
0,0,0,0,0,0,0,0,0,0,0,0,0,0,0,0,
0,0,0,0,0,0,0,0,0,0,0,0,0,0,0,0,
0,0,0,0,0,0,0,0,0,0,0,0,0,0,0,0,
0,0,0,0,0,0,0,0,0,0,0,0,0,0,0,0,
0,0,0,0,0,0,0,0,0,0,0,0,0,0,0,0,
0,0,0,0,0,0,0,0,0,0,0,0,0,0,0,0,
0,0,0,0,0,0,0,0,0,0,0,0,0,0,0,0,
0,0,0,0,0,0,0,0,0,1727,1727,1727,1727,1727,1727,0,
0,0,0,0,1727,1727,1727,1727,1727,1727,0,0,0,0,1727,1727,
0,0,0,1727,1727,0,0,0,0,0,0,0,0,0,0,0,
0,0,1727,1727,0,0,0,0,0,0,0,0,0,0,0,0
</chunk>
   <chunk x="-64" y="-48" width="16" height="16">
0,0,0,0,0,0,0,0,0,0,0,0,0,0,0,0,
0,0,0,0,0,0,0,0,0,0,0,0,0,0,0,0,
0,0,0,0,0,0,0,0,0,0,0,0,0,0,0,0,
0,0,0,0,0,0,0,0,0,0,0,0,0,0,0,0,
0,0,0,0,0,0,0,0,0,0,0,0,0,0,0,0,
0,0,0,0,0,0,0,0,0,0,0,0,0,0,0,0,
0,0,0,0,0,0,0,0,0,0,0,0,0,0,0,0,
0,0,0,0,0,0,0,0,0,0,0,0,0,0,0,1727,
0,0,0,0,0,0,0,0,0,0,0,0,0,1727,1727,1727,
0,0,0,0,0,0,0,0,0,0,1727,1727,1727,1727,0,0,
0,0,0,0,0,0,0,0,1727,1727,1727,0,0,0,0,0,
0,0,0,0,0,0,0,1727,1727,0,0,0,0,0,0,0,
0,0,0,0,0,0,1727,1727,0,0,0,0,0,0,0,0,
1727,1727,1727,1727,1727,1727,1727,0,0,0,0,0,0,0,0,0,
0,0,0,0,0,0,0,0,0,0,0,0,0,0,0,0,
0,0,0,0,0,0,0,0,0,0,0,0,0,0,0,0
</chunk>
   <chunk x="-48" y="-48" width="16" height="16">
0,0,0,0,0,0,0,0,0,0,0,0,0,0,0,0,
0,0,0,0,0,0,0,0,0,0,0,0,0,0,0,0,
0,0,0,0,0,0,0,0,0,0,0,0,0,0,0,0,
0,0,0,0,0,0,0,0,0,0,0,0,0,0,1727,1727,
0,0,0,0,0,0,0,0,1727,1727,1727,1727,1727,1727,1727,0,
0,0,0,0,1727,1727,1727,1727,1727,0,0,0,0,0,0,0,
0,0,1727,1727,1727,0,0,0,0,0,0,0,0,0,0,0,
1727,1727,1727,0,0,0,0,0,0,0,0,0,0,0,0,0,
0,0,0,0,0,0,0,0,0,0,0,0,0,0,0,0,
0,0,0,0,0,0,0,0,0,0,0,0,0,0,0,0,
0,0,0,0,0,0,0,0,0,0,0,0,0,0,0,0,
0,0,0,0,0,0,0,0,0,0,0,0,0,0,0,0,
0,0,0,0,0,0,0,0,0,0,0,0,0,0,0,0,
0,0,0,0,0,0,0,0,0,0,0,0,0,0,0,0,
0,0,0,0,0,0,0,0,0,0,0,0,0,0,0,0,
0,0,0,0,0,0,0,0,0,0,0,0,0,0,0,0
</chunk>
   <chunk x="-32" y="-48" width="16" height="16">
0,0,0,0,0,0,0,0,0,0,0,0,0,0,0,0,
0,0,0,0,0,0,0,0,0,0,0,0,0,0,0,0,
0,0,0,0,0,0,0,0,0,0,0,0,0,0,0,0,
1727,1727,1727,1727,1727,0,0,0,0,0,0,0,0,0,0,0,
0,0,0,0,0,1727,1727,1727,1727,1727,1727,1727,1727,1727,1727,1727,
0,0,0,0,0,0,0,0,0,0,0,0,0,0,0,0,
0,0,0,0,0,0,0,0,0,0,0,0,0,0,0,0,
0,0,0,0,0,0,0,0,0,0,0,0,0,0,0,0,
0,0,0,0,0,0,0,0,0,0,0,0,0,0,0,0,
0,0,0,0,0,0,0,0,0,0,0,0,0,0,0,0,
0,0,0,0,0,0,0,0,0,0,0,0,0,0,0,0,
0,0,0,0,0,0,0,0,0,0,0,0,0,0,0,0,
0,0,0,0,0,0,0,0,0,0,0,0,0,0,0,0,
0,0,0,0,0,0,0,0,0,0,0,0,0,0,0,0,
0,0,0,0,0,0,0,0,0,0,0,0,0,0,0,0,
0,0,0,0,0,0,0,0,0,0,0,0,0,0,0,0
</chunk>
   <chunk x="-16" y="-48" width="16" height="16">
0,0,0,0,0,0,0,0,0,0,0,0,0,0,0,0,
0,0,0,0,0,0,0,0,0,0,0,0,0,0,0,0,
0,0,0,0,0,0,0,0,0,0,0,0,0,0,0,0,
0,0,0,0,0,0,0,0,0,0,0,0,0,0,0,0,
1727,0,0,0,0,0,0,0,0,0,0,0,0,0,0,0,
1727,1727,1727,0,0,0,0,0,0,0,0,0,0,0,0,0,
0,0,0,1727,1727,1727,0,0,0,0,0,0,0,0,0,0,
0,0,0,0,0,1727,1727,1727,1727,0,0,0,0,0,0,0,
0,0,0,0,0,0,0,0,0,1727,1727,1727,1727,0,0,0,
0,0,0,0,0,0,0,0,0,0,0,0,1727,1727,1727,0,
0,0,0,0,0,0,0,0,0,0,0,0,0,0,1727,1727,
0,0,0,0,0,0,0,0,0,0,0,0,0,0,0,0,
0,0,0,0,0,0,0,0,0,0,0,0,0,0,0,0,
0,0,0,0,0,0,0,0,0,0,0,0,0,0,0,0,
0,0,0,0,0,0,0,0,0,0,0,0,0,0,0,0,
0,0,0,0,0,0,0,0,0,0,0,1727,1727,1727,1727,1727
</chunk>
   <chunk x="0" y="-48" width="16" height="16">
0,0,0,0,0,0,0,0,0,0,0,0,0,0,0,0,
0,0,0,0,0,0,0,0,0,0,0,0,0,0,0,0,
0,0,0,0,0,0,0,0,0,0,0,0,0,0,0,0,
0,0,0,0,0,0,0,0,0,0,0,0,0,0,0,0,
0,0,0,0,0,0,0,0,0,0,0,0,0,0,0,0,
0,0,0,0,0,0,0,0,0,0,0,0,0,0,0,0,
0,0,0,0,0,0,0,0,0,0,0,0,0,0,0,0,
0,0,0,0,0,0,0,0,0,0,0,0,0,0,0,0,
0,0,0,0,0,0,0,0,0,0,0,0,0,0,0,0,
0,0,0,0,0,0,0,0,0,0,0,0,0,0,0,0,
1727,1727,0,0,0,0,0,0,0,0,0,0,0,0,0,0,
0,1727,0,0,0,0,0,0,0,0,0,0,0,0,0,0,
0,1727,1727,0,0,0,0,0,0,0,0,0,0,0,0,0,
0,0,1727,0,0,0,0,0,0,0,0,0,0,0,0,0,
0,0,1727,0,0,0,0,0,0,0,0,0,0,0,0,0,
0,0,0,1727,0,0,0,0,0,0,0,0,0,0,0,0
</chunk>
   <chunk x="16" y="-48" width="16" height="16">
0,0,0,1727,0,0,0,0,0,0,0,0,0,0,0,0,
0,0,0,1727,0,0,0,0,0,0,0,0,0,0,0,0,
0,0,0,1727,0,0,0,0,0,0,0,0,0,0,0,0,
0,0,0,1727,0,0,0,0,0,0,0,0,0,0,0,0,
0,0,1727,1727,0,0,0,0,0,0,0,0,0,0,0,0,
0,0,1727,0,0,0,0,0,0,0,0,0,0,0,0,0,
0,0,1727,0,0,0,0,0,0,0,0,0,0,0,0,0,
0,0,1727,0,0,0,0,0,0,0,0,0,0,0,0,0,
0,0,1727,0,0,0,0,0,0,0,0,0,0,0,0,0,
0,0,1727,0,0,0,0,0,0,0,0,0,0,0,0,0,
0,0,1727,0,0,0,0,0,0,0,0,0,0,0,0,0,
0,1727,1727,0,0,0,0,0,0,0,0,0,0,0,0,0,
0,1727,0,0,0,0,0,0,0,0,0,0,0,0,0,0,
0,1727,0,0,0,0,0,0,0,0,0,0,0,0,0,0,
0,1727,0,0,0,0,0,0,0,0,0,0,0,0,0,0,
0,1727,0,0,0,0,0,0,0,0,0,0,0,0,0,0
</chunk>
   <chunk x="32" y="-48" width="16" height="16">
1727,0,0,0,0,0,0,0,0,0,0,0,0,0,0,0,
1727,0,0,0,0,0,0,0,0,0,0,0,0,0,0,0,
1727,0,0,0,0,0,0,0,0,0,0,0,0,0,0,0,
1727,0,0,0,0,0,0,0,0,0,0,0,0,0,0,0,
1727,0,0,0,0,0,0,0,0,0,0,0,0,0,0,0,
1727,0,0,0,0,0,0,0,0,0,0,0,0,0,0,0,
1727,0,0,0,0,0,0,0,0,0,0,0,0,0,0,0,
1727,0,0,0,0,0,0,0,0,0,0,0,0,0,0,0,
1727,0,0,0,0,0,0,0,0,0,0,0,0,0,0,0,
1727,0,0,0,0,0,0,0,0,0,0,0,0,0,0,0,
1727,0,0,0,0,0,0,0,0,0,0,0,0,0,0,0,
1727,1727,0,0,0,0,0,0,0,0,0,0,0,0,0,0,
0,1727,0,0,0,0,0,0,0,0,0,0,0,0,0,0,
0,1727,0,0,0,0,0,0,0,0,0,0,0,0,0,0,
0,1727,0,0,0,0,0,0,0,0,0,0,0,0,0,0,
0,1727,0,0,0,0,0,0,0,0,0,0,0,0,0,0
</chunk>
   <chunk x="-96" y="-32" width="16" height="16">
0,0,0,0,0,0,0,0,0,0,0,0,0,0,0,0,
0,0,0,0,0,0,0,0,0,0,0,0,0,0,0,0,
0,0,0,0,0,0,0,0,0,0,0,0,0,0,0,1727,
0,0,0,0,0,0,0,0,0,0,0,0,0,0,1727,1727,
0,0,0,0,0,0,0,0,0,0,0,0,0,1727,1727,0,
0,0,0,0,0,0,0,0,0,0,0,0,0,1727,0,0,
0,0,0,0,0,0,0,0,0,0,0,0,0,1727,0,0,
0,0,0,0,0,0,0,0,0,0,0,0,1727,1727,0,0,
0,0,0,0,0,0,0,0,0,0,0,0,1727,0,0,0,
0,0,0,0,0,0,0,0,0,0,0,0,1727,0,0,0,
0,0,0,0,0,0,0,0,0,0,0,0,1727,0,0,0,
0,0,0,0,0,0,0,0,0,0,0,0,1727,0,0,0,
0,0,0,0,0,0,0,0,0,0,0,0,1727,0,0,0,
0,0,0,0,0,0,0,0,0,0,0,0,1727,0,0,0,
0,0,0,0,0,0,0,0,0,0,0,0,0,1727,0,0,
0,0,0,0,0,0,0,0,0,0,0,0,0,1727,0,0
</chunk>
   <chunk x="-80" y="-32" width="16" height="16">
0,1727,1727,0,0,0,0,0,0,0,0,0,0,0,0,0,
1727,1727,0,0,0,0,0,0,0,0,0,0,0,0,0,0,
1727,0,0,0,0,0,0,0,0,0,0,0,0,0,0,0,
0,0,0,0,0,0,1727,1727,1727,0,0,0,0,0,0,0,
0,0,0,0,0,0,1727,1727,1727,1727,0,0,0,0,0,0,
0,0,0,0,0,0,1727,1727,1727,1727,0,0,0,0,0,0,
0,0,0,0,0,0,1727,1727,1727,1727,0,0,0,0,0,0,
0,0,0,0,0,0,0,0,1727,1727,0,0,0,0,0,0,
0,0,0,0,0,0,0,0,0,0,0,0,0,0,0,0,
0,0,0,0,0,0,0,0,0,0,0,0,0,0,0,0,
0,0,0,0,0,0,0,0,0,0,0,0,0,0,0,0,
0,0,0,0,0,0,0,0,0,0,0,0,0,0,0,0,
0,0,0,0,0,0,0,0,0,0,0,0,0,0,0,0,
0,0,0,0,0,0,0,0,0,0,0,0,0,0,0,0,
0,0,0,0,0,0,0,0,0,0,0,0,0,0,0,0,
0,0,0,0,0,0,0,0,0,0,0,0,0,0,0,0
</chunk>
   <chunk x="-16" y="-32" width="16" height="16">
0,0,0,0,0,0,0,0,0,0,0,1727,1727,1727,1727,1727,
0,0,0,0,0,0,0,0,0,0,0,1727,1727,0,1727,1727,
0,0,0,0,0,0,0,0,0,0,0,1727,1727,0,1727,1727,
0,0,0,0,0,0,0,0,0,0,0,1727,1727,1727,1727,1727,
0,0,0,0,0,0,0,0,0,0,0,0,0,0,0,0,
0,0,0,0,0,0,0,0,0,0,0,0,0,0,0,0,
0,0,0,0,0,0,0,0,0,0,0,0,0,0,0,0,
0,0,0,0,0,0,0,0,0,0,0,0,0,0,0,0,
0,0,0,0,0,0,0,0,0,0,0,0,0,0,0,0,
0,0,0,0,0,0,0,0,0,0,0,0,0,0,0,0,
0,0,0,0,0,0,0,0,0,0,0,0,0,0,0,0,
0,0,0,0,0,0,0,0,0,0,0,0,0,0,0,0,
0,0,0,0,0,0,0,0,0,0,0,0,0,0,0,0,
0,0,0,0,0,0,0,0,0,0,0,0,0,0,0,0,
0,0,0,0,0,0,0,0,0,0,0,0,0,0,0,0,
0,0,0,0,0,0,0,0,0,0,0,0,0,0,0,0
</chunk>
   <chunk x="0" y="-32" width="16" height="16">
0,0,0,1727,0,0,0,0,0,0,0,0,0,0,0,0,
0,0,0,1727,0,0,0,0,0,0,0,0,0,0,0,0,
0,0,0,1727,0,0,0,0,0,0,0,0,0,0,0,0,
0,0,0,1727,0,0,0,1727,1727,1727,0,0,0,0,0,0,
0,0,0,1727,1727,1727,1727,0,0,0,1727,1727,1727,1727,1727,1727,
0,0,0,0,0,0,0,0,0,0,0,0,0,0,0,0,
0,0,0,0,0,0,0,0,0,0,0,0,0,0,0,0,
0,0,0,0,0,0,0,0,0,0,0,0,0,0,0,0,
0,0,0,0,0,0,0,0,0,0,0,0,0,0,0,0,
0,0,0,0,0,0,0,0,0,0,0,0,0,0,0,0,
0,0,0,0,0,0,0,0,0,0,0,0,0,0,0,0,
0,0,0,1727,0,0,0,0,0,0,0,0,0,0,0,0,
0,0,0,1727,1727,1727,1727,1727,1727,1727,1727,1727,1727,1727,1727,1727,
0,0,0,1727,0,0,0,0,0,0,0,0,0,0,0,0,
0,0,0,1727,0,0,0,0,0,0,0,0,0,0,0,0,
0,0,1727,0,0,0,0,0,0,0,0,0,0,0,0,0
</chunk>
   <chunk x="16" y="-32" width="16" height="16">
1727,1727,0,0,0,0,0,0,0,0,0,0,0,0,0,0,
1727,0,0,0,0,0,0,0,0,0,0,0,0,0,0,0,
1727,0,0,0,0,0,0,0,0,0,0,0,0,0,0,0,
1727,0,0,0,0,0,0,0,0,0,0,0,0,0,0,0,
1727,0,0,0,0,0,0,0,0,0,0,0,0,0,0,0,
0,0,0,0,0,0,0,0,0,0,0,0,0,0,0,0,
0,0,0,0,0,0,0,0,0,0,0,0,0,0,0,0,
0,0,0,0,0,0,0,0,0,0,0,0,0,0,0,0,
0,0,0,0,0,0,0,0,0,0,0,0,0,0,0,0,
0,0,0,0,0,0,0,0,0,0,0,0,0,0,0,0,
0,0,0,0,0,0,0,0,0,0,0,0,0,0,0,0,
1727,0,0,0,0,0,0,0,0,0,0,0,0,0,0,0,
1727,0,0,0,0,0,0,0,0,0,0,0,0,0,0,0,
1727,0,0,0,0,0,0,0,0,0,0,0,0,0,0,0,
1727,0,0,0,0,0,0,0,0,0,0,0,0,0,0,0,
1727,1727,0,0,0,0,0,0,0,0,0,0,0,0,0,1727
</chunk>
   <chunk x="32" y="-32" width="16" height="16">
0,1727,0,0,0,0,0,0,0,0,0,0,0,0,0,0,
0,1727,0,0,0,0,0,0,0,0,0,0,0,0,0,0,
0,1727,0,0,0,0,0,0,0,0,0,0,0,0,0,0,
0,1727,0,0,0,0,0,0,0,0,0,0,0,0,0,0,
0,1727,0,0,0,0,0,0,0,0,0,0,0,0,0,0,
0,1727,0,0,0,0,0,0,0,0,0,0,0,0,0,0,
0,1727,0,0,0,0,0,0,0,0,0,0,0,0,0,0,
0,1727,0,0,0,0,0,0,0,0,0,0,0,0,0,0,
0,1727,0,0,0,0,0,0,0,0,0,0,0,0,0,0,
0,1727,0,0,0,0,0,0,0,0,0,0,0,0,0,0,
0,1727,0,0,0,0,0,0,0,0,0,0,0,0,0,0,
0,1727,0,0,0,0,0,0,0,0,0,0,0,0,0,0,
0,1727,0,0,0,0,0,0,0,0,0,0,0,0,0,0,
1727,1727,0,0,0,0,0,0,0,0,0,0,0,0,0,0,
1727,0,0,0,0,0,0,0,0,0,0,0,0,0,0,0,
1727,0,0,0,0,0,0,0,0,0,0,0,0,0,0,0
</chunk>
   <chunk x="-96" y="-16" width="16" height="16">
0,0,0,0,0,0,0,0,0,0,0,0,0,1727,1727,0,
0,0,0,0,0,0,0,0,0,0,0,0,0,0,1727,1727,
0,0,0,0,0,0,0,0,0,0,0,0,0,0,0,1727,
0,0,0,0,0,0,0,0,0,0,0,0,0,0,0,0,
0,0,0,0,0,0,0,0,0,0,0,0,0,0,0,0,
0,0,0,0,0,0,0,0,0,0,0,0,0,0,0,0,
0,0,0,0,0,0,0,0,0,0,0,0,0,0,0,0,
0,0,0,0,0,0,0,0,0,0,0,0,0,0,0,0,
0,0,0,0,0,0,0,0,0,0,0,0,0,0,0,0,
0,0,0,0,0,0,0,0,0,0,0,0,0,0,0,0,
0,0,0,0,0,0,0,0,0,0,0,0,0,0,0,0,
0,0,0,0,0,0,0,0,0,0,0,0,0,0,0,0,
0,0,0,0,0,0,0,0,0,0,0,0,0,0,0,0,
0,0,0,0,0,0,0,0,0,0,0,0,0,0,0,0,
0,0,0,0,0,0,0,0,0,0,0,0,0,0,0,0,
0,0,0,0,0,0,0,0,0,0,0,0,0,0,0,0
</chunk>
   <chunk x="-80" y="-16" width="16" height="16">
0,0,0,0,0,0,0,0,0,0,0,0,0,0,0,0,
0,0,0,0,0,0,0,0,0,0,0,0,0,0,0,0,
1727,0,0,0,0,0,0,0,0,0,0,0,0,0,0,0,
1727,1727,0,0,0,0,0,0,0,0,0,0,0,0,0,0,
0,1727,1727,1727,0,0,0,0,0,0,0,0,0,0,0,0,
0,0,0,1727,0,0,0,0,0,0,0,0,0,0,0,0,
0,0,0,1727,0,0,0,0,0,0,0,0,0,0,0,0,
0,0,0,1727,0,0,0,0,0,0,0,0,0,0,0,0,
0,0,0,1727,0,0,0,0,0,0,0,0,0,0,0,0,
0,0,0,1727,1727,0,0,0,0,0,0,0,0,0,0,0,
0,0,0,0,1727,0,0,0,0,0,0,0,0,0,0,0,
0,0,0,0,1727,0,0,0,0,0,0,0,0,0,0,0,
0,0,0,0,1727,0,0,0,0,0,0,0,0,0,0,0,
0,0,0,0,1727,1727,0,0,0,0,0,0,0,0,0,0,
0,0,0,0,0,1727,0,0,0,0,0,0,0,0,0,0,
0,0,0,0,0,1727,0,0,0,0,0,0,0,0,0,0
</chunk>
   <chunk x="-48" y="-16" width="16" height="16">
0,0,0,0,0,0,0,0,0,0,0,0,0,0,0,0,
0,0,0,0,0,0,0,0,0,0,0,0,0,0,0,0,
0,0,0,0,0,0,0,0,0,0,0,0,0,0,0,0,
0,0,0,0,0,0,0,0,0,0,0,0,0,1727,1727,1727,
0,0,0,0,0,0,0,0,0,0,0,0,1727,1727,0,0,
0,0,0,0,0,0,0,0,0,0,0,1727,0,0,0,0,
0,0,0,0,0,0,0,0,0,0,1727,0,0,0,0,0,
0,0,0,0,0,0,0,0,0,0,1727,0,0,0,0,0,
0,0,0,0,0,0,0,0,0,1727,0,0,0,0,0,0,
0,0,0,0,0,0,0,0,0,1727,0,0,0,0,0,0,
0,0,0,0,0,0,0,0,0,1727,0,0,0,0,0,0,
0,0,0,0,0,0,0,0,0,1727,0,0,0,0,0,0,
0,0,0,0,0,0,0,0,0,1727,0,0,0,0,0,0,
0,0,0,0,0,0,0,0,1727,1727,0,0,0,0,0,0,
0,0,0,0,0,0,0,0,1727,0,0,0,0,0,0,0,
0,0,0,0,0,0,0,1727,1727,0,0,0,0,0,0,0
</chunk>
   <chunk x="-32" y="-16" width="16" height="16">
0,0,0,0,0,0,0,0,0,0,0,0,0,0,0,0,
0,0,0,0,0,0,0,0,0,0,0,0,0,0,0,0,
0,0,0,0,0,0,1727,1727,1727,1727,1727,1727,1727,1727,1727,1727,
1727,1727,1727,1727,1727,1727,1727,0,0,0,0,0,0,0,0,0,
0,0,0,0,0,0,0,0,0,0,0,0,0,0,0,0,
0,0,0,0,0,0,0,0,0,0,0,0,0,0,0,0,
0,0,0,0,0,0,0,0,0,0,0,0,0,0,0,0,
0,0,0,0,0,0,0,0,0,0,0,0,0,0,0,0,
0,0,0,0,0,0,0,0,0,0,0,0,0,0,0,0,
0,0,0,0,0,0,0,0,0,0,0,0,0,0,0,0,
0,0,0,0,0,0,0,0,0,0,0,0,0,1727,1727,1727,
0,0,0,0,0,0,0,0,0,0,0,0,0,1727,1727,1727,
0,0,0,0,0,0,0,0,0,0,0,0,0,1727,1727,1727,
0,0,0,0,0,0,0,0,0,0,0,0,0,1727,1727,1727,
0,0,0,0,0,0,0,0,0,0,0,0,0,1727,0,0,
0,0,0,0,0,1727,1727,1727,1727,1727,1727,1727,1727,1727,0,0
</chunk>
   <chunk x="-16" y="-16" width="16" height="16">
0,0,0,0,0,0,0,0,0,0,0,0,0,0,0,0,
0,0,0,0,0,0,0,0,0,0,0,0,0,0,0,0,
0,0,0,0,0,0,0,0,0,0,0,0,0,0,0,1727,
1727,1727,1727,1727,1727,1727,1727,1727,1727,1727,1727,1727,1727,1727,1727,1727,
0,0,0,0,0,0,0,0,0,0,0,0,0,0,0,0,
0,0,0,0,0,0,0,0,0,0,0,0,0,0,0,0,
0,0,0,0,0,0,0,0,0,0,0,0,0,0,0,0,
0,0,0,0,0,0,0,0,0,0,0,0,0,0,0,0,
0,0,0,0,0,0,0,0,0,0,0,0,0,0,0,0,
0,0,0,0,0,0,0,0,0,0,0,0,0,0,0,0,
1727,1727,1727,1727,1727,1727,1727,1727,1727,1727,1727,1727,1727,1727,1727,0,
1727,1727,1727,1727,1727,1727,1727,1727,1727,1727,1727,1727,1727,1727,1727,0,
1727,1727,1727,1727,1727,1727,1727,1727,1727,1727,1727,1727,1727,1727,1727,0,
1727,1727,1727,1727,1727,1727,1727,1727,1727,1727,1727,1727,1727,1727,1727,0,
0,0,1727,1727,0,0,0,0,1727,1727,0,0,0,0,1727,0,
0,0,1727,1727,0,0,0,0,1727,1727,0,0,0,0,1727,0
</chunk>
   <chunk x="0" y="-16" width="16" height="16">
0,1727,1727,0,0,0,0,0,0,0,0,0,0,0,0,0,
1727,1727,0,0,0,0,0,0,0,0,0,0,0,0,0,0,
0,0,0,0,0,0,0,0,0,0,0,0,0,0,0,0,
0,0,0,0,0,0,0,0,0,0,0,0,0,0,0,0,
0,0,0,0,0,0,0,0,0,0,0,0,0,0,0,0,
0,0,0,0,0,0,0,0,0,0,0,0,0,0,0,0,
0,0,0,0,0,0,0,0,0,0,0,0,0,0,0,0,
0,0,0,0,0,0,0,0,0,0,0,0,0,0,0,0,
0,0,0,0,0,0,0,0,0,0,0,0,0,0,0,0,
0,0,0,0,0,0,0,0,0,0,0,0,0,0,0,0,
0,0,0,0,0,0,0,0,0,0,0,0,0,0,0,0,
0,0,0,0,0,0,0,0,0,0,0,0,0,0,0,0,
0,0,0,0,0,0,0,0,0,0,0,0,0,0,0,0,
0,0,0,0,0,0,0,0,0,0,0,0,0,0,0,0,
0,0,0,0,0,0,0,0,0,0,0,0,0,0,0,0,
0,0,0,0,0,0,0,0,0,0,0,0,0,0,0,0
</chunk>
   <chunk x="16" y="-16" width="16" height="16">
0,1727,1727,0,0,0,0,0,0,0,0,0,0,0,0,1727,
0,0,1727,1727,1727,0,0,0,0,0,0,0,0,1727,1727,0,
0,0,0,0,1727,1727,1727,1727,1727,1727,1727,1727,1727,1727,0,0,
0,0,0,0,0,0,0,0,0,0,0,0,0,0,0,0,
0,0,0,0,0,0,0,0,0,0,0,0,0,0,0,0,
0,0,0,0,0,0,0,0,0,0,0,0,0,0,0,0,
0,0,0,0,0,0,0,0,0,0,0,0,0,0,0,0,
0,0,0,0,0,0,0,0,0,0,0,0,0,0,0,0,
0,0,0,0,0,0,0,0,0,0,0,0,0,0,0,0,
0,0,0,0,0,0,0,0,0,0,0,0,0,0,0,0,
0,0,0,0,0,0,0,0,0,0,0,0,0,0,0,0,
0,0,0,0,0,0,0,0,0,0,0,0,0,0,0,0,
0,0,0,0,0,0,0,0,0,0,0,0,0,0,0,0,
0,0,0,0,0,0,0,0,0,0,0,0,0,0,0,0,
0,0,0,0,0,0,0,0,0,0,0,0,0,0,0,0,
0,0,0,0,0,0,0,0,0,0,0,0,0,0,0,0
</chunk>
   <chunk x="-112" y="0" width="16" height="16">
0,0,0,0,0,0,0,0,0,0,0,0,0,0,0,0,
0,0,0,0,0,0,0,0,0,0,0,0,0,0,0,0,
0,0,0,0,0,0,0,0,0,0,0,0,0,0,0,0,
0,0,0,0,0,0,0,0,0,0,0,0,0,0,0,0,
0,0,0,0,0,0,0,0,0,0,0,0,0,0,0,0,
0,0,0,0,0,0,0,0,0,0,0,0,0,0,0,0,
0,0,0,0,0,0,0,0,0,0,0,0,0,0,1727,1727,
0,0,0,0,0,0,0,0,0,0,0,0,1727,1727,0,0,
0,0,0,0,0,0,0,0,0,0,0,1727,0,0,0,0,
0,0,0,0,0,0,0,0,0,0,0,1727,0,0,0,0,
0,0,0,0,0,0,0,0,0,0,1727,0,0,0,0,0,
0,0,0,0,0,0,0,0,0,0,1727,0,0,0,0,0,
0,0,0,0,0,0,0,0,0,0,1727,0,0,0,0,0,
0,0,0,0,0,0,0,0,0,0,1727,0,0,0,0,0,
0,0,0,0,0,0,0,0,0,1727,0,0,0,0,0,0,
0,0,0,0,0,0,0,0,0,1727,0,0,0,0,0,0
</chunk>
   <chunk x="-96" y="0" width="16" height="16">
0,0,0,0,0,0,0,0,0,0,0,0,0,0,0,0,
0,0,0,0,0,0,0,0,0,0,0,0,0,0,0,0,
0,0,0,0,0,0,0,0,0,0,0,0,0,0,0,0,
0,0,0,0,0,0,0,0,0,0,0,0,0,0,0,0,
0,0,0,0,0,0,0,0,0,0,0,0,0,0,0,0,
0,0,0,1727,1727,1727,1727,1727,1727,1727,1727,1727,1727,1727,1727,1727,
1727,1727,1727,0,0,0,0,0,0,0,0,0,0,0,0,0,
0,0,0,0,0,0,0,0,0,0,0,0,0,0,0,0,
0,0,0,0,0,0,0,0,0,0,0,0,0,0,0,0,
0,0,0,0,0,0,0,0,0,0,0,0,0,0,0,0,
0,0,0,0,0,0,0,0,0,0,0,0,0,0,0,0,
0,0,0,0,0,0,0,0,0,0,0,0,0,0,0,0,
0,0,0,0,0,0,0,0,0,0,0,0,0,0,0,0,
0,0,0,0,0,0,0,0,0,0,0,0,0,0,0,0,
0,0,0,0,0,0,0,0,0,0,0,0,0,0,0,0,
0,0,0,0,0,0,0,0,0,0,0,0,0,0,0,0
</chunk>
   <chunk x="-80" y="0" width="16" height="16">
0,0,0,0,0,0,1727,0,0,0,0,0,0,0,0,0,
0,0,0,0,0,0,1727,0,0,0,0,0,0,0,0,0,
0,0,0,0,0,0,1727,0,0,0,0,0,0,0,0,0,
0,0,0,0,0,0,1727,0,0,0,0,0,0,0,0,0,
0,0,0,0,0,0,1727,0,0,0,0,0,0,0,0,0,
0,0,0,0,0,0,0,1727,0,0,0,0,0,0,0,0,
1727,1727,0,0,0,0,0,1727,0,0,0,0,0,0,0,0,
0,0,1727,0,0,0,0,1727,0,0,0,0,0,0,0,0,
0,0,1727,0,0,0,0,1727,0,0,0,0,0,0,0,0,
0,0,0,1727,0,0,0,1727,1727,0,0,0,0,0,0,0,
0,0,0,1727,0,0,0,0,1727,0,0,0,0,0,0,0,
0,0,0,1727,0,0,0,0,1727,1727,0,0,0,0,0,0,
0,0,0,1727,0,0,0,0,0,1727,1727,0,0,0,0,0,
0,0,0,1727,0,0,0,0,0,0,1727,1727,0,0,0,0,
0,0,0,1727,0,0,0,0,0,0,0,1727,1727,1727,1727,1727,
0,0,0,1727,0,0,0,0,1727,1727,1727,1727,1727,1727,1727,1727
</chunk>
   <chunk x="-64" y="0" width="16" height="16">
0,0,0,0,0,0,0,0,0,0,0,0,0,0,0,0,
0,0,0,0,0,0,0,0,0,0,0,0,0,0,0,0,
0,0,0,0,0,0,0,0,0,0,0,0,0,0,0,0,
0,0,0,0,0,0,0,0,0,0,0,0,0,0,0,0,
0,0,0,0,0,0,0,0,0,0,0,0,0,0,0,0,
0,0,0,0,0,0,0,0,0,0,0,0,0,0,0,0,
0,0,0,0,0,0,0,0,0,0,0,0,0,0,0,0,
0,0,0,0,0,0,0,0,0,0,0,0,0,0,0,0,
0,0,0,0,0,0,0,0,0,0,0,0,0,0,0,0,
0,0,0,0,0,0,0,0,0,0,0,0,0,0,0,0,
0,0,0,0,0,0,0,0,0,0,0,0,0,0,0,0,
0,0,0,0,0,0,0,0,0,0,0,0,0,0,0,0,
0,0,0,0,0,0,0,0,0,0,0,0,0,0,0,0,
0,0,0,0,0,0,0,0,0,1727,0,0,1727,0,0,0,
1727,1727,1727,1727,1727,1727,1727,1727,1727,1727,0,0,1727,1727,0,0,
1727,1727,1727,1727,1727,1727,1727,1727,1727,1727,0,0,1727,1727,0,0
</chunk>
   <chunk x="-48" y="0" width="16" height="16">
0,0,0,0,0,0,0,1727,0,0,0,0,0,0,0,0,
0,0,0,0,0,0,1727,0,0,0,0,0,0,0,0,0,
0,0,0,0,0,0,1727,0,0,0,0,0,0,0,0,0,
0,0,0,0,0,0,1727,0,0,0,0,0,0,0,0,1727,
0,0,0,0,0,0,1727,0,0,0,0,0,0,0,0,1727,
0,0,0,0,0,0,1727,0,0,0,0,0,0,0,0,1727,
0,0,0,0,0,0,1727,0,0,0,0,0,0,0,0,1727,
0,0,0,0,0,0,1727,1727,0,0,0,0,0,0,0,1727,
0,0,0,0,0,0,0,1727,0,0,0,0,0,0,0,1727,
0,0,0,0,0,0,0,1727,0,0,0,0,0,0,0,0,
0,0,0,0,0,0,0,1727,0,0,0,0,0,0,0,0,
0,0,0,0,0,0,0,1727,0,0,0,0,0,0,0,0,
0,0,0,0,0,0,0,1727,0,0,0,0,0,0,0,0,
0,0,0,0,0,0,1727,0,0,0,0,0,0,0,0,0,
0,0,0,0,0,0,1727,0,0,0,0,0,0,0,0,0,
0,0,0,0,0,1727,1727,0,0,0,0,0,0,0,0,0
</chunk>
   <chunk x="-32" y="0" width="16" height="16">
0,0,0,0,0,1727,1727,1727,1727,1727,1727,1727,1727,1727,0,0,
0,1727,1727,0,0,1727,1727,1727,1727,1727,1727,1727,1727,1727,0,0,
1727,0,0,1727,0,1727,1727,1727,1727,1727,1727,1727,1727,1727,1727,0,
1727,0,0,1727,1727,1727,0,0,0,0,0,0,1727,1727,1727,0,
1727,0,0,1727,1727,1727,0,0,0,0,0,0,1727,1727,1727,0,
1727,0,0,1727,1727,1727,0,0,0,0,0,0,1727,1727,1727,0,
1727,0,0,1727,1727,1727,0,0,0,0,0,0,1727,1727,1727,0,
0,0,0,0,0,0,0,0,0,0,0,0,0,0,0,0,
1727,1727,1727,1727,1727,1727,1727,1727,0,0,1727,1727,1727,0,0,0,
0,0,0,0,0,0,0,1727,0,0,1727,0,1727,1727,1727,0,
0,0,0,0,0,0,0,1727,0,0,1727,0,0,1727,1727,0,
0,0,0,0,0,0,0,1727,0,0,1727,0,0,1727,1727,0,
0,0,0,0,0,0,0,1727,0,0,1727,0,0,1727,1727,0,
0,0,0,0,0,0,0,1727,0,0,1727,0,0,1727,1727,0,
0,0,0,0,0,0,0,1727,0,0,1727,0,0,1727,0,0,
0,0,0,0,0,0,0,1727,0,0,1727,0,0,1727,0,0
</chunk>
   <chunk x="-16" y="0" width="16" height="16">
0,0,1727,1727,0,0,0,0,1727,1727,0,0,0,0,1727,0,
0,0,1727,1727,0,0,0,0,1727,1727,0,0,0,0,1727,0,
0,1727,1727,1727,1727,0,0,1727,1727,1727,1727,0,0,1727,1727,0,
0,1727,1727,1727,1727,0,0,1727,1727,1727,1727,0,0,1727,1727,0,
0,1727,1727,1727,1727,0,0,1727,1727,1727,1727,0,0,1727,1727,0,
0,1727,1727,1727,1727,0,0,1727,1727,1727,1727,0,0,1727,1727,0,
0,1727,1727,1727,1727,0,0,1727,1727,1727,1727,0,0,1727,1727,0,
0,0,0,0,0,0,0,0,0,0,0,0,0,0,1727,0,
0,0,0,0,0,0,0,0,0,0,0,0,0,0,1727,0,
0,1727,1727,1727,1727,0,0,1727,1727,1727,1727,0,0,1727,1727,0,
0,1727,1727,1727,1727,0,0,1727,1727,1727,1727,0,0,1727,1727,0,
0,1727,1727,1727,1727,0,0,1727,1727,1727,1727,0,0,1727,1727,0,
0,1727,1727,1727,1727,0,0,1727,1727,1727,1727,0,0,1727,1727,0,
0,1727,1727,1727,1727,0,0,1727,1727,1727,1727,0,0,1727,1727,0,
0,0,1727,1727,0,0,0,0,1727,1727,0,0,0,0,1727,0,
0,0,1727,1727,0,0,0,0,1727,1727,0,0,0,0,1727,0
</chunk>
   <chunk x="-112" y="16" width="16" height="16">
0,0,0,0,0,0,0,0,0,1727,0,0,0,0,0,0,
0,0,0,0,0,0,0,0,0,1727,0,0,0,0,0,0,
0,0,0,0,0,0,0,0,0,1727,0,0,0,0,0,0,
0,0,0,0,0,0,0,0,0,1727,0,0,0,0,0,0,
0,0,0,0,0,0,0,0,0,1727,0,0,0,0,0,0,
0,0,0,0,0,0,0,0,0,0,1727,0,0,0,0,0,
0,0,0,0,0,0,0,0,0,0,1727,0,0,0,0,0,
0,0,0,0,0,0,0,0,0,0,0,1727,0,0,0,0,
0,0,0,0,0,0,0,0,0,0,0,1727,0,0,0,0,
0,0,0,0,0,0,0,0,0,0,0,1727,0,0,0,0,
0,0,0,0,0,0,0,0,0,0,0,1727,0,0,0,0,
0,0,0,0,0,0,0,0,0,0,0,0,1727,0,0,0,
0,0,0,0,0,0,0,0,0,0,0,0,1727,0,0,0,
0,0,0,0,0,0,0,0,0,0,0,0,1727,0,0,0,
0,0,0,0,0,0,0,0,0,0,0,0,0,1727,1727,0,
0,0,0,0,0,0,0,0,0,0,0,0,0,0,0,1727
</chunk>
   <chunk x="-96" y="16" width="16" height="16">
0,0,0,0,0,0,0,0,0,0,0,0,0,0,0,0,
0,0,0,0,0,0,0,0,0,0,0,0,0,0,0,0,
0,0,0,0,0,0,0,0,0,0,0,0,0,0,0,0,
0,0,0,0,0,0,0,0,0,0,0,0,0,0,0,0,
0,0,0,0,0,0,0,0,0,0,0,0,0,0,0,0,
0,0,0,0,0,0,0,0,0,0,0,0,0,0,0,0,
0,0,0,0,0,0,0,0,0,0,0,0,0,0,0,0,
0,0,0,0,0,0,0,0,0,0,0,0,0,0,0,0,
0,0,0,0,0,0,0,0,0,0,0,0,0,0,1727,1727,
0,0,0,0,0,0,0,0,0,0,0,0,0,1727,1727,1727,
0,0,0,0,0,0,0,0,0,0,1727,1727,1727,1727,1727,1727,
0,0,0,0,0,0,0,0,0,0,1727,1727,1727,1727,1727,1727,
0,0,0,0,0,0,0,0,0,0,1727,1727,1727,1727,1727,0,
0,0,0,0,0,0,0,0,0,0,1727,1727,1727,1727,0,0,
0,0,0,0,0,0,0,0,0,0,0,0,0,0,0,0,
1727,1727,0,0,0,0,0,0,0,0,1727,1727,1727,1727,0,0
</chunk>
   <chunk x="-80" y="16" width="16" height="16">
0,0,0,1727,1727,1727,1727,1727,1727,1727,1727,1727,1727,1727,1727,1727,
0,0,0,1727,1727,1727,1727,1727,1727,1727,1727,1727,1727,1727,1727,1727,
0,0,0,1727,1727,1727,1727,1727,1727,1727,1727,1727,1727,1727,1727,1727,
0,0,0,1727,1727,1727,1727,1727,1727,0,0,0,0,0,0,0,
0,0,0,0,0,0,0,0,0,0,0,0,0,0,0,0,
0,0,1727,1727,1727,1727,1727,1727,1727,0,0,0,0,0,0,0,
0,0,0,0,0,0,0,0,1727,1727,1727,1727,1727,1727,1727,1727,
0,0,0,0,0,0,0,0,0,0,0,0,0,0,0,0,
1727,1727,0,0,0,0,0,0,0,0,0,0,0,0,0,0,
1727,1727,1727,0,0,0,0,0,0,0,0,0,0,0,0,0,
1727,1727,1727,0,0,0,0,0,0,0,0,0,0,0,0,0,
1727,1727,1727,0,0,0,0,0,0,0,0,0,0,0,0,0,
0,1727,1727,0,0,0,0,0,0,0,0,0,0,0,0,0,
0,0,1727,0,0,0,0,0,0,0,0,0,0,0,0,0,
0,0,1727,0,0,0,0,0,0,0,0,0,0,0,0,0,
0,0,1727,0,0,0,0,0,0,0,0,0,0,0,0,0
</chunk>
   <chunk x="-64" y="16" width="16" height="16">
1727,1727,1727,1727,1727,1727,1727,1727,1727,1727,0,0,1727,1727,0,0,
1727,1727,1727,1727,1727,1727,1727,1727,1727,1727,0,0,1727,1727,0,0,
1727,1727,1727,1727,1727,1727,1727,1727,1727,1727,0,0,1727,1727,0,0,
0,0,0,0,0,0,0,0,0,0,0,0,0,1727,1727,1727,
0,0,0,0,0,0,0,0,0,0,0,0,0,1727,0,0,
0,0,0,0,0,0,0,0,0,0,0,0,0,1727,0,0,
1727,1727,1727,1727,1727,1727,1727,1727,1727,1727,1727,1727,1727,1727,0,0,
0,0,0,0,0,0,0,0,0,0,0,0,0,0,0,0,
0,0,0,0,0,0,0,0,0,0,0,0,0,0,0,0,
0,0,0,0,0,0,0,0,0,0,0,0,0,0,0,0,
0,0,0,0,0,0,0,0,0,0,0,0,0,0,0,0,
0,0,0,0,0,0,0,0,0,0,0,0,0,0,0,0,
0,0,0,0,0,0,0,0,0,0,0,0,0,0,0,0,
0,0,0,0,0,0,0,0,0,0,0,0,0,0,0,0,
0,0,0,0,0,0,0,0,0,0,0,0,0,0,0,0,
0,0,0,0,0,0,0,0,0,0,0,0,0,0,0,0
</chunk>
   <chunk x="-48" y="16" width="16" height="16">
0,0,0,0,0,1727,0,0,0,0,0,0,0,0,0,0,
0,0,0,0,1727,0,0,0,0,0,0,0,0,0,0,0,
0,0,0,0,1727,0,0,0,0,0,0,0,0,0,0,0,
1727,1727,1727,1727,1727,0,0,0,0,0,0,0,0,0,0,0,
0,0,0,0,0,0,0,0,0,0,0,0,0,0,0,0,
0,0,0,0,0,0,0,0,0,0,0,0,0,0,0,0,
0,0,0,0,0,0,0,0,0,0,0,0,0,0,0,0,
0,0,0,0,0,0,0,0,0,0,0,0,0,0,0,0,
0,0,0,0,0,0,0,0,0,0,0,0,0,0,0,0,
0,0,0,0,0,0,0,0,0,0,0,0,0,0,0,0,
0,0,0,0,0,0,0,0,0,0,0,0,0,0,0,0,
0,0,0,0,0,0,0,0,0,0,0,0,0,0,0,0,
0,0,0,0,0,0,0,0,0,0,0,0,0,0,0,0,
0,0,0,0,0,0,0,0,0,0,0,0,0,0,0,0,
0,0,0,0,0,0,0,0,0,0,0,0,0,0,0,0,
0,0,0,0,0,0,0,0,0,0,0,0,0,0,0,0
</chunk>
   <chunk x="-32" y="16" width="16" height="16">
0,0,0,0,0,0,0,1727,0,0,1727,0,0,1727,0,0,
0,0,0,0,0,0,0,1727,0,0,1727,0,0,1727,0,0,
0,0,0,0,0,0,1727,1727,0,0,1727,1727,0,1727,1727,1727,
0,0,0,0,0,1727,1727,1727,0,0,1727,1727,1727,0,0,0,
0,0,0,0,0,1727,1727,1727,0,0,1727,1727,1727,0,0,0,
0,0,0,0,0,1727,1727,1727,0,0,1727,1727,1727,0,0,0,
0,0,0,0,0,1727,1727,0,0,0,0,1727,1727,0,0,0,
0,0,0,0,0,1727,0,0,0,0,0,0,1727,0,0,0,
0,0,0,0,0,1727,0,0,0,0,0,0,1727,0,0,0,
0,0,0,0,0,1727,0,0,0,0,0,0,1727,0,0,0,
0,0,0,0,0,1727,0,0,0,0,0,0,1727,0,0,0,
0,0,0,0,0,1727,0,0,0,0,0,0,1727,0,0,0,
0,0,0,0,0,1727,1727,0,0,0,0,1727,1727,0,0,0,
0,0,0,0,0,0,1727,1727,0,0,1727,1727,0,0,0,0,
0,0,0,0,0,0,1727,1727,0,0,1727,1727,0,0,0,0,
0,0,0,0,1727,1727,1727,1727,0,0,1727,1727,0,0,0,0
</chunk>
   <chunk x="-16" y="16" width="16" height="16">
0,0,1727,1727,0,0,0,0,1727,1727,0,0,0,0,1727,0,
0,0,1727,1727,0,0,0,0,1727,1727,0,0,0,0,1727,0,
1727,1727,1727,1727,1727,1727,1727,1727,1727,1727,1727,1727,1727,1727,1727,0,
0,0,0,0,0,0,0,0,0,0,0,0,0,0,0,0,
0,0,0,0,0,0,0,0,0,0,0,0,0,0,0,0,
0,0,0,0,0,0,0,0,0,0,0,0,0,0,0,0,
0,0,0,0,0,0,0,0,0,0,0,0,0,0,0,0,
0,0,0,0,0,0,0,0,0,0,0,0,0,0,0,0,
0,0,0,0,0,0,0,0,0,0,0,0,0,0,0,0,
0,0,0,0,0,0,0,0,0,0,0,0,0,0,0,0,
0,0,0,0,0,0,0,0,0,0,0,0,0,0,0,0,
0,0,0,0,0,0,0,0,0,0,0,0,0,0,0,0,
0,0,0,0,0,0,0,0,0,0,0,0,0,0,0,0,
0,0,0,0,0,0,0,0,0,0,0,0,0,0,0,0,
0,0,0,0,0,0,0,0,0,0,0,0,0,0,0,0,
0,0,0,0,0,0,0,0,0,0,0,0,0,0,0,0
</chunk>
   <chunk x="0" y="16" width="16" height="16">
0,0,0,0,0,0,0,0,0,0,0,0,0,0,0,0,
0,0,0,0,0,0,0,0,0,0,0,0,0,0,0,0,
0,0,0,0,0,0,0,0,0,0,0,0,0,0,0,0,
0,0,0,0,0,0,0,0,0,0,0,0,0,0,0,0,
0,0,0,0,0,0,0,0,0,0,0,0,0,0,0,0,
0,0,0,0,0,0,0,0,0,0,0,0,0,0,0,0,
0,0,0,0,0,0,0,0,0,0,0,0,0,0,0,0,
0,0,0,0,0,0,0,0,0,0,0,0,0,0,0,0,
0,0,0,0,0,0,0,0,0,0,0,0,0,0,0,0,
0,0,0,0,0,0,0,0,0,0,0,0,0,0,0,0,
0,0,0,0,0,0,0,0,0,0,0,0,0,0,0,0,
0,0,0,0,0,0,0,0,0,0,0,0,0,0,0,0,
0,0,0,0,0,0,0,0,0,0,0,0,1727,1727,1727,0,
0,0,0,0,0,0,0,0,0,0,0,0,1727,1727,1727,0,
0,0,0,0,0,0,0,0,0,0,0,0,1727,1727,1727,0,
0,0,0,0,0,0,0,0,0,0,0,1727,1727,1727,1727,1727
</chunk>
   <chunk x="16" y="16" width="16" height="16">
0,0,0,0,0,0,0,0,0,0,0,0,0,0,0,0,
0,0,0,0,0,0,0,0,0,0,0,0,0,0,0,0,
0,0,0,0,0,0,0,0,0,0,0,0,0,0,0,0,
0,0,0,0,0,0,0,0,0,0,0,0,0,0,0,0,
0,0,0,0,0,0,0,0,0,0,0,0,0,0,0,0,
0,0,0,0,0,0,0,0,0,0,0,0,0,0,0,0,
0,0,0,0,0,0,0,0,0,0,0,0,0,0,0,0,
0,0,0,0,0,0,0,0,0,0,0,0,0,0,0,0,
0,0,0,0,0,0,0,0,0,0,0,0,0,0,0,0,
0,0,0,0,0,0,0,0,0,0,0,0,0,0,0,0,
0,0,0,0,0,0,0,0,0,0,0,0,0,0,0,0,
0,0,0,0,0,0,0,0,0,0,0,0,0,0,0,0,
0,0,0,0,0,0,0,0,0,0,0,0,0,0,0,0,
0,0,0,0,0,0,0,0,0,0,0,0,0,0,0,0,
0,0,0,0,0,0,0,0,0,0,0,0,0,0,0,0,
1727,1727,0,0,0,0,0,0,0,0,0,0,0,0,0,0
</chunk>
   <chunk x="-112" y="32" width="16" height="16">
0,0,0,0,0,0,0,0,0,0,0,0,0,1727,1727,1727,
0,0,0,0,0,0,0,0,0,0,0,1727,1727,1727,1727,1727,
0,0,0,0,0,0,0,0,0,0,1727,1727,1727,1727,1727,1727,
0,0,0,0,0,0,0,0,0,0,1727,1727,1727,1727,1727,1727,
0,0,0,0,0,0,0,0,0,0,1727,1727,1727,1727,0,1727,
0,0,0,0,0,0,0,0,0,0,1727,1727,0,0,0,0,
0,0,0,0,0,0,0,0,0,0,1727,0,0,0,0,0,
0,0,0,0,0,0,0,0,0,0,1727,1727,0,1727,1727,1727,
0,0,0,0,0,0,0,0,0,0,0,1727,0,1727,0,0,
0,0,0,0,0,0,0,0,0,0,0,1727,0,1727,1727,1727,
0,0,0,0,0,0,0,0,0,0,0,1727,0,1727,1727,1727,
0,0,0,0,0,0,0,0,0,0,0,1727,0,1727,1727,1727,
0,0,0,0,0,0,0,0,0,0,0,1727,0,0,0,0,
0,0,0,0,0,0,0,0,0,0,0,1727,0,0,0,0,
0,0,0,0,0,0,0,0,0,0,0,1727,0,1727,1727,1727,
0,0,0,0,0,0,0,0,0,0,0,1727,0,0,0,0
</chunk>
   <chunk x="-96" y="32" width="16" height="16">
1727,1727,1727,1727,1727,0,0,0,0,0,0,1727,0,1727,1727,1727,
1727,1727,1727,1727,1727,0,0,0,0,0,0,1727,0,0,0,0,
1727,1727,1727,1727,1727,0,1727,1727,1727,0,0,1727,0,0,0,0,
1727,1727,1727,1727,1727,0,1727,0,0,1727,1727,0,0,0,0,0,
1727,0,1727,1727,1727,0,1727,0,0,0,0,0,0,0,0,0,
0,0,0,0,0,0,1727,0,0,0,0,0,0,0,0,0,
0,0,0,0,1727,1727,1727,0,0,0,0,0,0,0,0,0,
1727,1727,1727,1727,1727,0,0,0,0,0,0,0,0,0,0,0,
0,0,0,0,0,0,0,0,0,0,0,0,0,0,0,0,
1727,1727,0,0,0,0,0,0,0,0,0,0,0,0,0,0,
1727,1727,0,0,1727,1727,1727,1727,1727,1727,1727,1727,0,0,0,0,
1727,1727,1727,1727,0,0,0,0,0,0,0,0,1727,0,0,0,
0,1727,1727,0,0,0,0,0,0,0,0,0,1727,0,0,0,
0,1727,1727,0,0,0,0,0,0,0,0,0,1727,0,0,0,
0,1727,1727,0,0,0,0,0,0,0,0,0,1727,0,0,1727,
0,0,0,0,0,0,0,0,0,0,0,0,1727,0,0,1727
</chunk>
   <chunk x="-80" y="32" width="16" height="16">
1727,1727,1727,0,0,0,0,0,0,0,0,0,0,0,0,0,
0,0,0,0,0,0,0,0,0,0,0,0,0,0,0,0,
0,0,0,0,0,0,0,0,0,0,0,0,0,0,0,0,
0,0,0,0,0,0,0,0,0,0,0,0,0,0,0,0,
0,0,0,0,0,0,0,0,0,0,0,0,0,0,0,0,
0,0,0,0,0,0,0,0,0,0,0,0,0,0,0,0,
0,0,0,0,0,0,0,0,0,0,0,0,0,0,0,0,
0,0,0,0,0,0,0,0,0,0,0,0,0,0,0,0,
0,0,0,0,0,0,0,0,0,0,0,0,0,0,0,0,
0,0,0,0,0,0,0,0,0,0,0,0,0,0,0,0,
0,0,0,0,0,0,0,0,0,0,0,0,0,0,0,0,
0,0,0,0,0,0,0,0,0,0,0,0,0,0,0,0,
0,1727,1727,1727,0,0,0,0,1727,1727,1727,0,0,0,0,0,
1727,1727,1727,1727,1727,0,0,1727,1727,1727,1727,1727,0,0,0,0,
1727,1727,1727,1727,1727,1727,1727,1727,1727,1727,1727,1727,1727,0,0,0,
1727,1727,1727,1727,1727,1727,1727,1727,1727,1727,1727,1727,1727,0,0,0
</chunk>
   <chunk x="-64" y="32" width="16" height="16">
0,0,0,0,0,0,0,0,0,0,0,0,0,0,0,0,
0,0,0,0,0,0,0,0,0,0,0,0,0,0,0,0,
0,0,0,0,0,0,0,0,0,0,0,0,0,0,0,0,
0,0,0,0,0,0,0,0,0,0,0,0,0,0,0,0,
0,0,0,0,0,0,0,0,0,0,0,0,0,0,0,0,
0,0,0,0,0,0,0,0,0,0,0,0,0,0,0,0,
0,0,0,0,0,0,0,0,0,0,0,0,0,0,0,0,
0,0,0,0,0,0,0,0,0,0,0,0,0,0,0,0,
0,0,0,0,0,0,0,0,0,0,0,0,0,0,0,0,
0,0,0,0,0,0,0,0,0,0,0,0,0,0,0,0,
0,0,0,0,0,0,0,0,0,0,0,0,0,0,0,0,
0,0,0,0,0,0,0,0,0,0,0,0,0,0,0,0,
0,0,0,0,0,0,0,0,0,0,0,0,0,0,0,0,
0,0,0,0,0,0,0,0,0,0,0,0,0,0,0,0,
0,0,0,1727,1727,1727,1727,1727,0,0,0,0,0,0,0,0,
0,0,0,1727,1727,1727,1727,1727,0,0,0,0,0,0,0,0
</chunk>
   <chunk x="-32" y="32" width="16" height="16">
0,0,0,1727,1727,1727,1727,1727,0,0,1727,1727,1727,0,0,0,
0,0,1727,1727,1727,1727,1727,1727,0,0,1727,1727,1727,0,0,0,
0,0,1727,1727,1727,1727,1727,0,0,0,0,1727,1727,0,0,0,
0,0,1727,1727,1727,0,0,0,0,0,0,1727,1727,0,0,0,
0,0,1727,1727,0,0,0,0,0,0,0,0,1727,0,0,0,
0,0,1727,0,0,0,0,0,0,0,0,0,1727,0,0,1727,
0,0,1727,0,0,0,0,0,0,0,0,0,1727,1727,1727,1727,
0,0,1727,0,0,0,0,0,0,0,0,0,1727,1727,1727,1727,
0,0,1727,0,0,0,0,0,0,0,0,0,1727,1727,1727,1727,
0,0,1727,0,0,0,0,0,0,0,0,0,1727,1727,1727,1727,
0,0,1727,0,0,0,0,0,0,0,0,0,0,1727,1727,0,
0,0,1727,0,0,0,0,0,0,0,0,0,0,0,0,0,
0,0,1727,0,0,0,0,0,0,0,0,0,0,0,0,0,
0,0,1727,1727,0,0,0,0,0,0,0,0,0,0,0,0,
0,0,0,1727,1727,0,0,0,0,0,0,0,0,0,1727,1727,
0,0,0,0,1727,1727,1727,1727,1727,1727,1727,1727,1727,1727,1727,1727
</chunk>
   <chunk x="-16" y="32" width="16" height="16">
0,0,0,0,0,0,0,0,0,0,0,0,0,0,0,0,
0,0,0,0,0,0,0,0,0,0,0,0,0,0,0,0,
0,0,0,0,0,0,0,0,0,0,0,0,0,0,0,0,
0,0,0,0,0,0,0,0,0,0,0,0,0,0,0,0,
0,0,0,0,0,0,0,0,0,0,0,0,0,0,0,0,
1727,0,0,0,0,0,0,0,0,0,1727,1727,1727,1727,1727,0,
1727,0,0,0,0,0,0,0,0,1727,0,0,0,0,0,1727,
1727,1727,0,1727,1727,1727,0,0,1727,0,0,0,0,0,0,0,
1727,0,1727,1727,1727,1727,0,1727,1727,0,0,0,0,0,0,0,
0,0,0,1727,1727,1727,1727,0,0,0,0,0,0,0,0,0,
0,0,0,1727,1727,1727,0,0,0,0,0,0,0,0,0,0,
0,0,0,0,0,0,0,0,0,0,0,0,0,0,0,0,
0,0,0,0,0,0,0,0,0,0,0,0,0,0,0,0,
0,0,0,0,0,0,0,0,0,0,0,0,0,0,0,0,
0,0,0,0,0,0,0,0,0,0,0,0,0,0,0,0,
1727,0,0,0,0,0,0,0,0,0,0,0,0,0,0,0
</chunk>
   <chunk x="0" y="32" width="16" height="16">
0,0,0,0,0,0,0,0,0,0,1727,0,0,0,0,0,
0,0,0,0,0,0,0,0,0,1727,0,0,0,0,0,0,
0,0,0,0,0,0,0,0,0,0,1727,0,0,0,0,0,
0,0,0,0,0,0,0,0,0,1727,0,0,0,0,0,0,
0,0,0,0,0,0,0,0,0,1727,0,0,0,0,0,0,
0,0,0,0,0,0,0,0,0,1727,0,0,0,0,0,0,
0,0,0,0,0,0,0,0,0,1727,0,0,0,0,0,0,
1727,1727,1727,0,0,0,0,0,0,1727,0,0,0,0,0,0,
0,0,0,1727,0,0,0,0,0,1727,0,0,0,0,0,0,
0,0,0,1727,1727,0,0,0,0,1727,0,0,0,0,0,0,
0,0,0,1727,0,1727,0,0,0,1727,0,0,0,0,0,0,
0,0,1727,1727,0,1727,1727,1727,1727,1727,0,0,0,0,0,0,
0,1727,1727,1727,0,1727,1727,1727,1727,1727,0,0,0,0,0,0,
0,1727,1727,1727,0,1727,1727,1727,1727,1727,0,0,0,0,0,0,
1727,1727,1727,1727,0,1727,1727,1727,1727,1727,0,0,0,0,0,0,
1727,1727,1727,0,0,0,0,1727,1727,0,0,0,0,0,0,0
</chunk>
   <chunk x="16" y="32" width="16" height="16">
0,1727,0,0,0,0,0,0,0,0,0,0,0,0,0,0,
0,1727,0,0,0,0,0,0,0,0,0,0,0,0,0,0,
0,1727,0,0,0,0,0,0,0,0,0,0,0,0,0,0,
0,1727,0,0,0,0,0,0,0,0,0,0,0,0,0,0,
0,1727,0,0,0,0,0,0,0,0,0,0,0,0,0,0,
0,1727,0,0,0,0,0,0,0,0,0,0,0,0,0,0,
0,1727,0,0,0,0,0,0,0,0,0,0,0,0,0,0,
0,1727,0,0,0,0,0,0,0,0,0,0,0,0,0,0,
0,1727,0,0,0,0,0,0,0,0,0,0,0,0,0,0,
0,1727,0,0,0,0,0,0,0,0,0,0,0,0,0,0,
0,1727,0,0,0,0,0,0,0,0,0,0,0,0,0,0,
0,1727,0,0,0,0,0,0,0,0,0,0,0,0,0,0,
0,0,1727,0,0,0,0,0,0,0,0,0,0,0,0,0,
0,0,1727,0,0,0,0,0,0,0,0,0,0,0,0,0,
0,0,0,1727,0,0,0,0,0,0,0,0,0,0,0,0,
0,0,0,1727,0,0,0,0,0,0,0,0,0,0,0,0
</chunk>
   <chunk x="-112" y="48" width="16" height="16">
0,0,0,0,0,0,0,0,0,0,0,1727,0,0,0,0,
0,0,0,0,0,0,0,0,0,0,0,1727,0,0,0,0,
0,0,0,0,0,0,0,0,0,0,0,1727,0,0,0,0,
0,0,0,0,0,0,0,0,0,0,0,1727,1727,1727,1727,1727,
0,0,0,0,0,0,0,0,0,0,0,0,0,0,0,0,
0,0,0,0,0,0,0,0,0,0,0,0,0,0,0,0,
0,0,0,0,0,0,0,0,0,0,0,0,0,0,0,0,
0,0,0,0,0,0,0,0,0,0,0,0,0,0,0,0,
0,0,0,0,0,0,0,0,0,0,0,0,0,0,0,0,
0,0,0,0,0,0,0,0,0,0,0,0,0,0,0,0,
0,0,0,0,0,0,0,0,0,0,0,0,0,0,0,0,
0,0,0,0,0,0,0,0,0,0,0,0,0,0,0,0,
0,0,0,0,0,0,0,0,0,0,0,0,0,0,0,0,
0,0,0,0,0,0,0,0,0,0,0,0,0,0,0,0,
0,0,0,0,0,0,0,0,0,0,0,0,0,0,0,0,
0,0,0,0,0,0,0,0,0,0,0,0,0,0,0,0
</chunk>
   <chunk x="-96" y="48" width="16" height="16">
0,1727,1727,0,0,0,0,0,0,0,0,0,1727,0,0,1727,
0,1727,0,1727,1727,0,0,0,0,0,1727,1727,0,0,0,1727,
0,1727,0,0,1727,0,0,0,0,0,1727,1727,1727,1727,1727,1727,
1727,1727,0,0,1727,0,0,0,0,0,1727,1727,1727,1727,1727,1727,
0,0,0,0,1727,0,0,0,0,0,1727,1727,1727,1727,1727,1727,
0,0,0,1727,1727,0,0,0,0,0,1727,1727,1727,1727,1727,1727,
0,0,0,1727,1727,0,0,0,0,0,0,0,0,0,0,0,
0,0,0,1727,1727,0,0,0,0,0,0,0,0,0,0,0,
0,0,0,1727,1727,0,0,0,0,0,0,0,0,0,0,0,
0,0,0,1727,0,0,0,0,0,0,0,0,0,0,0,0,
0,0,0,1727,1727,1727,1727,1727,1727,1727,1727,1727,0,1727,1727,1727,
0,0,0,0,0,0,0,0,1727,1727,1727,1727,0,1727,1727,1727,
0,0,0,0,0,0,0,0,1727,1727,1727,1727,0,1727,1727,1727,
0,0,0,0,0,0,0,0,1727,1727,1727,1727,0,1727,1727,1727,
0,0,0,0,0,0,0,0,1727,1727,1727,1727,0,1727,1727,1727,
0,0,0,0,0,0,0,0,1727,0,0,0,0,0,0,0
</chunk>
   <chunk x="-80" y="48" width="16" height="16">
1727,1727,0,1727,1727,1727,1727,1727,1727,0,1727,1727,1727,0,0,0,
1727,0,0,0,1727,1727,1727,1727,0,0,0,1727,1727,0,0,0,
0,0,0,0,0,0,0,0,0,0,0,0,1727,0,0,0,
0,0,0,0,0,0,0,0,0,0,0,0,1727,0,0,0,
0,0,1727,1727,0,0,0,1727,1727,1727,0,0,1727,0,0,0,
0,0,1727,1727,1727,0,1727,1727,1727,1727,0,0,1727,0,0,0,
0,0,1727,0,1727,1727,1727,1727,1727,1727,0,0,1727,0,1727,1727,
0,0,1727,0,0,0,0,1727,1727,1727,0,0,1727,1727,1727,1727,
0,0,1727,0,0,0,0,1727,0,0,0,0,1727,1727,1727,1727,
0,1727,1727,0,0,0,0,1727,1727,1727,0,0,1727,1727,1727,1727,
1727,1727,0,0,0,0,0,0,0,1727,0,0,1727,1727,1727,0,
1727,0,0,0,0,0,0,0,0,1727,0,0,0,0,0,0,
1727,0,0,0,0,0,0,0,0,1727,1727,1727,1727,1727,1727,0,
1727,0,0,0,0,0,0,0,0,0,0,0,0,0,1727,1727,
1727,0,0,0,0,0,0,0,0,0,0,0,0,0,0,0,
1727,0,0,0,0,0,0,0,0,0,0,0,0,0,0,0
</chunk>
   <chunk x="-64" y="48" width="16" height="16">
0,0,0,1727,1727,1727,1727,1727,0,0,0,0,0,0,0,0,
0,0,0,1727,1727,1727,1727,1727,0,0,0,0,0,0,0,0,
0,0,0,1727,0,0,0,1727,0,0,0,0,0,0,0,0,
0,0,0,1727,0,0,0,1727,0,0,0,0,0,0,0,0,
0,0,0,1727,0,0,0,1727,0,0,0,0,0,0,0,0,
1727,1727,1727,1727,1727,0,1727,1727,0,0,1727,1727,1727,1727,1727,0,
1727,1727,1727,1727,1727,0,1727,1727,0,1727,1727,1727,1727,1727,1727,0,
1727,1727,1727,1727,1727,0,1727,1727,1727,1727,1727,1727,1727,1727,1727,0,
1727,1727,1727,1727,1727,0,1727,1727,1727,1727,1727,1727,1727,1727,1727,1727,
1727,0,0,1727,1727,0,1727,1727,1727,1727,1727,0,0,0,0,0,
0,0,0,1727,0,0,0,1727,1727,1727,0,0,0,0,0,0,
0,0,0,0,0,0,0,0,0,0,0,0,0,0,0,0,
0,0,0,1727,0,0,0,1727,1727,1727,0,0,0,0,0,0,
1727,0,0,1727,0,0,0,0,0,1727,1727,0,0,0,0,0,
1727,1727,1727,1727,0,0,0,0,0,1727,1727,1727,1727,1727,1727,1727,
0,1727,0,0,0,0,0,0,0,1727,0,0,0,0,0,1727
</chunk>
   <chunk x="-48" y="48" width="16" height="16">
0,0,0,0,0,0,0,0,0,0,0,0,0,0,0,0,
0,0,0,0,0,0,0,0,0,0,0,0,0,0,0,0,
0,0,0,0,0,0,0,0,0,0,0,0,0,0,0,0,
0,0,0,0,0,0,0,0,0,0,0,0,0,0,0,0,
0,1727,1727,1727,1727,1727,1727,1727,1727,1727,1727,1727,1727,1727,1727,1727,
1727,0,0,0,0,0,0,0,0,0,0,0,0,0,0,0,
1727,0,0,0,0,0,0,0,0,0,0,0,0,0,0,0,
1727,0,0,0,0,0,0,0,0,0,0,0,0,0,0,0,
1727,0,0,0,0,0,0,0,0,0,0,0,0,0,0,0,
0,0,0,0,0,0,0,0,0,0,0,0,0,0,0,0,
0,0,0,0,0,0,0,0,0,0,0,0,0,0,0,0,
0,0,0,0,0,0,0,0,0,0,0,0,0,0,0,0,
0,0,0,0,0,0,0,0,0,0,0,0,0,0,0,0,
0,0,0,0,0,0,0,0,0,0,0,0,0,0,0,0,
0,0,0,0,0,0,0,0,0,0,0,0,0,0,0,0,
0,0,0,0,0,0,0,0,0,0,0,0,0,0,0,0
</chunk>
   <chunk x="-32" y="48" width="16" height="16">
0,0,0,0,0,0,0,0,0,0,0,0,0,0,0,0,
0,0,0,0,0,0,0,0,0,0,0,0,0,0,0,0,
0,0,0,0,0,0,0,0,0,0,0,0,0,0,0,0,
0,0,0,0,0,0,0,0,0,0,0,0,0,0,0,0,
1727,1727,1727,1727,1727,1727,1727,1727,1727,1727,1727,1727,1727,0,0,0,
0,0,0,0,0,0,0,0,0,0,0,0,0,1727,0,0,
0,0,0,0,0,0,0,0,0,0,0,0,0,0,1727,0,
0,0,0,0,0,0,0,0,0,0,0,0,0,0,0,1727,
0,0,0,0,0,0,0,0,0,0,0,0,0,0,0,1727,
0,0,0,0,0,0,0,0,0,0,0,0,0,0,0,1727,
0,0,0,0,0,0,0,0,0,0,0,0,0,0,0,1727,
0,0,0,0,0,0,0,0,0,0,0,0,0,0,0,1727,
0,0,0,0,0,0,0,0,0,0,0,0,0,0,0,0,
0,0,0,0,0,0,0,0,0,0,0,0,0,0,0,0,
0,0,0,0,0,0,0,0,0,0,0,0,0,0,0,0,
0,0,0,0,0,0,0,0,0,0,0,0,0,0,0,0
</chunk>
   <chunk x="-16" y="48" width="16" height="16">
1727,1727,0,0,0,0,0,0,0,0,0,0,0,0,0,0,
0,0,1727,0,0,0,0,0,0,0,0,0,0,0,0,0,
0,0,1727,0,0,0,0,0,0,0,0,0,0,0,0,0,
0,0,0,1727,1727,0,0,0,0,0,0,0,0,0,0,0,
0,0,0,0,1727,0,0,0,0,0,0,0,0,0,0,0,
0,0,0,0,0,1727,1727,0,0,0,0,0,0,0,0,0,
0,0,0,0,0,0,0,1727,0,0,0,0,0,0,0,0,
0,0,0,0,0,0,0,0,1727,1727,0,0,0,0,0,0,
0,0,0,0,0,0,0,0,0,0,1727,1727,1727,0,0,0,
0,0,0,0,0,0,0,0,0,0,0,0,0,1727,0,0,
0,0,0,0,0,0,0,0,0,0,0,0,0,0,1727,1727,
0,0,0,0,0,0,0,0,0,0,0,0,0,0,0,0,
1727,0,0,0,0,0,0,0,0,0,0,0,1727,1727,1727,1727,
0,1727,1727,0,0,0,0,0,0,0,0,0,1727,1727,1727,1727,
0,0,0,1727,0,0,0,0,0,0,0,0,1727,1727,1727,1727,
0,0,0,1727,0,0,0,0,0,0,0,0,1727,1727,1727,1727
</chunk>
   <chunk x="0" y="48" width="16" height="16">
0,0,0,0,0,0,0,1727,1727,0,0,0,0,0,0,0,
0,0,0,0,0,0,0,0,0,0,0,0,0,0,0,0,
0,0,0,0,0,0,0,0,0,0,0,0,0,0,0,0,
0,0,0,0,0,0,0,0,0,0,0,0,0,0,0,0,
0,0,0,0,0,0,0,0,0,0,0,0,0,0,0,0,
0,0,0,0,0,0,0,0,0,0,0,0,0,0,0,0,
0,0,0,0,0,0,0,0,0,0,0,0,0,0,0,0,
0,0,0,0,0,0,0,0,0,0,0,0,0,0,0,0,
0,0,0,0,0,0,0,0,0,0,0,0,0,0,0,0,
0,0,0,0,0,0,0,0,0,0,0,0,0,0,0,0,
1727,0,0,0,0,0,0,0,0,0,0,0,0,0,0,0,
0,1727,0,0,0,0,0,0,0,0,0,0,0,0,0,0,
1727,1727,0,0,0,0,0,0,0,0,0,0,0,0,0,0,
1727,1727,0,0,0,0,0,0,0,0,0,0,0,0,0,0,
1727,1727,0,0,0,0,0,0,0,0,0,0,0,0,0,0,
1727,1727,0,0,0,0,0,0,0,0,0,0,0,0,0,0
</chunk>
   <chunk x="16" y="48" width="16" height="16">
0,0,0,1727,0,0,0,0,0,0,0,0,0,0,0,0,
0,0,1727,0,0,0,0,0,0,0,0,0,0,0,0,0,
0,0,1727,0,0,0,0,0,0,0,0,0,0,0,0,0,
0,1727,0,0,0,0,0,0,0,0,0,0,0,0,0,0,
1727,0,0,0,0,0,0,0,0,0,0,0,0,0,0,0,
1727,0,0,0,0,0,0,0,0,0,0,0,0,0,0,0,
0,1727,0,0,0,0,0,0,0,0,0,0,0,0,0,0,
0,1727,0,0,0,0,0,0,0,0,0,0,0,0,0,0,
0,0,1727,0,0,0,0,0,0,0,0,0,0,0,0,0,
0,0,1727,0,0,0,0,0,0,0,0,0,0,0,0,0,
0,0,0,1727,0,0,0,0,0,0,0,0,0,0,0,0,
0,0,0,0,1727,0,0,0,0,0,0,0,0,0,0,0,
0,0,0,0,1727,0,0,0,0,0,0,0,0,0,0,0,
0,0,0,0,1727,0,0,0,0,0,0,0,0,0,0,0,
0,0,0,0,1727,0,0,0,0,0,0,0,0,0,0,0,
0,0,0,0,0,1727,0,0,0,0,0,0,0,0,0,0
</chunk>
   <chunk x="-96" y="64" width="16" height="16">
0,0,0,0,0,0,0,0,1727,0,0,0,0,0,0,0,
0,0,0,0,0,0,0,0,1727,1727,1727,1727,1727,1727,1727,1727,
0,0,0,0,0,0,0,0,0,0,0,0,0,0,0,0,
0,0,0,0,0,0,0,0,0,0,0,0,0,0,0,0,
0,0,0,0,0,0,0,0,0,0,0,0,0,0,0,0,
0,0,0,0,0,0,0,0,0,0,0,0,0,0,0,0,
0,0,0,0,0,0,0,0,0,0,0,0,0,0,0,0,
0,0,0,0,0,0,0,0,0,0,0,0,0,0,0,0,
0,0,0,0,0,0,0,0,0,0,0,0,0,0,0,0,
0,0,0,0,0,0,0,0,0,0,0,0,0,0,0,0,
0,0,0,0,0,0,0,0,0,0,0,0,0,0,0,0,
0,0,0,0,0,0,0,0,0,0,0,0,0,0,0,0,
0,0,0,0,0,0,0,0,0,0,0,0,0,0,0,0,
0,0,0,0,0,0,0,0,0,0,0,0,0,0,0,0,
0,0,0,0,0,0,0,0,0,0,0,0,0,0,0,0,
0,0,0,0,0,0,0,0,0,0,0,0,0,0,0,0
</chunk>
   <chunk x="-80" y="64" width="16" height="16">
1727,0,0,0,0,0,0,0,0,0,0,0,0,0,0,0,
1727,0,0,0,0,0,0,0,0,0,0,0,0,0,0,0,
0,0,0,0,0,0,0,0,0,0,0,0,0,0,0,0,
0,0,0,0,0,0,0,0,0,0,0,0,0,0,0,0,
0,0,0,0,0,0,0,0,0,0,0,0,0,0,0,1727,
0,0,0,0,0,0,0,0,0,0,0,0,0,0,0,1727,
0,0,0,0,0,0,0,0,0,0,0,0,0,0,0,1727,
0,0,0,0,0,0,0,0,0,0,0,0,0,0,0,1727,
0,0,0,0,0,0,0,0,0,0,0,0,0,0,0,1727,
0,0,0,0,0,0,0,0,0,0,0,0,0,0,0,1727,
0,0,0,0,0,0,0,0,0,0,0,0,0,0,0,1727,
0,0,0,0,0,0,0,0,0,0,0,0,0,0,0,0,
0,0,0,0,0,0,0,0,0,0,0,0,0,0,0,0,
0,0,0,0,0,0,0,0,0,0,0,0,0,0,0,0,
0,0,0,0,0,0,0,0,0,0,0,0,0,0,0,0,
0,0,0,0,0,0,0,0,0,0,0,0,0,0,0,0
</chunk>
   <chunk x="-64" y="64" width="16" height="16">
0,1727,0,0,0,0,0,0,0,1727,0,0,0,0,0,1727,
1727,0,0,0,0,0,0,0,0,0,1727,0,0,0,0,1727,
1727,0,0,0,0,0,0,0,0,0,1727,0,0,0,0,1727,
1727,0,0,0,0,0,0,0,0,0,1727,0,0,0,0,1727,
0,0,0,0,0,0,0,0,0,0,0,1727,0,0,0,1727,
0,0,0,0,0,0,0,0,0,0,0,1727,0,0,0,1727,
0,0,0,0,0,0,0,0,0,0,0,1727,0,0,0,1727,
0,0,0,0,0,0,0,0,0,0,0,1727,0,0,0,0,
0,0,0,0,0,0,0,0,0,0,0,1727,0,0,0,0,
0,0,0,0,0,0,0,0,0,0,0,1727,0,0,0,0,
0,0,0,0,0,0,0,0,0,0,0,1727,0,0,0,0,
1727,0,0,0,0,0,0,0,0,0,1727,0,0,0,0,0,
1727,0,0,0,0,0,0,0,0,0,1727,0,0,0,0,0,
0,1727,0,0,0,0,0,0,0,1727,0,0,0,0,0,0,
0,0,1727,1727,1727,1727,1727,1727,1727,0,0,0,0,0,0,0,
0,0,0,0,0,0,0,0,0,0,0,0,0,0,0,0
</chunk>
   <chunk x="-48" y="64" width="16" height="16">
0,0,0,0,0,0,0,0,0,0,0,0,0,0,0,0,
0,0,0,0,0,0,0,0,0,0,0,0,0,0,0,0,
0,0,0,0,0,0,0,0,0,0,0,0,0,0,0,0,
0,0,0,0,0,0,0,0,0,0,0,0,0,0,0,0,
0,0,0,0,0,0,0,0,0,0,0,0,0,0,0,0,
0,0,0,0,0,0,0,0,0,0,0,0,0,0,0,0,
0,0,0,0,0,0,0,0,0,0,0,0,0,0,0,0,
1727,0,0,0,0,0,0,0,0,0,0,0,0,0,0,0,
1727,0,0,0,0,0,0,0,0,0,0,0,0,0,0,0,
1727,0,0,0,0,0,0,0,0,0,0,0,0,0,0,0,
0,1727,0,0,0,0,0,0,0,0,0,0,0,0,0,0,
0,0,1727,0,0,0,0,0,0,0,0,0,0,0,0,0,
0,0,1727,0,0,0,0,0,0,0,0,0,0,0,0,0,
0,0,0,0,1727,0,0,0,0,0,0,0,0,0,0,0,
0,0,0,0,0,1727,0,0,0,0,0,0,0,0,0,0,
0,0,0,0,0,0,1727,1727,1727,0,0,0,0,0,0,0
</chunk>
   <chunk x="-16" y="64" width="16" height="16">
0,0,0,1727,0,0,0,0,0,0,0,0,1727,0,0,0,
0,0,0,0,1727,1727,0,0,0,0,0,1727,1727,0,0,0,
0,0,0,0,0,0,1727,0,0,0,0,1727,1727,0,0,0,
0,0,0,0,0,0,0,1727,0,0,0,1727,1727,0,0,0,
0,0,0,0,0,0,0,1727,1727,1727,1727,1727,1727,0,0,0,
0,0,0,0,0,0,0,0,0,0,0,0,0,0,0,0,
0,0,0,0,0,0,0,0,0,0,0,0,0,0,0,0,
0,0,0,0,0,0,0,0,0,0,0,0,0,0,0,0,
0,0,0,0,0,0,0,0,0,0,0,0,0,0,0,0,
0,0,0,0,0,0,0,0,0,0,0,0,0,0,0,0,
0,0,0,0,0,0,0,0,0,0,0,0,0,0,0,0,
0,0,0,0,0,0,0,0,0,0,0,0,0,0,0,0,
0,0,0,0,0,0,0,0,0,0,0,0,0,0,0,0,
0,0,0,0,0,0,0,0,0,0,0,0,0,0,0,0,
0,0,0,0,0,0,0,0,0,0,0,0,0,0,0,0,
0,0,0,0,0,0,0,0,0,0,0,0,0,0,0,0
</chunk>
   <chunk x="0" y="64" width="16" height="16">
0,0,0,0,0,0,0,0,0,0,0,0,0,0,0,0,
0,0,0,0,0,0,0,0,0,0,0,0,0,0,0,0,
0,0,0,0,0,0,0,0,0,0,0,0,0,0,0,0,
0,0,0,0,0,0,0,0,0,0,0,0,0,0,0,0,
0,0,0,0,0,0,0,0,0,0,0,0,0,0,0,0,
0,0,0,0,0,0,0,0,0,0,0,0,0,0,0,0,
0,0,0,0,0,0,0,0,0,0,0,0,0,0,0,0,
0,0,0,0,0,0,0,0,0,0,0,0,0,0,0,0,
0,0,0,0,0,0,0,0,0,0,0,0,0,0,0,0,
0,0,0,0,0,0,0,0,0,0,0,0,0,0,1727,1727,
0,0,0,0,0,0,0,0,1727,1727,1727,1727,1727,1727,0,0,
0,0,0,0,0,0,0,0,1727,0,0,0,0,0,0,0,
0,0,0,0,0,0,0,0,1727,0,0,0,0,0,0,0,
0,0,0,0,0,0,0,1727,0,0,0,0,0,0,0,0,
0,0,0,0,0,0,1727,0,0,0,0,0,0,0,0,0,
0,0,0,0,0,0,1727,0,0,0,0,0,0,0,0,0
</chunk>
   <chunk x="16" y="64" width="16" height="16">
0,0,0,0,0,1727,0,0,0,0,0,0,0,0,0,0,
0,0,0,0,0,1727,0,0,0,0,0,0,0,0,0,0,
0,0,0,0,0,1727,0,0,0,0,0,0,0,0,0,0,
0,0,0,0,0,1727,0,0,0,0,0,0,0,0,0,0,
0,0,0,0,0,1727,0,0,0,0,0,0,0,0,0,0,
0,0,0,0,1727,0,0,0,0,0,0,0,0,0,0,0,
0,0,0,0,1727,0,0,0,0,0,0,0,0,0,0,0,
0,0,0,1727,0,0,0,0,0,0,0,0,0,0,0,0,
0,1727,1727,0,0,0,0,0,0,0,0,0,0,0,0,0,
1727,0,0,0,0,0,0,0,0,0,0,0,0,0,0,0,
0,0,0,0,0,0,0,0,0,0,0,0,0,0,0,0,
0,0,0,0,0,0,0,0,0,0,0,0,0,0,0,0,
0,0,0,0,0,0,0,0,0,0,0,0,0,0,0,0,
0,0,0,0,0,0,0,0,0,0,0,0,0,0,0,0,
0,0,0,0,0,0,0,0,0,0,0,0,0,0,0,0,
0,0,0,0,0,0,0,0,0,0,0,0,0,0,0,0
</chunk>
   <chunk x="-48" y="80" width="16" height="16">
0,0,0,0,0,0,0,0,1727,0,0,0,0,0,0,0,
0,0,0,0,0,0,0,0,0,1727,0,0,0,0,0,0,
0,0,0,0,0,0,0,0,0,0,1727,0,0,0,0,0,
0,0,0,0,0,0,0,0,0,0,0,1727,0,0,0,0,
0,0,0,0,0,0,0,0,0,0,0,0,1727,1727,0,0,
0,0,0,0,0,0,0,0,0,0,0,0,0,0,1727,1727,
0,0,0,0,0,0,0,0,0,0,0,0,0,0,0,0,
0,0,0,0,0,0,0,0,0,0,0,0,0,0,0,0,
0,0,0,0,0,0,0,0,0,0,0,0,0,0,0,0,
0,0,0,0,0,0,0,0,0,0,0,0,0,0,0,0,
0,0,0,0,0,0,0,0,0,0,0,0,0,0,0,0,
0,0,0,0,0,0,0,0,0,0,0,0,0,0,0,0,
0,0,0,0,0,0,0,0,0,0,0,0,0,0,0,0,
0,0,0,0,0,0,0,0,0,0,0,0,0,0,0,0,
0,0,0,0,0,0,0,0,0,0,0,0,0,0,0,0,
0,0,0,0,0,0,0,0,0,0,0,0,0,0,0,0
</chunk>
   <chunk x="-32" y="80" width="16" height="16">
0,0,0,0,0,0,0,0,0,0,0,0,0,0,0,0,
0,0,0,0,0,0,0,0,0,0,0,0,0,0,0,0,
0,0,0,0,0,0,0,0,0,0,0,0,0,0,0,0,
0,0,0,0,0,0,0,0,0,0,0,0,0,0,0,0,
0,0,0,0,0,0,0,0,0,0,0,0,0,0,0,0,
0,0,0,0,0,0,0,0,0,0,0,0,0,0,0,0,
1727,1727,1727,0,0,0,0,0,0,0,0,0,0,0,0,0,
0,0,0,1727,1727,1727,1727,1727,1727,1727,1727,1727,1727,1727,1727,1727,
0,0,0,0,0,0,0,0,0,0,0,0,0,0,0,0,
0,0,0,0,0,0,0,0,0,0,0,0,0,0,0,0,
0,0,0,0,0,0,0,0,0,0,0,0,0,0,0,0,
0,0,0,0,0,0,0,0,0,0,0,0,0,0,0,0,
0,0,0,0,0,0,0,0,0,0,0,0,0,0,0,0,
0,0,0,0,0,0,0,0,0,0,0,0,0,0,0,0,
0,0,0,0,0,0,0,0,0,0,0,0,0,0,0,0,
0,0,0,0,0,0,0,0,0,0,0,0,0,0,0,0
</chunk>
   <chunk x="-16" y="80" width="16" height="16">
0,0,0,0,0,0,0,0,0,0,0,0,0,0,0,0,
0,0,0,0,0,0,0,0,0,0,0,0,0,0,0,0,
0,0,0,0,0,0,0,0,0,0,0,0,0,0,0,0,
0,0,0,0,0,0,0,0,0,0,0,0,0,0,0,0,
0,0,0,0,0,0,0,0,0,0,0,0,0,0,0,1727,
0,0,0,0,0,0,0,0,0,0,0,1727,1727,1727,1727,0,
0,0,0,0,0,1727,1727,1727,1727,1727,1727,0,0,0,0,0,
1727,1727,1727,1727,1727,0,0,0,0,0,0,0,0,0,0,0,
0,0,0,0,0,0,0,0,0,0,0,0,0,0,0,0,
0,0,0,0,0,0,0,0,0,0,0,0,0,0,0,0,
0,0,0,0,0,0,0,0,0,0,0,0,0,0,0,0,
0,0,0,0,0,0,0,0,0,0,0,0,0,0,0,0,
0,0,0,0,0,0,0,0,0,0,0,0,0,0,0,0,
0,0,0,0,0,0,0,0,0,0,0,0,0,0,0,0,
0,0,0,0,0,0,0,0,0,0,0,0,0,0,0,0,
0,0,0,0,0,0,0,0,0,0,0,0,0,0,0,0
</chunk>
   <chunk x="0" y="80" width="16" height="16">
0,0,0,0,1727,1727,0,0,0,0,0,0,0,0,0,0,
0,0,0,1727,0,0,0,0,0,0,0,0,0,0,0,0,
0,0,1727,0,0,0,0,0,0,0,0,0,0,0,0,0,
0,1727,0,0,0,0,0,0,0,0,0,0,0,0,0,0,
1727,0,0,0,0,0,0,0,0,0,0,0,0,0,0,0,
0,0,0,0,0,0,0,0,0,0,0,0,0,0,0,0,
0,0,0,0,0,0,0,0,0,0,0,0,0,0,0,0,
0,0,0,0,0,0,0,0,0,0,0,0,0,0,0,0,
0,0,0,0,0,0,0,0,0,0,0,0,0,0,0,0,
0,0,0,0,0,0,0,0,0,0,0,0,0,0,0,0,
0,0,0,0,0,0,0,0,0,0,0,0,0,0,0,0,
0,0,0,0,0,0,0,0,0,0,0,0,0,0,0,0,
0,0,0,0,0,0,0,0,0,0,0,0,0,0,0,0,
0,0,0,0,0,0,0,0,0,0,0,0,0,0,0,0,
0,0,0,0,0,0,0,0,0,0,0,0,0,0,0,0,
0,0,0,0,0,0,0,0,0,0,0,0,0,0,0,0
</chunk>
  </data>
 </layer>
 <layer id="109" name="InvisibleWallsAntiground" width="32" height="32" opacity="0">
  <data encoding="csv">
   <chunk x="16" y="-80" width="16" height="16">
0,0,0,0,0,0,0,0,0,0,0,0,0,0,0,0,
0,0,0,0,0,0,0,0,0,0,0,0,0,0,0,0,
0,0,0,0,0,0,0,0,0,0,0,0,0,0,0,0,
0,0,0,0,0,0,0,0,0,0,0,0,0,0,0,0,
0,0,0,0,0,0,0,0,0,0,0,0,0,0,0,0,
0,0,0,0,0,0,0,0,0,0,0,0,0,0,0,0,
0,0,0,0,0,0,0,0,0,0,0,0,0,0,0,0,
0,0,0,0,0,0,0,0,0,0,0,0,0,0,0,0,
0,0,0,0,0,0,0,0,0,0,0,0,0,0,0,0,
0,0,0,0,0,0,0,0,0,0,0,0,0,0,0,0,
0,0,0,0,0,0,0,0,0,0,0,0,0,0,0,0,
0,0,0,0,0,0,0,0,0,0,0,0,0,0,0,0,
0,0,0,0,0,0,0,0,0,0,0,0,0,0,0,0,
0,0,0,0,0,0,0,0,0,0,0,0,0,0,0,0,
0,0,0,0,0,0,0,0,1728,1728,1728,1728,1728,1728,1728,1728,
0,0,0,0,0,0,0,0,1728,1728,1728,1728,1728,1728,1728,1728
</chunk>
   <chunk x="32" y="-80" width="16" height="16">
0,0,0,0,0,0,0,0,0,0,0,0,0,0,0,0,
0,0,0,0,0,0,0,0,0,0,0,0,0,0,0,0,
0,0,0,0,0,0,0,0,0,0,0,0,0,0,0,0,
0,0,0,0,0,0,0,0,0,0,0,0,0,0,0,0,
0,0,0,0,0,0,0,0,0,0,0,0,0,0,0,0,
0,0,0,0,0,0,0,0,0,0,0,0,0,0,0,0,
0,0,0,0,0,0,0,0,0,0,0,0,0,0,0,0,
0,0,0,0,0,0,0,0,0,0,0,0,0,0,0,0,
0,0,0,0,0,0,0,0,0,0,0,0,0,0,0,0,
0,0,0,0,0,0,0,0,0,0,0,0,0,0,0,0,
0,0,0,0,0,0,0,0,0,0,0,0,0,0,0,0,
0,0,0,0,0,0,0,0,0,0,0,0,0,0,0,0,
0,0,0,0,0,0,0,0,0,0,0,0,0,0,0,0,
0,0,0,0,0,0,0,0,0,0,0,0,0,0,0,0,
1728,1728,1728,1728,1728,1728,1728,0,0,0,0,0,0,0,0,0,
1728,1728,1728,1728,1728,1728,1728,0,0,0,0,0,0,0,0,0
</chunk>
   <chunk x="16" y="-64" width="16" height="16">
0,0,0,0,0,0,0,0,1728,1728,1728,1728,1728,1728,1728,1728,
0,0,0,0,0,0,0,0,1728,1728,1728,1728,1728,1728,1728,1728,
0,0,0,0,0,0,0,0,1728,0,0,0,0,0,0,0,
0,0,0,0,0,0,0,0,1728,0,0,0,0,0,0,0,
0,0,0,0,0,0,0,0,1728,0,0,0,0,0,0,0,
0,0,0,0,0,0,0,0,1728,0,0,0,0,0,0,0,
0,0,0,0,0,0,0,0,1728,0,0,0,1728,1728,1728,1728,
0,0,0,0,0,0,0,0,1728,1728,0,1728,1728,0,0,0,
0,0,0,0,0,0,0,0,0,1728,0,1728,0,0,0,0,
0,0,0,0,0,0,0,0,0,1728,0,1728,0,0,0,0,
0,0,0,0,0,0,0,0,0,0,1728,0,0,0,0,0,
0,0,0,0,0,0,0,0,0,0,0,0,0,0,0,0,
0,0,0,0,0,0,0,0,0,0,1728,0,0,0,0,0,
0,0,0,0,0,0,0,0,0,1728,0,1728,0,0,0,0,
0,0,0,0,0,0,0,0,0,1728,0,1728,0,0,0,0,
0,0,0,0,0,0,0,0,0,1728,0,1728,0,0,0,0
</chunk>
   <chunk x="32" y="-64" width="16" height="16">
1728,1728,1728,1728,1728,1728,1728,0,0,0,0,0,0,0,0,0,
1728,1728,1728,1728,1728,1728,1728,0,0,0,0,0,0,0,0,0,
0,0,0,0,0,0,1728,0,0,0,0,0,0,0,0,0,
0,0,0,0,0,0,1728,0,0,0,0,0,0,0,0,0,
0,0,0,0,0,0,1728,0,0,0,0,0,0,0,0,0,
0,0,0,0,0,0,1728,0,0,0,0,0,0,0,0,0,
1728,1728,1728,1728,1728,1728,1728,0,0,0,0,0,0,0,0,0,
0,0,0,0,0,0,0,0,0,0,0,0,0,0,0,0,
0,0,0,0,0,0,0,0,0,0,0,0,0,0,0,0,
0,0,0,0,0,0,0,0,0,0,0,0,0,0,0,0,
0,0,0,0,0,0,0,0,0,0,0,0,0,0,0,0,
0,0,0,0,0,0,0,0,0,0,0,0,0,0,0,0,
0,0,0,0,0,0,0,0,0,0,0,0,0,0,0,0,
0,0,0,0,0,0,0,0,0,0,0,0,0,0,0,0,
0,0,0,0,0,0,0,0,0,0,0,0,0,0,0,0,
0,0,0,0,0,0,0,0,0,0,0,0,0,0,0,0
</chunk>
   <chunk x="-48" y="-48" width="16" height="16">
0,0,0,0,0,0,0,0,0,0,0,0,0,0,0,0,
0,0,0,0,0,0,0,0,0,0,0,0,0,0,0,0,
0,0,0,0,0,0,0,0,0,0,0,0,0,0,0,0,
0,0,0,0,0,0,0,0,0,0,0,0,0,0,0,0,
0,0,0,0,0,0,0,0,0,0,0,0,0,0,0,0,
0,0,0,0,0,0,0,0,0,0,0,0,0,0,0,0,
0,0,0,0,0,0,0,0,0,0,0,0,0,0,0,0,
0,0,0,0,0,0,0,0,0,0,0,0,0,0,0,0,
0,0,0,0,0,0,0,0,0,0,0,0,0,0,0,0,
0,0,0,0,0,0,0,0,0,0,0,0,0,0,0,0,
0,0,0,0,0,0,0,0,0,0,0,0,0,0,0,0,
0,0,0,0,0,0,0,0,0,0,0,0,0,0,0,0,
0,0,0,0,0,0,0,0,0,0,0,0,0,0,0,0,
0,0,0,0,0,0,0,0,0,0,0,0,0,0,0,0,
0,0,0,0,0,0,0,0,0,0,0,0,0,0,0,1728,
0,0,0,0,0,0,0,0,0,0,0,0,1728,1728,1728,0
</chunk>
   <chunk x="-32" y="-48" width="16" height="16">
0,0,0,0,0,0,0,0,0,0,0,0,0,0,0,0,
0,0,0,0,0,0,0,0,0,0,0,0,0,0,0,0,
0,0,0,0,0,0,0,0,0,0,0,0,0,0,0,0,
0,0,0,0,0,0,0,0,0,0,0,0,0,0,0,0,
0,0,0,0,0,0,0,0,0,0,0,0,0,0,0,0,
0,0,0,0,0,0,0,0,0,0,0,0,0,0,0,0,
0,0,0,0,0,0,0,0,0,0,0,0,0,0,0,0,
0,0,0,0,0,0,0,0,0,0,0,0,0,0,0,0,
0,0,0,0,0,0,0,0,0,0,0,0,0,0,0,0,
0,0,0,0,0,0,0,0,0,0,0,0,0,0,0,0,
0,0,0,0,0,0,0,0,0,0,0,0,0,0,0,0,
0,0,0,0,0,0,0,0,0,0,0,0,0,0,0,0,
0,0,0,0,0,0,0,0,0,0,0,0,0,0,0,0,
0,0,0,0,0,0,0,0,0,0,0,0,0,0,0,0,
0,0,0,0,0,0,0,0,0,0,0,0,0,0,0,0,
1728,1728,1728,1728,1728,1728,1728,0,0,0,0,0,0,0,0,0
</chunk>
   <chunk x="16" y="-48" width="16" height="16">
0,0,0,0,0,0,0,0,0,1728,0,1728,0,0,0,0,
0,0,0,0,0,0,0,0,0,1728,0,1728,0,0,0,0,
0,0,0,0,0,0,0,0,0,1728,0,1728,0,0,0,0,
0,0,0,0,0,0,0,0,1728,0,1728,0,1728,0,0,0,
0,0,0,0,0,0,0,1728,0,1728,0,1728,0,1728,0,0,
0,0,0,0,0,0,0,0,1728,0,0,0,1728,0,0,0,
0,0,0,0,0,0,0,0,0,0,1728,0,0,0,0,0,
0,0,0,0,0,0,0,0,0,1728,0,1728,0,0,0,0,
0,0,0,0,0,0,0,0,0,1728,0,1728,0,0,0,0,
0,0,0,0,0,0,0,0,0,1728,0,1728,0,0,0,0,
0,0,0,0,0,0,0,0,0,1728,0,1728,0,0,0,0,
0,0,0,0,0,0,0,0,0,1728,0,1728,0,0,0,0,
0,0,0,0,0,0,0,0,0,1728,0,1728,0,0,0,0,
0,0,0,0,0,0,0,0,0,1728,0,1728,0,0,0,0,
0,0,0,0,0,0,0,0,0,1728,0,1728,0,0,0,0,
0,0,0,0,0,0,0,0,0,1728,0,1728,0,0,0,0
</chunk>
   <chunk x="-80" y="-32" width="16" height="16">
0,0,0,0,0,0,0,0,0,0,0,0,0,0,0,0,
0,0,0,0,0,0,0,0,0,0,0,0,0,0,0,0,
0,0,0,0,0,0,0,0,0,0,0,0,0,0,0,0,
0,0,0,0,0,0,1728,1728,1728,0,0,0,0,0,0,0,
0,0,0,0,0,0,1728,1728,1728,1728,0,0,0,0,0,0,
0,0,0,0,0,0,1728,1728,1728,1728,0,0,0,0,0,0,
0,0,0,0,0,1728,1728,1728,1728,1728,0,0,1728,1728,1728,1728,
0,0,0,0,1728,0,0,0,1728,1728,1728,1728,0,0,0,0,
0,0,0,0,1728,0,0,0,0,0,0,0,0,0,0,0,
0,0,0,0,0,1728,0,0,0,1728,1728,1728,0,0,0,0,
0,0,0,0,0,0,1728,1728,1728,0,0,0,1728,0,0,1728,
0,0,0,0,0,0,0,0,0,0,0,0,1728,0,0,1728,
0,0,0,0,1728,0,0,0,0,0,0,0,1728,0,0,1728,
0,0,0,1728,0,1728,0,0,0,0,0,0,1728,0,0,1728,
0,0,0,0,1728,0,0,0,0,0,1728,1728,1728,0,0,1728,
0,0,0,0,0,0,0,0,0,1728,0,0,1728,0,0,1728
</chunk>
   <chunk x="-64" y="-32" width="16" height="16">
0,0,0,0,0,0,0,0,0,0,0,0,0,0,0,1728,
0,0,0,0,0,0,0,0,0,0,0,0,0,0,1728,0,
0,0,0,0,0,0,0,0,0,0,0,0,0,1728,0,0,
0,0,0,0,0,0,0,0,0,0,0,0,0,0,1728,1728,
0,0,0,0,0,0,0,0,0,0,0,0,0,1728,0,0,
0,0,0,0,0,0,0,0,0,0,0,0,1728,0,0,0,
0,0,0,0,0,0,1728,1728,1728,1728,1728,0,1728,0,0,0,
1728,1728,1728,1728,1728,1728,0,0,0,0,0,1728,0,0,0,0,
0,0,0,0,0,0,0,0,0,0,0,0,0,0,0,1728,
1728,1728,1728,1728,1728,1728,0,0,0,0,0,1728,0,0,0,0,
0,0,0,0,0,0,1728,1728,1728,1728,1728,0,1728,0,0,0,
0,0,0,1728,1728,0,0,0,0,0,0,0,1728,0,0,0,
1728,0,1728,0,0,1728,0,0,0,0,0,0,0,1728,0,0,
0,1728,1728,0,0,0,1728,0,0,0,0,0,0,0,1728,1728,
1728,0,0,1728,0,0,1728,0,0,0,0,0,0,1728,0,0,
0,1728,1728,1728,1728,0,0,1728,1728,0,0,0,0,0,1728,0
</chunk>
   <chunk x="-48" y="-32" width="16" height="16">
1728,1728,0,1728,1728,1728,0,0,0,0,0,1728,0,0,0,0,
0,0,1728,0,0,0,1728,0,0,0,0,1728,0,1728,1728,1728,
0,0,0,0,0,0,0,1728,0,0,0,1728,0,1728,1728,0,
1728,1728,0,1728,1728,1728,1728,0,0,0,0,1728,0,1728,0,1728,
0,0,0,0,0,0,0,1728,0,0,0,1728,0,1728,1728,1728,
0,0,0,0,0,0,0,1728,0,1728,1728,1728,0,1728,0,0,
0,0,0,0,0,0,0,0,1728,0,0,0,0,1728,0,0,
0,0,0,0,0,0,0,0,0,0,1728,1728,1728,0,0,0,
1728,1728,1728,1728,1728,1728,1728,0,0,0,1728,0,0,0,0,0,
0,0,0,0,0,0,0,0,0,0,1728,1728,1728,0,0,1728,
0,0,0,0,0,0,0,0,1728,0,0,0,0,1728,1728,0,
0,0,0,0,0,0,0,1728,0,1728,1728,1728,0,1728,1728,0,
0,0,0,0,0,0,0,1728,0,0,0,1728,0,1728,1728,0,
1728,1728,1728,1728,1728,1728,1728,0,0,0,0,1728,0,0,0,0,
0,0,0,0,0,0,0,1728,0,0,0,0,1728,1728,1728,0,
0,0,0,0,0,0,1728,0,0,0,0,0,0,0,1728,0
</chunk>
   <chunk x="-32" y="-32" width="16" height="16">
0,0,0,0,0,0,0,1728,0,0,0,0,0,1728,1728,1728,
1728,0,1728,0,1728,1728,0,1728,0,0,0,0,1728,0,0,0,
1728,0,1728,1728,1728,1728,0,1728,0,0,0,1728,0,0,1728,0,
0,0,0,1728,0,1728,0,1728,0,0,0,0,1728,0,0,0,
0,0,0,1728,1728,1728,0,1728,0,0,0,0,1728,1728,0,1728,
1728,1728,1728,0,0,1728,0,1728,1728,1728,0,1728,0,0,0,0,
0,0,0,0,0,1728,0,0,0,0,1728,0,0,1728,1728,1728,
0,0,0,0,0,0,1728,1728,1728,0,0,0,0,1728,0,1728,
0,1728,0,0,0,0,0,0,1728,0,0,0,1728,0,0,0,
1728,0,1728,1728,0,0,1728,1728,1728,0,0,0,0,1728,1728,1728,
1728,0,1728,0,1728,1728,0,0,0,0,1728,0,0,0,0,0,
1728,0,1728,0,1728,1728,0,1728,1728,1728,0,1728,0,0,0,0,
0,0,1728,0,1728,1728,0,1728,0,0,0,0,1728,0,0,0,
0,0,0,0,0,0,0,1728,0,0,0,0,0,1728,1728,1728,
1728,0,0,0,1728,1728,1728,0,0,0,0,0,0,0,0,0,
1728,0,1728,0,1728,0,0,0,0,0,0,0,0,0,0,0
</chunk>
   <chunk x="-16" y="-32" width="16" height="16">
0,0,0,0,0,0,0,0,0,0,0,1728,1728,1728,1728,1728,
1728,0,0,0,0,0,0,0,0,0,0,1728,1728,0,1728,1728,
0,1728,0,0,0,0,0,0,0,0,0,1728,1728,0,1728,1728,
1728,0,0,0,0,0,0,0,0,0,0,1728,1728,1728,1728,1728,
1728,1728,1728,1728,1728,1728,1728,0,0,0,1728,0,0,0,0,0,
0,0,0,0,0,0,0,1728,0,0,0,1728,1728,1728,1728,1728,
1728,1728,0,0,1728,1728,0,1728,1728,1728,1728,0,0,1728,0,0,
0,0,0,0,1728,1728,0,0,0,0,0,1728,1728,0,1728,1728,
1728,1728,1728,1728,0,1728,0,0,0,0,0,0,0,0,0,0,
0,1728,1728,1728,1728,1728,0,0,0,0,0,1728,0,0,0,1728,
0,0,0,0,0,1728,0,1728,1728,1728,1728,0,1728,1728,1728,0,
0,0,0,0,0,0,0,1728,0,0,0,0,0,0,0,0,
0,0,0,0,0,1728,1728,0,0,0,0,0,0,0,0,0,
1728,1728,1728,1728,0,1728,0,0,0,0,0,0,0,0,0,0,
0,0,0,0,1728,0,0,0,0,0,0,0,0,0,0,0,
0,0,0,0,0,0,0,0,0,0,0,0,0,0,0,0
</chunk>
   <chunk x="0" y="-32" width="16" height="16">
0,0,0,0,0,0,0,0,0,0,0,0,0,0,0,0,
0,0,0,0,0,0,0,0,0,0,0,0,0,0,0,0,
0,0,0,0,0,0,0,0,0,0,0,0,0,0,0,0,
0,0,0,0,0,0,0,0,0,0,0,0,0,0,0,0,
1728,0,0,0,0,0,0,0,0,0,0,0,0,0,0,0,
0,0,0,0,0,1728,0,0,0,0,0,1728,0,0,0,0,
0,0,0,0,1728,0,1728,0,0,0,1728,0,1728,0,0,0,
1728,1728,1728,1728,1728,0,1728,1728,1728,1728,1728,0,1728,1728,1728,1728,
0,0,0,0,0,0,0,0,0,0,0,0,0,0,0,0,
1728,1728,1728,1728,1728,1728,1728,1728,0,1728,1728,1728,1728,1728,1728,1728,
0,0,0,0,0,0,0,1728,0,1728,0,0,0,0,0,0,
0,0,0,0,0,0,0,0,1728,0,0,0,0,0,0,0,
0,0,0,0,0,0,0,0,0,0,0,0,0,0,0,0,
0,0,0,0,0,0,0,0,0,0,0,0,0,0,0,0,
0,0,0,0,0,0,0,0,0,0,0,0,0,0,0,0,
0,0,0,0,0,0,0,0,0,0,0,0,0,0,0,0
</chunk>
   <chunk x="16" y="-32" width="16" height="16">
0,0,0,0,0,0,0,0,0,1728,0,1728,0,0,0,0,
0,0,0,0,0,0,0,0,1728,0,0,1728,0,0,0,0,
0,0,0,0,0,0,0,0,1728,0,1728,0,0,0,0,0,
0,0,0,0,0,0,0,0,1728,0,0,1728,0,0,0,0,
0,0,0,0,0,0,0,0,0,1728,0,1728,0,0,0,0,
0,0,0,0,0,0,0,0,1728,0,0,1728,0,0,0,0,
0,0,0,0,0,0,0,0,1728,0,1728,0,0,0,0,0,
1728,1728,1728,1728,1728,0,0,0,1728,0,1728,0,0,0,0,0,
0,0,0,0,0,1728,0,0,1728,0,1728,0,0,0,0,0,
1728,1728,1728,1728,0,1728,1728,1728,1728,0,1728,0,0,0,0,0,
0,0,0,1728,0,0,0,0,0,0,1728,0,0,0,0,0,
0,0,0,0,1728,1728,1728,1728,1728,1728,0,0,0,0,0,0,
0,0,0,0,0,0,0,0,0,0,0,0,0,0,0,0,
0,0,0,0,0,0,0,0,0,0,0,0,0,0,0,0,
0,0,0,0,0,0,0,0,0,0,0,0,0,0,0,0,
0,0,0,0,0,0,0,0,0,0,0,0,0,0,0,0
</chunk>
   <chunk x="-80" y="-16" width="16" height="16">
0,0,0,0,0,0,0,0,0,0,1728,1728,1728,0,0,1728,
0,0,0,0,0,0,0,0,0,0,0,0,1728,0,0,0,
0,0,0,0,0,0,0,0,0,0,0,0,1728,0,0,0,
0,0,0,0,0,0,0,0,0,0,0,0,0,1728,1728,1728,
0,0,0,0,0,0,0,0,0,0,0,0,0,0,0,0,
0,0,0,0,0,0,0,0,0,0,0,0,0,0,0,0,
0,0,0,0,0,0,0,0,0,0,0,0,0,0,0,0,
0,0,0,0,0,0,0,0,0,0,0,0,0,0,0,1728,
0,0,0,0,0,0,0,0,0,0,0,0,0,0,0,0,
0,0,0,0,0,0,0,0,0,0,0,0,0,0,0,0,
0,0,0,0,0,0,0,0,0,0,0,0,0,0,0,0,
0,0,0,0,0,0,0,0,0,0,0,0,0,0,0,0,
0,0,0,0,0,0,0,0,0,0,0,0,0,0,0,0,
0,0,0,0,0,0,0,0,0,0,0,0,0,0,0,0,
0,0,0,0,0,0,0,0,0,0,0,0,0,0,0,0,
0,0,0,0,0,0,0,0,0,0,0,0,0,0,0,0
</chunk>
   <chunk x="-64" y="-16" width="16" height="16">
1728,0,0,0,0,0,0,0,0,1728,1728,1728,1728,1728,0,1728,
0,0,0,0,0,0,0,0,0,0,0,0,0,0,1728,0,
0,0,0,0,0,0,0,0,0,0,0,0,0,0,1728,0,
1728,0,0,0,0,0,0,0,0,1728,1728,1728,0,0,1728,1728,
0,1728,1728,1728,1728,1728,1728,1728,1728,1728,0,1728,0,0,1728,0,
0,1728,1728,0,0,0,0,0,0,0,1728,1728,0,0,1728,1728,
1728,0,0,1728,0,0,0,0,0,0,1728,1728,0,0,1728,1728,
0,0,0,0,1728,0,0,0,0,1728,0,0,0,0,0,0,
1728,0,0,0,1728,0,0,0,1728,0,0,0,1728,1728,0,0,
0,1728,1728,1728,0,0,0,0,1728,0,0,1728,0,0,1728,0,
0,0,0,0,0,0,0,0,1728,0,1728,0,0,0,0,1728,
0,0,0,0,0,0,0,0,1728,0,1728,0,0,0,0,1728,
0,0,0,0,0,0,1728,1728,1728,0,0,1728,0,0,1728,0,
0,0,0,0,0,1728,0,0,1728,0,0,0,1728,1728,0,0,
0,0,0,0,0,0,1728,1728,0,1728,0,0,0,0,0,0,
0,0,0,0,0,1728,1728,0,0,0,1728,1728,0,0,1728,1728
</chunk>
   <chunk x="-48" y="-16" width="16" height="16">
1728,1728,1728,1728,1728,1728,0,0,0,0,0,0,0,0,1728,0,
0,0,0,0,0,0,0,0,0,0,0,0,0,0,0,1728,
0,0,0,0,0,0,0,0,0,0,0,0,0,0,0,0,
0,0,0,0,0,0,0,0,0,0,0,0,0,0,0,0,
1728,0,0,0,0,0,0,0,0,0,0,0,0,0,0,0,
0,0,1728,1728,0,0,0,0,0,0,0,0,0,0,0,0,
0,1728,0,0,1728,0,0,0,0,0,0,0,0,0,0,0,
1728,0,1728,0,1728,0,0,0,0,0,0,0,0,0,0,0,
0,1728,0,1728,0,0,0,0,0,0,0,0,0,0,0,0,
0,1728,0,0,0,0,0,0,0,0,0,0,0,0,0,0,
0,1728,0,0,0,0,0,0,0,0,0,0,0,0,0,0,
0,1728,0,0,0,0,0,0,0,0,0,0,0,0,0,0,
0,1728,1728,1728,0,0,0,0,0,0,0,0,0,0,0,0,
0,1728,0,0,1728,0,0,0,0,0,0,0,0,0,0,0,
1728,0,1728,1728,0,0,0,0,0,0,0,0,0,0,0,0,
0,0,0,0,0,0,0,0,0,0,0,0,0,0,0,0
</chunk>
   <chunk x="-32" y="-16" width="16" height="16">
1728,0,1728,1728,0,0,0,0,0,0,0,0,0,0,0,0,
0,1728,0,0,0,0,0,0,0,0,0,0,0,0,0,0,
0,0,0,0,0,0,0,0,0,0,0,0,0,0,0,0,
0,0,0,0,0,0,0,0,0,0,0,0,0,0,0,0,
0,0,0,0,0,0,0,0,0,0,0,0,0,0,0,0,
0,0,0,0,0,0,0,0,0,0,0,0,0,0,0,0,
0,0,0,0,0,0,0,0,0,0,0,0,0,0,0,0,
0,0,0,0,0,0,0,0,0,0,0,0,0,0,0,0,
0,0,0,0,0,0,0,0,0,0,0,0,0,0,0,0,
0,0,0,0,0,0,0,0,0,0,0,0,0,0,0,0,
0,0,0,0,0,0,0,0,0,0,0,0,0,1728,1728,1728,
0,0,0,0,0,0,0,0,0,0,0,0,0,1728,1728,1728,
0,0,0,0,0,0,0,0,0,0,0,0,0,1728,1728,1728,
0,0,0,0,0,0,0,0,0,0,0,0,0,1728,1728,1728,
0,0,0,0,0,0,0,0,0,0,0,0,0,1728,0,0,
0,0,0,0,0,1728,1728,1728,1728,1728,1728,1728,1728,1728,0,0
</chunk>
   <chunk x="-16" y="-16" width="16" height="16">
0,0,0,0,0,0,0,0,0,0,0,0,0,0,0,0,
0,0,0,0,0,0,0,0,0,0,0,0,0,0,0,0,
0,0,0,0,0,0,0,0,0,0,0,0,0,0,0,0,
0,0,0,0,0,0,0,0,0,0,0,0,0,0,0,0,
0,0,0,0,0,0,0,0,0,0,0,0,0,0,0,0,
0,0,0,0,0,0,0,0,0,0,0,0,0,0,0,0,
0,0,0,0,0,0,0,0,0,0,0,0,0,0,0,0,
0,0,0,0,0,0,0,0,0,0,0,0,0,0,0,0,
0,0,0,0,0,0,0,0,0,0,0,0,0,0,0,0,
0,0,0,0,0,0,0,0,0,0,0,0,0,0,0,0,
1728,1728,1728,1728,1728,1728,1728,1728,1728,1728,1728,1728,1728,1728,1728,0,
1728,1728,1728,1728,1728,1728,1728,1728,1728,1728,1728,1728,1728,1728,1728,0,
1728,1728,1728,1728,1728,1728,1728,1728,1728,1728,1728,1728,1728,1728,1728,0,
1728,1728,1728,1728,1728,1728,1728,1728,1728,1728,1728,1728,1728,1728,1728,0,
0,0,1728,1728,0,0,0,0,1728,1728,0,0,0,0,1728,0,
0,0,1728,1728,0,0,0,0,1728,1728,0,0,0,0,1728,0
</chunk>
   <chunk x="-96" y="0" width="16" height="16">
0,0,0,0,0,0,0,0,0,0,0,0,0,0,0,0,
0,0,0,0,0,0,0,0,0,0,0,0,0,0,0,0,
0,0,0,0,0,0,0,0,0,0,0,0,0,0,0,0,
0,0,0,0,0,0,0,0,0,0,0,0,0,0,0,0,
0,0,0,0,0,0,0,0,0,0,0,0,0,0,0,0,
0,0,0,0,0,0,0,0,0,0,0,0,0,0,0,0,
0,0,0,0,0,0,0,0,0,0,0,0,0,0,0,0,
0,0,0,0,0,0,0,0,0,0,0,0,0,0,0,0,
0,0,0,0,0,0,0,0,0,0,0,0,0,0,0,0,
0,0,0,0,0,0,0,0,0,0,0,0,0,0,0,0,
0,0,0,0,0,0,0,0,0,0,0,0,0,0,0,0,
0,0,0,0,0,0,0,0,0,0,0,0,0,0,0,0,
0,0,0,0,0,0,0,0,0,0,1728,0,0,0,1728,0,
0,0,0,0,0,0,0,0,0,1728,0,1728,1728,1728,0,1728,
0,0,0,0,0,0,0,1728,1728,1728,0,1728,0,1728,0,1728,
0,0,0,0,0,0,1728,0,0,0,0,0,0,0,0,0
</chunk>
   <chunk x="-80" y="0" width="16" height="16">
0,0,0,0,0,0,0,0,0,0,0,0,0,0,0,0,
0,0,0,0,0,0,0,0,0,0,0,0,0,0,0,0,
0,0,0,0,0,0,0,0,0,0,0,0,0,0,0,0,
0,0,0,0,0,0,0,0,0,0,0,0,0,0,0,0,
0,0,0,0,0,0,0,0,0,0,0,0,0,0,0,1728,
0,0,0,0,0,0,0,0,0,0,0,0,0,0,1728,0,
0,0,0,0,0,0,0,0,0,0,0,0,0,0,1728,0,
0,0,0,0,0,0,0,0,0,0,0,0,0,0,0,1728,
0,0,0,0,0,0,0,0,0,0,0,0,0,0,0,0,
0,0,0,0,0,0,0,0,0,0,0,0,0,0,0,0,
0,0,0,0,0,0,0,0,0,0,0,0,0,0,0,0,
0,0,0,0,0,0,0,0,0,0,0,0,0,0,0,0,
0,0,0,0,0,0,0,0,0,0,0,0,0,0,0,0,
0,0,0,0,0,0,0,0,0,0,0,0,0,0,0,0,
0,0,0,0,0,0,0,0,0,0,0,0,0,0,0,0,
1728,0,0,0,0,0,0,0,1728,1728,1728,1728,1728,1728,1728,1728
</chunk>
   <chunk x="-64" y="0" width="16" height="16">
0,0,0,0,1728,0,0,1728,0,1728,0,1728,0,0,1728,0,
0,0,0,1728,0,0,0,1728,0,0,1728,1728,0,0,1728,1728,
0,0,0,0,1728,1728,1728,1728,1728,1728,1728,1728,0,0,1728,0,
0,0,0,0,0,0,1728,0,0,0,0,0,0,0,1728,0,
1728,1728,1728,0,0,0,1728,0,1728,1728,1728,1728,1728,1728,0,0,
0,0,0,1728,0,0,1728,0,1728,0,0,0,0,0,0,0,
0,1728,1728,0,0,0,1728,0,1728,0,0,0,0,0,0,0,
1728,0,0,0,0,0,1728,0,1728,1728,1728,1728,0,0,0,0,
0,0,0,0,0,0,1728,0,0,0,0,0,1728,0,0,0,
0,0,0,0,0,0,0,1728,1728,1728,0,0,1728,0,0,0,
0,0,0,0,0,0,0,0,0,1728,0,0,1728,1728,1728,1728,
0,0,0,0,0,0,0,0,0,1728,0,0,1728,0,0,0,
0,0,0,0,0,0,0,0,0,1728,0,0,1728,0,0,0,
0,0,0,0,0,0,0,0,0,1728,0,0,1728,1728,0,0,
0,0,0,0,0,0,0,0,0,1728,0,0,1728,0,1728,1728,
1728,1728,1728,1728,1728,1728,1728,1728,1728,1728,0,0,1728,1728,0,0
</chunk>
   <chunk x="-48" y="0" width="16" height="16">
1728,0,0,0,0,0,0,0,0,0,0,0,0,0,0,0,
0,0,0,0,0,0,0,0,0,0,0,0,0,0,0,0,
0,0,0,0,0,0,0,0,0,0,0,0,0,0,0,0,
0,0,0,0,0,0,0,0,0,0,0,0,0,0,0,1728,
0,0,0,0,0,0,0,0,0,0,0,0,0,0,0,1728,
0,0,0,0,0,0,0,0,0,0,0,0,0,0,0,1728,
0,0,0,0,0,0,0,0,0,0,0,0,0,0,0,1728,
0,0,0,0,0,0,0,0,0,0,0,0,0,0,0,1728,
0,0,0,0,0,0,0,0,0,0,0,0,0,0,0,1728,
0,0,0,0,0,0,0,0,0,0,0,0,0,0,0,0,
1728,0,0,0,0,0,0,0,0,0,0,0,0,0,0,0,
0,1728,0,0,0,0,0,0,0,0,0,0,0,0,0,0,
0,0,1728,0,0,0,0,0,0,0,0,0,0,0,0,0,
1728,1728,0,0,0,0,0,0,0,0,0,0,0,0,0,0,
0,0,0,0,0,0,0,0,0,0,0,0,0,0,0,0,
0,0,0,0,0,0,0,0,0,0,0,0,0,0,0,0
</chunk>
   <chunk x="-32" y="0" width="16" height="16">
0,0,0,0,0,1728,1728,1728,1728,1728,1728,1728,1728,1728,0,0,
0,1728,1728,0,0,1728,1728,1728,1728,1728,1728,1728,1728,1728,0,0,
1728,0,0,1728,0,1728,1728,1728,1728,1728,1728,1728,1728,1728,1728,0,
1728,0,0,1728,1728,1728,0,0,0,0,0,0,1728,1728,1728,0,
1728,0,0,1728,1728,1728,0,0,0,0,0,0,1728,1728,1728,0,
1728,0,0,1728,1728,1728,0,0,0,0,0,0,1728,1728,1728,0,
1728,0,0,1728,1728,1728,0,0,0,0,0,0,1728,1728,1728,0,
0,0,0,0,0,0,0,0,0,0,0,0,0,0,0,0,
1728,1728,1728,1728,1728,1728,1728,1728,0,0,1728,1728,1728,0,0,0,
0,0,0,0,0,0,0,1728,0,0,1728,0,1728,1728,1728,0,
0,0,0,0,0,0,0,1728,0,0,1728,0,0,1728,1728,0,
0,0,0,0,0,0,0,1728,0,0,1728,0,0,1728,1728,0,
0,0,0,0,0,0,0,1728,0,0,1728,0,0,1728,1728,0,
0,0,0,0,0,0,0,1728,0,0,1728,0,0,1728,1728,0,
0,0,0,0,0,0,0,1728,0,0,1728,0,0,1728,0,0,
0,0,0,0,0,0,0,1728,0,0,1728,0,0,1728,0,0
</chunk>
   <chunk x="-16" y="0" width="16" height="16">
0,0,1728,1728,0,0,0,0,1728,1728,0,0,0,0,1728,0,
0,0,1728,1728,0,0,0,0,1728,1728,0,0,0,0,1728,0,
0,1728,1728,1728,1728,0,0,1728,1728,1728,1728,0,0,1728,1728,0,
0,1728,1728,1728,1728,0,0,1728,1728,1728,1728,0,0,1728,1728,0,
0,1728,1728,1728,1728,0,0,1728,1728,1728,1728,0,0,1728,1728,0,
0,1728,1728,1728,1728,0,0,1728,1728,1728,1728,0,0,1728,1728,0,
0,1728,1728,1728,1728,0,0,1728,1728,1728,1728,0,0,1728,1728,0,
0,0,0,0,0,0,0,0,0,0,0,0,0,0,1728,0,
0,0,0,0,0,0,0,0,0,0,0,0,0,0,1728,0,
0,1728,1728,1728,1728,0,0,1728,1728,1728,1728,0,0,1728,1728,0,
0,1728,1728,1728,1728,0,0,1728,1728,1728,1728,0,0,1728,1728,0,
0,1728,1728,1728,1728,0,0,1728,1728,1728,1728,0,0,1728,1728,0,
0,1728,1728,1728,1728,0,0,1728,1728,1728,1728,0,0,1728,1728,0,
0,1728,1728,1728,1728,0,0,1728,1728,1728,1728,0,0,1728,1728,0,
0,0,1728,1728,0,0,0,0,1728,1728,0,0,0,0,1728,0,
0,0,1728,1728,0,0,0,0,1728,1728,0,0,0,0,1728,0
</chunk>
   <chunk x="-96" y="16" width="16" height="16">
0,0,0,0,0,0,0,1728,1728,0,0,0,0,0,0,0,
0,0,0,0,0,0,0,1728,0,0,0,0,0,0,0,0,
0,0,0,0,0,0,0,0,1728,0,0,0,0,0,0,0,
0,0,0,0,0,0,0,1728,0,0,0,0,0,0,0,0,
0,0,0,0,0,0,0,0,1728,0,0,0,0,0,0,0,
0,0,0,0,0,0,0,1728,0,0,0,0,0,0,0,0,
0,0,0,0,0,0,0,0,1728,0,1728,1728,1728,1728,1728,1728,
0,0,0,0,1728,1728,1728,1728,1728,0,1728,1728,0,1728,0,0,
0,0,0,1728,0,0,0,0,0,0,1728,0,1728,0,1728,1728,
0,0,1728,0,0,0,0,0,0,0,1728,0,0,1728,1728,1728,
0,0,1728,0,0,0,0,0,0,1728,1728,1728,1728,1728,1728,1728,
0,0,1728,0,0,0,0,0,0,1728,1728,1728,1728,1728,1728,1728,
0,0,0,1728,0,0,0,0,0,1728,1728,1728,1728,1728,1728,0,
0,0,0,1728,0,0,0,0,0,1728,1728,1728,1728,1728,0,0,
0,0,0,0,1728,0,0,0,0,0,0,0,0,0,0,0,
0,0,0,1728,0,0,0,0,0,1728,1728,1728,1728,1728,0,0
</chunk>
   <chunk x="-80" y="16" width="16" height="16">
1728,0,0,1728,1728,1728,1728,1728,1728,1728,1728,1728,1728,1728,1728,1728,
1728,0,0,1728,1728,1728,1728,1728,1728,1728,1728,1728,1728,1728,1728,1728,
1728,0,0,1728,1728,1728,1728,1728,1728,1728,1728,1728,1728,1728,1728,1728,
1728,1728,1728,1728,1728,1728,1728,1728,1728,0,0,0,0,0,0,0,
0,0,0,0,0,0,0,0,0,0,0,0,0,0,0,0,
1728,1728,1728,1728,1728,1728,1728,1728,1728,0,0,0,0,0,0,0,
0,0,0,0,0,0,0,0,1728,1728,1728,1728,1728,1728,1728,1728,
0,0,0,0,0,0,0,0,0,0,0,0,0,0,0,0,
1728,1728,0,0,0,0,0,0,0,0,0,0,0,0,0,0,
1728,1728,1728,0,0,0,0,0,0,0,0,0,0,0,0,0,
1728,1728,1728,0,0,0,0,0,0,0,0,0,0,0,0,0,
1728,1728,1728,0,0,0,0,0,0,0,0,0,0,0,0,0,
0,1728,1728,0,0,0,0,0,0,0,0,0,0,0,0,0,
0,0,1728,0,0,0,0,0,0,0,0,0,0,0,0,0,
0,0,1728,0,0,0,0,0,0,0,0,0,0,0,0,0,
0,0,1728,0,0,0,0,0,0,0,0,0,0,0,0,0
</chunk>
   <chunk x="-64" y="16" width="16" height="16">
1728,1728,1728,1728,1728,1728,1728,1728,1728,1728,0,0,1728,1728,0,0,
1728,1728,1728,1728,1728,1728,1728,1728,1728,1728,0,0,1728,1728,0,0,
1728,1728,1728,1728,1728,1728,1728,1728,1728,1728,0,0,1728,1728,0,0,
0,0,0,0,0,0,0,0,0,0,0,0,0,1728,0,0,
0,0,0,0,0,0,0,0,0,0,0,0,0,1728,0,0,
0,0,0,0,0,0,0,0,0,0,0,0,0,1728,0,0,
1728,1728,1728,1728,1728,1728,1728,1728,1728,1728,1728,1728,1728,1728,0,0,
0,0,0,0,0,0,0,0,0,0,0,0,0,0,0,0,
0,0,0,0,0,0,0,0,0,0,0,0,0,0,0,0,
0,0,0,0,0,0,0,0,0,0,0,0,0,0,0,0,
0,0,0,0,0,0,0,0,0,0,0,0,0,0,0,0,
0,0,0,0,0,0,0,0,0,0,0,0,0,0,0,0,
0,0,0,0,0,0,0,0,0,0,0,0,0,0,0,0,
0,0,0,0,0,0,0,0,0,0,0,0,0,0,0,0,
0,0,0,0,0,0,0,0,0,0,0,0,0,0,0,0,
0,0,0,0,0,0,0,0,0,0,0,0,0,0,0,0
</chunk>
   <chunk x="-32" y="16" width="16" height="16">
0,0,0,0,0,0,0,1728,0,0,1728,0,0,1728,0,0,
0,0,0,0,0,0,0,1728,0,0,1728,0,0,1728,0,0,
0,0,0,0,0,0,1728,1728,0,0,1728,1728,0,1728,1728,1728,
0,0,0,0,0,1728,1728,1728,0,0,1728,1728,1728,0,0,0,
0,0,0,0,0,1728,1728,1728,0,0,1728,1728,1728,0,0,0,
0,0,0,0,0,1728,1728,1728,0,0,1728,1728,1728,0,0,0,
0,0,0,0,0,1728,1728,0,0,0,0,1728,1728,0,0,0,
0,0,0,0,0,1728,0,0,0,0,0,0,1728,0,0,0,
0,0,0,0,0,1728,0,0,0,0,0,0,1728,0,0,0,
0,0,0,0,0,1728,0,0,0,0,0,0,1728,0,0,0,
0,0,0,0,0,1728,0,0,0,0,0,0,1728,0,0,0,
0,0,0,0,0,1728,0,0,0,0,0,0,1728,0,0,0,
0,0,0,0,0,1728,1728,0,0,0,0,1728,1728,0,0,0,
0,0,0,0,0,0,1728,1728,0,0,1728,1728,0,0,0,0,
0,0,0,0,0,0,1728,1728,0,0,1728,1728,0,0,0,0,
0,0,0,0,1728,1728,1728,1728,0,0,1728,1728,0,0,0,0
</chunk>
   <chunk x="-16" y="16" width="16" height="16">
0,0,1728,1728,0,0,0,0,1728,1728,0,0,0,0,1728,0,
0,0,1728,1728,0,0,0,0,1728,1728,0,0,0,0,1728,0,
1728,1728,1728,1728,1728,1728,1728,1728,1728,1728,1728,1728,1728,1728,1728,0,
0,0,0,0,0,0,0,0,0,0,0,0,0,0,0,0,
0,0,0,0,0,0,0,0,0,0,0,0,0,0,0,0,
0,0,0,0,0,0,0,0,0,0,0,0,0,0,0,0,
0,0,0,0,0,0,0,0,0,0,0,0,0,0,0,0,
0,0,0,0,0,0,0,0,0,0,0,0,0,0,0,0,
0,0,0,0,0,0,0,0,0,0,0,0,0,0,0,0,
0,0,0,0,0,0,0,0,0,0,0,0,0,0,0,0,
0,0,0,0,0,0,0,0,0,0,0,0,0,0,0,0,
0,0,0,0,0,0,0,0,0,0,0,0,0,0,0,0,
0,0,0,0,0,0,0,0,0,0,0,0,0,0,0,0,
0,0,0,0,0,0,0,0,0,0,0,0,0,0,0,0,
0,0,0,0,0,0,0,0,0,0,0,0,0,0,0,0,
0,0,0,0,0,0,0,0,0,0,0,0,0,0,0,0
</chunk>
   <chunk x="0" y="16" width="16" height="16">
0,0,0,0,0,0,0,0,0,0,0,0,0,0,0,0,
0,0,0,0,0,0,0,0,0,0,0,0,0,0,0,0,
0,0,0,0,0,0,0,0,0,0,0,0,0,0,0,0,
0,0,0,0,0,0,0,0,0,0,0,0,0,0,0,0,
0,0,0,0,0,0,0,0,0,0,0,0,0,0,0,0,
0,0,0,0,0,0,0,0,0,0,0,0,0,0,0,0,
0,0,0,0,0,0,0,0,0,0,0,0,0,0,0,0,
0,0,0,0,0,0,0,0,0,0,0,0,0,0,0,0,
0,0,0,0,0,0,0,0,0,0,0,0,0,0,0,0,
0,0,0,0,0,0,0,0,0,0,0,0,0,0,0,0,
0,0,0,0,0,0,0,0,0,0,0,0,0,0,0,0,
0,0,0,0,0,0,0,0,0,0,0,0,0,0,0,0,
0,0,0,0,0,0,0,0,0,0,0,0,1728,1728,1728,0,
0,0,0,0,0,0,0,0,0,0,0,0,1728,1728,1728,0,
0,0,0,0,0,0,0,0,0,0,0,0,1728,1728,1728,0,
0,0,0,0,0,0,0,0,0,0,0,0,1728,1728,1728,0
</chunk>
   <chunk x="-112" y="32" width="16" height="16">
0,0,0,0,0,0,0,0,0,0,0,0,0,1728,1728,1728,
0,0,0,0,0,0,0,0,0,0,0,1728,1728,1728,1728,1728,
0,0,0,0,0,0,0,0,0,0,1728,1728,1728,1728,1728,1728,
0,0,0,0,0,0,0,0,0,0,1728,1728,1728,1728,1728,1728,
0,0,0,0,0,0,0,0,0,0,1728,1728,1728,1728,0,1728,
0,0,0,0,0,0,0,0,0,0,1728,1728,0,0,0,0,
0,0,0,0,0,0,0,0,0,0,1728,0,0,0,0,0,
0,0,0,0,0,0,0,0,0,0,1728,1728,0,1728,1728,1728,
0,0,0,0,0,0,0,0,0,0,0,1728,0,1728,0,0,
0,0,0,0,0,0,0,0,0,0,0,1728,0,1728,1728,1728,
0,0,0,0,0,0,0,0,0,0,0,1728,0,1728,1728,1728,
0,0,0,0,0,0,0,0,0,0,0,1728,0,1728,1728,1728,
0,0,0,0,0,0,0,0,0,0,0,1728,0,0,0,0,
0,0,0,0,0,0,0,0,0,0,0,1728,0,0,0,0,
0,0,0,0,0,0,0,0,0,0,0,1728,0,1728,1728,1728,
0,0,0,0,0,0,0,0,0,0,0,1728,0,0,0,0
</chunk>
   <chunk x="-96" y="32" width="16" height="16">
1728,1728,1728,0,1728,0,0,0,0,1728,0,0,0,1728,1728,1728,
1728,1728,1728,1728,1728,0,0,0,0,0,1728,0,0,0,0,0,
1728,1728,1728,1728,1728,0,1728,1728,1728,1728,0,0,0,0,0,0,
1728,1728,1728,1728,1728,0,1728,0,0,0,0,0,0,0,0,0,
1728,0,1728,1728,1728,0,1728,0,0,0,0,0,0,0,0,0,
0,0,0,0,0,0,1728,0,0,0,0,0,0,0,0,0,
0,0,0,0,1728,1728,1728,0,0,0,0,0,0,0,0,0,
1728,1728,1728,1728,1728,0,0,0,0,0,0,0,0,0,0,0,
0,0,0,0,0,0,0,0,0,0,0,0,0,0,0,0,
1728,1728,0,0,0,0,0,0,0,0,0,0,0,0,0,0,
1728,1728,0,0,0,0,0,0,0,0,0,0,0,0,0,0,
1728,1728,1728,0,0,0,0,0,0,0,0,0,0,0,0,0,
0,1728,1728,0,0,0,0,0,0,0,0,0,0,0,0,0,
0,1728,1728,0,0,1728,0,1728,0,1728,0,0,0,0,0,0,
0,1728,1728,1728,1728,0,1728,0,1728,0,1728,0,0,0,0,1728,
0,0,0,0,0,0,0,0,0,0,1728,0,0,0,0,1728
</chunk>
   <chunk x="-80" y="32" width="16" height="16">
1728,1728,1728,0,0,0,0,0,0,0,0,0,0,0,0,0,
0,0,0,0,0,0,0,0,0,0,0,0,0,0,0,0,
0,0,0,0,0,0,0,0,0,0,0,0,0,0,0,0,
0,0,0,0,0,0,0,0,0,0,0,0,0,0,0,0,
0,0,0,0,0,0,0,0,0,0,0,0,0,0,0,0,
0,0,0,0,0,0,0,0,0,0,0,0,0,0,0,0,
0,0,0,0,0,0,0,0,0,0,0,0,0,0,0,0,
0,0,0,0,0,0,0,0,0,0,0,0,0,0,0,0,
0,0,0,0,0,0,0,0,0,0,0,0,0,0,0,0,
0,0,0,0,0,0,0,0,0,0,0,0,0,0,0,0,
0,0,0,0,0,0,0,0,0,0,0,0,0,0,0,0,
0,0,0,0,0,0,0,0,0,0,0,0,0,0,0,0,
0,1728,1728,1728,0,0,0,0,1728,1728,1728,0,0,0,0,0,
1728,1728,1728,1728,1728,0,0,1728,1728,1728,1728,1728,0,0,0,0,
1728,1728,1728,1728,1728,1728,1728,1728,1728,1728,1728,1728,1728,0,0,0,
1728,1728,1728,1728,1728,1728,1728,1728,1728,1728,1728,1728,1728,0,0,0
</chunk>
   <chunk x="-64" y="32" width="16" height="16">
0,0,0,0,0,0,0,0,0,0,0,0,0,0,0,0,
0,0,0,0,0,0,0,0,0,0,0,0,0,0,0,0,
0,0,0,0,0,0,0,0,0,0,0,0,0,0,0,0,
0,0,0,0,0,0,0,0,0,0,0,0,0,0,0,0,
0,0,0,0,0,0,0,0,0,0,0,0,0,0,0,0,
0,0,0,0,0,0,0,0,0,0,0,0,0,0,0,0,
0,0,0,0,0,0,0,0,0,0,0,0,0,0,0,0,
0,0,0,0,0,0,0,0,0,0,0,0,0,0,0,0,
0,0,0,0,0,0,0,0,0,0,0,0,0,0,0,0,
0,0,0,0,0,0,0,0,0,0,0,0,0,0,0,0,
0,0,0,0,0,0,0,0,0,0,0,0,0,0,0,0,
0,0,0,0,0,0,0,0,0,0,0,0,0,0,0,0,
0,0,0,0,0,0,0,0,0,0,0,0,0,0,0,0,
0,0,0,0,0,0,0,0,0,0,0,0,0,0,0,0,
0,0,0,1728,1728,1728,1728,1728,0,0,0,0,0,0,0,0,
0,0,0,1728,1728,1728,1728,1728,0,0,0,0,0,0,0,0
</chunk>
   <chunk x="-32" y="32" width="16" height="16">
0,0,0,1728,1728,1728,1728,1728,0,0,1728,1728,1728,0,0,0,
0,0,1728,1728,1728,1728,1728,1728,0,0,1728,1728,1728,0,0,0,
0,0,1728,1728,1728,1728,1728,0,0,0,0,1728,1728,0,0,0,
0,0,1728,1728,1728,0,0,0,0,0,0,1728,1728,0,0,0,
0,0,1728,1728,0,0,0,0,0,0,0,0,1728,0,0,0,
0,0,1728,0,0,0,0,1728,1728,0,0,0,1728,0,0,1728,
0,0,1728,0,0,0,1728,0,1728,0,0,0,1728,1728,1728,1728,
0,0,1728,0,0,0,1728,0,0,1728,0,0,1728,1728,1728,1728,
0,0,1728,0,0,1728,0,0,0,1728,0,0,1728,1728,1728,1728,
0,0,1728,0,0,1728,0,0,0,1728,0,0,1728,1728,1728,1728,
0,0,1728,0,0,1728,0,0,0,1728,0,0,0,1728,1728,0,
0,0,1728,0,0,0,1728,0,1728,0,0,0,0,0,0,0,
0,0,1728,0,0,0,0,1728,1728,0,0,0,0,0,0,0,
0,0,1728,1728,0,0,0,0,0,0,0,0,0,0,0,0,
0,0,0,1728,1728,0,0,0,0,0,0,0,0,0,1728,1728,
0,0,0,0,1728,1728,1728,1728,1728,1728,1728,1728,1728,1728,1728,1728
</chunk>
   <chunk x="-16" y="32" width="16" height="16">
0,0,0,0,0,0,0,0,0,0,0,0,0,0,0,0,
0,0,0,0,0,0,0,0,0,0,0,0,0,0,0,0,
0,0,0,0,0,0,0,0,0,0,0,0,0,0,0,0,
0,0,0,0,0,0,0,0,0,0,0,0,0,0,0,0,
0,0,0,0,0,0,0,0,0,0,0,0,0,0,0,0,
1728,0,0,0,0,0,0,0,0,0,0,0,0,0,0,0,
1728,0,0,0,0,0,0,0,0,0,0,0,0,0,0,0,
1728,0,0,1728,1728,1728,0,0,0,0,0,0,0,0,0,0,
1728,0,0,1728,1728,1728,0,0,0,0,0,1728,1728,1728,1728,0,
0,1728,0,1728,1728,1728,0,0,0,0,1728,0,0,0,0,1728,
0,0,1728,1728,1728,1728,0,1728,1728,1728,0,0,0,0,0,0,
0,0,1728,0,0,0,1728,0,0,0,0,0,1728,1728,0,0,
0,0,0,0,0,0,0,0,0,0,0,0,1728,1728,0,0,
0,0,0,0,1728,0,0,0,1728,1728,0,0,0,0,0,0,
0,0,0,1728,0,1728,1728,1728,0,0,1728,0,0,0,0,1728,
1728,0,1728,0,0,0,0,0,0,0,1728,0,0,1728,1728,1728
</chunk>
   <chunk x="0" y="32" width="16" height="16">
0,0,0,0,0,0,0,0,0,0,1728,1728,0,0,0,1728,
0,0,0,0,0,0,0,0,0,1728,0,0,0,0,0,1728,
0,0,0,0,0,0,0,0,0,0,1728,1728,0,0,0,1728,
0,0,0,0,0,0,0,0,0,0,0,0,1728,0,1728,0,
0,0,0,0,0,0,0,0,0,0,0,1728,0,0,0,1728,
0,0,0,0,0,0,0,0,0,0,0,1728,0,0,0,1728,
0,0,0,0,0,0,0,0,0,0,0,1728,0,0,0,1728,
0,0,0,0,0,0,0,0,0,0,0,1728,0,0,0,1728,
0,0,0,0,0,0,0,0,0,0,1728,0,0,0,0,0,
0,0,0,0,1728,0,0,0,0,0,1728,0,0,0,0,0,
1728,0,0,1728,0,1728,0,0,0,0,1728,0,0,0,0,0,
1728,0,1728,1728,0,1728,1728,1728,1728,1728,0,1728,0,0,0,1728,
1728,1728,1728,1728,0,1728,1728,1728,1728,1728,0,1728,0,0,0,1728,
1728,1728,1728,1728,0,1728,1728,1728,1728,1728,0,1728,0,0,0,1728,
1728,1728,1728,1728,0,1728,1728,1728,1728,1728,1728,1728,0,0,0,1728,
1728,1728,1728,0,0,0,0,1728,1728,0,0,0,0,0,0,1728
</chunk>
   <chunk x="16" y="32" width="16" height="16">
0,0,0,0,0,0,0,0,0,0,0,0,0,0,0,0,
0,0,0,0,0,0,0,0,0,0,0,0,0,0,0,0,
0,0,0,0,0,0,0,0,0,0,0,0,0,0,0,0,
0,0,0,0,0,0,0,0,0,0,0,0,0,0,0,0,
0,0,0,0,0,0,0,0,0,0,0,0,0,0,0,0,
0,0,0,0,0,0,0,0,0,0,0,0,0,0,0,0,
0,0,0,0,0,0,0,0,0,0,0,0,0,0,0,0,
0,0,0,0,0,0,0,0,0,0,0,0,0,0,0,0,
1728,0,0,0,0,0,0,0,0,0,0,0,0,0,0,0,
1728,0,0,0,0,0,0,0,0,0,0,0,0,0,0,0,
1728,0,0,0,0,0,0,0,0,0,0,0,0,0,0,0,
0,0,0,0,0,0,0,0,0,0,0,0,0,0,0,0,
0,0,0,0,0,0,0,0,0,0,0,0,0,0,0,0,
0,0,0,0,0,0,0,0,0,0,0,0,0,0,0,0,
0,0,0,0,0,0,0,0,0,0,0,0,0,0,0,0,
0,0,0,0,0,0,0,0,0,0,0,0,0,0,0,0
</chunk>
   <chunk x="-112" y="48" width="16" height="16">
0,0,0,0,0,0,0,0,0,0,0,1728,0,0,0,0,
0,0,0,0,0,0,0,0,0,0,0,1728,0,0,0,0,
0,0,0,0,0,0,0,0,0,0,0,1728,0,0,0,0,
0,0,0,0,0,0,0,0,0,0,0,1728,1728,1728,1728,1728,
0,0,0,0,0,0,0,0,0,0,0,0,0,0,0,0,
0,0,0,0,0,0,0,0,0,0,0,0,0,0,0,0,
0,0,0,0,0,0,0,0,0,0,0,0,0,0,0,0,
0,0,0,0,0,0,0,0,0,0,0,0,0,0,0,0,
0,0,0,0,0,0,0,0,0,0,0,0,0,0,0,0,
0,0,0,0,0,0,0,0,0,0,0,0,0,0,0,0,
0,0,0,0,0,0,0,0,0,0,0,0,0,0,0,0,
0,0,0,0,0,0,0,0,0,0,0,0,0,0,0,0,
0,0,0,0,0,0,0,0,0,0,0,0,0,0,0,0,
0,0,0,0,0,0,0,0,0,0,0,0,0,0,0,0,
0,0,0,0,0,0,0,0,0,0,0,0,0,0,0,0,
0,0,0,0,0,0,0,0,0,0,0,0,0,0,0,0
</chunk>
   <chunk x="-96" y="48" width="16" height="16">
0,1728,1728,1728,1728,0,0,0,0,0,1728,0,0,0,0,1728,
0,1728,0,0,1728,0,0,0,0,0,1728,0,0,0,0,1728,
0,1728,0,0,1728,0,0,0,0,0,1728,1728,1728,1728,1728,1728,
1728,1728,0,0,1728,0,0,0,0,0,1728,1728,1728,1728,1728,1728,
0,0,0,0,1728,0,0,0,0,0,1728,1728,1728,1728,1728,1728,
0,0,0,1728,1728,0,0,0,0,0,1728,1728,1728,1728,1728,1728,
0,0,0,1728,1728,0,0,0,0,0,0,0,0,0,0,0,
0,0,0,1728,1728,0,0,0,0,0,0,0,0,0,0,0,
0,0,0,1728,1728,0,0,0,0,0,0,0,0,0,0,0,
0,0,0,1728,0,0,0,0,0,0,0,0,0,0,0,0,
0,0,0,1728,1728,1728,1728,1728,1728,1728,1728,1728,0,1728,1728,1728,
0,0,0,0,0,0,0,0,1728,1728,1728,1728,0,1728,1728,1728,
0,0,0,0,0,0,0,0,1728,1728,1728,1728,0,1728,1728,1728,
0,0,0,0,0,0,0,0,1728,1728,1728,1728,0,1728,1728,1728,
0,0,0,0,0,0,0,0,1728,1728,1728,1728,0,1728,1728,1728,
0,0,0,0,0,0,0,0,1728,0,0,0,0,0,0,0
</chunk>
   <chunk x="-80" y="48" width="16" height="16">
1728,1728,0,1728,1728,1728,1728,1728,1728,0,1728,1728,1728,0,0,0,
1728,0,0,0,1728,1728,1728,1728,0,0,0,1728,1728,0,0,0,
0,0,0,0,0,0,0,0,0,0,0,0,1728,0,0,0,
0,0,0,0,0,0,0,0,0,0,0,0,1728,0,0,0,
0,0,1728,1728,0,0,0,1728,1728,1728,0,0,1728,0,0,0,
0,0,1728,1728,1728,0,1728,1728,1728,1728,0,0,1728,0,0,0,
0,0,1728,0,1728,1728,1728,1728,1728,1728,0,0,1728,0,1728,1728,
0,0,1728,0,0,0,0,1728,1728,1728,0,0,1728,1728,1728,1728,
0,0,1728,0,0,0,0,1728,0,0,0,0,1728,1728,1728,1728,
0,1728,1728,0,0,0,0,1728,1728,1728,0,0,1728,1728,1728,1728,
1728,1728,0,0,0,0,0,0,0,1728,0,0,1728,1728,1728,0,
1728,0,0,0,0,0,0,0,0,1728,0,0,0,0,0,0,
1728,0,0,0,0,0,0,0,0,1728,1728,1728,1728,1728,1728,0,
1728,0,0,0,0,0,0,0,0,0,0,0,0,0,1728,1728,
1728,0,0,0,0,0,0,0,0,0,0,0,0,0,0,0,
1728,0,0,0,0,0,0,0,0,0,0,0,0,0,0,0
</chunk>
   <chunk x="-64" y="48" width="16" height="16">
0,0,0,1728,1728,1728,1728,1728,0,0,0,0,0,0,0,0,
0,0,0,1728,1728,1728,1728,1728,0,0,0,0,0,0,0,0,
0,0,0,1728,0,0,0,1728,0,0,0,0,0,0,0,0,
0,0,0,1728,0,1728,0,1728,0,0,0,0,0,0,0,0,
0,0,0,1728,0,0,0,1728,0,0,0,0,0,0,0,0,
1728,1728,1728,1728,1728,0,1728,1728,0,0,1728,1728,1728,1728,1728,0,
1728,1728,1728,1728,1728,0,1728,1728,0,1728,1728,1728,1728,1728,1728,0,
1728,1728,1728,1728,1728,0,1728,1728,1728,1728,1728,1728,1728,1728,1728,0,
1728,1728,1728,1728,1728,0,1728,1728,1728,1728,1728,1728,1728,1728,1728,0,
1728,0,0,1728,1728,0,1728,1728,1728,1728,1728,0,0,0,0,1728,
0,0,0,1728,0,0,0,1728,1728,1728,0,0,0,0,0,0,
0,0,0,0,0,0,0,0,0,0,0,0,0,0,0,0,
0,0,0,1728,0,0,0,1728,1728,1728,0,0,0,0,0,0,
1728,0,0,1728,1728,0,1728,0,0,1728,1728,0,0,0,0,1728,
1728,1728,1728,1728,1728,0,1728,0,0,0,1728,1728,1728,1728,1728,0,
0,0,0,1728,0,0,1728,0,0,0,0,0,0,0,0,0
</chunk>
   <chunk x="-48" y="48" width="16" height="16">
0,0,0,0,0,0,0,0,0,0,0,0,0,0,0,0,
0,0,0,0,0,0,0,0,0,0,0,0,0,0,0,0,
0,0,0,0,0,0,0,0,0,0,0,0,0,0,0,0,
0,0,0,0,0,0,0,0,0,0,0,0,0,0,0,0,
0,0,0,0,0,0,0,0,0,0,0,0,0,0,0,0,
0,0,0,0,0,0,0,0,0,0,0,0,0,0,0,0,
0,0,0,0,0,0,0,0,0,0,0,0,0,0,0,0,
0,0,0,0,0,0,0,0,0,0,0,0,0,0,0,0,
0,0,0,0,0,0,0,0,0,0,0,0,0,0,0,0,
0,0,0,0,0,1728,1728,1728,1728,1728,1728,1728,1728,1728,1728,1728,
1728,1728,1728,1728,1728,0,0,0,0,0,0,0,0,0,0,0,
0,0,0,0,0,0,0,0,0,0,0,0,0,0,0,0,
1728,1728,1728,1728,1728,0,0,0,0,0,0,0,0,0,0,0,
0,0,0,0,0,1728,1728,1728,1728,0,1728,1728,1728,1728,1728,1728,
0,0,0,0,0,0,0,1728,0,0,0,1728,0,0,0,0,
0,0,0,0,0,0,0,1728,0,0,0,1728,0,0,0,0
</chunk>
   <chunk x="-32" y="48" width="16" height="16">
0,0,0,0,0,0,0,0,0,0,0,0,0,0,0,0,
0,0,0,0,0,0,0,0,0,0,0,0,0,0,0,0,
0,0,0,0,0,0,0,0,0,0,0,0,0,0,0,0,
0,0,0,0,0,0,0,0,0,0,0,0,0,0,0,0,
0,0,0,0,0,0,0,0,0,0,0,0,0,0,0,0,
0,0,0,0,0,0,0,0,0,0,0,0,0,0,0,0,
0,0,0,0,0,0,0,0,0,0,0,0,0,0,0,0,
0,0,0,0,0,0,0,0,0,0,0,0,0,0,0,0,
0,0,0,0,0,0,0,0,0,0,0,0,0,0,0,0,
1728,1728,1728,1728,1728,1728,1728,1728,1728,0,0,0,0,0,0,0,
0,0,0,0,0,0,0,0,0,1728,0,0,0,0,0,0,
0,0,0,0,0,0,0,0,0,1728,0,0,0,0,0,0,
0,0,0,0,0,0,0,0,0,1728,0,0,0,0,0,0,
1728,1728,1728,1728,1728,1728,1728,0,0,1728,0,0,0,0,0,0,
0,0,0,0,0,1728,0,0,0,0,1728,0,0,0,0,0,
0,0,0,0,0,1728,0,0,0,0,1728,0,0,0,0,0
</chunk>
   <chunk x="-16" y="48" width="16" height="16">
1728,1728,0,0,0,0,0,0,0,0,1728,0,0,0,0,0,
0,0,0,0,0,0,0,0,0,0,1728,0,0,0,0,0,
0,0,0,0,0,0,0,0,0,0,0,1728,1728,1728,1728,1728,
0,0,0,0,0,0,0,0,0,0,0,0,0,0,0,0,
0,0,0,0,0,0,0,0,0,0,0,0,0,0,0,0,
0,0,0,0,0,0,0,0,0,0,0,0,0,0,0,0,
0,0,0,0,0,0,0,0,0,0,0,0,0,0,0,0,
0,0,0,0,0,0,0,0,0,0,0,0,0,0,0,0,
0,0,0,0,0,0,0,0,0,0,0,0,0,0,0,0,
0,0,0,0,0,0,0,0,0,0,0,0,0,0,0,0,
0,0,0,0,0,0,0,0,0,0,0,0,0,0,0,0,
0,0,0,0,0,0,0,0,0,0,0,0,0,0,0,0,
0,0,0,0,0,0,0,0,0,0,0,0,1728,1728,1728,1728,
0,0,0,0,0,0,0,0,0,0,0,0,1728,1728,1728,1728,
0,0,0,0,0,0,0,0,0,0,0,0,1728,1728,1728,1728,
0,0,0,0,0,0,0,0,0,0,0,0,1728,1728,1728,1728
</chunk>
   <chunk x="0" y="48" width="16" height="16">
0,0,0,0,0,0,0,1728,1728,0,0,0,0,0,0,1728,
0,0,0,0,0,0,0,0,0,0,0,0,0,1728,1728,0,
1728,1728,1728,0,0,0,0,0,0,0,1728,1728,1728,0,0,0,
0,0,1728,0,0,0,0,0,0,0,1728,0,0,0,0,0,
0,0,1728,0,0,0,0,0,0,0,1728,1728,0,0,0,0,
0,0,1728,0,1728,1728,0,0,0,0,0,0,1728,0,0,0,
0,0,1728,0,1728,1728,0,0,0,0,0,0,1728,0,0,0,
0,0,1728,0,0,0,0,0,0,0,0,0,1728,0,0,0,
0,0,0,1728,1728,1728,1728,1728,1728,0,0,1728,0,0,0,0,
0,0,0,0,1728,1728,1728,1728,1728,0,0,1728,0,0,0,0,
0,0,0,1728,0,0,0,0,0,0,0,1728,0,0,0,0,
0,0,0,1728,0,0,0,1728,1728,1728,1728,0,0,0,0,0,
1728,1728,0,1728,0,0,0,1728,1728,0,1728,1728,1728,1728,1728,0,
1728,1728,0,1728,0,0,0,0,0,0,0,0,0,0,0,1728,
1728,1728,0,0,1728,1728,1728,1728,1728,0,1728,1728,0,0,0,1728,
1728,1728,1728,1728,1728,1728,1728,0,0,0,0,1728,0,0,0,1728
</chunk>
   <chunk x="-96" y="64" width="16" height="16">
0,0,0,0,0,0,0,0,1728,0,0,0,0,0,0,0,
0,0,0,0,0,0,0,0,1728,1728,1728,1728,1728,1728,1728,1728,
0,0,0,0,0,0,0,0,0,0,0,0,0,0,0,0,
0,0,0,0,0,0,0,0,0,0,0,0,0,0,0,0,
0,0,0,0,0,0,0,0,0,0,0,0,0,0,0,0,
0,0,0,0,0,0,0,0,0,0,0,0,0,0,0,0,
0,0,0,0,0,0,0,0,0,0,0,0,0,0,0,0,
0,0,0,0,0,0,0,0,0,0,0,0,0,0,0,0,
0,0,0,0,0,0,0,0,0,0,0,0,0,0,0,0,
0,0,0,0,0,0,0,0,0,0,0,0,0,0,0,0,
0,0,0,0,0,0,0,0,0,0,0,0,0,0,0,0,
0,0,0,0,0,0,0,0,0,0,0,0,0,0,0,0,
0,0,0,0,0,0,0,0,0,0,0,0,0,0,0,0,
0,0,0,0,0,0,0,0,0,0,0,0,0,0,0,0,
0,0,0,0,0,0,0,0,0,0,0,0,0,0,0,0,
0,0,0,0,0,0,0,0,0,0,0,0,0,0,0,0
</chunk>
   <chunk x="-80" y="64" width="16" height="16">
1728,0,0,0,0,0,0,0,0,0,0,0,0,0,0,0,
1728,0,0,0,0,0,0,0,0,0,0,0,0,0,0,0,
0,0,0,0,0,0,0,0,0,0,0,0,0,0,0,0,
0,0,0,0,0,0,0,0,0,0,0,0,0,0,0,0,
0,0,0,0,0,0,0,0,0,0,0,0,0,0,0,0,
0,0,0,0,0,0,0,0,0,0,0,0,0,0,0,0,
0,0,0,0,0,0,0,0,0,0,0,0,0,0,0,0,
0,0,0,0,0,0,0,0,0,0,0,0,0,0,0,0,
0,0,0,0,0,0,0,0,0,0,0,0,0,0,0,0,
0,0,0,0,0,0,0,0,0,0,0,0,0,0,0,0,
0,0,0,0,0,0,0,0,0,0,0,0,0,0,0,0,
0,0,0,0,0,0,0,0,0,0,0,0,0,0,0,0,
0,0,0,0,0,0,0,0,0,0,0,0,0,0,0,0,
0,0,0,0,0,0,0,0,0,0,0,0,0,0,0,0,
0,0,0,0,0,0,0,0,0,0,0,0,0,0,0,0,
0,0,0,0,0,0,0,0,0,0,0,0,0,0,0,0
</chunk>
   <chunk x="-64" y="64" width="16" height="16">
0,0,0,0,1728,0,1728,0,0,0,0,0,0,0,0,0,
0,0,0,0,1728,0,1728,0,0,0,0,0,0,0,0,0,
0,0,0,0,1728,0,0,1728,0,0,0,0,0,0,0,0,
0,0,0,0,1728,0,1728,0,0,0,0,0,0,0,0,0,
0,0,0,0,1728,0,1728,0,0,0,0,0,0,0,0,0,
0,0,0,1728,0,0,0,1728,0,0,0,0,0,0,0,0,
0,0,0,1728,0,0,0,1728,0,0,0,0,0,0,0,0,
0,0,0,1728,0,0,0,1728,0,0,0,0,0,0,0,0,
0,0,0,0,1728,1728,1728,0,0,0,0,0,0,0,0,0,
0,0,0,0,0,0,0,0,0,0,0,0,0,0,0,0,
0,0,0,0,0,0,0,0,0,0,0,0,0,0,0,0,
0,0,0,0,0,0,0,0,0,0,0,0,0,0,0,0,
0,0,0,0,0,0,0,0,0,0,0,0,0,0,0,0,
0,0,0,0,0,0,0,0,0,0,0,0,0,0,0,0,
0,0,0,0,0,0,0,0,0,0,0,0,0,0,0,0,
0,0,0,0,0,0,0,0,0,0,0,0,0,0,0,0
</chunk>
   <chunk x="-48" y="64" width="16" height="16">
0,0,0,0,0,0,0,1728,0,0,0,1728,0,0,0,0,
0,0,0,0,1728,1728,1728,0,0,0,0,0,1728,1728,1728,0,
0,0,0,1728,0,0,0,0,0,0,0,0,0,0,0,1728,
0,0,0,1728,0,0,0,0,0,0,0,0,0,0,0,1728,
0,0,0,1728,0,0,0,0,0,0,0,0,0,0,0,1728,
0,0,0,0,1728,1728,1728,0,0,0,0,0,1728,1728,1728,0,
0,0,0,0,0,0,0,1728,0,0,0,1728,0,0,0,0,
0,0,0,0,0,0,0,1728,0,0,0,1728,0,0,0,0,
0,0,0,0,0,0,0,1728,0,0,0,1728,0,0,0,0,
0,0,0,0,0,0,0,0,1728,1728,1728,0,0,0,0,0,
0,0,0,0,0,0,0,0,0,0,0,0,0,0,0,0,
0,0,0,0,0,0,0,0,0,0,0,0,0,0,0,0,
0,0,0,0,0,0,0,0,0,0,0,0,0,0,0,0,
0,0,0,0,0,0,0,0,0,0,0,0,0,0,0,0,
0,0,0,0,0,0,0,0,0,0,0,0,0,0,0,0,
0,0,0,0,0,0,0,0,0,0,0,0,0,0,0,0
</chunk>
   <chunk x="-32" y="64" width="16" height="16">
0,0,0,0,0,1728,0,0,0,0,1728,0,0,0,0,0,
0,0,0,0,0,1728,0,0,0,0,1728,0,0,0,0,0,
0,0,0,0,0,1728,0,0,0,0,1728,0,0,0,0,0,
0,0,0,0,0,1728,0,0,0,0,1728,0,0,0,0,0,
0,0,0,0,0,1728,0,0,0,0,1728,1728,1728,1728,1728,1728,
0,0,0,0,0,0,1728,0,0,1728,1728,0,0,0,0,0,
0,0,0,0,0,0,1728,0,0,1728,1728,0,0,0,0,0,
0,0,0,0,0,0,1728,0,0,0,0,0,0,1728,1728,0,
0,0,0,0,0,0,1728,0,0,0,0,0,0,1728,1728,0,
0,0,0,0,0,0,1728,1728,1728,1728,0,0,1728,0,1728,0,
0,0,0,0,0,1728,0,0,0,0,0,0,1728,0,1728,0,
0,0,0,0,0,1728,0,0,0,0,0,0,1728,0,1728,0,
0,0,0,0,0,1728,0,0,1728,1728,0,0,1728,0,1728,1728,
0,0,0,0,0,1728,0,0,1728,1728,0,0,1728,0,1728,1728,
0,0,0,0,0,1728,0,0,0,0,0,0,1728,1728,0,1728,
0,0,0,0,0,1728,0,0,0,0,0,0,1728,0,1728,0
</chunk>
   <chunk x="-16" y="64" width="16" height="16">
0,0,0,0,0,0,0,0,0,0,0,0,1728,0,0,0,
0,0,0,0,0,0,0,0,0,0,0,1728,1728,0,0,0,
0,0,0,0,0,0,0,0,0,0,0,1728,1728,0,0,0,
0,0,0,0,0,0,0,0,0,0,0,1728,1728,0,0,0,
1728,0,0,0,0,0,0,0,0,0,0,1728,1728,1728,0,0,
0,1728,0,0,0,0,0,0,0,0,0,0,0,1728,0,0,
0,1728,0,0,0,0,0,0,0,0,1728,1728,1728,1728,1728,0,
0,1728,0,0,0,0,0,0,1728,1728,0,0,0,0,0,0,
0,1728,0,0,0,0,0,1728,0,0,0,0,0,0,0,0,
0,1728,0,0,0,0,0,1728,0,0,0,0,0,0,0,0,
0,0,1728,0,0,0,0,1728,0,0,1728,1728,1728,1728,1728,1728,
0,0,1728,0,0,0,0,1728,0,0,1728,0,0,0,0,0,
0,0,1728,1728,1728,1728,1728,0,0,0,1728,0,0,0,0,0,
0,0,0,0,0,0,0,0,0,0,1728,0,0,0,0,0,
1728,0,0,0,0,0,0,0,0,1728,0,0,0,0,0,0,
0,1728,1728,1728,1728,1728,1728,1728,1728,0,0,0,0,0,0,0
</chunk>
   <chunk x="0" y="64" width="16" height="16">
0,0,0,0,0,0,1728,0,1728,1728,0,1728,0,0,0,1728,
0,0,0,1728,1728,0,1728,0,1728,1728,0,1728,1728,0,1728,1728,
0,0,0,1728,1728,0,0,0,1728,1728,0,0,0,0,1728,0,
0,0,0,1728,0,1728,1728,1728,0,0,1728,0,0,0,1728,1728,
0,0,1728,0,0,0,0,0,0,0,1728,0,0,0,1728,0,
0,0,1728,0,0,0,0,0,0,0,1728,0,1728,1728,0,0,
0,1728,0,0,0,0,0,0,0,0,0,1728,0,0,0,0,
0,0,1728,0,0,0,0,0,0,0,0,0,0,0,0,0,
0,0,1728,0,0,0,0,0,0,0,0,0,0,0,0,0,
0,0,1728,0,0,0,0,0,0,0,0,0,0,0,0,0,
1728,1728,0,0,0,0,0,0,0,0,0,0,0,0,0,0,
0,0,0,0,0,0,0,0,0,0,0,0,0,0,0,0,
0,0,0,0,0,0,0,0,0,0,0,0,0,0,0,0,
0,0,0,0,0,0,0,0,0,0,0,0,0,0,0,0,
0,0,0,0,0,0,0,0,0,0,0,0,0,0,0,0,
0,0,0,0,0,0,0,0,0,0,0,0,0,0,0,0
</chunk>
   <chunk x="16" y="64" width="16" height="16">
0,0,0,0,0,0,0,0,0,0,0,0,0,0,0,0,
0,0,0,0,0,0,0,0,0,0,0,0,0,0,0,0,
1728,0,0,0,0,0,0,0,0,0,0,0,0,0,0,0,
0,0,0,0,0,0,0,0,0,0,0,0,0,0,0,0,
0,0,0,0,0,0,0,0,0,0,0,0,0,0,0,0,
0,0,0,0,0,0,0,0,0,0,0,0,0,0,0,0,
0,0,0,0,0,0,0,0,0,0,0,0,0,0,0,0,
0,0,0,0,0,0,0,0,0,0,0,0,0,0,0,0,
0,0,0,0,0,0,0,0,0,0,0,0,0,0,0,0,
0,0,0,0,0,0,0,0,0,0,0,0,0,0,0,0,
0,0,0,0,0,0,0,0,0,0,0,0,0,0,0,0,
0,0,0,0,0,0,0,0,0,0,0,0,0,0,0,0,
0,0,0,0,0,0,0,0,0,0,0,0,0,0,0,0,
0,0,0,0,0,0,0,0,0,0,0,0,0,0,0,0,
0,0,0,0,0,0,0,0,0,0,0,0,0,0,0,0,
0,0,0,0,0,0,0,0,0,0,0,0,0,0,0,0
</chunk>
   <chunk x="-32" y="80" width="16" height="16">
0,0,0,0,0,0,1728,1728,1728,1728,1728,1728,0,0,0,0,
0,0,0,0,0,0,0,0,0,0,0,0,0,0,0,0,
0,0,0,0,0,0,0,0,0,0,0,0,0,0,0,0,
0,0,0,0,0,0,0,0,0,0,0,0,0,0,0,0,
0,0,0,0,0,0,0,0,0,0,0,0,0,0,0,0,
0,0,0,0,0,0,0,0,0,0,0,0,0,0,0,0,
0,0,0,0,0,0,0,0,0,0,0,0,0,0,0,0,
0,0,0,0,0,0,0,0,0,0,0,0,0,0,0,0,
0,0,0,0,0,0,0,0,0,0,0,0,0,0,0,0,
0,0,0,0,0,0,0,0,0,0,0,0,0,0,0,0,
0,0,0,0,0,0,0,0,0,0,0,0,0,0,0,0,
0,0,0,0,0,0,0,0,0,0,0,0,0,0,0,0,
0,0,0,0,0,0,0,0,0,0,0,0,0,0,0,0,
0,0,0,0,0,0,0,0,0,0,0,0,0,0,0,0,
0,0,0,0,0,0,0,0,0,0,0,0,0,0,0,0,
0,0,0,0,0,0,0,0,0,0,0,0,0,0,0,0
</chunk>
  </data>
 </layer>
 <layer id="110" name="SecretInvisibleWallsAntiall1" width="32" height="32" opacity="0">
  <data encoding="csv">
   <chunk x="0" y="32" width="16" height="16">
0,0,0,0,0,0,0,0,0,0,0,1729,0,0,0,0,
0,0,0,0,0,0,0,0,0,0,0,1729,0,0,0,0,
0,0,0,0,0,0,0,0,0,0,1729,1729,0,0,0,0,
0,0,0,0,0,0,0,0,0,0,0,0,0,0,0,0,
0,0,0,0,0,0,0,0,0,0,0,0,0,0,0,0,
0,0,0,0,0,0,0,0,0,0,0,0,0,0,0,0,
0,0,0,0,0,0,0,0,0,0,0,0,0,0,0,0,
0,0,0,0,0,0,0,0,0,0,0,0,0,0,0,0,
0,0,0,0,0,0,0,0,0,0,0,0,0,0,0,0,
0,0,0,0,0,0,0,0,0,0,0,0,0,0,0,0,
0,0,0,0,1729,0,0,0,0,0,0,0,0,0,0,0,
0,0,0,0,1729,0,0,0,0,0,0,0,0,0,0,0,
0,0,0,0,1729,0,0,0,0,0,0,0,0,0,0,0,
0,0,0,0,1729,0,0,0,0,0,0,0,0,0,0,0,
0,0,0,0,1729,0,0,0,0,0,0,0,0,0,0,0,
0,0,0,0,0,0,0,0,0,0,0,0,0,0,0,0
</chunk>
  </data>
 </layer>
 <layer id="111" name="SecretInvisibleWallsAntiall3" width="32" height="32" opacity="0">
  <data encoding="csv">
   <chunk x="0" y="-32" width="16" height="16">
0,0,0,0,0,0,0,0,0,0,0,0,0,0,0,0,
0,0,0,0,0,0,0,0,0,0,0,0,0,0,0,0,
0,0,0,0,0,0,0,0,0,0,0,0,0,0,0,0,
0,0,0,0,0,0,0,0,0,0,0,0,0,0,0,0,
0,0,0,0,0,0,0,0,0,0,0,0,0,0,0,0,
0,0,0,1729,0,0,0,0,0,0,0,0,0,0,0,0,
0,0,0,1729,0,0,0,0,0,0,0,0,0,0,0,0,
0,0,0,1729,0,0,0,0,0,0,0,0,0,0,0,0,
0,0,0,1729,0,0,0,0,0,0,0,0,0,0,0,0,
0,0,0,1729,0,0,0,0,0,0,0,0,0,0,0,0,
0,0,0,1729,0,0,0,0,0,0,0,0,0,0,0,0,
0,0,0,0,0,0,0,0,0,0,0,0,0,0,0,0,
0,0,0,0,0,0,0,0,0,0,0,0,0,0,0,0,
0,0,0,0,0,0,0,0,0,0,0,0,0,0,0,0,
0,0,0,0,0,0,0,0,0,0,0,0,0,0,0,0,
0,0,0,0,0,0,0,0,0,0,0,0,0,0,0,0
</chunk>
   <chunk x="16" y="-32" width="16" height="16">
0,0,0,0,0,0,0,0,0,0,0,0,0,0,0,0,
0,0,0,0,0,0,0,0,0,0,0,0,0,0,0,0,
0,0,0,0,0,0,0,0,0,0,0,0,0,0,0,0,
0,0,0,0,0,0,0,0,0,0,0,0,0,0,0,0,
0,0,0,0,0,0,0,0,0,0,0,0,0,0,0,0,
1729,0,0,0,0,0,0,0,0,0,0,0,0,0,0,0,
1729,0,0,0,0,0,0,0,0,0,0,0,0,0,0,0,
1729,0,0,0,0,0,0,0,0,0,0,0,0,0,0,0,
1729,0,0,0,0,0,0,0,0,0,0,0,0,0,0,0,
1729,0,0,0,0,0,0,0,0,0,0,0,0,0,0,0,
1729,0,0,0,0,0,0,0,0,0,0,0,0,0,0,0,
0,0,0,0,0,0,0,0,0,0,0,0,0,0,0,0,
0,0,0,0,0,0,0,0,0,0,0,0,0,0,0,0,
0,0,0,0,0,0,0,0,0,0,0,0,0,0,0,0,
0,0,0,0,0,0,0,0,0,0,0,0,0,0,0,0,
0,0,0,0,0,0,0,0,0,0,0,0,0,0,0,0
</chunk>
  </data>
 </layer>
</map>
