<?xml version="1.0" encoding="UTF-8"?>
<map version="1.9" tiledversion="1.9.0" orientation="orthogonal" renderorder="right-down" width="32" height="32" tilewidth="32" tileheight="32" infinite="1" nextlayerid="11" nextobjectid="1">
 <tileset firstgid="1" source="0_TimeTravel_Dungeon.tsx"/>
 <tileset firstgid="257" source="0_TimeTravel_Rov.tsx"/>
 <tileset firstgid="275" source="0_TimeTravel_DecorDurable.tsx"/>
 <tileset firstgid="375" source="0_TimeTravel_DecorFragile.tsx"/>
 <layer id="10" name="Ditch" width="32" height="32">
  <data encoding="csv">
   <chunk x="0" y="0" width="16" height="16">
0,0,0,0,0,0,0,0,0,0,0,0,0,0,0,0,
0,0,0,0,0,0,0,0,0,0,0,0,0,0,0,0,
0,0,0,0,0,0,0,0,0,0,0,0,0,0,0,0,
0,0,0,0,0,0,0,0,0,0,0,0,0,0,0,0,
0,0,0,0,0,0,0,0,0,0,0,0,0,0,0,0,
0,0,0,0,0,0,0,0,0,0,0,0,0,0,0,0,
0,0,0,0,0,0,0,0,0,0,0,0,0,0,0,0,
0,0,0,0,0,0,0,0,0,0,0,0,0,0,0,0,
0,0,0,0,106,0,0,0,0,0,0,0,0,0,0,0,
0,0,0,104,0,88,89,89,89,90,0,0,0,0,0,0,
0,0,105,0,0,0,0,105,0,0,106,0,0,0,0,0,
0,0,0,0,2147483752,0,0,0,0,0,0,0,0,0,0,0,
0,0,0,0,0,104,0,0,0,105,0,0,0,0,0,0,
0,0,0,0,0,0,0,0,0,0,0,0,0,0,0,0,
0,0,0,0,0,0,0,103,0,0,0,0,0,0,0,0,
0,0,0,0,0,0,0,0,0,0,0,0,0,0,0,0
</chunk>
  </data>
 </layer>
 <layer id="1" name="Floor" width="32" height="32">
  <data encoding="csv">
   <chunk x="0" y="0" width="16" height="16">
0,0,0,0,0,0,0,0,0,0,0,0,0,0,0,0,
0,0,0,0,0,0,0,0,0,0,0,0,0,0,0,0,
0,0,0,0,0,0,0,0,0,0,0,0,0,0,0,0,
0,0,0,0,0,0,0,0,0,0,0,0,0,0,0,0,
0,0,0,0,0,97,99,0,0,0,0,0,0,0,0,0,
0,0,0,0,97,129,131,98,99,0,0,0,0,0,0,0,
0,0,0,0,113,101,114,134,131,98,99,0,0,0,0,0,
0,0,0,0,129,114,114,114,130,117,115,0,0,0,0,0,
0,0,0,0,0,114,133,114,114,2147483749,131,99,0,0,0,0,
0,0,0,0,0,0,0,0,0,0,118,115,0,0,0,0,
0,0,0,0,0,0,0,0,0,0,0,115,0,0,0,0,
0,0,0,0,0,0,0,0,0,0,0,115,0,0,0,0,
0,0,0,0,0,0,0,0,0,0,0,0,0,0,0,0,
0,0,0,0,0,0,0,0,0,0,0,0,0,0,0,0,
0,0,0,0,0,0,0,0,0,0,0,0,0,0,0,0,
0,0,0,0,0,0,0,0,0,0,0,0,0,0,0,0
</chunk>
  </data>
 </layer>
 <layer id="9" name="FloorDitch" width="32" height="32">
  <data encoding="csv">
   <chunk x="0" y="0" width="16" height="16">
0,0,0,0,0,0,0,0,0,0,0,0,0,0,0,0,
0,0,0,0,0,0,0,0,0,0,0,0,0,0,0,0,
0,0,0,0,0,0,0,0,0,0,0,0,0,0,0,0,
0,0,0,0,0,0,0,0,0,0,0,0,0,0,0,0,
0,0,0,0,0,0,0,0,0,0,0,0,0,0,0,0,
0,0,0,0,0,0,0,0,0,0,0,0,0,0,0,0,
0,0,0,0,0,0,0,0,0,0,0,0,0,0,0,0,
0,0,0,0,0,0,0,0,0,0,0,0,0,0,0,0,
0,0,0,0,121,0,0,0,0,0,0,0,0,0,0,0,
0,0,0,0,0,120,120,120,120,121,0,0,0,0,0,0,
0,0,0,0,0,0,0,0,0,0,121,0,0,0,0,0,
0,0,0,0,0,0,0,0,0,0,137,0,0,0,0,0,
0,0,0,0,0,0,0,0,0,0,0,0,0,0,0,0,
0,0,0,0,0,0,0,0,0,0,0,0,0,0,0,0,
0,0,0,0,0,0,0,0,0,0,0,0,0,0,0,0,
0,0,0,0,0,0,0,0,0,0,0,0,0,0,0,0
</chunk>
  </data>
 </layer>
 <layer id="2" name="Wall" width="32" height="32">
  <data encoding="csv">
   <chunk x="0" y="0" width="16" height="16">
0,0,0,0,0,0,0,0,0,0,0,0,0,0,0,0,
0,0,0,0,0,257,257,0,0,0,0,0,0,0,0,0,
0,0,0,0,257,257,257,257,257,0,0,0,0,0,0,0,
0,0,0,0,257,263,263,257,257,257,257,0,0,0,0,0,
0,0,0,0,263,0,0,263,263,257,257,0,0,0,0,0,
0,0,0,0,0,0,0,0,0,263,263,257,0,0,0,0,
0,0,0,257,0,0,0,0,0,0,0,257,0,0,0,0,
0,0,257,257,0,0,0,0,0,0,0,263,0,0,0,0,
0,257,257,263,0,0,0,0,0,0,0,0,0,0,0,0,
0,257,263,0,0,0,0,0,0,0,0,0,0,0,0,0,
0,263,0,0,0,0,0,0,0,0,0,0,0,0,0,0,
0,0,0,0,0,0,0,0,0,0,0,0,0,0,0,0,
0,0,0,0,0,0,0,0,0,0,0,0,0,0,0,0,
0,0,0,0,0,0,0,0,0,0,0,0,0,0,0,0,
0,0,0,0,0,0,0,0,0,0,0,0,0,0,0,0,
0,0,0,0,0,0,0,0,0,0,0,0,0,0,0,0
</chunk>
  </data>
 </layer>
 <layer id="6" name="Decor2" width="32" height="32">
  <data encoding="csv">
   <chunk x="0" y="0" width="16" height="16">
0,0,0,0,0,0,0,0,0,0,0,0,0,0,0,0,
0,0,0,0,0,0,0,0,0,0,0,0,0,0,0,0,
0,0,0,0,0,0,0,0,0,0,0,0,0,0,0,0,
0,0,0,0,0,0,0,0,0,0,0,0,0,0,0,0,
0,0,0,0,328,0,0,328,327,0,0,0,0,0,0,0,
0,0,0,0,338,0,0,338,337,2147483975,2147483976,0,0,0,0,0,
0,0,0,0,0,0,0,0,0,2147483985,2147483986,0,0,0,0,0,
0,0,0,0,0,2147483976,0,0,0,0,0,2147483975,0,0,0,0,
0,0,0,0,0,2147483986,0,0,0,0,0,2147483985,0,0,0,0,
0,0,0,0,0,0,0,0,0,0,0,0,0,0,0,0,
0,0,0,0,0,0,0,0,0,0,0,327,0,0,0,0,
0,0,0,0,0,0,0,0,0,0,0,337,0,0,0,0,
0,0,0,0,0,0,0,0,0,0,0,0,0,0,0,0,
0,0,0,0,0,0,0,0,0,0,0,0,0,0,0,0,
0,0,0,0,0,0,0,0,0,0,0,0,0,0,0,0,
0,0,0,0,0,0,0,0,0,0,0,0,0,0,0,0
</chunk>
  </data>
 </layer>
 <layer id="5" name="Decor1" width="32" height="32">
  <data encoding="csv">
   <chunk x="0" y="0" width="16" height="16">
0,0,0,0,0,0,0,0,0,0,0,0,0,0,0,0,
0,0,0,0,0,0,0,0,0,0,0,0,0,0,0,0,
0,0,0,0,0,0,0,0,0,0,0,0,0,0,0,0,
0,0,0,0,0,0,0,0,0,0,0,0,0,0,0,0,
0,0,0,0,0,0,0,0,0,0,0,0,0,0,0,0,
0,0,0,0,0,0,0,0,328,0,0,0,0,0,0,0,
0,0,0,0,0,0,0,0,338,0,0,0,0,0,0,0,
0,0,0,0,0,0,0,0,0,0,0,0,0,0,0,0,
0,0,0,0,0,0,0,0,0,0,0,0,0,0,0,0,
0,0,0,0,0,0,0,0,0,0,0,0,0,0,0,0,
0,0,0,0,0,0,0,0,0,0,0,0,0,0,0,0,
0,0,0,0,0,0,0,0,0,0,0,0,0,0,0,0,
0,0,0,0,0,0,0,0,0,0,0,0,0,0,0,0,
0,0,0,0,0,0,0,0,0,0,0,0,0,0,0,0,
0,0,0,0,0,0,0,0,0,0,0,0,0,0,0,0,
0,0,0,0,0,0,0,0,0,0,0,0,0,0,0,0
</chunk>
  </data>
 </layer>
 <layer id="4" name="Interaction" width="32" height="32">
  <data encoding="csv">
   <chunk x="0" y="0" width="16" height="16">
0,0,0,0,0,0,0,0,0,0,0,0,0,0,0,0,
0,0,0,0,0,269,0,0,0,0,0,0,0,0,0,0,
0,0,0,0,0,269,0,0,0,0,0,0,0,0,0,0,
0,0,0,0,0,270,0,0,0,0,0,0,0,0,0,0,
0,0,0,0,0,0,0,0,0,0,0,0,0,0,0,0,
0,0,0,0,0,0,0,0,0,0,0,0,0,0,0,0,
0,0,0,0,0,0,0,0,0,0,0,0,0,0,0,0,
0,0,0,0,0,0,0,0,0,0,0,0,0,0,0,0,
0,0,0,0,0,0,0,0,0,0,0,0,0,0,0,0,
0,0,0,0,0,0,0,0,0,0,0,0,0,0,0,0,
0,0,0,0,0,0,0,0,0,0,0,0,0,0,0,0,
0,0,0,0,0,0,0,0,0,0,0,0,0,0,0,0,
0,0,0,0,0,0,0,0,0,0,0,0,0,0,0,0,
0,0,0,0,0,0,0,0,0,0,0,0,0,0,0,0,
0,0,0,0,0,0,0,0,0,0,0,0,0,0,0,0,
0,0,0,0,0,0,0,0,0,0,0,0,0,0,0,0
</chunk>
  </data>
 </layer>
 <layer id="3" name="Roof" width="32" height="32">
  <data encoding="csv">
   <chunk x="0" y="0" width="16" height="16">
0,0,0,0,260,261,261,262,0,0,0,0,0,0,0,0,
0,0,0,260,265,0,0,264,261,262,0,0,0,0,0,0,
0,0,0,266,0,0,0,0,0,264,261,262,0,0,0,0,
0,0,0,266,0,0,0,0,0,0,0,268,0,0,0,0,
0,0,0,266,0,0,0,0,0,0,0,264,262,0,0,0,
0,0,260,265,0,0,0,0,0,0,0,0,268,0,0,0,
0,260,265,0,0,0,0,0,0,0,0,0,268,0,0,0,
260,265,0,0,0,0,0,0,0,0,0,0,268,0,0,0,
266,0,0,0,0,0,0,0,0,0,0,0,268,0,0,0,
266,0,0,0,0,0,0,0,0,0,0,0,268,0,0,0,
266,0,0,0,0,0,0,0,0,0,0,0,268,0,0,0,
272,259,0,0,0,0,0,0,0,0,0,0,268,0,0,0,
0,272,273,259,0,0,0,0,0,0,0,258,274,0,0,0,
0,0,0,272,259,0,0,0,0,258,273,274,0,0,0,0,
0,0,0,0,272,259,0,0,0,268,0,0,0,0,0,0,
0,0,0,0,0,272,273,273,273,274,0,0,0,0,0,0
</chunk>
  </data>
 </layer>
</map>
