<?xml version="1.0" encoding="UTF-8"?>
<map version="1.9" tiledversion="1.9.2" orientation="orthogonal" renderorder="right-down" width="32" height="32" tilewidth="32" tileheight="32" infinite="1" nextlayerid="19" nextobjectid="38">
 <tileset firstgid="1" source="0_TimeTravel_Dungeon.tsx"/>
 <tileset firstgid="257" source="0_TimeTravel_Rov.tsx"/>
 <tileset firstgid="275" source="0_TimeTravel_DecorDurable.tsx"/>
 <tileset firstgid="375" source="0_TimeTravel_DecorFragile.tsx"/>
 <tileset firstgid="475" source="0_TimeTravel_Chest.tsx"/>
 <tileset firstgid="481" source="../BasicTiles/0_Dark.tsx"/>
 <tileset firstgid="511" source="0_TimeTravel_DecorWood.tsx"/>
 <tileset firstgid="651" source="rat.tsx"/>
 <tileset firstgid="667" source="0_TimeTravel_Ropes.tsx"/>
 <tileset firstgid="675" source="0_TimeTravel_RatsWheel.tsx"/>
 <tileset firstgid="677" source="0_TimeTravel_Stones.tsx"/>
 <layer id="1" name="Floor" width="32" height="32">
  <data encoding="csv">
   <chunk x="0" y="0" width="16" height="16">
0,0,0,0,0,0,0,0,0,0,0,0,0,0,0,0,
0,0,0,0,0,0,0,0,0,0,0,0,0,0,0,0,
0,0,0,0,0,0,0,0,0,0,0,0,0,0,0,0,
0,0,0,0,0,0,0,0,0,0,0,0,0,0,0,0,
0,0,0,0,0,0,0,97,98,99,0,0,0,0,0,0,
0,0,0,0,0,0,97,129,101,131,99,0,0,0,0,0,
0,0,0,0,0,97,129,114,130,117,131,99,0,0,0,0,
0,0,0,0,0,113,118,114,114,114,133,0,0,0,0,0,
0,0,0,0,0,0,134,114,114,2147483780,0,0,0,0,0,0,
0,0,0,0,0,0,0,0,0,0,0,0,0,0,0,0,
0,0,0,0,0,0,0,0,0,0,0,0,0,0,0,0,
0,0,0,0,0,0,0,0,0,0,0,0,0,0,0,0,
0,0,0,0,0,0,0,0,0,0,0,0,0,0,0,0,
0,0,0,0,0,0,0,0,0,0,0,0,0,0,0,0,
0,0,0,0,0,0,0,0,0,0,0,0,0,0,0,0,
0,0,0,0,0,0,0,0,0,0,0,0,0,0,0,0
</chunk>
  </data>
 </layer>
 <layer id="2" name="Wall" width="32" height="32">
  <data encoding="csv">
   <chunk x="0" y="0" width="16" height="16">
0,0,0,0,0,0,0,0,0,0,0,0,0,0,0,0,
0,0,0,0,0,0,0,257,257,257,0,0,0,0,0,0,
0,0,0,0,0,0,257,257,257,257,257,0,0,0,0,0,
0,0,0,0,0,257,257,263,263,263,257,257,0,0,0,0,
0,0,0,0,0,257,263,0,0,0,263,257,0,0,0,0,
0,0,0,0,0,263,0,0,0,0,0,263,0,0,0,0,
0,0,0,0,0,0,0,0,0,0,0,0,0,0,0,0,
0,0,0,0,0,0,0,0,0,0,0,0,0,0,0,0,
0,0,0,0,0,0,0,0,0,0,0,0,0,0,0,0,
0,0,0,0,0,0,0,0,0,0,0,0,0,0,0,0,
0,0,0,0,0,0,0,0,0,0,0,0,0,0,0,0,
0,0,0,0,0,0,0,0,0,0,0,0,0,0,0,0,
0,0,0,0,0,0,0,0,0,0,0,0,0,0,0,0,
0,0,0,0,0,0,0,0,0,0,0,0,0,0,0,0,
0,0,0,0,0,0,0,0,0,0,0,0,0,0,0,0,
0,0,0,0,0,0,0,0,0,0,0,0,0,0,0,0
</chunk>
  </data>
 </layer>
 <objectgroup id="16" name="Objects">
  <object id="32" template="Stalagmite1.tx" gid="2147484328" x="256" y="160" rotation="0"/>
  <object id="33" template="Stalagmite1.tx" x="256" y="288"/>
  <object id="34" template="Stalagmite2.tx" x="160" y="256"/>
  <object id="35" template="Stalagmite2.tx" x="224" y="288"/>
  <object id="37" template="StoneStaircaseDown.tx" x="352" y="192"/>
 </objectgroup>
 <objectgroup id="17" name="Rats">
  <object id="27" class="RatRun" gid="652" x="160" y="160" width="32" height="32"/>
  <object id="28" class="RatRun" gid="652" x="192" y="128" width="32" height="32"/>
  <object id="29" class="RatRun" gid="652" x="224" y="96" width="32" height="32"/>
  <object id="30" class="RatRun" gid="652" x="288" y="96" width="32" height="32"/>
  <object id="31" class="RatRun" gid="652" x="320" y="128" width="32" height="32"/>
 </objectgroup>
 <layer id="3" name="Roof" width="32" height="32">
  <data encoding="csv">
   <chunk x="0" y="0" width="16" height="16">
0,0,0,0,0,0,260,261,261,261,262,0,0,0,0,0,
0,0,0,0,0,260,265,0,0,0,264,262,0,0,0,0,
0,0,0,0,260,265,0,0,0,0,0,264,262,0,0,0,
0,0,0,0,266,0,0,0,0,0,0,0,268,0,0,0,
0,0,0,0,266,0,0,0,0,0,0,0,268,0,0,0,
0,0,0,0,266,0,0,0,0,0,0,0,268,0,0,0,
0,0,0,0,266,0,0,0,0,0,0,0,268,0,0,0,
0,0,0,0,266,0,0,0,0,0,0,258,274,0,0,0,
0,0,0,0,272,259,0,0,0,0,258,274,0,0,0,0,
0,0,0,0,0,272,273,273,273,273,274,0,0,0,0,0,
0,0,0,0,0,0,0,0,0,0,0,0,0,0,0,0,
0,0,0,0,0,0,0,0,0,0,0,0,0,0,0,0,
0,0,0,0,0,0,0,0,0,0,0,0,0,0,0,0,
0,0,0,0,0,0,0,0,0,0,0,0,0,0,0,0,
0,0,0,0,0,0,0,0,0,0,0,0,0,0,0,0,
0,0,0,0,0,0,0,0,0,0,0,0,0,0,0,0
</chunk>
  </data>
 </layer>
</map>
