<?xml version="1.0" encoding="UTF-8"?>
<map version="1.10" tiledversion="1.10.1" orientation="orthogonal" renderorder="right-down" width="30" height="20" tilewidth="32" tileheight="32" infinite="1" nextlayerid="16" nextobjectid="88">
 <tileset firstgid="1" source="0_TimeTravel_Dungeon.tsx"/>
 <tileset firstgid="257" source="0_TimeTravel_WoodenTable1.tsx"/>
 <tileset firstgid="258" source="0_Dark.tsx"/>
 <tileset firstgid="288" source="TimeMachine.tsx"/>
 <tileset firstgid="289" source="0_TimeTravel_ChangesAreInevitable.tsx"/>
 <tileset firstgid="290" source="0_TimeTravel_DungeonDoors.tsx"/>
 <tileset firstgid="524" source="0_TimeTravel_Moss.tsx"/>
 <tileset firstgid="525" source="1_TimeTravel_Spinis.tsx"/>
 <tileset firstgid="561" source="0_TimeTravel_Note.tsx"/>
 <tileset firstgid="564" source="0_TimeTravel_Bones.tsx"/>
 <tileset firstgid="571" source="0_TimeTravel_CardsOnTable.tsx"/>
 <tileset firstgid="573" source="0_TimeTravel_Barrels.tsx"/>
 <tileset firstgid="589" source="0_TimeTravel_Stool.tsx"/>
 <tileset firstgid="590" source="0_TimeTravel_WallDecor.tsx"/>
 <tileset firstgid="606" source="0_TimeTravel_Lever.tsx"/>
 <tileset firstgid="609" source="0_TimeTravel_GuardsWeapon.tsx"/>
 <tileset firstgid="610" source="0_TimeTravel_Chains.tsx"/>
 <tileset firstgid="621" source="0_InvisibleWall.tsx"/>
 <layer id="1" name="Floor" width="30" height="20">
  <data encoding="csv">
   <chunk x="-16" y="-16" width="16" height="16">
0,0,0,0,0,0,0,0,0,0,0,0,0,0,0,0,
0,0,0,0,0,0,0,0,0,0,0,0,0,0,0,0,
0,0,0,0,0,0,0,0,0,0,0,0,0,0,0,0,
0,0,0,0,0,0,0,0,0,0,0,0,0,0,0,0,
0,0,0,0,0,0,0,0,0,0,0,0,0,0,0,0,
0,0,0,0,0,0,0,0,0,0,0,0,0,0,0,0,
0,0,0,0,0,0,0,0,0,0,0,0,0,0,0,0,
0,0,0,0,0,0,0,0,0,0,0,0,0,0,0,0,
0,0,0,0,0,0,0,0,0,0,0,0,0,0,0,0,
0,0,0,0,0,0,0,0,0,0,0,0,0,0,0,0,
0,0,0,0,0,0,0,0,0,0,0,0,0,0,0,0,
0,0,0,0,0,0,0,0,0,0,0,0,0,0,0,0,
0,0,0,0,0,0,0,0,0,0,0,0,0,0,0,0,
0,0,0,0,0,0,0,0,0,0,0,0,0,0,0,0,
0,0,0,0,0,0,0,0,0,0,0,0,0,0,0,0,
0,0,0,0,0,0,0,0,0,0,0,0,0,0,97,98
</chunk>
   <chunk x="0" y="-16" width="16" height="16">
0,0,0,0,0,0,0,0,0,0,0,0,0,0,0,0,
0,0,0,0,0,0,0,0,0,0,0,0,0,0,0,0,
0,0,0,0,0,0,0,0,0,0,0,0,0,0,0,0,
0,0,0,0,0,0,0,0,0,0,0,0,0,0,0,0,
0,0,0,0,0,0,0,0,0,0,0,0,0,0,0,0,
0,0,0,0,0,0,0,0,0,0,0,0,0,0,0,0,
0,0,0,0,0,0,0,0,0,0,0,0,0,0,0,0,
0,0,0,0,0,0,0,0,0,0,0,0,0,0,0,0,
0,0,0,0,0,0,0,0,0,0,0,0,0,0,0,0,
0,0,0,0,0,0,0,0,0,0,0,0,0,0,0,0,
0,0,0,0,0,0,0,0,0,0,0,0,0,0,0,0,
0,0,0,0,0,0,0,0,0,0,0,0,0,0,0,0,
0,0,0,0,0,0,0,0,0,0,0,0,0,0,0,0,
0,0,0,0,0,0,0,0,0,0,0,0,0,0,0,0,
0,0,0,0,0,0,0,0,0,0,0,0,0,0,0,0,
98,99,0,0,71,73,73,75,0,0,71,74,98,99,0,0
</chunk>
   <chunk x="-16" y="0" width="16" height="16">
0,0,0,0,0,0,0,0,0,0,0,0,0,0,113,132,
0,0,0,0,0,0,0,0,0,0,0,0,0,0,113,114,
0,0,0,0,0,0,0,0,0,0,0,0,0,0,0,114,
0,0,0,0,0,0,0,0,0,0,0,0,0,0,0,114,
0,0,0,0,0,0,0,97,98,98,98,99,0,0,0,114,
0,0,0,0,0,0,0,113,114,114,133,115,0,0,0,114,
0,0,97,99,0,0,0,113,114,114,114,115,0,0,0,97,
0,97,129,131,98,98,98,129,114,114,132,131,99,0,97,129,
0,113,114,114,130,114,114,114,114,114,114,114,131,98,129,114,
0,0,0,0,0,0,0,114,101,114,114,0,0,0,0,114,
0,0,0,0,0,0,0,0,114,114,0,0,0,0,0,114,
0,0,0,0,0,0,0,0,114,114,0,0,0,0,0,114,
0,0,0,0,0,0,0,0,114,114,0,0,0,0,0,114,
0,0,0,0,0,0,0,0,114,114,0,0,0,0,0,97,
0,0,0,0,0,0,0,0,97,99,0,0,0,0,97,129,
0,0,0,0,0,0,0,0,113,115,0,0,0,0,113,114
</chunk>
   <chunk x="0" y="0" width="16" height="16">
114,115,0,0,87,114,118,91,0,0,113,114,114,115,0,0,
114,115,0,0,87,114,114,91,0,0,113,114,114,115,0,0,
114,0,0,0,0,133,114,0,0,0,0,114,114,0,0,0,
114,0,0,0,0,114,114,0,0,0,0,114,114,0,0,0,
114,0,0,0,0,114,114,0,0,0,0,114,114,0,0,0,
114,0,0,0,0,114,114,0,0,0,0,114,114,0,0,0,
99,0,0,0,0,97,99,0,0,0,0,97,99,0,0,0,
131,98,98,73,74,129,131,73,73,74,98,129,131,98,99,0,
101,114,114,114,114,114,114,114,114,114,114,114,132,114,115,0,
114,0,0,0,0,114,134,0,0,0,0,114,114,0,0,0,
114,0,0,0,0,114,114,0,0,0,0,114,114,0,0,0,
114,0,0,0,0,2147483780,114,0,0,0,0,114,114,0,0,0,
114,0,0,0,0,114,114,0,0,0,0,114,114,0,0,0,
99,0,0,0,0,97,99,0,0,0,0,97,99,0,0,0,
131,99,0,0,71,129,131,99,0,0,97,129,131,99,0,0,
114,115,0,0,87,114,114,115,0,0,113,114,114,115,0,0
</chunk>
   <chunk x="-16" y="16" width="16" height="16">
0,0,0,0,0,0,0,0,113,115,0,0,0,0,113,114,
0,0,0,0,0,0,0,0,113,115,0,0,0,0,0,0,
0,0,0,0,0,0,0,0,113,115,0,0,0,0,0,0,
0,0,0,0,0,0,0,0,113,115,0,0,0,0,0,0,
0,0,0,0,0,0,0,0,113,115,0,0,0,0,0,0,
0,0,0,0,0,0,0,0,113,115,0,0,0,0,0,0,
0,0,0,0,0,0,0,0,0,0,0,0,0,0,0,0,
0,0,0,0,0,0,0,0,0,0,0,0,0,0,0,0,
0,0,0,0,0,0,0,0,0,0,0,0,0,0,0,0,
0,0,0,0,0,0,0,0,0,0,0,0,0,0,0,0,
0,0,0,0,0,0,0,0,0,0,0,0,0,0,0,0,
0,0,0,0,0,0,0,0,0,0,0,0,0,0,0,0,
0,0,0,0,0,0,0,0,0,0,0,0,0,0,0,0,
0,0,0,0,0,0,0,0,0,0,0,0,0,0,0,0,
0,0,0,0,0,0,0,0,0,0,0,0,0,0,0,0,
0,0,0,0,0,0,0,0,0,0,0,0,0,0,0,0
</chunk>
   <chunk x="0" y="16" width="16" height="16">
114,115,0,0,113,117,114,115,0,0,113,114,114,115,0,0,
0,0,0,0,0,0,0,0,0,0,0,0,0,0,0,0,
0,0,0,0,0,0,0,0,0,0,0,0,0,0,0,0,
0,0,0,0,0,0,0,0,0,0,0,0,0,0,0,0,
0,0,0,0,0,0,0,0,0,0,0,0,0,0,0,0,
0,0,0,0,0,0,0,0,0,0,0,0,0,0,0,0,
0,0,0,0,0,0,0,0,0,0,0,0,0,0,0,0,
0,0,0,0,0,0,0,0,0,0,0,0,0,0,0,0,
0,0,0,0,0,0,0,0,0,0,0,0,0,0,0,0,
0,0,0,0,0,0,0,0,0,0,0,0,0,0,0,0,
0,0,0,0,0,0,0,0,0,0,0,0,0,0,0,0,
0,0,0,0,0,0,0,0,0,0,0,0,0,0,0,0,
0,0,0,0,0,0,0,0,0,0,0,0,0,0,0,0,
0,0,0,0,0,0,0,0,0,0,0,0,0,0,0,0,
0,0,0,0,0,0,0,0,0,0,0,0,0,0,0,0,
0,0,0,0,0,0,0,0,0,0,0,0,0,0,0,0
</chunk>
  </data>
 </layer>
 <layer id="7" name="FloorShadow" width="30" height="20">
  <data encoding="csv">
   <chunk x="-16" y="0" width="16" height="16">
0,0,0,0,0,0,0,0,0,0,0,0,0,0,0,0,
0,0,0,0,0,0,0,0,0,0,0,0,0,0,0,0,
0,0,0,0,0,0,0,0,0,0,0,0,0,0,0,0,
0,0,0,0,0,0,0,0,0,0,0,0,0,0,0,0,
0,0,0,0,0,0,0,0,0,0,0,0,0,0,0,0,
0,0,1073742092,1073742092,0,0,0,0,0,0,0,0,0,0,0,1073742092,
0,0,0,0,0,0,0,0,0,0,0,0,0,0,0,0,
0,0,0,0,0,0,0,0,0,0,0,0,0,0,0,0,
0,0,0,0,0,0,0,0,0,0,0,0,0,0,0,0,
0,0,0,0,0,0,0,0,0,0,0,0,0,0,0,0,
0,0,0,0,0,0,0,0,0,0,0,0,0,0,0,0,
0,0,0,0,0,0,0,0,0,0,0,0,0,0,0,0,
0,0,0,0,0,0,0,0,0,0,0,0,0,0,0,1073742092,
0,0,0,0,0,0,0,0,1073742092,1073742092,0,0,0,0,0,0,
0,0,0,0,0,0,0,0,0,0,0,0,0,0,0,0,
0,0,0,0,0,0,0,0,0,0,0,0,0,0,0,0
</chunk>
   <chunk x="0" y="0" width="16" height="16">
0,0,0,0,0,0,0,0,0,0,0,0,0,0,0,0,
0,0,0,0,0,0,0,0,0,0,0,0,0,0,0,0,
0,0,0,0,0,0,0,0,0,0,0,0,0,0,0,0,
0,0,0,0,0,0,0,0,0,0,0,0,0,0,0,0,
0,0,0,0,0,0,0,0,0,0,0,0,0,0,0,0,
1073742092,0,0,0,0,1073742092,1073742092,0,0,0,0,1073742092,1073742092,0,0,0,
0,0,0,0,0,0,0,0,0,0,0,0,0,0,0,0,
0,0,0,0,0,0,0,0,0,0,0,0,0,0,0,0,
0,0,0,0,0,0,0,0,0,0,0,0,0,0,0,0,
0,0,0,0,0,0,0,0,0,0,0,0,0,0,0,0,
0,0,0,0,0,0,0,0,0,0,0,0,0,0,0,0,
0,0,0,0,0,0,0,0,0,0,0,0,0,0,0,0,
1073742092,0,0,0,0,1073742092,1073742092,0,0,0,0,1073742092,1073742092,0,0,0,
0,0,0,0,0,0,0,0,0,0,0,0,0,0,0,0,
0,0,0,0,0,0,0,0,0,0,0,0,0,0,0,0,
0,0,0,0,0,0,0,0,0,0,0,0,0,0,0,0
</chunk>
   <chunk x="-16" y="16" width="16" height="16">
0,0,0,0,0,0,0,0,0,0,0,0,0,0,0,0,
0,0,0,0,0,0,0,0,0,0,0,0,0,0,0,0,
0,0,0,0,0,0,0,0,0,0,0,0,0,0,0,0,
0,0,0,0,0,0,0,0,0,0,0,0,0,0,0,0,
0,0,0,0,0,0,0,0,0,0,0,0,0,0,0,0,
0,0,0,0,0,0,0,0,3221225740,3221225740,0,0,0,0,0,0,
0,0,0,0,0,0,0,0,0,0,0,0,0,0,0,0,
0,0,0,0,0,0,0,0,0,0,0,0,0,0,0,0,
0,0,0,0,0,0,0,0,0,0,0,0,0,0,0,0,
0,0,0,0,0,0,0,0,0,0,0,0,0,0,0,0,
0,0,0,0,0,0,0,0,0,0,0,0,0,0,0,0,
0,0,0,0,0,0,0,0,0,0,0,0,0,0,0,0,
0,0,0,0,0,0,0,0,0,0,0,0,0,0,0,0,
0,0,0,0,0,0,0,0,0,0,0,0,0,0,0,0,
0,0,0,0,0,0,0,0,0,0,0,0,0,0,0,0,
0,0,0,0,0,0,0,0,0,0,0,0,0,0,0,0
</chunk>
  </data>
 </layer>
 <layer id="3" name="Wall" width="30" height="20">
  <data encoding="csv">
   <chunk x="-16" y="-16" width="16" height="16">
0,0,0,0,0,0,0,0,0,0,0,0,0,0,0,0,
0,0,0,0,0,0,0,0,0,0,0,0,0,0,0,0,
0,0,0,0,0,0,0,0,0,0,0,0,0,0,0,0,
0,0,0,0,0,0,0,0,0,0,0,0,0,0,0,0,
0,0,0,0,0,0,0,0,0,0,0,0,0,0,0,0,
0,0,0,0,0,0,0,0,0,0,0,0,0,0,0,0,
0,0,0,0,0,0,0,0,0,0,0,0,0,0,0,0,
0,0,0,0,0,0,0,0,0,0,0,0,0,0,0,0,
0,0,0,0,0,0,0,0,0,0,0,0,0,0,0,0,
0,0,0,0,0,0,0,0,0,0,0,0,0,0,0,0,
0,0,0,0,0,0,0,0,0,0,0,0,0,0,0,0,
0,0,0,0,0,0,0,0,0,0,0,0,0,0,0,0,
0,0,0,0,0,0,0,0,0,0,0,0,0,0,49,49,
0,0,0,0,0,0,0,0,0,0,0,0,0,0,67,51,
0,0,0,0,0,0,0,0,0,0,0,0,0,0,81,83,
0,0,0,0,0,0,0,0,0,0,0,0,0,0,0,0
</chunk>
   <chunk x="0" y="-16" width="16" height="16">
0,0,0,0,0,0,0,0,0,0,0,0,0,0,0,0,
0,0,0,0,0,0,0,0,0,0,0,0,0,0,0,0,
0,0,0,0,0,0,0,0,0,0,0,0,0,0,0,0,
0,0,0,0,0,0,0,0,0,0,0,0,0,0,0,0,
0,0,0,0,0,0,0,0,0,0,0,0,0,0,0,0,
0,0,0,0,0,0,0,0,0,0,0,0,0,0,0,0,
0,0,0,0,0,0,0,0,0,0,0,0,0,0,0,0,
0,0,0,0,0,0,0,0,0,0,0,0,0,0,0,0,
0,0,0,0,0,0,0,0,0,0,0,0,0,0,0,0,
0,0,0,0,0,0,0,0,0,0,0,0,0,0,0,0,
0,0,0,0,0,0,0,0,0,0,0,0,0,0,0,0,
0,0,0,0,0,0,0,0,0,0,0,0,0,0,0,0,
49,65,0,0,49,49,49,37,0,0,49,49,51,49,0,0,
50,49,0,0,37,49,37,36,0,0,49,49,49,49,0,0,
82,81,0,0,52,52,52,52,0,0,52,53,81,83,0,0,
0,0,0,0,0,0,0,0,0,0,0,0,0,0,0,0
</chunk>
   <chunk x="-16" y="0" width="16" height="16">
0,0,0,0,0,0,0,0,0,0,0,0,0,0,0,0,
0,0,0,0,0,0,0,49,49,49,49,49,0,0,0,0,
0,0,0,0,0,0,0,49,49,49,49,49,0,0,0,0,
0,0,0,0,0,0,0,81,81,81,81,81,0,0,0,0,
0,49,0,0,49,49,49,0,0,0,0,0,49,0,49,0,
0,49,0,0,49,49,49,0,0,0,0,0,49,49,49,0,
0,81,0,0,81,81,81,0,0,0,0,0,81,49,81,0,
0,0,0,0,0,0,0,0,0,0,0,0,0,81,0,0,
0,0,0,0,0,0,0,0,0,0,0,0,0,0,0,0,
0,0,0,0,0,0,0,0,0,0,0,0,0,0,0,0,
0,0,0,0,0,0,0,0,0,0,0,0,0,0,0,0,
0,0,0,0,0,0,0,0,0,0,0,0,0,0,49,0,
0,0,0,0,0,0,0,0,0,0,0,0,0,0,49,0,
0,0,0,0,0,0,0,0,0,0,0,0,0,0,82,0,
0,0,0,0,0,0,0,0,0,0,0,0,0,0,0,0,
0,0,0,0,0,0,0,0,0,0,0,0,0,0,0,0
</chunk>
   <chunk x="0" y="0" width="16" height="16">
0,0,0,0,0,0,0,0,0,0,0,0,0,0,0,0,
0,0,0,0,0,0,0,0,0,0,0,0,0,0,0,0,
0,0,0,0,0,0,0,0,0,0,0,0,0,0,0,0,
0,0,0,0,0,0,0,0,0,0,0,0,0,0,0,0,
0,49,49,49,49,0,0,49,49,65,49,0,0,49,49,0,
0,49,67,49,49,0,0,49,49,49,49,0,0,49,67,0,
0,83,81,54,53,0,0,52,53,81,81,0,0,81,81,0,
0,0,0,0,0,0,0,0,0,0,0,0,0,0,0,0,
0,0,0,0,0,0,0,0,0,0,0,0,0,0,0,0,
0,0,0,0,0,0,0,0,0,0,0,0,0,0,0,0,
0,0,0,0,0,0,0,0,0,0,0,0,0,0,0,0,
0,49,0,0,49,0,0,49,0,0,49,0,0,67,0,0,
0,67,0,0,49,0,0,41,0,0,42,0,0,49,0,0,
0,81,0,0,52,0,0,81,0,0,81,0,0,81,0,0,
0,0,0,0,0,0,0,0,0,0,0,0,0,0,0,0,
0,0,0,0,0,0,0,0,0,0,0,0,0,0,0,0
</chunk>
  </data>
 </layer>
 <layer id="8" name="WallShadow" width="30" height="20">
  <data encoding="csv"/>
 </layer>
 <objectgroup id="11" name="Spikes">
  <object id="6" template="Spikes3.tx" x="-64" y="0"/>
  <object id="7" template="Spikes3.tx" gid="2147484181" x="0" y="64" rotation="0"/>
 </objectgroup>
 <objectgroup id="9" name="ObjectsFloor">
  <object id="4" type="DeadButterfly" gid="289" x="387.5" y="22.5" width="32" height="32">
   <properties>
    <property name="Durability" type="int" value="1"/>
   </properties>
  </object>
  <object id="5" template="Moss.tx" type="Moss" x="224" y="0"/>
  <object id="12" template="PapyrusPicture.tx" type="PapyrusPicture" x="382.5" y="515.5"/>
  <object id="17" template="PapyrusNotes.tx" x="204.5" y="542"/>
  <object id="19" template="PapyrusNote.tx" type="PapyrusNote" gid="2147484209" x="145" y="528.5" rotation="0"/>
  <object id="21" template="PapyrusNotes.tx" gid="2147484211" x="174.5" y="496.5" rotation="0"/>
  <object id="22" template="Moss.tx" gid="2147484172" x="128" y="480" rotation="0"/>
  <object id="23" template="Bones1.tx" x="4" y="497.5"/>
  <object id="24" template="Bones5.tx" x="-45.5" y="522"/>
  <object id="25" template="Bones3.tx" x="23.5" y="545"/>
  <object id="27" template="Bones3.tx" x="134.5" y="8.5"/>
  <object id="28" template="Bones2.tx" x="149.5" y="45"/>
  <object id="29" template="Bones2.tx" x="17.5" y="12"/>
  <object id="30" template="Bones4.tx" x="-49" y="59"/>
  <object id="31" template="Bones6.tx" x="-53" y="485"/>
  <object id="87" template="PapyrusNote.tx" type="PapyrusNote" gid="2147484209" x="177" y="566" rotation="0"/>
 </objectgroup>
 <objectgroup id="4" name="Objects">
  <object id="1" template="WoodenTable1.tx" x="-288" y="256"/>
  <object id="2" template="TimeMachine.tx" type="TimeMachine" x="352" y="32"/>
  <object id="34" template="Skull.tx" type="Skull" x="24" y="516"/>
  <object id="36" template="WoodenBarrel.tx" x="-288" y="160"/>
  <object id="37" template="WoodenBarrelClosed.tx" type="WoodenBarrelClosed" x="-256" y="160"/>
  <object id="38" template="WoodenStool.tx" x="-256" y="256"/>
  <object id="41" template="WoodenStool.tx" type="WoodenStool" x="-187" y="227"/>
  <object id="42" template="WoodenStool.tx" x="-223" y="177.5"/>
  <object id="43" type="MapDungeonsJail" gid="593" x="-256" y="96" width="64" height="64">
   <properties>
    <property name="Durability" type="int" value="1"/>
   </properties>
  </object>
  <object id="44" template="LeverDungeonOFF.tx" type="LeverDungeonOFF" x="-192" y="96"/>
  <object id="45" template="WoodenBarrel.tx" x="-480" y="256"/>
  <object id="46" template="WoodenBarrelClosed.tx" x="-480" y="288"/>
  <object id="47" template="WoodenBarrelClosed.tx" x="-448" y="288"/>
  <object id="48" type="LongWeapon" gid="609" x="-352" y="256" width="64" height="96">
   <properties>
    <property name="Durability" type="int" value="4"/>
   </properties>
  </object>
  <object id="49" template="Bones4.tx" x="333" y="546"/>
  <object id="50" template="Bones2.tx" x="399.5" y="498"/>
  <object id="52" template="Bones4.tx" type="Bones4" x="339.5" y="11.5"/>
  <object id="53" template="Bones5.tx" x="335" y="63.5"/>
  <object id="54" template="Bones3.tx" x="329.5" y="52"/>
  <object id="55" template="Bones3.tx" x="184" y="520"/>
  <object id="56" template="Bones2.tx" x="154" y="493.5"/>
  <object id="58" template="Bones3.tx" gid="2147484214" x="208.5" y="55" rotation="0"/>
  <object id="59" template="ChainsTop.tx" x="32" y="160"/>
  <object id="60" template="ChainsTop.tx" x="128" y="160"/>
  <object id="61" template="ChainsTop.tx" x="224" y="160"/>
  <object id="62" template="ChainsTop.tx" x="320" y="160"/>
  <object id="63" template="ChainsTop.tx" x="416" y="160"/>
  <object id="64" template="ChainsTop.tx" x="-64" y="160"/>
  <object id="65" template="ChainsCandlesFire.tx" x="-64" y="192"/>
  <object id="66" template="ChainsCandlesFire.tx" x="32" y="192"/>
  <object id="67" template="ChainsCandlesFire.tx" x="128" y="192"/>
  <object id="68" template="ChainsCandlesFire.tx" x="224" y="192"/>
  <object id="69" template="ChainsCandlesFire.tx" x="320" y="192"/>
  <object id="70" template="ChainsCandlesFire.tx" x="416" y="192"/>
  <object id="71" template="ChainsTop.tx" x="-160" y="64"/>
  <object id="72" template="ChainsTop.tx" x="-288" y="64"/>
  <object id="73" template="ChainsTop.tx" x="-480" y="160"/>
  <object id="74" template="ChainsTop.tx" x="-384" y="160"/>
  <object id="75" template="Chains.tx" x="-384" y="192"/>
  <object id="76" template="Chains.tx" type="Chains" x="-480" y="192"/>
  <object id="77" template="Chains.tx" x="-160" y="96"/>
  <object id="78" template="Chains.tx" x="-288" y="96"/>
  <object id="79" template="Chains.tx" x="-160" y="128"/>
  <object id="80" template="Chains.tx" x="-288" y="128"/>
  <object id="81" template="Chains.tx" x="-384" y="224"/>
  <object id="82" template="Chains.tx" x="-480" y="224"/>
  <object id="84" template="ShacklesClosed.tx" x="-32" y="-64"/>
  <object id="85" template="ShacklesOpen.tx" x="160" y="-64"/>
  <object id="86" template="ShacklesOpen.tx" x="352" y="-64"/>
 </objectgroup>
 <objectgroup id="13" name="ObjectsOnTable"/>
 <layer id="2" name="Roof" width="30" height="20">
  <data encoding="csv">
   <chunk x="-16" y="-16" width="16" height="16">
0,0,0,0,0,0,0,0,0,0,0,0,0,0,0,0,
0,0,0,0,0,0,0,0,0,0,0,0,0,0,0,0,
0,0,0,0,0,0,0,0,0,0,0,0,0,0,0,0,
0,0,0,0,0,0,0,0,0,0,0,0,0,0,0,0,
0,0,0,0,0,0,0,0,0,0,0,0,0,0,0,0,
0,0,0,0,0,0,0,0,0,0,0,0,0,0,0,0,
0,0,0,0,0,0,0,0,0,0,0,0,0,0,0,0,
0,0,0,0,0,0,0,0,0,0,0,0,0,0,0,0,
0,0,0,0,0,0,0,0,0,0,0,0,0,0,0,0,
0,0,0,0,0,0,0,0,0,0,0,0,0,0,0,0,
0,0,0,0,0,0,0,0,0,0,0,0,0,0,0,0,
0,0,0,0,0,0,0,0,0,0,0,0,0,1,2,2,
0,0,0,0,0,0,0,0,0,0,0,0,0,17,0,0,
0,0,0,0,0,0,0,0,0,0,0,0,0,17,0,0,
0,0,0,0,0,0,0,0,0,0,0,0,0,17,0,0,
0,0,0,0,0,0,0,0,0,0,0,0,0,17,0,0
</chunk>
   <chunk x="0" y="-16" width="16" height="16">
0,0,0,0,0,0,0,0,0,0,0,0,0,0,0,0,
0,0,0,0,0,0,0,0,0,0,0,0,0,0,0,0,
0,0,0,0,0,0,0,0,0,0,0,0,0,0,0,0,
0,0,0,0,0,0,0,0,0,0,0,0,0,0,0,0,
0,0,0,0,0,0,0,0,0,0,0,0,0,0,0,0,
0,0,0,0,0,0,0,0,0,0,0,0,0,0,0,0,
0,0,0,0,0,0,0,0,0,0,0,0,0,0,0,0,
0,0,0,0,0,0,0,0,0,0,0,0,0,0,0,0,
0,0,0,0,0,0,0,0,0,0,0,0,0,0,0,0,
0,0,0,0,0,0,0,0,0,0,0,0,0,0,0,0,
0,0,0,0,0,0,0,0,0,0,0,0,0,0,0,0,
2,2,3,1,2,2,2,2,3,1,2,2,2,2,3,0,
0,0,19,17,0,0,0,0,19,17,0,0,0,0,19,0,
0,0,19,17,0,0,0,0,19,17,0,0,0,0,19,0,
0,0,19,17,0,0,0,0,19,17,0,0,0,0,19,0,
0,0,19,17,0,0,0,0,19,17,0,0,0,0,19,0
</chunk>
   <chunk x="-16" y="0" width="16" height="16">
0,0,0,0,0,0,1,2,2,2,2,2,3,17,0,0,
0,0,0,0,0,0,17,0,0,0,0,0,19,17,0,0,
0,17,0,0,19,0,17,0,0,0,0,0,19,33,5,0,
1,21,293,294,20,2,21,0,0,0,0,0,20,163,21,303,
17,0,0,0,0,0,0,0,0,0,0,0,0,162,0,0,
17,0,0,0,0,0,0,0,0,0,0,0,0,0,0,0,
17,0,0,0,0,0,0,0,0,0,0,0,0,304,0,0,
17,0,0,0,0,0,0,0,0,0,0,0,0,317,0,0,
17,0,0,0,0,0,0,0,0,0,0,0,0,330,0,0,
33,34,34,34,34,34,5,0,0,0,0,4,34,34,5,0,
0,0,0,0,0,0,33,5,0,0,4,35,0,1,21,303,
0,0,0,0,0,0,0,17,293,294,19,0,0,17,0,0,
0,0,0,0,0,0,0,17,0,0,19,0,0,17,0,0,
0,0,0,0,0,0,0,17,0,0,19,0,0,17,0,0,
0,0,0,0,0,0,0,17,0,0,19,0,0,17,0,0,
0,0,0,0,0,0,0,17,0,0,19,0,0,17,0,0
</chunk>
   <chunk x="0" y="0" width="16" height="16">
0,0,19,17,0,0,0,0,19,17,0,0,0,0,19,0,
0,0,19,17,0,0,0,0,19,17,0,0,0,0,19,0,
0,4,35,33,5,0,0,4,35,33,5,0,0,4,35,0,
2147483951,20,2,2,21,303,2147483951,20,2,2,21,303,2147483951,20,2,3,
0,0,0,0,0,0,0,0,0,0,0,0,0,0,0,19,
0,0,0,0,0,0,0,0,0,0,0,0,0,0,0,19,
0,0,0,0,0,0,0,0,0,0,0,0,0,0,0,19,
0,0,0,0,0,0,0,0,0,0,0,0,0,0,0,19,
0,0,0,0,0,0,0,0,0,0,0,0,0,0,0,19,
0,4,34,34,5,0,0,4,34,34,5,0,0,4,34,35,
2147483951,20,3,1,21,303,2147483951,20,3,1,21,303,2147483951,20,3,0,
0,0,19,17,0,0,0,0,19,17,0,0,0,0,19,0,
0,0,19,17,0,0,0,0,19,17,0,0,0,0,19,0,
0,0,19,17,0,0,0,0,19,17,0,0,0,0,19,0,
0,0,19,17,0,0,0,0,19,17,0,0,0,0,19,0,
0,0,19,17,0,0,0,0,19,17,0,0,0,0,19,0
</chunk>
   <chunk x="-16" y="16" width="16" height="16">
0,0,0,0,0,0,0,17,0,0,19,0,0,17,0,0,
0,0,0,0,0,0,0,17,0,0,19,0,0,33,34,34,
0,0,0,0,0,0,0,17,0,0,19,0,0,0,0,0,
0,0,0,0,0,0,0,17,0,0,19,0,0,0,0,0,
0,0,0,0,0,0,0,17,0,0,19,0,0,0,0,0,
0,0,0,0,0,0,0,17,0,0,19,0,0,0,0,0,
0,0,0,0,0,0,0,0,0,0,0,0,0,0,0,0,
0,0,0,0,0,0,0,0,0,0,0,0,0,0,0,0,
0,0,0,0,0,0,0,0,0,0,0,0,0,0,0,0,
0,0,0,0,0,0,0,0,0,0,0,0,0,0,0,0,
0,0,0,0,0,0,0,0,0,0,0,0,0,0,0,0,
0,0,0,0,0,0,0,0,0,0,0,0,0,0,0,0,
0,0,0,0,0,0,0,0,0,0,0,0,0,0,0,0,
0,0,0,0,0,0,0,0,0,0,0,0,0,0,0,0,
0,0,0,0,0,0,0,0,0,0,0,0,0,0,0,0,
0,0,0,0,0,0,0,0,0,0,0,0,0,0,0,0
</chunk>
   <chunk x="0" y="16" width="16" height="16">
0,0,19,17,0,0,0,0,19,17,0,0,0,0,19,0,
34,34,35,33,34,34,34,34,35,33,34,34,34,34,35,0,
0,0,0,0,0,0,0,0,0,0,0,0,0,0,0,0,
0,0,0,0,0,0,0,0,0,0,0,0,0,0,0,0,
0,0,0,0,0,0,0,0,0,0,0,0,0,0,0,0,
0,0,0,0,0,0,0,0,0,0,0,0,0,0,0,0,
0,0,0,0,0,0,0,0,0,0,0,0,0,0,0,0,
0,0,0,0,0,0,0,0,0,0,0,0,0,0,0,0,
0,0,0,0,0,0,0,0,0,0,0,0,0,0,0,0,
0,0,0,0,0,0,0,0,0,0,0,0,0,0,0,0,
0,0,0,0,0,0,0,0,0,0,0,0,0,0,0,0,
0,0,0,0,0,0,0,0,0,0,0,0,0,0,0,0,
0,0,0,0,0,0,0,0,0,0,0,0,0,0,0,0,
0,0,0,0,0,0,0,0,0,0,0,0,0,0,0,0,
0,0,0,0,0,0,0,0,0,0,0,0,0,0,0,0,
0,0,0,0,0,0,0,0,0,0,0,0,0,0,0,0
</chunk>
  </data>
 </layer>
 <layer id="5" name="RoofShadow" width="30" height="20">
  <data encoding="csv">
   <chunk x="-16" y="0" width="16" height="16">
0,0,0,0,0,0,0,0,0,0,0,0,0,0,0,0,
0,0,0,0,0,0,0,0,0,0,0,0,0,0,0,0,
0,267,0,0,267,0,0,0,0,0,0,0,0,0,0,0,
0,0,0,0,0,0,0,0,0,0,0,0,0,0,0,0,
0,0,0,0,0,0,0,0,0,0,0,0,0,0,0,0,
0,0,0,0,0,0,0,0,0,0,0,0,0,0,0,0,
0,0,0,0,0,0,0,0,0,0,0,0,0,0,0,0,
0,0,0,0,0,0,0,0,0,0,0,0,0,0,0,0,
0,0,0,0,0,0,0,0,0,0,0,0,0,0,0,0,
0,0,0,0,0,0,0,0,0,0,0,0,0,0,0,0,
0,0,0,0,0,0,0,0,0,0,0,0,0,0,0,0,
0,0,0,0,0,0,0,0,0,0,0,0,0,0,0,0,
0,0,0,0,0,0,0,0,0,0,0,0,0,0,0,0,
0,0,0,0,0,0,0,0,0,0,0,0,0,0,0,0,
0,0,0,0,0,0,0,0,0,0,0,0,0,0,0,0,
0,0,0,0,0,0,0,0,0,0,0,0,0,0,0,0
</chunk>
   <chunk x="-16" y="16" width="16" height="16">
0,0,0,0,0,0,0,0,0,0,0,0,0,0,0,0,
0,0,0,0,0,0,0,0,0,0,0,0,0,0,0,0,
0,0,0,0,0,0,0,0,0,0,0,0,0,0,0,0,
0,0,0,0,0,0,0,0,0,0,0,0,0,0,0,0,
0,0,0,0,0,0,0,0,0,0,0,0,0,0,0,0,
0,0,0,0,0,0,0,3221225740,0,0,3221225740,0,0,0,0,0,
0,0,0,0,0,0,0,0,0,0,0,0,0,0,0,0,
0,0,0,0,0,0,0,0,0,0,0,0,0,0,0,0,
0,0,0,0,0,0,0,0,0,0,0,0,0,0,0,0,
0,0,0,0,0,0,0,0,0,0,0,0,0,0,0,0,
0,0,0,0,0,0,0,0,0,0,0,0,0,0,0,0,
0,0,0,0,0,0,0,0,0,0,0,0,0,0,0,0,
0,0,0,0,0,0,0,0,0,0,0,0,0,0,0,0,
0,0,0,0,0,0,0,0,0,0,0,0,0,0,0,0,
0,0,0,0,0,0,0,0,0,0,0,0,0,0,0,0,
0,0,0,0,0,0,0,0,0,0,0,0,0,0,0,0
</chunk>
  </data>
 </layer>
 <layer id="14" name="BARRIER_GROUND" width="30" height="20" opacity="0">
  <data encoding="csv">
   <chunk x="-16" y="-16" width="16" height="16">
0,0,0,0,0,0,0,0,0,0,0,0,0,0,0,0,
0,0,0,0,0,0,0,0,0,0,0,0,0,0,0,0,
0,0,0,0,0,0,0,0,0,0,0,0,0,0,0,0,
0,0,0,0,0,0,0,0,0,0,0,0,0,0,0,0,
0,0,0,0,0,0,0,0,0,0,0,0,0,0,0,0,
0,0,0,0,0,0,0,0,0,0,0,0,0,0,0,0,
0,0,0,0,0,0,0,0,0,0,0,0,0,0,0,0,
0,0,0,0,0,0,0,0,0,0,0,0,0,0,0,0,
0,0,0,0,0,0,0,0,0,0,0,0,0,0,0,0,
0,0,0,0,0,0,0,0,0,0,0,0,0,0,0,0,
0,0,0,0,0,0,0,0,0,0,0,0,0,0,0,0,
0,0,0,0,0,0,0,0,0,0,0,0,0,0,0,0,
0,0,0,0,0,0,0,0,0,0,0,0,0,0,0,0,
0,0,0,0,0,0,0,0,0,0,0,0,0,0,0,0,
0,0,0,0,0,0,0,0,0,0,0,0,0,0,621,621,
0,0,0,0,0,0,0,0,0,0,0,0,0,621,0,0
</chunk>
   <chunk x="0" y="-16" width="16" height="16">
0,0,0,0,0,0,0,0,0,0,0,0,0,0,0,0,
0,0,0,0,0,0,0,0,0,0,0,0,0,0,0,0,
0,0,0,0,0,0,0,0,0,0,0,0,0,0,0,0,
0,0,0,0,0,0,0,0,0,0,0,0,0,0,0,0,
0,0,0,0,0,0,0,0,0,0,0,0,0,0,0,0,
0,0,0,0,0,0,0,0,0,0,0,0,0,0,0,0,
0,0,0,0,0,0,0,0,0,0,0,0,0,0,0,0,
0,0,0,0,0,0,0,0,0,0,0,0,0,0,0,0,
0,0,0,0,0,0,0,0,0,0,0,0,0,0,0,0,
0,0,0,0,0,0,0,0,0,0,0,0,0,0,0,0,
0,0,0,0,0,0,0,0,0,0,0,0,0,0,0,0,
0,0,0,0,0,0,0,0,0,0,0,0,0,0,0,0,
0,0,0,0,0,0,0,0,0,0,0,0,0,0,0,0,
0,0,0,0,0,0,0,0,0,0,0,0,0,0,0,0,
621,621,0,0,621,621,621,621,0,0,621,621,621,621,0,0,
0,0,621,621,0,0,0,0,621,621,0,0,0,0,621,0
</chunk>
   <chunk x="-16" y="0" width="16" height="16">
0,0,0,0,0,0,0,0,0,0,0,0,0,621,0,0,
0,0,0,0,0,0,0,0,0,0,0,0,0,621,0,0,
0,0,0,0,0,0,0,0,0,0,0,0,0,621,624,0,
0,0,0,0,0,0,0,621,621,621,621,621,0,0,621,0,
0,0,621,621,0,0,621,0,0,0,0,0,621,0,621,0,
0,621,0,0,621,0,621,0,0,0,0,0,621,0,621,0,
0,621,0,0,621,621,621,0,0,0,0,0,621,0,621,0,
621,0,0,0,0,0,0,0,0,0,0,0,0,621,0,0,
621,0,0,0,0,0,0,0,0,0,0,0,0,0,0,0,
621,624,624,624,624,624,624,0,0,0,0,624,624,624,624,0,
0,0,0,0,0,0,621,624,0,0,624,621,0,0,621,0,
0,0,0,0,0,0,0,621,0,0,621,0,0,0,621,0,
0,0,0,0,0,0,0,621,0,0,621,0,0,0,621,0,
0,0,0,0,0,0,0,621,0,0,621,0,0,0,621,0,
0,0,0,0,0,0,0,621,0,0,621,0,0,621,0,0,
0,0,0,0,0,0,0,621,0,0,621,0,0,621,0,0
</chunk>
   <chunk x="0" y="0" width="16" height="16">
0,0,621,621,0,0,0,0,621,621,0,0,0,0,621,0,
0,0,621,621,0,0,0,0,621,621,0,0,0,0,621,0,
0,624,621,621,624,0,0,624,621,621,624,0,0,624,621,0,
0,621,0,0,621,0,0,621,0,0,621,0,0,621,0,0,
0,621,0,0,621,0,0,621,0,0,621,0,0,621,0,0,
0,621,0,0,621,0,0,621,0,0,621,0,0,621,0,0,
0,621,621,621,621,0,0,621,621,621,621,0,0,621,621,0,
0,0,0,0,0,0,0,0,0,0,0,0,0,0,0,621,
0,0,0,0,0,0,0,0,0,0,0,0,0,0,0,621,
0,624,624,624,624,0,0,624,624,624,624,0,0,624,624,621,
0,621,0,0,621,0,0,621,0,0,621,0,0,621,0,0,
0,621,0,0,621,0,0,621,0,0,621,0,0,621,0,0,
0,621,0,0,621,0,0,621,0,0,621,0,0,621,0,0,
0,621,0,0,621,0,0,621,0,0,621,0,0,621,0,0,
0,0,621,621,0,0,0,0,621,621,0,0,0,0,621,0,
0,0,621,621,0,0,0,0,621,621,0,0,0,0,621,0
</chunk>
   <chunk x="-16" y="16" width="16" height="16">
0,0,0,0,0,0,0,621,0,0,621,0,0,621,0,0,
0,0,0,0,0,0,0,621,0,0,621,0,0,621,624,624,
0,0,0,0,0,0,0,621,0,0,621,0,0,0,0,0,
0,0,0,0,0,0,0,621,0,0,621,0,0,0,0,0,
0,0,0,0,0,0,0,621,0,0,621,0,0,0,0,0,
0,0,0,0,0,0,0,621,0,0,621,0,0,0,0,0,
0,0,0,0,0,0,0,621,621,621,621,0,0,0,0,0,
0,0,0,0,0,0,0,0,0,0,0,0,0,0,0,0,
0,0,0,0,0,0,0,0,0,0,0,0,0,0,0,0,
0,0,0,0,0,0,0,0,0,0,0,0,0,0,0,0,
0,0,0,0,0,0,0,0,0,0,0,0,0,0,0,0,
0,0,0,0,0,0,0,0,0,0,0,0,0,0,0,0,
0,0,0,0,0,0,0,0,0,0,0,0,0,0,0,0,
0,0,0,0,0,0,0,0,0,0,0,0,0,0,0,0,
0,0,0,0,0,0,0,0,0,0,0,0,0,0,0,0,
0,0,0,0,0,0,0,0,0,0,0,0,0,0,0,0
</chunk>
   <chunk x="0" y="16" width="16" height="16">
0,0,621,621,0,0,0,0,621,621,0,0,0,0,621,0,
624,624,621,621,624,624,624,624,621,621,624,624,624,624,621,0,
0,0,0,0,0,0,0,0,0,0,0,0,0,0,0,0,
0,0,0,0,0,0,0,0,0,0,0,0,0,0,0,0,
0,0,0,0,0,0,0,0,0,0,0,0,0,0,0,0,
0,0,0,0,0,0,0,0,0,0,0,0,0,0,0,0,
0,0,0,0,0,0,0,0,0,0,0,0,0,0,0,0,
0,0,0,0,0,0,0,0,0,0,0,0,0,0,0,0,
0,0,0,0,0,0,0,0,0,0,0,0,0,0,0,0,
0,0,0,0,0,0,0,0,0,0,0,0,0,0,0,0,
0,0,0,0,0,0,0,0,0,0,0,0,0,0,0,0,
0,0,0,0,0,0,0,0,0,0,0,0,0,0,0,0,
0,0,0,0,0,0,0,0,0,0,0,0,0,0,0,0,
0,0,0,0,0,0,0,0,0,0,0,0,0,0,0,0,
0,0,0,0,0,0,0,0,0,0,0,0,0,0,0,0,
0,0,0,0,0,0,0,0,0,0,0,0,0,0,0,0
</chunk>
  </data>
 </layer>
 <layer id="15" name="BARRIER_AIR" width="30" height="20" opacity="0">
  <data encoding="csv">
   <chunk x="-16" y="-16" width="16" height="16">
0,0,0,0,0,0,0,0,0,0,0,0,0,0,0,0,
0,0,0,0,0,0,0,0,0,0,0,0,0,0,0,0,
0,0,0,0,0,0,0,0,0,0,0,0,0,0,0,0,
0,0,0,0,0,0,0,0,0,0,0,0,0,0,0,0,
0,0,0,0,0,0,0,0,0,0,0,0,0,0,0,0,
0,0,0,0,0,0,0,0,0,0,0,0,0,0,0,0,
0,0,0,0,0,0,0,0,0,0,0,0,0,0,0,0,
0,0,0,0,0,0,0,0,0,0,0,0,0,0,0,0,
0,0,0,0,0,0,0,0,0,0,0,0,0,0,0,0,
0,0,0,0,0,0,0,0,0,0,0,0,0,0,0,0,
0,0,0,0,0,0,0,0,0,0,0,0,0,0,0,0,
0,0,0,0,0,0,0,0,0,0,0,0,0,0,0,0,
0,0,0,0,0,0,0,0,0,0,0,0,0,0,0,0,
0,0,0,0,0,0,0,0,0,0,0,0,0,0,0,0,
0,0,0,0,0,0,0,0,0,0,0,0,0,0,622,622,
0,0,0,0,0,0,0,0,0,0,0,0,0,622,0,0
</chunk>
   <chunk x="0" y="-16" width="16" height="16">
0,0,0,0,0,0,0,0,0,0,0,0,0,0,0,0,
0,0,0,0,0,0,0,0,0,0,0,0,0,0,0,0,
0,0,0,0,0,0,0,0,0,0,0,0,0,0,0,0,
0,0,0,0,0,0,0,0,0,0,0,0,0,0,0,0,
0,0,0,0,0,0,0,0,0,0,0,0,0,0,0,0,
0,0,0,0,0,0,0,0,0,0,0,0,0,0,0,0,
0,0,0,0,0,0,0,0,0,0,0,0,0,0,0,0,
0,0,0,0,0,0,0,0,0,0,0,0,0,0,0,0,
0,0,0,0,0,0,0,0,0,0,0,0,0,0,0,0,
0,0,0,0,0,0,0,0,0,0,0,0,0,0,0,0,
0,0,0,0,0,0,0,0,0,0,0,0,0,0,0,0,
0,0,0,0,0,0,0,0,0,0,0,0,0,0,0,0,
0,0,0,0,0,0,0,0,0,0,0,0,0,0,0,0,
0,0,0,0,0,0,0,0,0,0,0,0,0,0,0,0,
622,622,0,0,622,622,622,622,0,0,622,622,622,622,0,0,
0,0,622,622,0,0,0,0,622,622,0,0,0,0,622,0
</chunk>
   <chunk x="-16" y="0" width="16" height="16">
0,0,0,0,0,0,0,0,0,0,0,0,0,622,0,0,
0,0,0,0,0,0,0,0,0,0,0,0,0,622,0,0,
0,0,0,0,0,0,0,0,0,0,0,0,0,622,625,0,
0,0,0,0,0,0,0,622,622,622,622,622,0,0,622,0,
0,0,622,622,0,0,622,0,0,0,0,0,622,0,622,0,
0,622,0,0,622,0,622,0,0,0,0,0,622,0,622,0,
0,622,0,0,622,622,622,0,0,0,0,0,622,0,622,0,
622,0,0,0,0,0,0,0,0,0,0,0,0,622,0,0,
622,0,0,0,0,0,0,0,0,0,0,0,0,0,0,0,
622,625,625,625,625,625,625,0,0,0,0,625,625,625,625,0,
0,0,0,0,0,0,622,625,0,0,625,622,0,0,622,0,
0,0,0,0,0,0,0,622,0,0,622,0,0,0,622,0,
0,0,0,0,0,0,0,622,0,0,622,0,0,0,622,0,
0,0,0,0,0,0,0,622,0,0,622,0,0,0,622,0,
0,0,0,0,0,0,0,622,0,0,622,0,0,622,0,0,
0,0,0,0,0,0,0,622,0,0,622,0,0,622,0,0
</chunk>
   <chunk x="0" y="0" width="16" height="16">
0,0,622,622,0,0,0,0,622,622,0,0,0,0,622,0,
0,0,622,622,0,0,0,0,622,622,0,0,0,0,622,0,
0,625,622,622,625,0,0,625,622,622,625,0,0,625,622,0,
0,622,0,0,622,0,0,622,0,0,622,0,0,622,0,0,
0,622,0,0,622,0,0,622,0,0,622,0,0,622,0,0,
0,622,0,0,622,0,0,622,0,0,622,0,0,622,0,0,
0,622,622,622,622,0,0,622,622,622,622,0,0,622,622,0,
0,0,0,0,0,0,0,0,0,0,0,0,0,0,0,622,
0,0,0,0,0,0,0,0,0,0,0,0,0,0,0,622,
0,625,625,625,625,0,0,625,625,625,625,0,0,625,625,622,
0,622,0,0,622,0,0,622,0,0,622,0,0,622,0,0,
0,622,0,0,622,0,0,622,0,0,622,0,0,622,0,0,
0,622,0,0,622,0,0,622,0,0,622,0,0,622,0,0,
0,622,0,0,622,0,0,622,0,0,622,0,0,622,0,0,
0,0,622,622,0,0,0,0,622,622,0,0,0,0,622,0,
0,0,622,622,0,0,0,0,622,622,0,0,0,0,622,0
</chunk>
   <chunk x="-16" y="16" width="16" height="16">
0,0,0,0,0,0,0,622,0,0,622,0,0,622,0,0,
0,0,0,0,0,0,0,622,0,0,622,0,0,622,625,625,
0,0,0,0,0,0,0,622,0,0,622,0,0,0,0,0,
0,0,0,0,0,0,0,622,0,0,622,0,0,0,0,0,
0,0,0,0,0,0,0,622,0,0,622,0,0,0,0,0,
0,0,0,0,0,0,0,622,0,0,622,0,0,0,0,0,
0,0,0,0,0,0,0,622,622,622,622,0,0,0,0,0,
0,0,0,0,0,0,0,0,0,0,0,0,0,0,0,0,
0,0,0,0,0,0,0,0,0,0,0,0,0,0,0,0,
0,0,0,0,0,0,0,0,0,0,0,0,0,0,0,0,
0,0,0,0,0,0,0,0,0,0,0,0,0,0,0,0,
0,0,0,0,0,0,0,0,0,0,0,0,0,0,0,0,
0,0,0,0,0,0,0,0,0,0,0,0,0,0,0,0,
0,0,0,0,0,0,0,0,0,0,0,0,0,0,0,0,
0,0,0,0,0,0,0,0,0,0,0,0,0,0,0,0,
0,0,0,0,0,0,0,0,0,0,0,0,0,0,0,0
</chunk>
   <chunk x="0" y="16" width="16" height="16">
0,0,622,622,0,0,0,0,622,622,0,0,0,0,622,0,
625,625,622,622,625,625,625,625,622,622,625,625,625,625,622,0,
0,0,0,0,0,0,0,0,0,0,0,0,0,0,0,0,
0,0,0,0,0,0,0,0,0,0,0,0,0,0,0,0,
0,0,0,0,0,0,0,0,0,0,0,0,0,0,0,0,
0,0,0,0,0,0,0,0,0,0,0,0,0,0,0,0,
0,0,0,0,0,0,0,0,0,0,0,0,0,0,0,0,
0,0,0,0,0,0,0,0,0,0,0,0,0,0,0,0,
0,0,0,0,0,0,0,0,0,0,0,0,0,0,0,0,
0,0,0,0,0,0,0,0,0,0,0,0,0,0,0,0,
0,0,0,0,0,0,0,0,0,0,0,0,0,0,0,0,
0,0,0,0,0,0,0,0,0,0,0,0,0,0,0,0,
0,0,0,0,0,0,0,0,0,0,0,0,0,0,0,0,
0,0,0,0,0,0,0,0,0,0,0,0,0,0,0,0,
0,0,0,0,0,0,0,0,0,0,0,0,0,0,0,0,
0,0,0,0,0,0,0,0,0,0,0,0,0,0,0,0
</chunk>
  </data>
 </layer>
</map>
