<?xml version="1.0" encoding="UTF-8"?>
<map version="1.9" tiledversion="1.9.2" orientation="orthogonal" renderorder="right-down" width="30" height="20" tilewidth="32" tileheight="32" infinite="1" nextlayerid="30" nextobjectid="595">
 <tileset firstgid="1" source="0_TimeTravel_Dungeon.tsx"/>
 <tileset firstgid="257" source="1_TimeTravel_Spinis.tsx"/>
 <tileset firstgid="293" source="0_TimeTravel_Vases.tsx"/>
 <tileset firstgid="299" source="0_TimeTravel_Chest.tsx"/>
 <tileset firstgid="305" source="0_TimeTravel_Lever.tsx"/>
 <tileset firstgid="308" source="0_Dark.tsx"/>
 <tileset firstgid="338" source="0_TimeTravel_WoodenTablets.tsx"/>
 <tileset firstgid="342" source="0_TimeTravel_VillageToilet.tsx"/>
 <tileset firstgid="343" source="0_TimeTravel_SpikyLog.tsx"/>
 <tileset firstgid="344" source="0_TimeTravel_Barrels.tsx"/>
 <tileset firstgid="360" source="0_TimeTravel_CrossbowStand.tsx"/>
 <tileset firstgid="363" source="0_TimeTravel_Crossbow.tsx"/>
 <tileset firstgid="390" source="0_TimeTravel_Stones.tsx"/>
 <tileset firstgid="402" source="0_TimeTravel_Woods.tsx"/>
 <tileset firstgid="411" source="0_TimeTravel_TrollStatue.tsx"/>
 <tileset firstgid="412" source="0_TimeTravel_MovingTower.tsx"/>
 <tileset firstgid="442" source="0_TimeTravel_WarningTablet.tsx"/>
 <tileset firstgid="444" source="0_TimeTravel_WarningArrow.tsx"/>
 <tileset firstgid="446" source="0_TimeTravel_Torch.tsx"/>
 <tileset firstgid="451" source="0_TimeTravel_SafetyZone.tsx"/>
 <tileset firstgid="452" source="0_TimeTravel_StalagmiteGiant.tsx"/>
 <tileset firstgid="453" source="0_TimeTravel_StoneThorns.tsx"/>
 <tileset firstgid="458" source="0_TimeTravel_Bones.tsx"/>
 <tileset firstgid="465" source="0_TimeTravel_WoodenSign.tsx"/>
 <tileset firstgid="468" source="0_TimeTravel_Morgenstern.tsx"/>
 <tileset firstgid="469" source="0_TimeTravel_WoodenSignLeftRight.tsx"/>
 <tileset firstgid="470" source="0_TimeTravel_Note.tsx"/>
 <tileset firstgid="473" source="0_TimeTravel_StoneStatues.tsx"/>
 <tileset firstgid="476" source="0_TimeTravel_Banners1.tsx"/>
 <tileset firstgid="478" source="0_TimeTravel_Pie.tsx"/>
 <tileset firstgid="479" source="0_TimeTravel_WoodenTabletsBig.tsx"/>
 <tileset firstgid="482" source="0_TimeTravel_Flags.tsx"/>
 <tileset firstgid="498" source="0_TimeTravel_PuppetsOnPoles.tsx"/>
 <tileset firstgid="502" source="0_TimeTravel_SmallDecor.tsx"/>
 <tileset firstgid="514" source="0_TimeTravel_GeneralFivefinger.tsx"/>
 <tileset firstgid="518" source="0_TimeTravel_Lute.tsx"/>
 <tileset firstgid="519" source="0_TimeTravel_BannerArrow.tsx"/>
 <tileset firstgid="521" source="0_TimeTravel_SignageBannersRed.tsx"/>
 <tileset firstgid="522" source="0_TimeTravel_Target.tsx"/>
 <tileset firstgid="524" source="0_TimeTravel_ArrowStatue.tsx"/>
 <tileset firstgid="525" source="0_TimeTravel_SpearArrow.tsx"/>
 <tileset firstgid="526" source="0_TimeTravel_WoodenTablet.tsx"/>
 <tileset firstgid="538" source="0_TimeTravel_Chains.tsx"/>
 <tileset firstgid="549" source="0_TimeTravel_Banners2.tsx"/>
 <tileset firstgid="554" source="0_TimeTravel_OilLamp.tsx"/>
 <tileset firstgid="557" source="0_InvisibleWall.tsx"/>
 <tileset firstgid="560" source="0_TimeTravel_FakeStones.tsx"/>
 <tileset firstgid="564" source="TimeMachine.tsx"/>
 <tileset firstgid="565" source="0_TimeTravel_BarrelCheese.tsx"/>
 <tileset firstgid="568" source="0_TimeTravel_BarrelDrum.tsx"/>
 <tileset firstgid="569" source="0_TimeTravel_FlimsyDecor.tsx"/>
 <tileset firstgid="572" source="0_TimeTravel_Mannequin.tsx"/>
 <tileset firstgid="578" source="0_TimeTravel_BannerStand.tsx"/>
 <tileset firstgid="580" source="0_TimeTravel_WallDecor.tsx"/>
 <layer id="1" name="Floor" width="30" height="20">
  <data encoding="csv">
   <chunk x="16" y="-32" width="16" height="16">
0,0,0,0,0,0,0,0,0,0,0,0,0,0,0,0,
0,0,0,0,0,0,0,0,0,0,0,0,0,0,0,0,
0,0,0,0,0,0,0,0,0,0,0,0,0,0,0,0,
0,0,0,0,0,0,0,0,0,0,0,0,0,0,0,0,
0,0,0,0,0,0,0,0,0,0,0,0,0,0,0,0,
0,0,0,0,0,0,0,0,0,0,0,0,0,0,0,0,
0,0,0,0,0,0,0,0,0,0,0,0,0,0,0,0,
0,0,0,0,0,0,0,0,0,0,0,0,0,0,0,0,
0,0,0,0,0,0,0,0,0,0,0,0,0,0,0,0,
0,0,0,0,0,0,0,0,0,0,0,0,0,0,0,0,
0,0,0,0,0,0,0,0,0,0,0,0,0,0,0,0,
0,0,0,0,0,0,0,0,0,0,0,0,0,0,0,0,
308,308,308,308,308,308,308,0,0,0,0,0,0,0,0,0,
0,114,114,114,114,114,0,0,0,0,0,0,0,0,0,0,
0,0,114,114,114,0,0,0,0,0,0,0,0,0,0,0,
0,0,114,117,118,0,0,0,0,0,0,0,0,0,0,0
</chunk>
   <chunk x="-16" y="-16" width="16" height="16">
0,0,0,0,0,0,0,0,0,0,0,0,0,0,0,0,
0,0,0,0,0,0,0,0,0,0,0,0,0,0,0,0,
0,0,0,0,0,0,0,0,0,0,0,0,0,0,0,0,
0,0,0,0,0,0,0,0,0,0,0,0,0,0,0,0,
0,0,0,0,0,0,0,0,0,0,0,0,0,0,0,0,
0,0,0,0,0,0,97,98,98,98,98,98,98,98,98,98,
0,0,0,308,97,98,129,101,114,114,114,114,132,114,114,114,
0,0,0,0,0,0,132,114,114,130,114,114,114,114,101,114,
0,0,0,0,0,0,0,0,0,0,0,0,0,0,0,0,
0,0,0,0,0,0,0,0,0,0,0,0,0,0,0,0,
0,0,0,0,0,0,0,0,0,0,0,0,0,0,0,0,
0,0,0,0,0,0,0,0,0,0,0,0,0,0,0,0,
0,0,0,0,0,0,0,0,0,0,0,0,0,0,0,0,
0,0,0,0,0,0,0,0,0,0,0,0,0,0,0,0,
0,0,0,0,0,0,0,0,0,0,0,0,0,0,0,0,
0,0,0,0,0,0,0,0,0,0,0,0,0,0,0,0
</chunk>
   <chunk x="0" y="-16" width="16" height="16">
0,0,0,0,0,0,0,0,0,0,0,0,0,0,0,0,
0,0,0,0,0,0,0,0,0,0,0,0,0,0,0,0,
0,0,0,0,0,0,0,0,0,0,0,0,0,0,0,0,
0,0,0,0,0,0,0,0,0,0,0,0,0,0,0,0,
0,0,0,0,0,0,0,0,0,0,0,0,0,0,0,0,
98,98,98,98,98,98,98,98,98,98,98,98,98,98,98,99,
114,114,117,114,114,114,118,114,114,116,114,114,114,132,114,115,
114,114,114,133,114,114,114,132,114,114,114,114,133,114,114,115,
0,0,0,0,0,0,0,0,0,0,0,0,0,0,0,0,
0,0,0,0,0,0,0,0,0,0,0,0,0,0,0,0,
0,0,0,0,0,0,0,0,0,0,0,0,0,0,0,0,
0,0,0,0,0,0,0,0,0,0,0,0,0,0,0,0,
0,0,0,0,0,0,0,0,0,0,0,0,0,0,0,0,
0,0,0,0,0,0,0,0,0,0,0,0,0,0,0,0,
0,0,0,0,0,0,0,0,0,0,0,0,0,0,0,0,
0,0,0,0,0,0,0,0,0,0,0,0,0,0,0,0
</chunk>
   <chunk x="16" y="-16" width="16" height="16">
0,0,102,114,100,0,0,0,0,0,0,0,0,0,0,0,
0,0,113,114,115,0,0,0,0,0,0,0,0,0,0,0,
0,0,113,114,115,0,0,0,0,0,0,0,0,0,0,0,
0,0,113,132,115,0,0,0,0,0,0,0,0,0,0,0,
0,0,113,101,115,0,0,0,0,0,0,0,0,0,0,0,
0,0,113,114,115,0,0,0,0,0,0,0,0,0,0,0,
308,97,129,114,115,0,0,0,0,0,0,0,0,0,0,0,
0,0,114,132,115,0,0,0,0,0,0,0,0,0,0,0,
0,0,0,0,0,0,0,0,0,0,0,0,0,0,0,0,
0,0,0,0,0,0,0,0,0,0,0,0,0,0,0,0,
0,0,0,0,0,0,0,0,0,0,0,0,0,0,0,0,
0,0,0,0,0,0,0,0,0,0,0,0,0,0,0,0,
0,0,0,0,0,0,0,0,0,0,0,0,0,0,0,0,
0,0,0,0,0,0,0,0,0,0,0,0,0,0,0,0,
0,0,0,0,0,0,0,0,0,0,0,0,0,0,0,0,
0,0,0,0,0,0,0,0,0,0,0,0,0,0,0,0
</chunk>
  </data>
 </layer>
 <layer id="23" name="FloorDecor" width="30" height="20">
  <data encoding="csv"/>
 </layer>
 <layer id="6" name="FloorShadow" width="30" height="20">
  <data encoding="csv">
   <chunk x="16" y="-32" width="16" height="16">
0,0,0,0,0,0,0,0,0,0,0,0,0,0,0,0,
0,0,0,0,0,0,0,0,0,0,0,0,0,0,0,0,
0,0,0,0,0,0,0,0,0,0,0,0,0,0,0,0,
0,0,0,0,0,0,0,0,0,0,0,0,0,0,0,0,
0,0,0,0,0,0,0,0,0,0,0,0,0,0,0,0,
0,0,0,0,0,0,0,0,0,0,0,0,0,0,0,0,
0,0,0,0,0,0,0,0,0,0,0,0,0,0,0,0,
0,0,0,0,0,0,0,0,0,0,0,0,0,0,0,0,
0,0,0,0,0,0,0,0,0,0,0,0,0,0,0,0,
0,0,0,0,0,0,0,0,0,0,0,0,0,0,0,0,
0,0,0,0,0,0,0,0,0,0,0,0,0,0,0,0,
0,0,0,0,0,0,0,0,0,0,0,0,0,0,0,0,
0,0,0,0,0,0,0,0,0,0,0,0,0,0,0,0,
0,317,317,317,317,317,0,0,0,0,0,0,0,0,0,0,
0,0,0,0,0,0,0,0,0,0,0,0,0,0,0,0,
0,0,0,0,0,0,0,0,0,0,0,0,0,0,0,0
</chunk>
  </data>
 </layer>
 <layer id="2" name="Wall" width="30" height="20">
  <data encoding="csv">
   <chunk x="-16" y="-16" width="16" height="16">
0,0,0,0,0,0,0,0,0,0,0,0,0,0,0,0,
0,0,0,0,0,0,0,0,0,0,0,0,0,0,0,0,
0,0,0,0,0,0,49,49,49,49,49,49,49,49,49,49,
0,0,0,49,49,49,51,49,49,49,67,49,49,49,49,49,
0,0,0,49,49,49,81,81,82,81,81,81,81,83,81,81,
0,0,0,81,81,81,0,0,0,0,0,0,0,0,0,0,
0,0,0,0,0,0,0,0,0,0,0,0,0,0,0,0,
0,0,0,0,0,0,0,0,0,0,0,0,0,0,0,0,
0,0,0,0,0,0,0,0,0,0,0,0,0,0,0,0,
0,0,0,0,0,0,0,0,0,0,0,0,0,0,0,0,
0,0,0,0,0,0,0,0,0,0,0,0,0,0,0,0,
0,0,0,0,0,0,0,0,0,0,0,0,0,0,0,0,
0,0,0,0,0,0,0,0,0,0,0,0,0,0,0,0,
0,0,0,0,0,0,0,0,0,0,0,0,0,0,0,0,
0,0,0,0,0,0,0,0,0,0,0,0,0,0,0,0,
0,0,0,0,0,0,0,0,0,0,0,0,0,0,0,0
</chunk>
   <chunk x="0" y="-16" width="16" height="16">
0,0,0,0,0,0,0,0,0,0,0,0,0,0,0,0,
0,0,0,0,0,0,0,0,0,0,0,0,0,0,0,0,
49,49,49,49,49,49,49,49,49,51,49,49,49,49,49,49,
49,49,49,49,49,49,49,49,49,49,49,67,49,49,49,49,
81,81,81,81,82,81,81,81,81,81,83,81,81,81,81,81,
0,0,0,0,0,0,0,0,0,0,0,0,0,0,0,0,
0,0,0,0,0,0,0,0,0,0,0,0,0,0,0,0,
0,0,0,0,0,0,0,0,0,0,0,0,0,0,0,0,
0,0,0,0,0,0,0,0,0,0,0,0,0,0,0,0,
0,0,0,0,0,0,0,0,0,0,0,0,0,0,0,0,
0,0,0,0,0,0,0,0,0,0,0,0,0,0,0,0,
0,0,0,0,0,0,0,0,0,0,0,0,0,0,0,0,
0,0,0,0,0,0,0,0,0,0,0,0,0,0,0,0,
0,0,0,0,0,0,0,0,0,0,0,0,0,0,0,0,
0,0,0,0,0,0,0,0,0,0,0,0,0,0,0,0,
0,0,0,0,0,0,0,0,0,0,0,0,0,0,0,0
</chunk>
   <chunk x="16" y="-16" width="16" height="16">
0,0,0,0,0,0,0,0,0,0,0,0,0,0,0,0,
0,0,0,0,0,0,0,0,0,0,0,0,0,0,0,0,
0,0,0,0,0,0,0,0,0,0,0,0,0,0,0,0,
49,49,0,0,0,0,0,0,0,0,0,0,0,0,0,0,
49,49,0,0,0,0,0,0,0,0,0,0,0,0,0,0,
81,81,0,0,0,0,0,0,0,0,0,0,0,0,0,0,
0,0,0,0,0,0,0,0,0,0,0,0,0,0,0,0,
0,0,0,0,0,0,0,0,0,0,0,0,0,0,0,0,
0,0,0,0,0,0,0,0,0,0,0,0,0,0,0,0,
0,0,0,0,0,0,0,0,0,0,0,0,0,0,0,0,
0,0,0,0,0,0,0,0,0,0,0,0,0,0,0,0,
0,0,0,0,0,0,0,0,0,0,0,0,0,0,0,0,
0,0,0,0,0,0,0,0,0,0,0,0,0,0,0,0,
0,0,0,0,0,0,0,0,0,0,0,0,0,0,0,0,
0,0,0,0,0,0,0,0,0,0,0,0,0,0,0,0,
0,0,0,0,0,0,0,0,0,0,0,0,0,0,0,0
</chunk>
  </data>
 </layer>
 <layer id="12" name="Spikes" width="30" height="20">
  <data encoding="csv"/>
 </layer>
 <objectgroup id="10" name="ObjectsFloor">
  <object id="585" template="Bones1.tx" x="640" y="-544"/>
  <object id="586" template="Bones2.tx" x="597" y="-457"/>
  <object id="587" template="Bones4.tx" x="608" y="-559.5"/>
  <object id="588" template="Bones4.tx" gid="2147484109" x="591" y="-316" rotation="0"/>
  <object id="589" template="Bones5.tx" x="605.5" y="-327.5"/>
  <object id="590" template="Bones6.tx" x="630.5" y="-249.5"/>
  <object id="591" template="Bones4.tx" x="626" y="-262.5"/>
  <object id="592" template="Bones3.tx" x="570" y="-563"/>
  <object id="594" template="Bones3.tx" gid="2147484108" x="596" y="-417" rotation="0"/>
 </objectgroup>
 <objectgroup id="9" name="Objects">
  <object id="469" class="FakeStatue1" gid="560" x="-96" y="-288" width="32" height="64">
   <properties>
    <property name="Durability" type="int" value="3"/>
   </properties>
  </object>
  <object id="470" class="FakeStatue2_1" gid="561" x="128" y="-280" width="32" height="64">
   <properties>
    <property name="Durability" type="int" value="3"/>
   </properties>
  </object>
  <object id="471" gid="564" x="385" y="-271" width="96" height="96"/>
  <object id="473" class="FakeStatue3" gid="563" x="160" y="-320" width="32" height="64">
   <properties>
    <property name="Durability" type="int" value="3"/>
   </properties>
  </object>
  <object id="474" template="WoodenBarrelClosed.tx" x="-320" y="-320"/>
  <object id="475" template="WoodenBarrelClosed.tx" x="-160" y="-256"/>
  <object id="476" template="WoodenBarrelClosed.tx" x="-224" y="-320"/>
  <object id="477" template="WoodenBarrelClosed.tx" x="480" y="-256"/>
  <object id="479" template="WoodenBarrelClosed.tx" x="192" y="-320"/>
  <object id="481" template="WoodenBarrelClosed.tx" x="0" y="-256"/>
  <object id="487" template="WoodenBarrelHay.tx" x="480" y="-320"/>
  <object id="488" template="WoodenBarrelMeat.tx" x="0" y="-320"/>
  <object id="494" template="WoodenBarrelPoisonClosed.tx" x="224" y="-320"/>
  <object id="495" template="WoodenBarrelSpikes.tx" x="32" y="-320"/>
  <object id="501" template="WoodenBarrelArrows.tx" x="-128" y="-320"/>
  <object id="510" template="WoodenBarrelCheeseClosed.tx" class="WoodenBarrelCheeseClosed" x="-288" y="-320"/>
  <object id="512" template="WoodenBarrelCheeseClosed.tx" x="64" y="-256"/>
  <object id="513" template="WoodenBarrelCheeseClosed.tx" x="320" y="-256"/>
  <object id="515" gid="568" x="416" y="-256" width="96" height="64"/>
  <object id="516" template="HayBundle.tx" class="HayBundle" x="416" y="-320"/>
  <object id="517" template="HaySheaf.tx" class="HaySheaf" x="352" y="-320"/>
  <object id="522" template="Mannequin1.tx" class="Mannequin1" x="96" y="-320"/>
  <object id="523" template="Mannequin2.tx" class="Mannequin2" x="-32" y="-320"/>
  <object id="524" class="MannequinPlague" gid="575" x="256" y="-320" width="32" height="64">
   <properties>
    <property name="Durability" type="int" value="1"/>
   </properties>
  </object>
  <object id="527" template="Mannequin1.tx" gid="2147484225" x="32" y="-256" rotation="0"/>
  <object id="528" template="Mannequin2.tx" gid="2147484224" x="224" y="-288" rotation="0"/>
  <object id="529" template="Mannequin2.tx" x="352" y="-256"/>
  <object id="531" template="Vase1.tx" x="-288" y="-256"/>
  <object id="532" template="Vase1.tx" x="64" y="-320"/>
  <object id="533" template="Vase1.tx" gid="2147483941" x="256" y="-288" rotation="0"/>
  <object id="534" template="Vase2.tx" x="-32" y="-256"/>
  <object id="535" template="Vase2.tx" x="-256" y="-256"/>
  <object id="536" template="Vase3.tx" x="-64" y="-320"/>
  <object id="552" template="HayBundle.tx" class="HayBundle" x="448" y="-320"/>
  <object id="553" template="HayBundle.tx" class="HayBundle" x="384" y="-320"/>
  <object id="554" class="BannerStandPoison" gid="578" x="-160" y="-320" width="32" height="64">
   <properties>
    <property name="Durability" type="int" value="4"/>
   </properties>
  </object>
  <object id="555" template="WoodenBarrelPoisonClosed.tx" x="-192" y="-320"/>
  <object id="556" template="Vase1.tx" gid="2147483941" x="-64" y="-288" rotation="0"/>
  <object id="557" class="PictureManVsRat" gid="585" x="-96" y="-384" width="64" height="64">
   <properties>
    <property name="Durability" type="int" value="1"/>
   </properties>
  </object>
  <object id="558" class="PictureAssassin" gid="586" x="416" y="-384" width="64" height="64">
   <properties>
    <property name="Durability" type="int" value="1"/>
   </properties>
  </object>
  <object id="559" class="PicturePiedPiper" gid="587" x="64" y="-384" width="64" height="64">
   <properties>
    <property name="Durability" type="int" value="1"/>
   </properties>
  </object>
  <object id="562" template="ChainsCandles.tx" x="0" y="-384"/>
  <object id="565" template="ChainsCandles.tx" x="-160" y="-384"/>
  <object id="566" template="ChainsCandles.tx" x="160" y="-384"/>
  <object id="567" template="ChainsCandles.tx" x="320" y="-384"/>
  <object id="568" template="ChainsTop.tx" x="-160" y="-416"/>
  <object id="569" template="ChainsTop.tx" x="0" y="-416"/>
  <object id="570" template="ChainsTop.tx" x="160" y="-416"/>
  <object id="571" template="ChainsTop.tx" x="320" y="-416"/>
  <object id="572" class="BannerPoison" gid="551" x="-224" y="-384" width="32" height="64">
   <properties>
    <property name="Durability" type="int" value="1"/>
   </properties>
  </object>
  <object id="574" class="BannerCrystal" gid="553" x="-288" y="-384" width="32" height="64">
   <properties>
    <property name="Durability" type="int" value="1"/>
   </properties>
  </object>
  <object id="577" class="BannerCheese" gid="552" x="224" y="-384" width="32" height="64">
   <properties>
    <property name="Durability" type="int" value="1"/>
   </properties>
  </object>
  <object id="579" class="BannerCheese" gid="552" x="256" y="-384" width="32" height="64">
   <properties>
    <property name="Durability" type="int" value="1"/>
   </properties>
  </object>
  <object id="581" class="BannerCrystal" gid="553" x="384" y="-384" width="32" height="64">
   <properties>
    <property name="Durability" type="int" value="1"/>
   </properties>
  </object>
 </objectgroup>
 <layer id="3" name="Roof" width="30" height="20">
  <data encoding="csv">
   <chunk x="16" y="-32" width="16" height="16">
0,0,0,0,0,0,0,0,0,0,0,0,0,0,0,0,
0,0,0,0,0,0,0,0,0,0,0,0,0,0,0,0,
0,0,0,0,0,0,0,0,0,0,0,0,0,0,0,0,
0,0,0,0,0,0,0,0,0,0,0,0,0,0,0,0,
0,0,0,0,0,0,0,0,0,0,0,0,0,0,0,0,
0,0,0,0,0,0,0,0,0,0,0,0,0,0,0,0,
0,0,0,0,0,0,0,0,0,0,0,0,0,0,0,0,
0,0,0,0,0,0,0,0,0,0,0,0,0,0,0,0,
0,0,0,0,0,0,0,0,0,0,0,0,0,0,0,0,
0,0,0,0,0,0,0,0,0,0,0,0,0,0,0,0,
0,0,0,0,0,0,0,0,0,0,0,0,0,0,0,0,
0,0,0,0,0,0,0,0,0,0,0,0,0,0,0,0,
0,0,0,0,0,0,0,0,0,0,0,0,0,0,0,0,
17,0,0,0,0,0,19,0,0,0,0,0,0,0,0,0,
33,5,0,0,0,4,35,0,0,0,0,0,0,0,0,0,
0,17,0,0,0,19,0,0,0,0,0,0,0,0,0,0
</chunk>
   <chunk x="-16" y="-16" width="16" height="16">
0,0,0,0,0,0,0,0,0,0,0,0,0,0,0,0,
0,0,0,0,0,1,2,2,2,2,2,2,2,2,2,2,
0,0,0,2,2,21,0,0,0,0,0,0,0,0,0,0,
0,0,0,0,0,0,0,0,0,0,0,0,0,0,0,0,
0,0,0,0,0,0,0,0,0,0,0,0,0,0,0,0,
0,0,0,0,0,0,0,0,0,0,0,0,0,0,0,0,
0,0,0,0,0,0,0,0,0,0,0,0,0,0,0,0,
0,0,0,34,34,5,0,0,0,0,0,0,0,0,0,0,
0,0,0,0,0,33,34,34,34,34,34,34,34,34,34,34,
0,0,0,0,0,0,0,0,0,0,0,0,0,0,0,0,
0,0,0,0,0,0,0,0,0,0,0,0,0,0,0,0,
0,0,0,0,0,0,0,0,0,0,0,0,0,0,0,0,
0,0,0,0,0,0,0,0,0,0,0,0,0,0,0,0,
0,0,0,0,0,0,0,0,0,0,0,0,0,0,0,0,
0,0,0,0,0,0,0,0,0,0,0,0,0,0,0,0,
0,0,0,0,0,0,0,0,0,0,0,0,0,0,0,0
</chunk>
   <chunk x="0" y="-16" width="16" height="16">
0,0,0,0,0,0,0,0,0,0,0,0,0,0,0,0,
2,2,2,2,2,2,2,2,2,2,2,2,2,2,2,2,
0,0,0,0,0,0,0,0,0,0,0,0,0,0,0,0,
0,0,0,0,0,0,0,0,0,0,0,0,0,0,0,0,
0,0,0,0,0,0,0,0,0,0,0,0,0,0,0,0,
0,0,0,0,0,0,0,0,0,0,0,0,0,0,0,0,
0,0,0,0,0,0,0,0,0,0,0,0,0,0,0,0,
0,0,0,0,0,0,0,0,0,0,0,0,0,0,0,0,
34,34,34,34,34,34,34,34,34,34,34,34,34,34,34,34,
0,0,0,0,0,0,0,0,0,0,0,0,0,0,0,0,
0,0,0,0,0,0,0,0,0,0,0,0,0,0,0,0,
0,0,0,0,0,0,0,0,0,0,0,0,0,0,0,0,
0,0,0,0,0,0,0,0,0,0,0,0,0,0,0,0,
0,0,0,0,0,0,0,0,0,0,0,0,0,0,0,0,
0,0,0,0,0,0,0,0,0,0,0,0,0,0,0,0,
0,0,0,0,0,0,0,0,0,0,0,0,0,0,0,0
</chunk>
   <chunk x="16" y="-16" width="16" height="16">
0,17,0,0,0,19,0,0,0,0,0,0,0,0,0,0,
3,17,0,0,0,19,0,0,0,0,0,0,0,0,0,0,
20,21,0,0,0,19,0,0,0,0,0,0,0,0,0,0,
0,0,0,0,0,19,0,0,0,0,0,0,0,0,0,0,
0,0,0,0,0,19,0,0,0,0,0,0,0,0,0,0,
0,0,0,0,0,19,0,0,0,0,0,0,0,0,0,0,
0,0,0,0,0,19,0,0,0,0,0,0,0,0,0,0,
4,5,0,0,0,19,0,0,0,0,0,0,0,0,0,0,
35,33,34,34,34,35,0,0,0,0,0,0,0,0,0,0,
0,0,0,0,0,0,0,0,0,0,0,0,0,0,0,0,
0,0,0,0,0,0,0,0,0,0,0,0,0,0,0,0,
0,0,0,0,0,0,0,0,0,0,0,0,0,0,0,0,
0,0,0,0,0,0,0,0,0,0,0,0,0,0,0,0,
0,0,0,0,0,0,0,0,0,0,0,0,0,0,0,0,
0,0,0,0,0,0,0,0,0,0,0,0,0,0,0,0,
0,0,0,0,0,0,0,0,0,0,0,0,0,0,0,0
</chunk>
  </data>
 </layer>
 <layer id="4" name="RoofShadow" width="30" height="20">
  <data encoding="csv">
   <chunk x="16" y="-32" width="16" height="16">
0,0,0,0,0,0,0,0,0,0,0,0,0,0,0,0,
0,0,0,0,0,0,0,0,0,0,0,0,0,0,0,0,
0,0,0,0,0,0,0,0,0,0,0,0,0,0,0,0,
0,0,0,0,0,0,0,0,0,0,0,0,0,0,0,0,
0,0,0,0,0,0,0,0,0,0,0,0,0,0,0,0,
0,0,0,0,0,0,0,0,0,0,0,0,0,0,0,0,
0,0,0,0,0,0,0,0,0,0,0,0,0,0,0,0,
0,0,0,0,0,0,0,0,0,0,0,0,0,0,0,0,
0,0,0,0,0,0,0,0,0,0,0,0,0,0,0,0,
0,0,0,0,0,0,0,0,0,0,0,0,0,0,0,0,
0,0,0,0,0,0,0,0,0,0,0,0,0,0,0,0,
0,0,0,0,0,0,0,0,0,0,0,0,0,0,0,0,
0,0,0,0,0,0,0,0,0,0,0,0,0,0,0,0,
316,0,0,0,0,0,316,0,0,0,0,0,0,0,0,0,
0,0,0,0,0,0,0,0,0,0,0,0,0,0,0,0,
0,0,0,0,0,0,0,0,0,0,0,0,0,0,0,0
</chunk>
  </data>
 </layer>
 <layer id="27" name="BARRIER_GROUND" width="30" height="20" visible="0">
  <data encoding="csv">
   <chunk x="16" y="-32" width="16" height="16">
0,0,0,0,0,0,0,0,0,0,0,0,0,0,0,0,
0,0,0,0,0,0,0,0,0,0,0,0,0,0,0,0,
0,0,0,0,0,0,0,0,0,0,0,0,0,0,0,0,
0,0,0,0,0,0,0,0,0,0,0,0,0,0,0,0,
0,0,0,0,0,0,0,0,0,0,0,0,0,0,0,0,
0,0,0,0,0,0,0,0,0,0,0,0,0,0,0,0,
0,0,0,0,0,0,0,0,0,0,0,0,0,0,0,0,
0,0,0,0,0,0,0,0,0,0,0,0,0,0,0,0,
0,0,0,0,0,0,0,0,0,0,0,0,0,0,0,0,
0,0,0,0,0,0,0,0,0,0,0,0,0,0,0,0,
0,0,0,0,0,0,0,0,0,0,0,0,0,0,0,0,
557,557,557,557,557,557,557,0,0,0,0,0,0,0,0,0,
557,0,0,0,0,0,557,0,0,0,0,0,0,0,0,0,
557,0,0,0,0,0,557,0,0,0,0,0,0,0,0,0,
557,557,0,0,0,557,557,0,0,0,0,0,0,0,0,0,
0,557,0,0,0,557,0,0,0,0,0,0,0,0,0,0
</chunk>
   <chunk x="-16" y="-16" width="16" height="16">
0,0,0,0,0,0,0,0,0,0,0,0,0,0,0,0,
0,0,0,0,0,557,557,557,557,557,557,557,557,557,557,557,
0,0,0,557,557,557,557,0,0,0,0,0,0,0,0,0,
0,0,0,557,0,557,557,0,0,0,0,0,0,0,0,0,
0,0,0,557,0,557,557,557,557,557,557,557,557,557,557,557,
0,0,557,557,557,557,0,0,0,0,0,0,0,0,0,0,
0,0,557,0,0,0,0,0,0,0,0,0,0,0,0,0,
0,0,557,557,557,557,0,0,0,0,0,0,0,0,0,0,
0,0,0,0,0,557,557,557,557,557,557,557,557,557,557,557,
0,0,0,0,0,0,0,0,0,0,0,0,0,0,0,0,
0,0,0,0,0,0,0,0,0,0,0,0,0,0,0,0,
0,0,0,0,0,0,0,0,0,0,0,0,0,0,0,0,
0,0,0,0,0,0,0,0,0,0,0,0,0,0,0,0,
0,0,0,0,0,0,0,0,0,0,0,0,0,0,0,0,
0,0,0,0,0,0,0,0,0,0,0,0,0,0,0,0,
0,0,0,0,0,0,0,0,0,0,0,0,0,0,0,0
</chunk>
   <chunk x="0" y="-16" width="16" height="16">
0,0,0,0,0,0,0,0,0,0,0,0,0,0,0,0,
557,557,557,557,557,557,557,557,557,557,557,557,557,557,557,557,
0,0,0,0,0,0,0,0,0,0,0,0,0,0,0,557,
0,0,0,0,0,0,0,0,0,0,0,0,0,0,0,557,
557,557,557,557,557,557,557,557,557,557,557,557,557,557,557,557,
0,0,0,0,0,0,0,0,0,0,0,0,0,0,0,0,
0,0,0,0,0,0,0,0,0,0,0,0,0,0,0,0,
0,0,0,0,0,0,0,0,0,0,0,0,0,0,0,0,
557,557,557,557,557,557,557,557,557,557,557,557,557,557,557,557,
0,0,0,0,0,0,0,0,0,0,0,0,0,0,0,0,
0,0,0,0,0,0,0,0,0,0,0,0,0,0,0,0,
0,0,0,0,0,0,0,0,0,0,0,0,0,0,0,0,
0,0,0,0,0,0,0,0,0,0,0,0,0,0,0,0,
0,0,0,0,0,0,0,0,0,0,0,0,0,0,0,0,
0,0,0,0,0,0,0,0,0,0,0,0,0,0,0,0,
0,0,0,0,0,0,0,0,0,0,0,0,0,0,0,0
</chunk>
   <chunk x="16" y="-16" width="16" height="16">
0,557,0,0,0,557,0,0,0,0,0,0,0,0,0,0,
557,557,0,0,0,557,0,0,0,0,0,0,0,0,0,0,
557,557,0,0,0,557,0,0,0,0,0,0,0,0,0,0,
557,557,0,0,0,557,0,0,0,0,0,0,0,0,0,0,
557,557,0,0,0,557,0,0,0,0,0,0,0,0,0,0,
557,557,0,0,0,557,0,0,0,0,0,0,0,0,0,0,
0,0,0,0,0,557,0,0,0,0,0,0,0,0,0,0,
557,557,0,0,0,557,0,0,0,0,0,0,0,0,0,0,
557,557,557,557,557,557,0,0,0,0,0,0,0,0,0,0,
0,0,0,0,0,0,0,0,0,0,0,0,0,0,0,0,
0,0,0,0,0,0,0,0,0,0,0,0,0,0,0,0,
0,0,0,0,0,0,0,0,0,0,0,0,0,0,0,0,
0,0,0,0,0,0,0,0,0,0,0,0,0,0,0,0,
0,0,0,0,0,0,0,0,0,0,0,0,0,0,0,0,
0,0,0,0,0,0,0,0,0,0,0,0,0,0,0,0,
0,0,0,0,0,0,0,0,0,0,0,0,0,0,0,0
</chunk>
  </data>
 </layer>
 <layer id="29" name="BARRIER_AIR" width="30" height="20" visible="0">
  <data encoding="csv">
   <chunk x="16" y="-32" width="16" height="16">
0,0,0,0,0,0,0,0,0,0,0,0,0,0,0,0,
0,0,0,0,0,0,0,0,0,0,0,0,0,0,0,0,
0,0,0,0,0,0,0,0,0,0,0,0,0,0,0,0,
0,0,0,0,0,0,0,0,0,0,0,0,0,0,0,0,
0,0,0,0,0,0,0,0,0,0,0,0,0,0,0,0,
0,0,0,0,0,0,0,0,0,0,0,0,0,0,0,0,
0,0,0,0,0,0,0,0,0,0,0,0,0,0,0,0,
0,0,0,0,0,0,0,0,0,0,0,0,0,0,0,0,
0,0,0,0,0,0,0,0,0,0,0,0,0,0,0,0,
0,0,0,0,0,0,0,0,0,0,0,0,0,0,0,0,
0,0,0,0,0,0,0,0,0,0,0,0,0,0,0,0,
558,558,558,558,558,558,558,0,0,0,0,0,0,0,0,0,
558,0,0,0,0,0,558,0,0,0,0,0,0,0,0,0,
558,0,0,0,0,0,558,0,0,0,0,0,0,0,0,0,
558,558,0,0,0,558,558,0,0,0,0,0,0,0,0,0,
0,558,0,0,0,558,0,0,0,0,0,0,0,0,0,0
</chunk>
   <chunk x="-16" y="-16" width="16" height="16">
0,0,0,0,0,0,0,0,0,0,0,0,0,0,0,0,
0,0,0,0,0,558,558,558,558,558,558,558,558,558,558,558,
0,0,0,558,558,558,558,0,0,0,0,0,0,0,0,0,
0,0,0,558,0,558,558,0,0,0,0,0,0,0,0,0,
0,0,0,558,0,558,558,558,558,558,558,558,558,558,558,558,
0,0,558,558,558,558,0,0,0,0,0,0,0,0,0,0,
0,0,558,0,0,0,0,0,0,0,0,0,0,0,0,0,
0,0,558,558,558,558,0,0,0,0,0,0,0,0,0,0,
0,0,0,0,0,558,558,558,558,558,558,558,558,558,558,558,
0,0,0,0,0,0,0,0,0,0,0,0,0,0,0,0,
0,0,0,0,0,0,0,0,0,0,0,0,0,0,0,0,
0,0,0,0,0,0,0,0,0,0,0,0,0,0,0,0,
0,0,0,0,0,0,0,0,0,0,0,0,0,0,0,0,
0,0,0,0,0,0,0,0,0,0,0,0,0,0,0,0,
0,0,0,0,0,0,0,0,0,0,0,0,0,0,0,0,
0,0,0,0,0,0,0,0,0,0,0,0,0,0,0,0
</chunk>
   <chunk x="0" y="-16" width="16" height="16">
0,0,0,0,0,0,0,0,0,0,0,0,0,0,0,0,
558,558,558,558,558,558,558,558,558,558,558,558,558,558,558,558,
0,0,0,0,0,0,0,0,0,0,0,0,0,0,0,558,
0,0,0,0,0,0,0,0,0,0,0,0,0,0,0,558,
558,558,558,558,558,558,558,558,558,558,558,558,558,558,558,558,
0,0,0,0,0,0,0,0,0,0,0,0,0,0,0,0,
0,0,0,0,0,0,0,0,0,0,0,0,0,0,0,0,
0,0,0,0,0,0,0,0,0,0,0,0,0,0,0,0,
558,558,558,558,558,558,558,558,558,558,558,558,558,558,558,558,
0,0,0,0,0,0,0,0,0,0,0,0,0,0,0,0,
0,0,0,0,0,0,0,0,0,0,0,0,0,0,0,0,
0,0,0,0,0,0,0,0,0,0,0,0,0,0,0,0,
0,0,0,0,0,0,0,0,0,0,0,0,0,0,0,0,
0,0,0,0,0,0,0,0,0,0,0,0,0,0,0,0,
0,0,0,0,0,0,0,0,0,0,0,0,0,0,0,0,
0,0,0,0,0,0,0,0,0,0,0,0,0,0,0,0
</chunk>
   <chunk x="16" y="-16" width="16" height="16">
0,558,0,0,0,558,0,0,0,0,0,0,0,0,0,0,
558,558,0,0,0,558,0,0,0,0,0,0,0,0,0,0,
558,558,0,0,0,558,0,0,0,0,0,0,0,0,0,0,
558,558,0,0,0,558,0,0,0,0,0,0,0,0,0,0,
558,558,0,0,0,558,0,0,0,0,0,0,0,0,0,0,
558,558,0,0,0,558,0,0,0,0,0,0,0,0,0,0,
0,0,0,0,0,558,0,0,0,0,0,0,0,0,0,0,
558,558,0,0,0,558,0,0,0,0,0,0,0,0,0,0,
558,558,558,558,558,558,0,0,0,0,0,0,0,0,0,0,
0,0,0,0,0,0,0,0,0,0,0,0,0,0,0,0,
0,0,0,0,0,0,0,0,0,0,0,0,0,0,0,0,
0,0,0,0,0,0,0,0,0,0,0,0,0,0,0,0,
0,0,0,0,0,0,0,0,0,0,0,0,0,0,0,0,
0,0,0,0,0,0,0,0,0,0,0,0,0,0,0,0,
0,0,0,0,0,0,0,0,0,0,0,0,0,0,0,0,
0,0,0,0,0,0,0,0,0,0,0,0,0,0,0,0
</chunk>
  </data>
 </layer>
</map>
