<?xml version="1.0" encoding="UTF-8"?>
<map version="1.10" tiledversion="1.10.2" orientation="orthogonal" renderorder="right-down" width="30" height="20" tilewidth="32" tileheight="32" infinite="1" nextlayerid="30" nextobjectid="467">
 <tileset firstgid="1" source="0_TimeTravel_Dungeon.tsx"/>
 <tileset firstgid="257" source="1_TimeTravel_Spinis.tsx"/>
 <tileset firstgid="293" source="0_TimeTravel_Vases.tsx"/>
 <tileset firstgid="299" source="0_TimeTravel_Chest.tsx"/>
 <tileset firstgid="305" source="0_TimeTravel_Lever.tsx"/>
 <tileset firstgid="308" source="0_Dark.tsx"/>
 <tileset firstgid="338" source="0_TimeTravel_WoodenTablets.tsx"/>
 <tileset firstgid="342" source="0_TimeTravel_VillageToilet.tsx"/>
 <tileset firstgid="343" source="0_TimeTravel_SpikyLog.tsx"/>
 <tileset firstgid="344" source="0_TimeTravel_Barrels.tsx"/>
 <tileset firstgid="360" source="0_TimeTravel_CrossbowStand.tsx"/>
 <tileset firstgid="363" source="0_TimeTravel_Crossbow.tsx"/>
 <tileset firstgid="390" source="0_TimeTravel_Stones.tsx"/>
 <tileset firstgid="402" source="0_TimeTravel_Woods.tsx"/>
 <tileset firstgid="411" source="0_TimeTravel_TrollStatue.tsx"/>
 <tileset firstgid="412" source="0_TimeTravel_MovingTower.tsx"/>
 <tileset firstgid="442" source="0_TimeTravel_WarningTablet.tsx"/>
 <tileset firstgid="444" source="0_TimeTravel_WarningArrow.tsx"/>
 <tileset firstgid="446" source="0_TimeTravel_Torch.tsx"/>
 <tileset firstgid="451" source="0_TimeTravel_SafetyZone.tsx"/>
 <tileset firstgid="452" source="0_TimeTravel_StalagmiteGiant.tsx"/>
 <tileset firstgid="453" source="0_TimeTravel_StoneThorns.tsx"/>
 <tileset firstgid="458" source="0_TimeTravel_Bones.tsx"/>
 <tileset firstgid="465" source="0_TimeTravel_WoodenSign.tsx"/>
 <tileset firstgid="468" source="0_TimeTravel_Morgenstern.tsx"/>
 <tileset firstgid="469" source="0_TimeTravel_WoodenSignLeftRight.tsx"/>
 <tileset firstgid="470" source="0_TimeTravel_Note.tsx"/>
 <tileset firstgid="473" source="0_TimeTravel_StoneStatues.tsx"/>
 <tileset firstgid="476" source="0_TimeTravel_Banners1.tsx"/>
 <tileset firstgid="478" source="0_TimeTravel_Pie.tsx"/>
 <tileset firstgid="479" source="0_TimeTravel_WoodenTabletsBig.tsx"/>
 <tileset firstgid="482" source="0_TimeTravel_Flags.tsx"/>
 <tileset firstgid="498" source="0_TimeTravel_PuppetsOnPoles.tsx"/>
 <tileset firstgid="502" source="0_TimeTravel_SmallDecor.tsx"/>
 <tileset firstgid="514" source="0_TimeTravel_GeneralFivefinger.tsx"/>
 <tileset firstgid="518" source="0_TimeTravel_Lute.tsx"/>
 <tileset firstgid="519" source="0_TimeTravel_BannerArrow.tsx"/>
 <tileset firstgid="521" source="0_TimeTravel_SignageBannersRed.tsx"/>
 <tileset firstgid="522" source="0_TimeTravel_Target.tsx"/>
 <tileset firstgid="524" source="0_TimeTravel_ArrowStatue.tsx"/>
 <tileset firstgid="525" source="0_TimeTravel_SpearArrow.tsx"/>
 <tileset firstgid="526" source="0_TimeTravel_WoodenTablet.tsx"/>
 <tileset firstgid="538" source="0_TimeTravel_Chains.tsx"/>
 <tileset firstgid="549" source="0_TimeTravel_Banners2.tsx"/>
 <tileset firstgid="555" source="0_TimeTravel_OilLamp.tsx"/>
 <tileset firstgid="558" source="0_InvisibleWall.tsx"/>
 <layer id="21" name="Stalagmites" width="30" height="20">
  <data encoding="csv">
   <chunk x="32" y="-64" width="16" height="16">
0,0,0,0,0,0,0,0,0,0,0,0,0,0,0,0,
0,0,0,0,0,0,0,0,0,0,0,0,0,0,0,0,
0,0,0,0,0,0,0,0,0,0,0,0,0,0,0,0,
0,0,0,0,0,0,0,0,0,0,0,0,0,0,0,0,
0,0,0,0,0,0,0,0,0,0,0,0,0,0,0,0,
0,0,0,0,0,0,0,0,0,0,0,0,0,0,0,0,
0,0,0,0,0,0,0,0,0,0,0,0,0,0,104,0,
0,0,0,0,0,0,0,0,0,0,0,0,0,0,0,0,
0,0,0,0,0,0,0,0,0,0,0,0,0,0,2147483751,0,
0,0,0,0,0,0,0,0,0,0,0,0,0,0,103,0,
0,0,0,0,0,0,0,0,0,0,0,0,0,0,0,0,
0,0,0,0,0,0,0,0,0,0,0,0,0,0,104,2147483751,
0,0,0,0,0,0,0,0,0,0,0,0,0,0,103,0,
0,0,0,0,0,0,0,0,0,0,0,0,0,0,0,0,
0,0,0,0,0,0,0,0,0,0,0,0,0,0,0,0,
0,0,0,0,0,0,0,0,0,0,0,0,0,0,0,0
</chunk>
   <chunk x="48" y="-64" width="16" height="16">
0,0,0,0,0,0,0,0,0,0,0,0,0,0,0,0,
0,0,0,0,0,0,0,0,0,0,0,0,0,0,0,0,
0,0,0,0,0,0,0,0,0,0,0,0,0,0,0,0,
0,0,0,0,0,0,0,0,0,0,0,0,0,0,0,0,
0,0,0,0,0,0,0,0,0,0,0,0,0,0,0,0,
0,0,0,0,0,0,0,0,0,0,0,0,0,0,0,0,
103,0,105,0,0,0,0,0,0,0,0,0,0,0,0,0,
0,0,0,0,0,0,0,0,0,0,0,0,0,0,0,0,
0,0,0,0,0,0,0,0,0,0,0,0,0,0,0,0,
0,0,2147483751,0,0,0,0,0,0,0,0,0,0,0,0,0,
0,0,0,0,0,0,0,0,0,0,0,0,0,0,0,0,
0,0,0,0,0,0,0,0,0,0,0,0,0,0,0,0,
0,104,0,0,0,0,0,0,0,0,0,0,0,0,0,0,
0,0,0,0,0,0,0,0,0,0,0,0,0,0,0,0,
0,0,0,0,0,0,0,0,0,0,0,0,0,0,0,0,
0,0,0,103,0,0,0,0,0,0,0,0,0,0,0,0
</chunk>
   <chunk x="32" y="-48" width="16" height="16">
0,0,0,0,0,0,0,0,0,0,0,0,0,103,0,0,
0,0,0,0,0,0,0,0,0,0,0,0,0,0,0,0,
0,0,0,0,0,0,0,0,0,0,0,0,0,0,0,0,
0,0,0,0,0,0,0,0,0,0,0,103,0,0,0,0,
0,0,0,0,0,0,0,0,0,0,0,0,0,104,0,0,
0,0,0,0,0,0,0,0,0,0,0,0,0,0,0,0,
0,0,0,0,0,0,0,0,0,0,0,0,103,0,0,0,
0,0,0,0,0,0,0,0,0,0,0,0,0,0,0,0,
0,0,0,0,0,0,0,0,0,0,0,0,0,0,0,0,
0,0,0,0,0,0,0,0,0,0,0,0,0,0,0,0,
0,0,0,0,0,0,0,0,0,0,0,0,0,0,103,0,
0,0,0,0,0,0,0,0,0,0,0,0,0,0,0,0,
0,0,0,0,0,0,0,0,0,0,0,0,0,0,0,0,
0,0,0,0,0,0,0,0,0,0,0,0,0,0,0,0,
0,0,0,0,0,0,0,0,0,0,0,0,0,0,0,105,
0,0,0,0,0,0,0,0,0,0,0,0,0,0,0,0
</chunk>
   <chunk x="48" y="-48" width="16" height="16">
0,0,0,0,0,0,0,0,0,0,0,0,0,0,0,0,
0,0,0,0,0,0,0,0,0,0,0,0,0,0,0,0,
0,0,0,0,0,103,0,0,0,0,0,0,0,0,0,0,
0,0,0,0,0,0,0,0,0,0,0,0,0,0,0,0,
0,0,0,0,0,2147483752,0,0,0,0,0,0,105,0,0,0,
0,0,0,0,2147483751,0,0,0,103,0,0,0,0,0,0,0,
0,0,0,0,0,0,0,0,0,0,0,0,0,0,0,0,
0,0,0,0,0,0,0,0,0,0,0,0,0,0,0,0,
0,0,0,0,0,0,0,0,0,0,0,0,0,103,0,0,
0,0,0,0,0,0,0,0,0,0,0,0,0,0,0,0,
0,0,0,0,0,0,0,0,0,0,0,0,0,0,0,0,
0,0,0,0,0,0,0,0,0,0,0,0,0,0,0,0,
0,0,0,0,0,0,0,0,0,0,0,0,0,0,0,0,
0,0,0,0,0,0,0,0,0,0,0,0,0,0,0,0,
0,0,103,0,0,0,0,0,0,0,0,0,0,0,0,0,
0,2147483751,0,104,0,0,0,0,0,0,104,0,0,0,0,0
</chunk>
   <chunk x="64" y="-48" width="16" height="16">
0,0,0,0,0,0,0,0,0,0,0,0,0,0,0,0,
0,0,0,0,0,0,0,0,0,0,0,0,0,0,0,0,
0,0,0,0,0,0,0,0,0,0,0,0,0,0,0,0,
0,0,0,0,0,0,0,0,0,0,0,0,0,0,0,0,
0,0,103,0,0,0,0,104,0,0,0,0,105,0,0,0,
0,103,0,0,0,0,0,0,0,103,0,0,0,0,0,0,
0,0,0,0,0,0,0,0,0,0,0,0,0,0,0,0,
0,0,0,0,0,0,0,0,0,0,0,0,0,0,0,0,
0,0,0,104,103,0,0,0,0,0,0,0,0,104,0,103,
0,0,0,0,0,0,0,2147483753,0,0,0,0,0,0,0,0,
0,0,0,0,0,0,0,0,0,0,0,0,0,0,0,0,
0,0,0,0,0,0,0,0,0,0,0,0,0,0,0,0,
0,0,0,0,0,0,0,0,0,0,0,0,0,0,0,0,
0,0,0,0,0,0,0,0,0,0,0,0,0,0,0,0,
0,0,0,0,0,0,0,0,0,0,0,0,0,0,0,0,
0,0,0,0,0,0,0,0,0,0,0,0,0,0,0,0
</chunk>
   <chunk x="80" y="-48" width="16" height="16">
0,0,0,0,0,0,0,0,0,0,0,0,0,0,0,0,
0,0,0,0,0,0,0,0,0,0,0,0,0,0,0,0,
0,0,0,0,0,0,0,0,0,0,0,0,0,0,0,0,
0,0,0,0,0,0,0,0,0,0,0,0,0,0,0,0,
0,2147483752,0,0,0,0,0,0,0,0,0,0,0,0,0,0,
0,0,0,0,0,0,103,0,0,0,103,0,0,0,0,0,
0,0,0,0,0,0,0,0,0,0,0,0,0,0,0,0,
0,0,0,0,0,0,0,0,0,0,0,0,0,0,0,0,
0,0,0,0,0,0,0,0,0,2147483752,0,0,0,0,0,0,
103,0,0,0,0,105,0,0,0,0,0,0,0,0,0,0,
0,0,0,0,0,0,0,0,0,0,0,0,0,0,0,0,
0,0,0,0,0,0,0,0,0,0,0,0,0,0,0,0,
0,0,0,0,0,0,0,0,0,0,0,0,0,0,0,0,
0,0,0,0,0,0,0,0,0,0,0,0,0,0,0,0,
0,0,0,0,0,0,0,0,0,0,0,0,0,0,0,0,
0,0,0,0,0,0,0,0,0,0,0,0,0,0,0,0
</chunk>
   <chunk x="48" y="-32" width="16" height="16">
0,0,0,0,0,105,0,0,0,0,103,0,0,0,0,0,
0,0,0,0,0,0,0,0,0,0,0,0,0,0,0,0,
0,0,0,0,0,0,0,0,0,104,0,0,0,0,0,0,
0,0,0,0,0,103,0,0,0,0,0,104,0,0,0,0,
0,0,0,0,0,0,0,0,0,0,0,0,0,0,0,0,
0,0,0,0,0,0,0,0,0,0,105,0,0,0,0,0,
0,0,0,0,0,0,0,0,0,0,0,0,0,0,0,0,
0,0,0,0,0,0,0,0,0,0,0,0,0,0,0,0,
0,0,0,0,0,0,0,0,0,0,0,0,0,0,0,0,
0,0,0,0,105,0,0,0,0,0,0,0,0,0,0,0,
0,0,0,0,0,0,0,0,0,0,0,0,0,0,0,0,
0,0,0,0,0,103,0,0,0,0,0,0,0,0,0,0,
0,0,0,0,0,0,0,0,0,0,0,0,0,0,0,0,
0,0,0,0,0,0,0,0,0,0,105,0,0,0,0,0,
0,0,0,0,0,0,0,0,0,0,0,0,0,0,0,0,
0,0,0,0,103,0,0,0,0,0,0,0,0,0,0,0
</chunk>
   <chunk x="0" y="-16" width="16" height="16">
0,0,0,0,0,0,0,0,0,0,0,0,0,0,0,0,
0,0,0,0,0,0,0,0,0,0,0,0,0,0,0,0,
0,0,0,0,0,0,0,0,0,0,0,0,0,0,0,0,
0,0,0,0,0,0,0,0,0,0,0,0,0,0,0,0,
0,0,0,0,0,0,0,0,0,0,0,0,0,0,0,0,
0,0,0,0,0,0,0,0,0,0,0,0,0,0,0,0,
0,0,0,0,0,0,0,0,0,0,0,0,0,0,0,0,
0,0,0,0,0,0,0,0,0,0,0,0,0,0,0,0,
0,0,0,0,0,0,0,0,0,0,0,0,0,0,0,0,
0,0,0,0,0,0,0,0,0,0,0,0,0,0,0,0,
0,0,0,0,0,0,0,0,0,0,0,0,0,0,0,0,
0,0,0,0,0,0,0,0,0,0,0,0,0,0,0,0,
0,0,0,0,0,0,0,0,0,0,0,0,0,0,0,0,
0,0,0,0,0,0,0,0,0,0,0,0,0,0,0,0,
0,0,0,0,0,0,0,0,0,0,0,0,0,0,0,0,
0,0,0,0,0,0,0,103,0,0,0,2147483751,0,0,0,0
</chunk>
   <chunk x="16" y="-16" width="16" height="16">
0,0,0,0,0,0,0,0,0,0,0,0,0,0,0,0,
0,0,0,0,0,0,0,0,0,0,0,0,0,0,0,0,
0,0,0,0,0,0,0,0,0,0,0,0,0,0,0,0,
0,0,0,0,0,0,0,2147483752,0,0,0,0,0,0,0,0,
0,0,0,0,0,0,0,0,0,0,0,0,0,0,0,0,
0,0,0,0,0,0,0,0,0,0,0,0,0,0,0,0,
0,0,0,0,0,0,0,105,104,0,0,0,0,0,0,0,
0,0,0,0,0,0,0,0,0,0,0,0,0,0,0,0,
0,0,0,0,0,0,2147483752,0,0,0,0,0,0,0,105,0,
0,0,0,0,0,0,0,0,0,0,0,0,0,104,0,0,
0,0,0,0,0,0,0,0,0,0,0,0,0,0,0,0,
0,0,0,0,0,0,0,0,104,0,0,0,0,0,0,0,
0,0,0,0,0,0,0,0,0,0,0,0,0,2147483752,0,0,
0,0,0,0,0,0,0,0,0,0,0,0,0,0,0,0,
0,0,0,0,0,0,0,105,0,0,0,0,0,0,0,104,
0,0,0,0,0,104,0,0,0,0,0,0,0,0,0,0
</chunk>
   <chunk x="32" y="-16" width="16" height="16">
0,0,0,0,0,0,0,0,0,0,0,0,0,0,104,0,
0,0,0,0,0,0,0,0,0,0,0,0,0,0,0,0,
0,0,0,0,0,0,0,0,0,0,0,0,0,0,0,0,
0,0,0,0,0,0,0,0,0,0,0,0,0,0,0,0,
0,0,0,0,0,0,0,0,0,0,0,0,0,0,0,0,
0,0,0,0,0,0,0,0,0,0,0,0,0,0,0,0,
0,0,0,0,0,0,0,0,0,0,0,0,0,0,0,0,
0,0,0,0,0,0,0,0,0,0,0,0,0,0,0,0,
0,0,0,0,0,0,0,0,0,0,0,0,0,0,0,0,
0,0,0,0,0,0,0,0,0,0,0,0,0,0,0,0,
0,0,0,0,0,0,0,0,0,0,0,0,0,0,0,0,
104,0,0,0,0,0,0,0,0,0,0,0,0,0,0,0,
0,0,0,0,0,0,0,0,0,0,0,0,0,0,0,0,
0,0,0,0,0,0,0,0,0,0,0,0,0,0,0,0,
0,0,0,0,0,0,0,0,0,0,0,0,0,0,0,0,
0,0,0,0,0,0,0,0,0,0,0,0,0,0,0,0
</chunk>
   <chunk x="48" y="-16" width="16" height="16">
0,0,0,0,0,0,0,0,0,0,0,0,0,0,0,0,
0,0,0,0,0,103,0,0,0,0,0,0,0,0,0,0,
0,0,0,0,0,0,0,0,0,0,0,104,0,0,0,0,
103,0,0,0,0,0,0,0,0,0,0,0,0,0,0,0,
0,0,0,0,0,0,0,0,0,0,0,0,2147483751,0,0,0,
0,0,0,0,0,0,0,0,0,103,0,0,0,2147483752,0,0,
0,0,0,0,0,0,0,0,0,0,0,0,0,0,0,0,
0,0,0,0,104,0,0,0,0,0,0,0,105,0,0,0,
0,0,103,0,0,2147483751,0,0,0,0,0,103,0,0,0,0,
0,0,0,0,0,0,0,0,0,0,104,0,0,0,0,0,
0,0,0,0,0,0,0,2147483752,0,0,0,0,0,0,0,0,
0,0,0,0,0,0,0,0,0,0,0,0,0,0,0,0,
0,0,0,0,0,0,0,0,0,0,0,0,0,0,0,0,
0,0,0,0,0,0,0,0,0,0,0,0,0,0,0,0,
0,0,0,0,0,0,0,0,0,0,0,0,0,0,0,0,
0,0,0,0,0,0,0,0,0,0,0,0,0,0,0,0
</chunk>
   <chunk x="-16" y="0" width="16" height="16">
0,0,0,0,0,0,0,0,0,0,0,0,0,0,0,0,
0,0,0,0,0,0,0,0,0,0,0,0,0,0,0,0,
0,0,0,0,0,0,0,0,0,0,0,0,0,0,0,0,
0,0,0,0,0,0,0,0,0,0,0,0,0,0,0,0,
0,0,0,0,0,0,0,0,0,0,0,0,0,0,103,0,
0,0,0,0,0,0,0,0,0,0,0,0,0,0,0,0,
0,0,0,0,0,0,0,0,0,0,0,0,0,0,0,0,
0,0,0,0,0,0,0,0,0,0,0,0,0,0,0,0,
0,0,0,0,0,0,0,0,0,0,0,0,0,0,0,0,
0,0,0,0,0,0,0,0,0,0,0,0,0,0,0,0,
0,0,0,0,0,0,0,0,0,0,0,0,0,0,0,0,
0,0,0,0,0,0,0,0,0,0,0,0,0,0,0,0,
0,0,0,0,0,0,0,0,0,0,0,0,0,0,0,0,
0,0,0,0,0,0,0,0,0,0,0,0,0,0,0,0,
0,0,0,0,0,0,0,0,0,0,0,0,0,0,0,0,
0,0,0,0,0,0,0,0,0,0,0,0,0,0,0,0
</chunk>
   <chunk x="0" y="0" width="16" height="16">
0,0,0,0,0,0,0,0,0,2147483751,0,0,0,0,0,0,
0,0,0,0,0,0,104,0,0,0,0,0,103,0,0,0,
103,0,0,0,0,0,0,0,0,0,0,0,0,0,0,0,
0,0,0,0,105,0,0,0,0,0,0,0,0,0,0,0,
0,0,0,0,0,0,0,0,0,0,0,0,0,0,0,0,
0,0,0,0,0,0,0,0,0,0,0,0,0,0,0,0,
0,0,0,0,0,0,0,0,0,0,0,0,0,0,0,0,
0,0,0,0,0,0,0,0,0,0,0,0,0,0,0,0,
104,0,0,0,0,0,104,0,0,0,0,0,0,0,0,103,
0,0,0,0,0,105,0,0,103,0,0,0,104,0,0,0,
0,0,0,0,0,0,0,103,0,0,0,2147483751,0,0,0,0,
0,0,0,0,0,0,0,0,0,0,0,0,0,0,0,0,
0,0,0,0,0,0,0,0,0,0,0,0,0,0,0,0,
0,0,0,0,0,0,0,0,0,0,0,0,0,0,0,0,
0,0,0,0,0,0,0,0,0,0,0,0,0,0,0,0,
0,0,0,0,0,0,0,0,0,0,0,0,0,0,0,0
</chunk>
   <chunk x="16" y="0" width="16" height="16">
0,0,0,0,0,0,0,104,0,0,0,0,0,0,104,0,
0,0,0,0,0,0,0,0,0,0,0,0,0,0,0,0,
103,0,0,104,0,0,0,0,2147483751,0,0,0,0,0,0,0,
0,0,2147483751,0,0,0,103,0,0,0,0,0,0,0,0,0,
0,0,0,0,0,0,0,0,0,0,0,0,0,0,0,0,
0,0,0,0,0,0,0,0,0,0,0,0,0,0,0,0,
0,0,0,0,0,0,0,0,0,0,0,0,0,0,0,0,
0,0,0,0,0,0,0,0,0,0,0,0,0,0,0,0,
0,0,105,0,0,0,0,0,0,0,0,0,0,0,0,0,
0,104,0,0,104,103,0,0,0,0,0,0,103,0,0,2147483751,
0,0,0,0,0,105,0,0,0,0,0,0,0,103,0,0,
0,0,0,0,0,0,2147483751,0,0,103,0,104,0,0,0,0,
0,0,0,0,0,0,0,0,105,0,0,0,0,0,0,105,
0,0,0,0,0,0,0,0,0,0,0,0,0,0,0,0,
0,0,0,0,0,0,0,0,0,0,0,0,0,0,103,0,
0,0,0,0,0,0,0,0,0,0,0,0,0,0,0,0
</chunk>
   <chunk x="32" y="0" width="16" height="16">
0,0,0,0,0,0,0,0,0,0,0,0,0,0,0,0,
0,0,0,0,0,0,0,0,0,0,0,0,0,0,0,0,
0,0,0,0,0,0,0,0,0,0,0,0,0,0,0,0,
0,0,0,0,0,0,0,0,0,0,0,0,0,0,0,0,
0,0,0,0,0,0,0,0,0,0,0,0,0,0,0,0,
0,0,0,0,0,0,0,0,0,0,0,0,0,0,0,0,
0,0,0,0,0,0,0,0,0,0,0,0,0,0,0,0,
0,0,0,0,0,0,0,0,0,0,0,0,0,0,0,0,
0,0,0,0,0,0,0,0,0,0,0,0,0,0,0,0,
0,0,0,0,0,0,0,0,0,0,103,0,0,0,0,0,
0,0,0,0,0,0,0,0,0,2147483753,0,0,0,0,0,0,
2147483752,103,0,0,0,0,0,0,103,0,0,104,0,0,0,0,
0,0,0,0,0,0,0,0,0,0,0,0,103,0,0,0,
0,0,0,0,0,0,0,0,0,0,103,0,104,0,0,0,
0,0,0,0,0,0,0,0,0,0,0,0,0,0,0,0,
0,0,0,0,0,0,0,0,0,0,0,0,104,0,0,0
</chunk>
   <chunk x="16" y="16" width="16" height="16">
0,0,0,0,0,0,0,0,0,0,0,0,0,0,0,0,
0,0,0,0,0,0,0,0,0,0,0,0,0,104,0,0,
0,0,0,0,0,0,0,0,0,0,0,0,0,0,103,0,
0,0,0,0,0,0,0,0,0,0,0,0,0,0,0,0,
0,0,0,0,0,0,0,0,0,0,0,0,0,0,0,0,
0,0,0,0,0,0,0,0,0,0,0,0,0,0,0,104,
0,0,0,0,0,0,0,0,0,0,0,0,0,0,0,0,
0,0,0,0,0,0,0,0,0,0,0,0,0,0,0,0,
0,0,0,0,0,0,0,0,0,0,0,0,0,0,0,0,
0,0,0,0,0,0,0,0,0,0,0,0,0,0,0,0,
0,0,0,0,0,0,0,0,0,0,0,0,0,0,0,0,
0,0,0,0,0,0,0,0,0,0,0,0,0,0,0,0,
0,0,0,0,0,0,0,0,0,0,0,0,0,0,0,0,
0,0,0,0,0,0,0,0,0,0,0,0,0,0,0,0,
0,0,0,0,0,0,0,0,0,0,0,0,0,0,0,0,
0,0,0,0,0,0,0,0,0,0,0,0,0,0,0,0
</chunk>
   <chunk x="32" y="16" width="16" height="16">
0,0,0,0,0,0,0,0,0,0,0,0,0,0,0,0,
0,0,0,0,0,0,0,0,0,0,0,0,0,0,104,0,
103,0,0,0,0,0,0,0,0,0,103,0,0,2147483752,0,0,
0,0,0,0,0,0,0,0,0,0,0,0,0,0,0,0,
0,0,0,0,0,0,0,103,0,0,0,105,0,0,0,0,
0,105,0,0,0,0,0,0,0,0,2147483753,0,0,0,0,0,
0,0,0,2147483753,0,0,0,0,0,0,0,0,0,0,0,0,
0,0,0,103,104,0,0,0,0,2147483753,0,0,0,0,0,0,
0,0,0,0,103,0,0,0,0,0,0,0,0,0,0,0,
0,0,0,0,0,0,0,0,0,0,0,0,0,0,0,0,
0,0,0,0,0,0,0,0,0,0,0,0,0,0,0,0,
0,0,0,0,0,0,0,0,0,0,0,0,0,0,0,0,
0,0,0,0,0,0,0,0,0,0,0,0,0,0,0,0,
0,0,0,0,0,0,0,0,0,0,0,0,0,0,0,0,
0,0,0,0,0,0,0,0,0,0,0,0,0,0,0,0,
0,0,0,0,0,0,0,0,0,0,0,0,0,0,0,0
</chunk>
  </data>
 </layer>
 <layer id="16" name="Ditch" width="30" height="20">
  <data encoding="csv">
   <chunk x="32" y="-64" width="16" height="16">
0,0,0,0,0,0,0,0,0,0,0,0,0,0,0,0,
0,0,0,0,0,0,0,0,0,0,0,0,0,0,0,0,
0,0,0,0,0,0,0,0,0,0,0,0,0,0,0,0,
0,0,0,0,0,0,0,0,0,0,0,0,0,0,0,0,
0,0,0,0,0,0,0,0,0,0,0,0,0,0,0,0,
0,0,0,0,0,0,0,0,0,0,0,0,0,0,0,0,
0,0,0,0,0,0,0,0,0,0,0,0,0,0,0,0,
0,0,0,0,0,0,0,0,0,0,0,0,0,0,0,0,
0,0,0,0,0,0,0,0,0,0,0,0,0,0,0,0,
0,0,0,0,0,0,0,0,0,0,0,0,0,0,0,106,
0,0,0,0,0,0,0,0,0,0,0,0,0,0,0,0,
0,0,0,0,0,0,0,0,0,0,0,0,0,0,0,0,
0,0,0,0,0,0,0,0,0,0,0,0,0,0,0,0,
0,0,0,0,0,0,0,0,0,0,0,0,0,0,0,0,
0,0,0,0,0,0,0,0,0,0,0,0,0,0,0,0,
0,0,0,0,0,0,0,0,0,0,0,0,0,0,0,0
</chunk>
   <chunk x="48" y="-64" width="16" height="16">
0,0,0,0,0,0,0,0,0,0,0,0,0,0,0,0,
0,0,0,0,0,0,0,0,0,0,0,0,0,0,0,0,
0,0,0,0,0,0,0,0,0,0,0,0,0,0,0,0,
0,0,0,0,0,0,0,0,0,0,0,0,0,0,0,0,
0,0,0,0,0,0,0,0,0,0,0,0,0,0,0,0,
106,0,0,0,0,0,0,0,0,0,0,0,0,0,0,0,
0,0,0,0,0,0,0,0,0,0,0,0,0,0,0,0,
0,0,0,0,0,0,0,0,0,0,0,0,0,0,0,0,
0,0,0,0,0,0,0,0,0,0,0,0,0,0,0,0,
0,106,0,0,0,0,0,0,0,0,0,0,0,0,0,0,
0,0,0,0,0,0,0,0,0,0,0,0,0,0,0,0,
0,0,0,0,0,0,0,0,0,0,0,0,0,0,0,0,
0,0,0,0,0,0,0,0,0,0,0,0,0,0,0,0,
0,0,0,0,0,0,0,0,0,0,0,0,0,0,0,0,
0,0,106,0,0,0,0,0,0,0,0,0,0,0,0,0,
0,0,0,0,0,0,0,0,0,0,0,0,0,0,0,0
</chunk>
   <chunk x="32" y="-48" width="16" height="16">
0,0,0,0,0,0,0,0,0,0,0,0,0,0,0,0,
0,0,0,0,0,0,0,0,0,0,0,0,0,0,0,0,
0,0,0,0,0,0,0,0,0,0,0,0,0,0,0,0,
0,0,0,0,0,0,0,0,0,0,0,0,0,0,0,0,
0,0,0,0,0,0,0,0,0,0,0,0,0,0,0,0,
0,0,0,0,0,0,0,0,0,0,0,0,0,0,0,0,
0,0,0,0,0,0,0,0,0,0,0,0,0,0,106,0,
0,0,0,0,0,0,0,0,0,0,0,0,0,0,0,106,
0,0,0,0,0,0,0,0,0,0,0,0,0,0,0,0,
0,0,0,0,0,0,0,0,0,0,0,0,0,0,106,0,
0,0,0,0,0,0,0,0,0,0,0,0,0,0,0,0,
0,0,0,0,0,0,0,0,0,0,0,0,0,0,0,0,
0,0,0,0,0,0,0,0,0,0,0,0,0,0,0,0,
0,0,0,0,0,0,0,0,0,0,0,0,0,0,106,0,
0,0,0,0,0,0,0,0,0,0,0,0,0,0,0,0,
0,0,0,0,0,0,0,0,0,0,0,0,0,0,0,0
</chunk>
   <chunk x="48" y="-48" width="16" height="16">
0,0,0,0,0,0,0,0,0,0,0,0,0,0,0,0,
0,0,0,0,0,0,0,0,0,0,0,0,0,0,0,0,
0,0,0,0,0,0,0,0,0,0,0,0,0,0,0,0,
0,0,0,0,0,0,0,0,0,0,0,0,0,0,106,0,
0,0,0,106,0,0,0,0,0,0,0,0,0,0,0,0,
0,0,0,0,0,0,0,0,0,0,0,0,0,0,0,0,
0,0,0,0,0,0,0,0,0,0,0,0,0,0,0,0,
0,0,0,0,0,0,0,0,0,88,89,89,89,89,89,89,
0,0,0,0,0,0,0,0,0,0,0,0,0,0,0,0,
0,0,0,0,0,0,0,0,0,0,0,0,0,0,0,0,
0,0,0,0,0,0,0,0,0,0,0,0,0,0,0,0,
0,0,0,0,0,0,0,0,0,0,0,0,0,0,0,0,
106,0,0,0,0,0,0,0,0,0,0,0,0,0,0,0,
0,88,89,90,0,0,0,0,0,0,0,0,0,0,0,0,
0,0,0,0,0,0,0,0,0,0,0,0,0,0,0,0,
0,0,0,0,0,0,0,0,0,0,0,0,0,0,0,0
</chunk>
   <chunk x="64" y="-48" width="16" height="16">
0,0,0,0,0,0,0,0,0,0,0,0,0,0,0,0,
0,0,0,0,0,0,0,0,0,0,0,0,0,0,0,0,
0,0,0,0,0,0,0,0,0,0,0,0,0,0,0,0,
0,0,0,0,0,0,0,0,0,0,0,0,0,0,0,0,
0,0,0,0,0,0,0,0,0,0,0,0,0,0,0,0,
0,0,0,0,0,0,0,0,0,0,0,0,0,0,0,0,
0,0,0,0,0,0,0,0,0,0,0,0,0,0,0,0,
89,89,89,89,89,89,89,89,89,90,0,88,89,89,89,89,
0,0,0,0,0,0,0,0,0,0,0,0,0,0,0,0,
0,0,0,0,0,0,0,0,0,0,0,0,0,0,0,0,
0,0,0,0,0,0,0,0,0,0,0,0,0,0,0,0,
0,0,0,0,0,0,0,0,0,0,0,0,0,0,0,0,
0,0,0,0,0,0,0,0,0,0,0,0,0,0,0,0,
0,0,0,0,0,0,0,0,0,0,0,0,0,0,0,0,
0,0,0,0,0,0,0,0,0,0,0,0,0,0,0,0,
0,0,0,0,0,0,0,0,0,0,0,0,0,0,0,0
</chunk>
   <chunk x="80" y="-48" width="16" height="16">
0,0,0,0,0,0,0,0,0,0,0,0,0,0,0,0,
0,0,0,0,0,0,0,0,0,0,0,0,0,0,0,0,
0,0,0,0,0,0,0,0,0,0,0,0,0,0,0,0,
0,0,0,0,0,0,0,0,0,0,0,0,0,0,0,0,
0,0,0,0,0,0,0,0,0,0,0,0,0,0,0,0,
0,0,0,0,0,0,0,0,0,0,0,0,0,0,0,0,
0,0,0,0,0,0,0,0,0,0,0,0,0,0,0,0,
89,89,89,89,89,89,89,89,89,89,89,89,89,89,89,90,
0,0,0,0,0,0,0,0,0,0,0,0,0,0,0,0,
0,0,0,0,0,0,0,0,0,0,0,0,0,0,0,0,
0,0,0,0,0,0,0,0,0,0,0,0,0,0,0,0,
0,0,0,0,0,0,0,0,0,0,0,0,0,0,0,0,
0,0,0,0,0,0,0,0,0,0,0,0,0,0,0,0,
0,0,0,0,0,0,0,88,89,89,90,0,0,0,0,0,
0,0,0,0,0,0,0,0,0,0,0,0,0,0,0,0,
0,0,0,0,0,0,0,0,0,0,0,0,0,0,0,0
</chunk>
   <chunk x="48" y="-32" width="16" height="16">
0,0,0,0,0,0,0,0,0,0,0,0,0,0,0,0,
0,0,0,0,0,0,0,0,0,0,0,0,0,0,0,0,
0,0,0,0,0,0,0,0,0,0,0,0,0,0,0,0,
0,0,0,0,0,0,0,0,0,0,0,0,0,0,0,0,
0,0,0,0,0,0,0,0,0,0,0,0,0,0,0,0,
0,0,0,0,0,0,0,0,0,0,0,0,0,0,0,0,
0,0,0,0,0,0,0,0,0,0,0,0,0,0,0,0,
0,0,0,0,106,0,0,0,0,0,0,0,0,0,0,0,
0,0,0,0,0,0,0,0,0,88,89,106,0,0,0,0,
0,0,0,0,0,0,106,0,0,0,0,0,0,0,0,0,
0,0,0,0,0,0,0,0,0,0,0,0,0,0,0,0,
0,0,0,0,0,0,0,0,0,0,0,0,0,0,0,0,
0,0,0,0,0,0,0,0,0,0,0,106,0,0,0,0,
0,0,0,0,0,0,0,0,0,0,0,0,0,0,0,0,
0,0,0,0,106,0,106,0,0,0,0,0,0,0,0,0,
0,0,0,0,0,0,0,0,0,0,0,0,0,0,0,0
</chunk>
   <chunk x="16" y="-16" width="16" height="16">
0,0,0,0,0,0,0,0,0,0,0,0,0,0,0,0,
0,0,0,0,0,0,0,0,0,0,0,0,0,0,0,0,
0,0,0,0,0,0,0,0,0,0,0,0,0,0,0,0,
0,0,0,0,0,0,0,0,0,0,0,0,0,0,0,0,
0,0,0,0,0,0,0,0,0,0,0,0,0,0,0,0,
0,0,0,0,0,0,0,0,88,90,0,0,28,29,0,0,
0,0,0,0,0,0,0,0,0,0,0,0,0,0,0,0,
0,0,0,0,0,0,0,0,0,0,0,0,0,0,0,0,
0,0,0,0,0,0,0,0,0,0,0,0,0,0,0,0,
0,0,0,0,0,0,0,0,0,0,0,0,0,0,0,0,
0,0,0,0,0,0,0,0,0,0,0,0,0,0,0,0,
0,0,0,0,0,0,0,0,0,0,0,0,0,0,0,0,
0,0,0,0,0,0,0,0,0,0,0,0,0,0,0,0,
0,0,0,0,0,0,88,90,0,0,0,0,0,0,88,90,
0,0,0,0,0,0,0,0,0,0,0,0,0,0,0,0,
0,0,0,0,0,0,0,0,0,0,0,0,0,0,0,0
</chunk>
   <chunk x="32" y="-16" width="16" height="16">
0,0,0,0,0,0,0,0,0,0,0,0,0,0,0,0,
0,0,0,0,0,0,0,0,0,0,0,0,0,0,0,0,
0,0,0,0,0,0,0,0,0,0,0,0,0,0,0,106,
0,0,0,0,0,0,0,0,0,0,0,0,0,0,0,0,
0,0,0,0,0,0,0,0,0,0,0,0,0,0,0,0,
0,0,0,0,0,0,0,0,0,0,0,0,0,0,0,0,
0,0,0,0,0,0,0,0,0,0,0,0,0,0,0,0,
0,0,0,0,0,0,0,0,0,0,0,0,0,0,0,0,
0,0,0,0,0,0,0,0,0,0,0,0,0,0,0,0,
0,0,0,0,0,0,0,0,0,0,0,0,0,0,0,0,
0,0,0,0,0,0,0,0,0,0,0,0,0,0,0,0,
0,0,0,0,0,0,0,0,0,0,0,0,0,0,0,0,
0,0,0,0,0,0,0,0,0,0,0,0,0,0,0,0,
0,0,0,0,0,0,0,0,0,0,0,0,0,0,0,0,
0,0,0,0,0,0,0,0,0,0,0,0,0,0,0,0,
0,0,0,0,0,0,0,0,0,0,0,0,0,0,0,0
</chunk>
   <chunk x="48" y="-16" width="16" height="16">
0,0,0,0,0,0,0,0,0,106,0,106,0,0,0,0,
0,0,0,0,0,0,0,0,0,0,0,0,0,0,0,0,
0,0,0,0,0,0,0,0,0,0,0,0,0,0,0,0,
0,0,0,0,0,0,0,88,90,0,0,0,0,0,0,0,
0,0,0,0,0,0,106,0,0,106,0,0,0,0,0,0,
0,0,0,0,0,0,0,0,0,0,0,0,0,0,0,0,
0,0,88,89,90,0,0,88,90,0,0,0,0,0,0,0,
0,0,0,0,0,106,0,0,0,0,0,106,0,0,0,0,
0,0,0,106,0,0,106,0,0,0,106,0,0,0,0,0,
0,0,0,0,0,0,0,88,89,90,0,0,0,0,0,0,
0,0,0,0,0,0,0,0,0,0,0,0,0,0,0,0,
0,0,0,0,0,0,0,0,0,0,0,0,0,0,0,0,
0,0,0,0,0,0,0,0,0,0,0,0,0,0,0,0,
0,0,0,0,0,0,0,0,0,0,0,0,0,0,0,0,
0,0,0,0,0,0,0,0,0,0,0,0,0,0,0,0,
0,0,0,0,0,0,0,0,0,0,0,0,0,0,0,0
</chunk>
   <chunk x="0" y="0" width="16" height="16">
0,0,0,0,0,0,0,0,0,0,0,0,0,0,0,0,
0,0,0,0,0,0,0,0,0,0,0,0,0,0,0,0,
0,0,0,0,0,0,0,0,0,0,0,0,0,0,0,0,
0,0,0,0,0,0,0,0,0,0,0,0,0,0,0,0,
0,0,0,0,0,0,0,0,0,0,0,0,0,0,0,0,
0,0,0,0,0,0,0,0,0,0,0,0,0,0,0,0,
0,88,89,89,89,89,90,0,0,0,0,0,88,90,0,0,
0,0,0,0,0,0,0,106,0,0,0,106,0,0,88,89,
0,0,0,0,0,0,0,0,88,89,90,0,0,0,0,0,
0,0,0,0,0,0,0,0,0,0,0,0,0,0,0,0,
0,0,0,0,0,0,0,0,0,0,0,0,0,0,0,0,
0,0,0,0,0,0,0,0,0,0,0,0,0,0,0,0,
0,0,0,0,0,0,0,0,0,0,0,0,0,0,0,0,
0,0,0,0,0,0,0,0,0,0,0,0,0,0,0,0,
0,0,0,0,0,0,0,0,0,0,0,0,0,0,0,0,
0,0,0,0,0,0,0,0,0,0,0,0,0,0,0,0
</chunk>
   <chunk x="16" y="0" width="16" height="16">
0,0,0,0,0,0,0,0,0,0,0,0,0,0,0,0,
0,0,0,0,0,0,0,0,0,0,0,0,0,0,0,0,
0,0,0,0,0,0,0,0,0,106,0,0,88,90,0,0,
0,0,0,0,0,0,0,0,0,0,0,0,0,0,0,0,
0,0,0,0,0,0,0,0,0,0,0,0,0,0,0,0,
0,0,0,0,0,0,0,0,0,0,0,0,0,0,0,0,
0,0,0,0,0,0,0,0,0,0,0,0,0,0,0,0,
89,89,89,89,89,90,0,0,0,0,0,0,0,0,0,0,
0,0,0,0,0,0,0,0,0,0,0,0,88,0,88,89,
0,0,0,0,0,0,0,0,0,0,0,0,0,106,0,0,
0,0,0,0,0,0,88,89,89,89,89,90,0,0,0,0,
0,0,0,0,0,0,0,0,0,0,0,0,0,0,0,0,
0,0,0,0,0,0,0,0,0,0,0,0,0,0,0,0,
0,0,0,0,0,0,0,0,0,0,0,0,0,0,0,0,
0,0,0,0,0,0,0,0,0,0,0,0,0,0,0,0,
0,0,0,0,0,0,0,0,0,0,0,0,0,0,0,0
</chunk>
   <chunk x="32" y="0" width="16" height="16">
0,0,0,0,0,0,0,0,0,0,0,0,0,0,0,0,
0,0,0,0,0,0,0,0,0,0,0,0,0,0,0,0,
0,0,0,0,0,0,0,0,0,0,0,0,0,0,0,0,
0,0,0,0,0,0,0,0,0,0,0,0,0,0,0,0,
0,0,0,0,0,0,0,0,0,0,0,0,0,0,0,0,
0,0,0,0,0,0,0,0,0,0,0,0,0,0,0,0,
0,0,0,0,0,0,0,0,0,0,0,0,0,0,0,0,
0,0,0,0,0,0,0,0,0,0,0,0,0,0,0,0,
89,89,90,0,0,0,0,0,88,89,89,90,0,0,0,0,
0,0,0,106,0,0,0,106,0,0,0,0,0,0,0,0,
0,0,0,0,106,0,106,0,0,0,0,0,0,0,0,0,
0,0,0,0,0,0,0,0,0,0,0,0,0,0,0,0,
0,0,0,0,0,0,0,0,0,0,0,0,0,0,0,0,
0,0,0,0,0,0,0,0,0,0,0,0,0,0,0,0,
0,0,0,0,0,0,0,0,0,0,0,0,0,0,0,0,
0,0,0,0,0,106,0,0,0,0,0,0,0,0,0,0
</chunk>
   <chunk x="16" y="16" width="16" height="16">
0,0,0,0,0,0,0,0,0,0,0,0,0,0,0,0,
0,0,0,0,0,0,0,0,0,0,0,0,0,0,0,88,
0,0,0,0,0,0,0,0,0,0,0,0,0,0,0,0,
0,0,0,0,0,0,0,0,0,0,0,0,0,0,0,0,
0,0,0,0,0,0,0,0,0,0,0,0,0,0,0,0,
0,0,0,0,0,0,0,0,0,0,0,0,0,0,0,0,
0,0,0,0,0,0,0,0,0,0,0,0,0,0,0,0,
0,0,0,0,0,0,0,0,0,0,0,0,0,0,0,0,
0,0,0,0,0,0,0,0,0,0,0,0,0,0,0,0,
0,0,0,0,0,0,0,0,0,0,0,0,0,0,0,0,
0,0,0,0,0,0,0,0,0,0,0,0,0,0,0,0,
0,0,0,0,0,0,0,0,0,0,0,0,0,0,0,0,
0,0,0,0,0,0,0,0,0,0,0,0,0,0,0,0,
0,0,0,0,0,0,0,0,0,0,0,0,0,0,0,0,
0,0,0,0,0,0,0,0,0,0,0,0,0,0,0,0,
0,0,0,0,0,0,0,0,0,0,0,0,0,0,0,0
</chunk>
   <chunk x="32" y="16" width="16" height="16">
0,0,0,0,0,0,0,0,0,0,0,0,0,0,0,0,
89,90,0,0,0,0,0,0,0,88,89,90,0,0,0,0,
0,0,0,0,0,0,0,0,0,0,0,0,0,0,0,0,
0,0,88,90,0,0,0,88,90,0,0,0,0,0,0,0,
0,0,0,0,0,0,0,0,0,0,0,0,0,0,0,0,
0,0,0,0,0,0,0,0,0,0,0,0,0,0,0,0,
0,0,0,0,88,89,90,0,0,0,0,0,0,0,0,0,
0,0,0,0,0,0,0,0,0,0,0,0,0,0,0,0,
0,0,0,0,0,0,0,0,0,0,0,0,0,0,0,0,
0,0,0,0,0,0,0,0,0,0,0,0,0,0,0,0,
0,0,0,0,0,0,0,0,0,0,0,0,0,0,0,0,
0,0,0,0,0,0,0,0,0,0,0,0,0,0,0,0,
0,0,0,0,0,0,0,0,0,0,0,0,0,0,0,0,
0,0,0,0,0,0,0,0,0,0,0,0,0,0,0,0,
0,0,0,0,0,0,0,0,0,0,0,0,0,0,0,0,
0,0,0,0,0,0,0,0,0,0,0,0,0,0,0,0
</chunk>
  </data>
 </layer>
 <layer id="1" name="Floor" width="30" height="20">
  <data encoding="csv">
   <chunk x="32" y="-64" width="16" height="16">
0,0,0,0,0,0,0,0,0,0,0,0,0,0,0,0,
0,0,0,0,0,0,0,0,0,0,0,0,0,0,0,0,
0,0,0,0,0,0,0,0,0,0,0,0,0,0,0,0,
0,0,0,0,0,0,0,0,0,0,0,0,0,0,0,0,
0,0,0,0,0,0,0,0,0,0,0,0,0,0,0,0,
0,0,0,0,0,0,0,0,0,0,0,0,0,0,0,0,
0,0,0,0,0,0,0,0,0,0,0,0,0,0,0,0,
0,0,0,0,0,0,0,0,0,0,0,0,0,0,0,114,
0,0,0,0,0,0,0,0,0,0,0,0,0,0,0,114,
0,0,0,0,0,0,0,0,0,0,0,0,0,0,0,0,
0,0,0,0,0,0,0,0,0,0,0,0,0,0,0,0,
0,0,0,0,0,0,0,0,0,0,0,0,0,0,0,0,
0,0,0,0,0,0,0,0,0,0,0,0,0,0,0,0,
0,0,0,0,0,0,0,0,0,0,0,0,0,0,0,0,
0,0,0,0,0,0,0,0,0,0,0,0,0,0,0,0,
0,0,0,0,0,0,0,0,0,0,0,0,0,0,0,0
</chunk>
   <chunk x="48" y="-64" width="16" height="16">
0,0,0,0,0,0,0,0,0,0,0,0,0,0,0,0,
0,0,0,0,0,0,0,0,0,0,0,0,0,0,0,0,
0,0,0,0,0,0,0,0,0,0,0,0,0,0,0,0,
114,0,0,0,0,0,0,0,0,0,0,0,0,0,0,0,
114,0,0,0,0,0,0,0,0,0,0,0,0,0,0,0,
0,0,0,0,0,0,0,0,0,0,0,0,0,0,0,0,
0,0,0,0,0,0,0,0,0,0,0,0,0,0,0,0,
114,114,0,0,0,0,0,0,0,0,0,0,0,0,0,0,
114,2147483780,0,0,0,0,0,0,0,0,0,0,0,0,0,0,
114,0,0,0,0,0,0,0,0,0,0,0,0,0,0,0,
114,0,0,0,0,0,0,0,0,0,0,0,0,0,0,0,
114,0,0,0,0,0,0,0,0,0,0,0,0,0,0,0,
101,0,0,0,0,0,0,0,0,0,0,0,0,0,0,0,
114,0,114,0,0,0,0,0,0,0,0,0,0,0,0,0,
114,0,0,0,0,0,0,0,0,0,0,0,0,0,0,0,
114,0,0,0,0,0,0,0,0,0,0,0,0,0,0,0
</chunk>
   <chunk x="32" y="-48" width="16" height="16">
0,0,0,0,0,0,0,0,0,0,0,0,0,0,114,114,
0,0,0,0,0,0,0,0,0,0,0,0,0,0,2147483780,0,
0,0,0,0,0,0,0,0,0,0,0,0,0,0,114,0,
0,0,0,0,0,0,0,0,0,0,0,0,0,0,100,0,
0,0,0,0,0,0,0,0,0,0,0,0,0,0,115,0,
0,0,0,0,0,0,0,0,0,0,0,0,0,0,131,0,
0,0,0,0,0,0,0,0,0,0,0,0,0,0,0,108,
0,0,0,0,0,0,0,0,0,0,0,0,0,0,0,0,
0,0,0,0,0,0,0,0,0,0,0,0,0,0,114,0,
0,0,0,0,0,0,0,0,0,0,0,0,0,0,0,0,
0,0,0,0,0,0,0,0,0,0,0,0,0,0,0,0,
0,0,0,0,0,0,0,0,0,0,0,0,0,0,0,0,
0,0,0,0,0,0,0,0,0,0,0,0,0,0,114,0,
0,0,0,0,0,0,0,0,0,0,0,0,0,0,0,0,
0,0,0,0,0,0,0,0,0,0,0,0,0,0,0,0,
0,0,0,0,0,0,0,0,0,0,0,0,0,0,0,0
</chunk>
   <chunk x="48" y="-48" width="16" height="16">
114,114,114,0,0,0,0,0,0,0,0,0,0,0,0,0,
0,0,114,0,0,0,0,0,0,0,0,0,0,0,114,0,
0,0,133,114,0,0,0,0,0,0,0,0,0,0,114,0,
0,0,102,114,0,0,0,0,0,0,0,0,0,0,0,0,
0,0,113,0,0,0,0,0,0,0,0,0,0,0,0,0,
0,0,113,0,0,0,0,0,0,0,0,0,0,0,0,0,
98,98,129,114,114,114,114,114,114,2147483780,114,114,114,114,114,114,
114,0,0,0,0,0,0,0,0,0,0,0,0,0,0,0,
114,0,0,0,0,0,0,0,0,0,0,0,0,0,0,0,
100,0,0,0,0,0,0,0,0,0,0,0,0,0,0,0,
131,0,0,0,0,0,0,0,0,0,0,0,0,0,0,0,
114,0,0,0,0,0,0,0,0,0,0,0,0,0,0,0,
0,108,98,109,0,0,0,108,109,0,0,0,0,0,0,0,
0,0,0,0,0,0,0,2684354674,2684354674,0,0,0,0,0,0,0,
0,0,0,0,0,0,0,114,114,0,0,0,0,0,0,0,
0,0,0,0,0,0,0,114,117,0,0,0,0,0,0,0
</chunk>
   <chunk x="64" y="-48" width="16" height="16">
0,0,0,0,0,0,0,0,0,0,0,0,0,0,0,0,
0,0,0,0,0,0,0,0,0,0,0,0,0,0,0,0,
0,0,0,0,0,0,0,0,0,0,0,0,0,0,0,0,
0,0,0,0,0,0,0,0,0,0,0,0,0,0,0,0,
0,0,0,0,0,0,0,0,0,0,0,0,0,0,0,0,
0,0,0,0,0,0,0,0,0,0,0,0,0,0,0,0,
114,114,114,114,114,134,114,114,114,114,114,114,114,114,114,114,
0,0,0,0,0,0,0,0,0,0,114,0,0,0,0,0,
0,0,0,0,0,0,0,0,0,0,114,0,0,0,0,0,
0,0,0,0,0,0,0,0,0,0,0,0,0,0,0,0,
0,0,0,0,0,0,0,0,0,0,0,0,0,0,0,0,
0,0,0,0,0,0,0,0,0,0,0,0,0,0,0,0,
0,0,0,0,0,0,0,0,0,0,0,0,0,0,0,0,
0,0,0,0,0,0,0,0,0,0,0,0,0,0,0,0,
0,0,0,0,0,0,0,0,0,0,0,0,0,0,0,0,
0,0,0,0,0,0,0,0,0,0,0,0,0,0,0,0
</chunk>
   <chunk x="80" y="-48" width="16" height="16">
0,0,0,0,0,0,0,0,0,0,0,0,0,0,0,0,
0,0,0,0,0,0,0,0,0,0,0,0,0,0,0,0,
0,0,0,0,0,0,0,0,0,0,0,0,0,0,0,0,
0,0,0,0,0,0,0,0,0,0,0,0,0,0,0,0,
0,0,0,0,0,0,0,0,0,0,0,0,0,0,0,0,
0,0,0,0,0,0,0,0,0,0,0,0,0,0,0,0,
114,114,114,114,114,114,114,114,114,114,114,114,114,114,114,114,
0,0,0,0,0,0,0,0,0,0,0,0,0,0,0,0,
0,0,0,0,0,0,0,0,0,0,0,0,0,0,0,0,
0,0,0,0,0,0,0,0,0,0,0,0,0,0,0,0,
0,0,0,0,0,0,0,114,114,114,114,0,0,0,0,0,
0,0,0,0,0,0,0,114,114,114,114,0,0,0,0,0,
0,0,0,0,0,0,0,114,114,114,114,0,0,0,0,0,
0,0,0,0,0,0,0,0,0,0,0,0,0,0,0,0,
0,0,0,0,0,0,0,0,0,0,0,0,0,0,0,0,
0,0,0,0,0,0,0,0,0,0,0,0,0,0,0,0
</chunk>
   <chunk x="48" y="-32" width="16" height="16">
0,0,0,0,0,0,0,114,101,0,0,0,0,0,0,0,
0,0,0,0,0,0,0,114,114,0,0,0,0,0,0,0,
0,0,0,0,0,0,0,114,114,0,0,0,0,0,0,0,
0,0,0,0,0,0,0,114,114,0,0,0,0,0,0,0,
0,0,0,0,114,0,0,117,114,0,0,0,0,0,0,0,
0,0,0,0,114,0,0,114,114,0,0,0,0,0,97,98,
0,0,0,0,114,0,0,114,114,0,0,0,0,0,113,132,
0,0,0,0,0,0,0,114,114,114,114,114,108,98,129,114,
0,0,0,0,0,0,114,114,114,0,0,0,0,0,114,114,
0,0,0,0,0,0,0,114,114,0,0,114,0,0,114,114,
0,0,0,0,0,0,0,114,132,0,0,114,0,0,0,0,
0,0,0,0,0,0,0,130,114,0,0,114,0,0,0,0,
0,0,0,0,0,0,0,133,114,0,0,0,0,0,0,0,
0,0,0,0,114,0,114,114,114,0,0,0,0,0,0,0,
0,0,0,0,0,0,0,114,114,0,0,0,0,0,0,0,
0,0,0,0,0,0,0,114,114,114,0,114,0,0,0,0
</chunk>
   <chunk x="64" y="-32" width="16" height="16">
0,0,0,0,0,0,0,0,0,0,0,0,0,0,0,0,
0,0,0,0,0,0,0,0,0,0,0,0,0,0,0,0,
0,0,0,0,0,0,0,0,0,0,0,0,0,0,0,0,
0,0,0,0,0,0,0,0,0,0,0,0,0,0,0,0,
0,0,0,0,0,0,0,0,0,0,0,0,0,0,0,0,
99,0,0,0,0,0,0,0,0,0,0,0,0,0,0,0,
115,0,0,0,0,0,0,0,0,0,0,0,0,0,0,0,
115,0,0,0,0,0,0,0,0,0,0,0,0,0,0,0,
115,0,0,0,0,0,0,0,0,0,0,0,0,0,0,0,
115,0,0,0,0,0,0,0,0,0,0,0,0,0,0,0,
0,0,0,0,0,0,0,0,0,0,0,0,0,0,0,0,
0,0,0,0,0,0,0,0,0,0,0,0,0,0,0,0,
0,0,0,0,0,0,0,0,0,0,0,0,0,0,0,0,
0,0,0,0,0,0,0,0,0,0,0,0,0,0,0,0,
0,0,0,0,0,0,0,0,0,0,0,0,0,0,0,0,
0,0,0,0,0,0,0,0,0,0,0,0,0,0,0,0
</chunk>
   <chunk x="16" y="-16" width="16" height="16">
0,0,0,0,0,0,0,0,0,0,0,0,0,0,0,0,
0,0,0,0,0,0,0,0,0,0,0,0,0,0,0,0,
0,0,0,0,0,0,0,0,0,0,0,0,0,0,0,0,
0,0,0,0,0,0,0,0,0,108,98,109,0,0,0,0,
0,0,0,0,0,0,0,0,114,114,132,114,12,12,0,0,
0,0,0,0,0,0,0,0,0,0,101,114,0,0,0,0,
0,0,0,0,0,0,0,0,0,0,114,114,0,0,0,0,
0,0,0,0,0,0,0,0,0,114,114,117,114,0,0,0,
0,0,0,0,0,0,0,0,0,114,114,114,114,0,0,0,
0,0,0,0,0,0,0,0,0,114,114,114,114,0,0,0,
0,0,0,0,0,0,0,0,0,114,114,114,114,0,0,0,
0,0,0,0,0,0,114,114,0,114,114,114,114,0,114,114,
0,0,0,0,0,0,114,114,0,114,2147483780,114,114,0,114,114,
0,0,0,0,0,0,0,0,0,114,114,114,114,0,0,0,
0,0,0,0,0,0,0,0,0,114,114,114,114,0,0,0,
0,0,0,0,0,0,0,0,0,114,114,114,114,0,0,0
</chunk>
   <chunk x="32" y="-16" width="16" height="16">
0,0,0,0,0,0,0,0,0,0,0,0,0,0,0,0,
0,0,0,0,0,0,0,0,0,0,49,49,49,0,0,114,
0,0,0,0,0,0,0,0,0,0,49,49,49,0,0,0,
0,0,0,0,0,0,0,0,0,0,81,81,81,0,0,0,
0,0,0,0,0,0,0,0,0,0,97,98,98,109,114,114,
0,0,0,0,0,0,0,0,0,0,113,2147483780,114,114,114,114,
0,0,0,0,0,0,0,0,0,0,113,114,0,0,0,114,
0,0,0,0,0,0,0,0,0,0,113,114,0,0,0,0,
0,0,0,0,0,0,0,0,0,0,113,100,0,0,0,0,
0,0,0,0,0,0,0,0,0,0,113,115,0,0,0,0,
0,0,0,0,0,0,0,0,0,0,113,115,0,0,0,0,
0,0,0,0,0,0,0,0,0,0,113,115,0,0,0,0,
0,0,0,0,0,0,0,0,0,0,113,115,0,0,0,0,
0,0,0,0,0,0,0,0,0,97,129,131,99,0,0,0,
0,0,0,0,0,0,0,97,98,129,114,114,131,99,0,0,
0,0,0,0,0,0,0,0,0,2147483749,114,114,132,0,0,0
</chunk>
   <chunk x="48" y="-16" width="16" height="16">
0,0,0,0,0,0,0,114,117,0,0,0,0,0,0,0,
0,0,0,0,0,0,0,114,114,0,0,0,0,0,0,0,
0,0,0,0,0,0,101,114,114,114,0,0,0,0,0,0,
0,0,0,114,0,114,114,0,0,114,114,0,0,0,0,0,
114,108,109,114,114,114,0,114,114,0,114,114,0,0,0,0,
101,114,114,114,114,114,0,114,114,0,114,114,0,0,0,0,
0,0,0,0,0,132,114,0,0,114,114,114,0,0,0,0,
0,0,0,114,0,0,114,114,114,114,114,0,0,0,0,0,
0,0,0,0,0,0,0,114,114,2147483749,0,0,0,0,0,0,
0,0,0,0,0,0,0,0,0,0,0,0,0,0,0,0,
0,0,0,0,0,0,0,0,0,0,0,0,0,0,0,0,
0,0,0,0,0,0,0,0,0,0,0,0,0,0,0,0,
0,0,0,0,0,0,0,0,0,0,0,0,0,0,0,0,
0,0,0,0,0,0,0,0,0,0,0,0,0,0,0,0,
0,0,0,0,0,0,0,0,0,0,0,0,0,0,0,0,
0,0,0,0,0,0,0,0,0,0,0,0,0,0,0,0
</chunk>
   <chunk x="0" y="0" width="16" height="16">
0,114,114,0,0,0,0,0,0,0,0,0,0,0,0,0,
0,114,114,0,0,0,0,0,0,0,0,0,0,0,0,0,
0,130,114,0,0,0,0,0,0,0,0,0,0,0,0,0,
0,114,114,0,0,0,0,0,117,114,114,0,0,0,0,0,
0,114,114,0,0,0,0,114,114,114,114,114,0,0,114,114,
0,114,132,114,114,114,114,114,114,114,114,114,114,114,114,101,
0,0,0,0,0,0,0,101,114,114,130,114,0,0,114,114,
0,0,0,0,0,0,0,0,114,114,114,0,0,0,0,0,
0,0,0,0,0,0,0,0,0,0,0,0,0,0,0,0,
0,0,0,0,0,0,0,0,0,0,0,0,0,0,0,0,
0,0,0,0,0,0,0,0,0,0,0,0,0,0,0,0,
0,0,0,0,0,0,0,0,0,0,0,0,0,0,0,0,
0,0,0,0,0,0,0,0,0,0,0,0,0,0,0,0,
0,0,0,0,0,0,0,0,0,0,0,0,0,0,0,0,
0,0,0,0,0,0,0,0,0,0,0,0,0,0,0,0,
0,0,0,0,0,0,0,0,0,0,0,0,0,0,0,0
</chunk>
   <chunk x="16" y="0" width="16" height="16">
0,0,0,0,0,0,0,0,0,114,114,114,114,0,0,0,
0,0,0,0,0,0,0,0,0,114,114,134,114,114,0,0,
0,0,0,0,0,0,0,0,0,0,114,114,0,0,0,0,
0,0,0,0,0,0,0,0,114,2147483781,114,114,114,101,0,0,
114,114,114,117,114,114,114,0,114,114,114,114,114,114,0,2684354572,
114,114,114,114,114,114,114,114,114,114,132,114,114,114,0,2684354572,
114,114,118,114,114,114,114,114,114,114,134,114,114,114,114,114,
0,0,0,0,0,0,114,101,114,114,114,114,2147483780,114,114,114,
0,0,0,0,0,0,114,114,114,114,114,114,0,114,0,0,
0,0,0,0,0,0,132,114,114,114,114,114,0,0,0,0,
0,0,0,0,0,0,0,0,0,0,0,0,0,0,0,0,
0,0,0,0,0,0,0,0,0,0,0,0,0,0,0,0,
0,0,0,0,0,0,0,0,0,0,0,0,0,0,0,0,
0,0,0,0,0,0,0,0,0,0,0,0,0,0,0,0,
0,0,0,0,0,0,0,0,0,0,0,0,0,0,0,114,
0,0,0,0,0,0,0,0,0,0,0,0,0,0,0,114
</chunk>
   <chunk x="32" y="0" width="16" height="16">
0,0,0,0,0,0,0,0,0,0,114,114,0,0,0,0,
0,0,0,0,0,0,0,0,0,0,114,2147483780,0,0,0,0,
0,0,0,0,0,0,0,0,0,0,102,100,0,0,0,0,
0,0,0,0,0,0,0,0,0,0,113,115,0,0,0,0,
0,0,0,0,0,0,0,0,0,0,113,115,0,0,0,0,
0,0,0,0,0,0,0,0,0,0,113,115,0,0,0,0,
101,108,98,98,98,98,98,98,98,98,129,131,0,0,0,0,
114,114,114,132,114,114,114,114,114,114,114,114,0,0,0,0,
0,0,0,114,114,114,117,114,0,0,0,0,0,0,0,0,
0,0,0,0,114,114,114,0,0,0,0,0,0,0,0,0,
0,0,0,0,0,114,0,0,0,0,0,0,0,0,0,0,
0,0,0,0,114,114,114,0,0,0,0,0,0,0,0,0,
0,0,114,114,114,101,114,114,114,0,0,0,0,0,0,0,
0,0,114,114,114,114,114,114,114,0,0,0,0,0,0,0,
114,132,114,114,114,114,133,114,114,134,114,114,0,0,0,0,
114,114,114,114,114,0,114,114,114,114,114,114,0,0,0,0
</chunk>
   <chunk x="16" y="16" width="16" height="16">
0,0,0,0,0,0,0,0,0,0,0,0,0,0,0,114,
0,0,0,0,0,0,0,0,0,0,0,0,0,0,0,0,
0,0,0,0,0,0,0,0,0,0,0,0,0,0,0,0,
0,0,0,0,0,0,0,0,0,0,0,0,0,0,0,0,
0,0,0,0,0,0,0,0,0,0,0,0,0,0,0,0,
0,0,0,0,0,0,0,0,0,0,0,0,0,0,0,0,
0,0,0,0,0,0,0,0,0,0,0,0,0,0,0,0,
0,0,0,0,0,0,0,0,0,0,0,0,0,0,0,0,
0,0,0,0,0,0,0,0,0,0,0,0,0,0,0,0,
0,0,0,0,0,0,0,0,0,0,0,0,0,0,0,0,
0,0,0,0,0,0,0,0,0,0,0,0,0,0,0,0,
0,0,0,0,0,0,0,0,0,0,0,0,0,0,0,0,
0,0,0,0,0,0,0,0,0,0,0,0,0,0,0,0,
0,0,0,0,0,0,0,0,0,0,0,0,0,0,0,0,
0,0,0,0,0,0,0,0,0,0,0,0,0,0,0,0,
0,0,0,0,0,0,0,0,0,0,0,0,0,0,0,0
</chunk>
   <chunk x="32" y="16" width="16" height="16">
114,114,114,114,2147483782,114,114,114,114,114,114,114,0,0,0,0,
0,0,114,114,114,114,114,2147483780,114,0,0,0,0,0,0,0,
0,0,114,114,114,114,114,114,114,0,0,0,0,0,0,0,
0,0,0,0,114,114,114,0,0,0,0,0,0,0,0,0,
0,0,0,0,114,114,114,0,0,0,0,0,0,0,0,0,
0,0,0,0,114,117,114,0,0,0,0,0,0,0,0,0,
0,0,0,0,0,0,0,0,0,0,0,0,0,0,0,0,
0,0,0,0,0,0,0,0,0,0,0,0,0,0,0,0,
0,0,0,0,0,0,0,0,0,0,0,0,0,0,0,0,
0,0,0,0,0,0,0,0,0,0,0,0,0,0,0,0,
0,0,0,0,0,0,0,0,0,0,0,0,0,0,0,0,
0,0,0,0,0,0,0,0,0,0,0,0,0,0,0,0,
0,0,0,0,0,0,0,0,0,0,0,0,0,0,0,0,
0,0,0,0,0,0,0,0,0,0,0,0,0,0,0,0,
0,0,0,0,0,0,0,0,0,0,0,0,0,0,0,0,
0,0,0,0,0,0,0,0,0,0,0,0,0,0,0,0
</chunk>
  </data>
 </layer>
 <layer id="23" name="FloorDecor" width="30" height="20">
  <data encoding="csv">
   <chunk x="0" y="0" width="16" height="16">
0,0,0,0,0,0,0,0,0,0,0,0,0,0,0,0,
0,0,0,0,0,0,0,0,0,0,0,0,0,0,0,0,
0,0,0,0,0,0,0,0,0,0,0,0,0,0,0,0,
0,0,0,0,0,0,0,0,0,0,0,0,0,0,0,0,
0,0,0,0,0,0,0,0,0,0,0,0,0,0,0,0,
0,0,0,0,0,0,0,0,0,0,0,0,0,0,0,0,
0,0,0,0,0,0,0,0,451,0,0,0,0,0,0,0,
0,0,0,0,0,0,0,0,0,0,0,0,0,0,0,0,
0,0,0,0,0,0,0,0,0,0,0,0,0,0,0,0,
0,0,0,0,0,0,0,0,0,0,0,0,0,0,0,0,
0,0,0,0,0,0,0,0,0,0,0,0,0,0,0,0,
0,0,0,0,0,0,0,0,0,0,0,0,0,0,0,0,
0,0,0,0,0,0,0,0,0,0,0,0,0,0,0,0,
0,0,0,0,0,0,0,0,0,0,0,0,0,0,0,0,
0,0,0,0,0,0,0,0,0,0,0,0,0,0,0,0,
0,0,0,0,0,0,0,0,0,0,0,0,0,0,0,0
</chunk>
  </data>
 </layer>
 <layer id="14" name="SecretWay1" width="30" height="20" opacity="0.98">
  <data encoding="csv">
   <chunk x="16" y="-16" width="16" height="16">
0,0,0,0,0,0,0,0,0,0,0,0,0,0,0,0,
0,0,0,0,0,0,0,0,0,0,0,0,0,0,0,0,
0,0,0,0,0,0,0,0,0,0,0,0,0,0,0,0,
0,0,0,0,0,0,0,0,0,0,0,0,0,0,0,0,
0,0,0,0,0,0,0,0,0,0,0,0,308,308,0,0,
0,0,0,0,0,0,0,0,0,0,0,0,308,308,0,0,
0,0,0,0,0,0,0,0,0,0,0,0,0,0,0,0,
0,0,0,0,0,0,0,0,0,0,0,0,0,0,0,0,
0,0,0,0,0,0,0,0,0,0,0,0,0,0,0,0,
0,0,0,0,0,0,0,0,0,0,0,0,0,0,0,0,
0,0,0,0,0,0,0,0,0,0,0,0,0,0,0,0,
0,0,0,0,0,0,0,0,0,0,0,0,0,0,0,0,
0,0,0,0,0,0,0,0,0,0,0,0,0,0,0,0,
0,0,0,0,0,0,0,0,0,0,0,0,0,0,0,0,
0,0,0,0,0,0,0,0,0,0,0,0,0,0,0,0,
0,0,0,0,0,0,0,0,0,0,0,0,0,0,0,0
</chunk>
   <chunk x="16" y="0" width="16" height="16">
0,0,0,0,0,0,0,0,0,0,0,0,0,0,0,0,
0,0,0,0,0,0,0,0,0,0,0,0,0,0,0,0,
0,0,0,0,0,0,0,0,0,0,0,0,0,0,0,0,
0,0,0,0,0,0,0,0,0,0,0,0,0,0,0,0,
0,0,0,0,0,0,0,0,0,0,0,0,0,0,0,308,
0,0,0,0,0,0,0,0,0,0,0,0,0,0,0,308,
0,0,0,0,0,0,0,0,0,0,0,0,0,0,0,0,
0,0,0,0,0,0,0,0,0,0,0,0,0,0,0,0,
0,0,0,0,0,0,0,0,0,0,0,0,0,0,0,0,
0,0,0,0,0,0,0,0,0,0,0,0,0,0,0,0,
0,0,0,0,0,0,0,0,0,0,0,0,0,0,0,0,
0,0,0,0,0,0,0,0,0,0,0,0,0,0,0,0,
0,0,0,0,0,0,0,0,0,0,0,0,0,0,0,0,
0,0,0,0,0,0,0,0,0,0,0,0,0,0,0,0,
0,0,0,0,0,0,0,0,0,0,0,0,0,0,0,0,
0,0,0,0,0,0,0,0,0,0,0,0,0,0,0,0
</chunk>
  </data>
 </layer>
 <layer id="17" name="DitchFloor" width="30" height="20">
  <data encoding="csv">
   <chunk x="32" y="-64" width="16" height="16">
0,0,0,0,0,0,0,0,0,0,0,0,0,0,0,0,
0,0,0,0,0,0,0,0,0,0,0,0,0,0,0,0,
0,0,0,0,0,0,0,0,0,0,0,0,0,0,0,0,
0,0,0,0,0,0,0,0,0,0,0,0,0,0,0,137,
0,0,0,0,0,0,0,0,0,0,0,0,0,0,0,137,
0,0,0,0,0,0,0,0,0,0,0,0,0,0,0,0,
0,0,0,0,0,0,0,0,0,0,0,0,0,0,0,152,
0,0,0,0,0,0,0,0,0,0,0,0,0,0,137,0,
0,0,0,0,0,0,0,0,0,0,0,0,0,0,137,0,
0,0,0,0,0,0,0,0,0,0,0,0,0,0,0,121,
0,0,0,0,0,0,0,0,0,0,0,0,0,0,0,137,
0,0,0,0,0,0,0,0,0,0,0,0,0,0,0,137,
0,0,0,0,0,0,0,0,0,0,0,0,0,0,0,137,
0,0,0,0,0,0,0,0,0,0,0,0,0,0,0,137,
0,0,0,0,0,0,0,0,0,0,0,0,0,0,0,137,
0,0,0,0,0,0,0,0,0,0,0,0,0,0,152,153
</chunk>
   <chunk x="48" y="-64" width="16" height="16">
0,0,0,0,0,0,0,0,0,0,0,0,0,0,0,0,
0,0,0,0,0,0,0,0,0,0,0,0,0,0,0,0,
0,0,0,0,0,0,0,0,0,0,0,0,0,0,0,0,
0,135,0,0,0,0,0,0,0,0,0,0,0,0,0,0,
0,135,0,0,0,0,0,0,0,0,0,0,0,0,0,0,
120,0,0,0,0,0,0,0,0,0,0,0,0,0,0,0,
152,152,0,0,0,0,0,0,0,0,0,0,0,0,0,0,
0,0,135,0,0,0,0,0,0,0,0,0,0,0,0,0,
0,0,135,0,0,0,0,0,0,0,0,0,0,0,0,0,
0,119,0,0,0,0,0,0,0,0,0,0,0,0,0,0,
0,135,0,0,0,0,0,0,0,0,0,0,0,0,0,0,
0,135,0,0,0,0,0,0,0,0,0,0,0,0,0,0,
0,135,152,0,0,0,0,0,0,0,0,0,0,0,0,0,
0,145,0,135,0,0,0,0,0,0,0,0,0,0,0,0,
0,135,120,0,0,0,0,0,0,0,0,0,0,0,0,0,
0,151,152,0,0,0,0,0,0,0,0,0,0,0,0,0
</chunk>
   <chunk x="32" y="-48" width="16" height="16">
0,0,0,0,0,0,0,0,0,0,0,0,0,137,0,0,
0,0,0,0,0,0,0,0,0,0,0,0,0,137,0,0,
0,0,0,0,0,0,0,0,0,0,0,0,0,137,0,0,
0,0,0,0,0,0,0,0,0,0,0,0,0,137,0,0,
0,0,0,0,0,0,0,0,0,0,0,0,0,137,0,0,
0,0,0,0,0,0,0,0,0,0,0,0,0,137,0,0,
0,0,0,0,0,0,0,0,0,0,0,0,0,0,121,0,
0,0,0,0,0,0,0,0,0,0,0,0,0,0,152,121,
0,0,0,0,0,0,0,0,0,0,0,0,0,137,0,145,
0,0,0,0,0,0,0,0,0,0,0,0,0,0,120,137,
0,0,0,0,0,0,0,0,0,0,0,0,0,0,0,137,
0,0,0,0,0,0,0,0,0,0,0,0,0,0,152,137,
0,0,0,0,0,0,0,0,0,0,0,0,0,137,0,135,
0,0,0,0,0,0,0,0,0,0,0,0,0,0,120,0,
0,0,0,0,0,0,0,0,0,0,0,0,0,0,0,0,
0,0,0,0,0,0,0,0,0,0,0,0,0,0,0,0
</chunk>
   <chunk x="48" y="-48" width="16" height="16">
0,0,0,135,0,0,0,0,0,0,0,0,0,0,0,0,
0,0,0,151,0,0,0,0,0,0,0,0,0,137,0,135,
0,0,0,0,135,0,0,0,0,0,0,0,0,137,0,135,
0,0,0,0,135,0,0,0,0,0,0,0,0,0,120,0,
0,0,0,119,0,0,0,0,0,0,0,0,0,0,0,0,
0,0,0,151,152,152,152,152,152,152,152,152,152,152,152,152,
0,0,0,0,0,0,0,0,0,0,0,0,0,0,0,0,
0,0,0,0,0,0,0,0,0,120,120,120,120,120,120,120,
0,0,0,0,0,0,0,0,0,0,0,0,0,0,0,0,
0,0,0,0,0,0,0,0,0,0,0,0,0,0,0,0,
0,0,0,0,0,0,0,0,0,0,0,0,0,0,0,0,
0,0,0,0,0,0,0,0,0,0,0,0,0,0,0,0,
121,0,0,0,135,0,137,0,0,135,0,0,0,0,0,0,
0,120,120,120,0,0,0,0,0,135,0,0,0,0,0,0,
0,0,0,0,0,0,137,0,0,135,0,0,0,0,0,0,
0,0,0,0,0,0,137,0,0,135,0,0,0,0,0,0
</chunk>
   <chunk x="64" y="-48" width="16" height="16">
0,0,0,0,0,0,0,0,0,0,0,0,0,0,0,0,
0,0,0,0,0,0,0,0,0,0,0,0,0,0,0,0,
0,0,0,0,0,0,0,0,0,0,0,0,0,0,0,0,
0,0,0,0,0,0,0,0,0,0,0,0,0,0,0,0,
0,0,0,0,0,0,0,0,0,0,0,0,0,0,0,0,
152,152,152,152,152,152,152,152,152,152,152,152,152,152,152,152,
0,0,0,0,0,0,0,0,0,0,0,0,0,0,0,0,
120,120,120,120,120,120,120,120,120,121,0,119,120,120,120,120,
0,0,0,0,0,0,0,0,0,137,0,135,0,0,0,0,
0,0,0,0,0,0,0,0,0,0,0,0,0,0,0,0,
0,0,0,0,0,0,0,0,0,0,0,0,0,0,0,0,
0,0,0,0,0,0,0,0,0,0,0,0,0,0,0,0,
0,0,0,0,0,0,0,0,0,0,0,0,0,0,0,0,
0,0,0,0,0,0,0,0,0,0,0,0,0,0,0,0,
0,0,0,0,0,0,0,0,0,0,0,0,0,0,0,0,
0,0,0,0,0,0,0,0,0,0,0,0,0,0,0,0
</chunk>
   <chunk x="80" y="-48" width="16" height="16">
0,0,0,0,0,0,0,0,0,0,0,0,0,0,0,0,
0,0,0,0,0,0,0,0,0,0,0,0,0,0,0,0,
0,0,0,0,0,0,0,0,0,0,0,0,0,0,0,0,
0,0,0,0,0,0,0,0,0,0,0,0,0,0,0,0,
0,0,0,0,0,0,0,0,0,0,0,0,0,0,0,0,
152,152,152,152,152,152,152,152,152,152,152,152,152,152,152,152,
0,0,0,0,0,0,0,0,0,0,0,0,0,0,0,0,
120,120,120,120,120,120,120,120,120,120,120,120,120,120,120,120,
0,0,0,0,0,0,0,0,0,0,0,0,0,0,0,0,
0,0,0,0,0,0,0,152,152,152,152,0,0,0,0,0,
0,0,0,0,0,0,0,0,0,0,0,0,0,0,0,0,
0,0,0,0,0,0,0,0,0,0,0,0,0,0,0,0,
0,0,0,0,0,0,0,0,0,0,0,0,0,0,0,0,
0,0,0,0,0,0,0,120,120,120,120,0,0,0,0,0,
0,0,0,0,0,0,0,0,0,0,0,0,0,0,0,0,
0,0,0,0,0,0,0,0,0,0,0,0,0,0,0,0
</chunk>
   <chunk x="48" y="-32" width="16" height="16">
0,0,0,0,0,0,137,0,0,135,0,0,0,0,0,0,
0,0,0,0,0,0,137,0,0,135,0,0,0,0,0,0,
0,0,0,0,0,0,137,0,0,135,0,0,0,0,0,0,
0,0,0,0,152,0,0,0,0,135,0,0,0,0,0,0,
0,0,0,137,0,135,137,0,0,135,0,0,0,0,0,0,
0,0,0,137,0,135,137,0,0,135,0,0,0,0,0,0,
0,0,0,137,0,135,137,0,0,151,152,152,0,0,0,0,
0,0,0,0,120,0,153,0,0,0,0,0,0,0,0,0,
0,0,0,0,0,137,0,0,0,119,120,146,0,0,0,0,
0,0,0,0,0,0,121,0,0,135,137,0,135,0,0,0,
0,0,0,0,0,0,137,0,0,135,137,0,135,0,0,0,
0,0,0,0,0,0,137,0,0,135,137,0,135,0,0,0,
0,0,0,0,152,0,153,0,0,135,0,120,0,0,0,0,
0,0,0,137,0,145,0,0,0,135,0,0,0,0,0,0,
0,0,0,0,120,0,121,0,0,151,0,152,0,0,0,0,
0,0,0,0,0,0,137,0,0,0,145,0,135,0,0,0
</chunk>
   <chunk x="16" y="-16" width="16" height="16">
0,0,0,0,0,0,0,0,0,0,0,0,0,0,0,0,
0,0,0,0,0,0,0,0,0,0,0,0,0,0,0,0,
0,0,0,0,0,0,0,0,0,0,0,0,0,0,0,0,
0,0,0,0,0,0,0,0,153,0,0,0,135,0,0,0,
0,0,0,0,0,0,0,137,0,0,0,0,0,0,0,0,
0,0,0,0,0,0,0,0,120,121,0,0,135,0,0,0,
0,0,0,0,0,0,0,0,0,153,0,0,151,0,0,0,
0,0,0,0,0,0,0,0,137,0,0,0,0,135,0,0,
0,0,0,0,0,0,0,0,137,0,0,0,0,135,0,0,
0,0,0,0,0,0,0,0,137,0,0,0,0,135,0,0,
0,0,0,0,0,0,152,152,137,0,0,0,0,135,152,152,
0,0,0,0,0,137,0,0,145,0,0,0,0,145,0,0,
0,0,0,0,0,137,0,0,145,0,0,0,0,145,0,0,
0,0,0,0,0,0,120,120,137,0,0,0,0,135,120,120,
0,0,0,0,0,0,0,0,137,0,0,0,0,135,0,0,
0,0,0,0,0,0,0,0,137,0,0,0,0,135,0,0
</chunk>
   <chunk x="32" y="-16" width="16" height="16">
0,0,0,0,0,0,0,0,0,0,0,0,0,0,0,152,
0,0,0,0,0,0,0,0,0,0,0,0,0,0,137,0,
0,0,0,0,0,0,0,0,0,0,0,0,0,0,0,120,
0,0,0,0,0,0,0,0,0,0,0,0,0,0,152,152,
0,0,0,0,0,0,0,0,0,0,0,0,0,0,0,0,
0,0,0,0,0,0,0,0,0,0,0,0,0,0,0,0,
0,0,0,0,0,0,0,0,0,0,0,0,0,0,0,0,
0,0,0,0,0,0,0,0,0,0,0,0,0,0,0,0,
0,0,0,0,0,0,0,0,0,0,0,0,0,0,0,0,
0,0,0,0,0,0,0,0,0,0,0,0,0,0,0,0,
0,0,0,0,0,0,0,0,0,0,0,0,0,0,0,0,
135,0,0,0,0,0,0,0,0,0,0,0,0,0,0,0,
135,0,0,0,0,0,0,0,0,0,0,0,0,0,0,0,
0,0,0,0,0,0,0,0,0,0,0,0,0,0,0,0,
0,0,0,0,0,0,0,0,0,0,0,0,0,0,0,0,
0,0,0,0,0,0,0,0,0,0,0,0,0,0,0,0
</chunk>
   <chunk x="48" y="-16" width="16" height="16">
0,0,0,0,0,0,137,0,0,119,0,120,0,0,0,0,
135,0,0,0,0,0,153,0,0,151,0,0,0,0,0,0,
0,0,0,152,0,153,0,0,0,0,151,0,0,0,0,0,
152,0,0,0,149,0,0,148,147,0,0,151,0,0,0,0,
0,0,0,0,0,0,150,0,0,150,0,0,135,0,0,0,
0,0,0,0,0,0,149,0,0,149,0,0,135,0,0,0,
0,0,120,146,121,0,0,148,147,0,0,0,135,0,0,0,
0,0,137,0,135,121,0,0,0,0,0,119,0,0,0,0,
0,0,0,120,0,0,121,0,0,0,119,0,0,0,0,0,
0,0,0,0,0,0,0,120,120,120,0,0,0,0,0,0,
0,0,0,0,0,0,0,0,0,0,0,0,0,0,0,0,
0,0,0,0,0,0,0,0,0,0,0,0,0,0,0,0,
0,0,0,0,0,0,0,0,0,0,0,0,0,0,0,0,
0,0,0,0,0,0,0,0,0,0,0,0,0,0,0,0,
0,0,0,0,0,0,0,0,0,0,0,0,0,0,0,0,
0,0,0,0,0,0,0,0,0,0,0,0,0,0,0,0
</chunk>
   <chunk x="0" y="0" width="16" height="16">
137,0,0,135,0,0,0,0,0,0,0,0,0,0,0,0,
137,0,0,135,0,0,0,0,0,0,0,0,0,0,0,0,
137,0,0,135,0,0,0,0,152,152,152,0,0,0,0,0,
137,0,0,135,0,0,0,153,0,0,0,151,0,0,152,152,
137,0,0,151,152,152,153,0,0,0,0,0,151,153,0,0,
137,0,0,0,0,0,0,0,0,0,0,0,0,0,0,0,
0,120,120,120,120,120,121,0,0,0,0,0,119,121,0,0,
0,0,0,0,0,0,0,121,0,0,0,119,0,0,120,120,
0,0,0,0,0,0,0,0,120,120,120,0,0,0,0,0,
0,0,0,0,0,0,0,0,0,0,0,0,0,0,0,0,
0,0,0,0,0,0,0,0,0,0,0,0,0,0,0,0,
0,0,0,0,0,0,0,0,0,0,0,0,0,0,0,0,
0,0,0,0,0,0,0,0,0,0,0,0,0,0,0,0,
0,0,0,0,0,0,0,0,0,0,0,0,0,0,0,0,
0,0,0,0,0,0,0,0,0,0,0,0,0,0,0,0,
0,0,0,0,0,0,0,0,0,0,0,0,0,0,0,0
</chunk>
   <chunk x="16" y="0" width="16" height="16">
0,0,0,0,0,0,0,0,137,0,0,0,0,151,0,0,
0,0,0,0,0,0,0,0,137,0,0,0,0,0,135,0,
0,0,0,0,0,0,0,0,152,147,0,0,148,146,0,0,
152,152,152,152,152,152,152,137,0,0,0,0,0,0,135,0,
0,0,0,0,0,0,0,149,0,0,0,0,0,0,135,0,
0,0,0,0,0,0,0,0,0,0,0,0,0,0,151,0,
0,0,0,0,0,0,0,0,0,0,0,0,0,0,0,0,
120,120,120,120,120,121,0,0,0,0,0,0,0,0,0,0,
0,0,0,0,0,137,0,0,0,0,0,0,150,0,119,120,
0,0,0,0,0,137,0,0,0,0,0,0,135,120,0,0,
0,0,0,0,0,0,120,120,120,120,120,120,0,0,0,0,
0,0,0,0,0,0,0,0,0,0,0,0,0,0,0,0,
0,0,0,0,0,0,0,0,0,0,0,0,0,0,0,0,
0,0,0,0,0,0,0,0,0,0,0,0,0,0,0,152,
0,0,0,0,0,0,0,0,0,0,0,0,0,0,137,0,
0,0,0,0,0,0,0,0,0,0,0,0,0,0,137,0
</chunk>
   <chunk x="32" y="0" width="16" height="16">
0,0,0,0,0,0,0,0,0,0,0,0,0,0,0,0,
0,0,0,0,0,0,0,0,0,0,0,0,0,0,0,0,
0,0,0,0,0,0,0,0,0,0,0,0,0,0,0,0,
0,0,0,0,0,0,0,0,0,0,0,0,0,0,0,0,
0,0,0,0,0,0,0,0,0,0,0,0,0,0,0,0,
152,0,0,0,0,0,0,0,0,0,0,0,0,0,0,0,
0,0,0,0,0,0,0,0,0,0,0,0,135,0,0,0,
0,0,0,0,0,0,0,0,0,0,0,0,135,0,0,0,
120,120,121,0,0,0,0,0,119,120,120,120,0,0,0,0,
0,0,0,121,0,0,0,119,0,0,0,0,0,0,0,0,
0,0,0,0,147,0,148,0,0,0,0,0,0,0,0,0,
0,0,152,153,0,0,0,151,152,0,0,0,0,0,0,0,
0,137,0,0,0,0,0,0,0,135,0,0,0,0,0,0,
152,153,0,0,0,0,0,0,0,151,152,152,0,0,0,0,
0,0,0,0,0,0,0,0,0,0,0,0,135,0,0,0,
0,0,0,0,0,166,0,0,0,0,0,0,135,0,0,0
</chunk>
   <chunk x="16" y="16" width="16" height="16">
0,0,0,0,0,0,0,0,0,0,0,0,0,0,137,0,
0,0,0,0,0,0,0,0,0,0,0,0,0,0,0,120,
0,0,0,0,0,0,0,0,0,0,0,0,0,0,0,0,
0,0,0,0,0,0,0,0,0,0,0,0,0,0,0,0,
0,0,0,0,0,0,0,0,0,0,0,0,0,0,0,0,
0,0,0,0,0,0,0,0,0,0,0,0,0,0,0,0,
0,0,0,0,0,0,0,0,0,0,0,0,0,0,0,0,
0,0,0,0,0,0,0,0,0,0,0,0,0,0,0,0,
0,0,0,0,0,0,0,0,0,0,0,0,0,0,0,0,
0,0,0,0,0,0,0,0,0,0,0,0,0,0,0,0,
0,0,0,0,0,0,0,0,0,0,0,0,0,0,0,0,
0,0,0,0,0,0,0,0,0,0,0,0,0,0,0,0,
0,0,0,0,0,0,0,0,0,0,0,0,0,0,0,0,
0,0,0,0,0,0,0,0,0,0,0,0,0,0,0,0,
0,0,0,0,0,0,0,0,0,0,0,0,0,0,0,0,
0,0,0,0,0,0,0,0,0,0,0,0,0,0,0,0
</chunk>
   <chunk x="32" y="16" width="16" height="16">
0,0,0,0,0,0,0,0,0,0,0,0,135,0,0,0,
120,121,0,0,0,0,0,0,0,119,120,120,0,0,0,0,
0,137,0,0,0,0,0,0,0,135,0,0,0,0,0,0,
0,0,120,121,0,0,0,119,120,0,0,0,0,0,0,0,
0,0,0,137,0,0,0,135,0,0,0,0,0,0,0,0,
0,0,0,137,0,0,0,135,0,0,0,0,0,0,0,0,
0,0,0,0,120,120,120,0,0,0,0,0,0,0,0,0,
0,0,0,0,0,0,0,0,0,0,0,0,0,0,0,0,
0,0,0,0,0,0,0,0,0,0,0,0,0,0,0,0,
0,0,0,0,0,0,0,0,0,0,0,0,0,0,0,0,
0,0,0,0,0,0,0,0,0,0,0,0,0,0,0,0,
0,0,0,0,0,0,0,0,0,0,0,0,0,0,0,0,
0,0,0,0,0,0,0,0,0,0,0,0,0,0,0,0,
0,0,0,0,0,0,0,0,0,0,0,0,0,0,0,0,
0,0,0,0,0,0,0,0,0,0,0,0,0,0,0,0,
0,0,0,0,0,0,0,0,0,0,0,0,0,0,0,0
</chunk>
  </data>
 </layer>
 <layer id="6" name="FloorShadow" width="30" height="20">
  <data encoding="csv">
   <chunk x="32" y="-64" width="16" height="16">
0,0,0,0,0,0,0,0,0,0,0,0,0,0,0,0,
0,0,0,0,0,0,0,0,0,0,0,0,0,0,0,0,
0,0,0,0,0,0,0,0,0,0,0,0,0,0,0,0,
0,0,0,0,0,0,0,0,0,0,0,0,0,0,0,318,
0,0,0,0,0,0,0,0,0,0,0,0,0,0,0,0,
0,0,0,0,0,0,0,0,0,0,0,0,0,0,0,0,
0,0,0,0,0,0,0,0,0,0,0,0,0,0,0,0,
0,0,0,0,0,0,0,0,0,0,0,0,0,0,0,0,
0,0,0,0,0,0,0,0,0,0,0,0,0,0,0,0,
0,0,0,0,0,0,0,0,0,0,0,0,0,0,0,0,
0,0,0,0,0,0,0,0,0,0,0,0,0,0,0,0,
0,0,0,0,0,0,0,0,0,0,0,0,0,0,0,0,
0,0,0,0,0,0,0,0,0,0,0,0,0,0,0,0,
0,0,0,0,0,0,0,0,0,0,0,0,0,0,0,0,
0,0,0,0,0,0,0,0,0,0,0,0,0,0,0,0,
0,0,0,0,0,0,0,0,0,0,0,0,0,0,0,0
</chunk>
   <chunk x="48" y="-64" width="16" height="16">
0,0,0,0,0,0,0,0,0,0,0,0,0,0,0,0,
0,0,0,0,0,0,0,0,0,0,0,0,0,0,0,0,
0,0,0,0,0,0,0,0,0,0,0,0,0,0,0,0,
318,318,0,0,0,0,0,0,0,0,0,0,0,0,0,0,
0,0,0,0,0,0,0,0,0,0,0,0,0,0,0,0,
0,0,0,0,0,0,0,0,0,0,0,0,0,0,0,0,
0,0,0,0,0,0,0,0,0,0,0,0,0,0,0,0,
0,0,0,0,0,0,0,0,0,0,0,0,0,0,0,0,
0,0,0,0,0,0,0,0,0,0,0,0,0,0,0,0,
0,0,0,0,0,0,0,0,0,0,0,0,0,0,0,0,
0,0,0,0,0,0,0,0,0,0,0,0,0,0,0,0,
0,0,0,0,0,0,0,0,0,0,0,0,0,0,0,0,
0,0,0,0,0,0,0,0,0,0,0,0,0,0,0,0,
0,0,0,0,0,0,0,0,0,0,0,0,0,0,0,0,
0,0,0,0,0,0,0,0,0,0,0,0,0,0,0,0,
0,0,0,0,0,0,0,0,0,0,0,0,0,0,0,0
</chunk>
   <chunk x="16" y="-16" width="16" height="16">
0,0,0,0,0,0,0,0,0,0,0,0,0,0,0,0,
0,0,0,0,0,0,0,0,0,0,0,0,0,0,0,0,
0,0,0,0,0,0,0,0,0,0,0,0,0,0,0,0,
0,0,0,0,0,0,0,0,0,0,0,0,0,0,0,0,
0,0,0,0,0,0,0,0,0,0,0,0,0,2684354878,0,0,
0,0,0,0,0,0,0,0,0,0,0,0,0,2684354878,0,0,
0,0,0,0,0,0,0,0,0,0,0,0,0,0,0,0,
0,0,0,0,0,0,0,0,0,0,0,0,0,0,0,0,
0,0,0,0,0,0,0,0,0,0,0,0,0,0,0,0,
0,0,0,0,0,0,0,0,0,0,0,0,0,0,0,0,
0,0,0,0,0,0,0,0,0,0,0,0,0,0,0,0,
0,0,0,0,0,0,0,0,0,0,0,0,0,0,0,0,
0,0,0,0,0,0,0,0,0,0,0,0,0,0,0,0,
0,0,0,0,0,0,0,0,0,0,0,0,0,0,0,0,
0,0,0,0,0,0,0,0,0,0,0,0,0,0,0,0,
0,0,0,0,0,0,0,0,0,0,0,0,0,0,0,0
</chunk>
   <chunk x="16" y="0" width="16" height="16">
0,0,0,0,0,0,0,0,0,0,0,0,0,0,0,0,
0,0,0,0,0,0,0,0,0,0,0,0,0,0,0,0,
0,0,0,0,0,0,0,0,0,0,0,0,0,0,0,0,
0,0,0,0,0,0,0,0,0,0,0,0,0,0,0,0,
0,0,0,0,0,0,0,0,0,0,0,0,0,0,0,318,
0,0,0,0,0,0,0,0,0,0,0,0,0,0,0,0,
0,0,0,0,0,0,0,0,0,0,0,0,0,0,0,0,
0,0,0,0,0,0,0,0,0,0,0,0,0,0,0,0,
0,0,0,0,0,0,0,0,0,0,0,0,0,0,0,0,
0,0,0,0,0,0,0,0,0,0,0,0,0,0,0,0,
0,0,0,0,0,0,0,0,0,0,0,0,0,0,0,0,
0,0,0,0,0,0,0,0,0,0,0,0,0,0,0,0,
0,0,0,0,0,0,0,0,0,0,0,0,0,0,0,0,
0,0,0,0,0,0,0,0,0,0,0,0,0,0,0,0,
0,0,0,0,0,0,0,0,0,0,0,0,0,0,0,0,
0,0,0,0,0,0,0,0,0,0,0,0,0,0,0,0
</chunk>
  </data>
 </layer>
 <layer id="2" name="Wall" width="30" height="20">
  <data encoding="csv">
   <chunk x="32" y="-48" width="16" height="16">
0,0,0,0,0,0,0,0,0,0,0,0,0,0,0,0,
0,0,0,0,0,0,0,0,0,0,0,0,0,0,0,0,
0,0,0,0,0,0,0,0,0,0,0,0,0,0,0,0,
0,0,0,0,0,0,0,0,0,0,0,0,0,0,0,49,
0,0,0,0,0,0,0,0,0,0,0,0,0,0,0,49,
0,0,0,0,0,0,0,0,0,0,0,0,0,0,0,81,
0,0,0,0,0,0,0,0,0,0,0,0,0,0,0,0,
0,0,0,0,0,0,0,0,0,0,0,0,0,0,0,0,
0,0,0,0,0,0,0,0,0,0,0,0,0,0,0,0,
0,0,0,0,0,0,0,0,0,0,0,0,0,0,0,0,
0,0,0,0,0,0,0,0,0,0,0,0,0,0,0,0,
0,0,0,0,0,0,0,0,0,0,0,0,0,0,0,0,
0,0,0,0,0,0,0,0,0,0,0,0,0,0,0,0,
0,0,0,0,0,0,0,0,0,0,0,0,0,0,0,0,
0,0,0,0,0,0,0,0,0,0,0,0,0,0,0,0,
0,0,0,0,0,0,0,0,0,0,0,0,0,0,0,0
</chunk>
   <chunk x="48" y="-48" width="16" height="16">
0,0,0,0,0,0,0,0,0,0,0,0,0,0,0,0,
0,0,0,0,0,0,0,0,0,0,0,0,0,0,0,0,
0,0,0,0,0,0,0,0,0,0,0,0,0,0,0,0,
49,49,0,0,0,0,0,0,0,0,0,0,0,0,0,0,
49,49,0,0,0,0,0,0,0,0,0,0,0,0,0,0,
81,81,0,0,0,0,0,0,0,0,0,0,0,0,0,0,
0,0,0,0,0,0,0,0,0,0,0,0,0,0,0,0,
0,0,0,0,0,0,0,0,0,0,0,0,0,0,0,0,
0,0,0,0,0,0,0,0,0,0,0,0,0,0,0,0,
0,49,49,49,49,50,49,49,49,0,0,0,0,0,0,0,
0,49,51,49,66,49,67,49,49,0,0,0,0,0,0,0,
0,81,83,81,81,81,81,54,53,0,0,0,0,0,0,0,
0,0,0,0,0,0,0,0,0,0,0,0,0,0,0,0,
0,0,0,0,0,0,0,0,0,0,0,0,0,0,0,0,
0,0,0,0,0,0,0,0,0,0,0,0,0,0,0,0,
0,0,0,0,0,0,0,0,0,0,0,0,0,0,0,0
</chunk>
   <chunk x="32" y="-32" width="16" height="16">
0,0,0,0,0,0,0,0,0,0,0,0,0,0,0,0,
0,0,0,0,0,0,0,0,0,0,0,0,0,0,0,0,
0,0,0,0,0,0,0,0,0,0,0,0,0,0,0,0,
0,0,0,0,0,0,0,0,0,0,0,0,0,0,0,0,
0,0,0,0,0,0,0,0,0,0,0,0,0,0,0,0,
0,0,0,0,0,0,0,0,0,0,0,0,0,0,0,0,
0,0,0,0,0,0,0,0,0,0,0,0,0,0,0,0,
0,0,0,0,0,0,0,0,0,0,0,0,0,0,0,0,
0,0,0,0,0,0,0,0,0,0,0,0,0,0,0,0,
0,0,0,0,0,0,0,0,0,0,0,0,0,0,0,0,
0,0,0,0,0,0,0,0,0,0,0,0,0,0,0,0,
0,0,0,0,0,0,0,0,0,0,0,0,0,0,0,0,
0,0,0,0,0,0,0,0,0,0,0,0,0,0,0,0,
0,0,0,0,0,0,0,0,0,0,0,0,0,0,65,49,
0,0,0,0,0,0,0,0,0,0,0,0,0,0,49,49,
0,0,0,0,0,0,0,0,0,0,0,0,0,0,81,81
</chunk>
   <chunk x="48" y="-32" width="16" height="16">
0,0,0,0,0,0,0,0,0,0,0,0,0,0,0,0,
0,0,0,0,0,0,0,0,0,0,0,0,0,0,0,0,
0,0,0,0,0,0,0,0,0,0,0,0,0,0,51,49,
0,0,0,0,0,0,0,0,0,0,0,0,0,0,49,49,
0,0,0,0,0,0,0,0,0,0,0,0,49,49,81,83,
0,0,0,0,0,0,0,0,0,0,0,0,49,49,0,0,
0,0,0,0,0,0,0,0,0,0,0,0,81,81,0,0,
0,0,0,0,0,0,0,0,0,0,0,0,0,0,0,0,
0,0,0,0,0,0,0,0,0,0,0,0,0,0,0,0,
0,0,0,0,0,0,0,0,0,0,0,0,0,0,0,0,
0,0,0,0,0,0,0,0,0,0,0,0,0,0,0,0,
0,0,0,0,0,0,0,0,0,0,0,0,0,0,0,0,
0,0,0,0,0,0,0,0,0,0,0,0,0,0,0,0,
49,0,0,0,0,0,0,0,0,0,0,0,0,0,0,0,
66,0,0,0,0,0,0,0,0,0,0,0,0,0,0,0,
81,0,0,0,0,0,0,0,0,0,0,0,0,0,0,0
</chunk>
   <chunk x="64" y="-32" width="16" height="16">
0,0,0,0,0,0,0,0,0,0,0,0,0,0,0,0,
0,0,0,0,0,0,0,0,0,0,0,0,0,0,0,0,
49,0,0,0,0,0,0,0,0,0,0,0,0,0,0,0,
49,0,0,0,0,0,0,0,0,0,0,0,0,0,0,0,
81,0,0,0,0,0,0,0,0,0,0,0,0,0,0,0,
0,0,0,0,0,0,0,0,0,0,0,0,0,0,0,0,
0,0,0,0,0,0,0,0,0,0,0,0,0,0,0,0,
0,0,0,0,0,0,0,0,0,0,0,0,0,0,0,0,
0,0,0,0,0,0,0,0,0,0,0,0,0,0,0,0,
0,0,0,0,0,0,0,0,0,0,0,0,0,0,0,0,
0,0,0,0,0,0,0,0,0,0,0,0,0,0,0,0,
0,0,0,0,0,0,0,0,0,0,0,0,0,0,0,0,
0,0,0,0,0,0,0,0,0,0,0,0,0,0,0,0,
0,0,0,0,0,0,0,0,0,0,0,0,0,0,0,0,
0,0,0,0,0,0,0,0,0,0,0,0,0,0,0,0,
0,0,0,0,0,0,0,0,0,0,0,0,0,0,0,0
</chunk>
   <chunk x="16" y="-16" width="16" height="16">
0,0,0,0,0,0,0,0,49,49,49,49,49,0,0,0,
0,0,0,0,0,0,0,0,49,49,49,49,49,0,0,0,
0,0,0,0,0,0,0,0,81,81,81,81,81,0,0,0,
0,0,0,0,0,0,0,0,0,0,0,0,0,0,0,0,
0,0,0,0,0,0,0,0,0,0,0,0,0,0,0,0,
0,0,0,0,0,0,0,0,0,0,0,0,0,0,0,0,
0,0,0,0,0,0,0,0,0,0,0,0,0,0,0,0,
0,0,0,0,0,0,0,0,0,0,0,0,0,0,0,0,
0,0,0,0,0,0,0,0,0,0,0,0,0,0,0,0,
0,0,0,0,0,0,0,0,0,0,0,0,0,0,0,0,
0,0,0,0,0,0,0,0,0,0,0,0,0,0,0,0,
0,0,0,0,0,0,0,0,0,0,0,0,0,0,0,0,
0,0,0,0,0,0,0,0,0,0,0,0,0,0,0,0,
0,0,0,0,0,0,0,0,0,0,0,0,0,0,0,0,
0,0,0,0,0,0,0,0,0,0,0,0,0,0,0,0,
0,0,0,0,0,0,0,0,0,0,0,0,0,0,0,0
</chunk>
   <chunk x="32" y="-16" width="16" height="16">
0,0,0,0,0,0,0,0,0,0,0,0,0,0,0,0,
0,0,0,0,0,0,0,0,0,0,0,0,51,49,0,0,
0,0,0,0,0,0,0,0,0,0,0,49,67,49,0,0,
0,0,0,0,0,0,0,0,0,0,0,82,83,81,0,0,
0,0,0,0,0,0,0,0,0,0,0,0,0,0,0,0,
0,0,0,0,0,0,0,0,0,0,0,0,0,0,0,0,
0,0,0,0,0,0,0,0,0,0,0,0,0,0,0,0,
0,0,0,0,0,0,0,0,0,0,0,0,0,0,0,0,
0,0,0,0,0,0,0,0,0,0,0,0,0,0,0,0,
0,0,0,0,0,0,0,0,0,0,0,0,0,0,0,0,
0,0,0,0,0,0,0,0,0,49,0,0,49,0,0,0,
0,0,0,0,0,0,0,49,49,49,0,0,49,49,0,0,
0,0,0,0,0,0,0,50,49,81,0,0,81,67,0,0,
0,0,0,0,0,0,0,81,81,0,0,0,0,81,0,0,
0,0,0,0,0,0,0,0,0,0,0,0,0,0,0,0,
0,0,0,0,0,0,0,0,0,0,0,0,0,0,0,0
</chunk>
   <chunk x="48" y="-16" width="16" height="16">
0,0,0,0,0,0,0,0,0,0,0,0,0,0,0,0,
0,49,49,0,0,0,0,0,0,0,0,0,0,0,0,0,
0,65,49,0,0,0,0,0,0,0,0,0,0,0,0,0,
0,81,81,0,0,0,0,0,0,0,0,0,0,0,0,0,
0,0,0,0,0,0,0,0,0,0,0,0,0,0,0,0,
0,0,0,0,0,0,0,0,0,0,0,0,0,0,0,0,
0,0,0,0,0,0,0,0,0,0,0,0,0,0,0,0,
0,0,0,0,0,0,0,0,0,0,0,0,0,0,0,0,
0,0,0,0,0,0,0,0,0,0,0,0,0,0,0,0,
0,0,0,0,0,0,0,0,0,0,0,0,0,0,0,0,
0,0,0,0,0,0,0,0,0,0,0,0,0,0,0,0,
0,0,0,0,0,0,0,0,0,0,0,0,0,0,0,0,
0,0,0,0,0,0,0,0,0,0,0,0,0,0,0,0,
0,0,0,0,0,0,0,0,0,0,0,0,0,0,0,0,
0,0,0,0,0,0,0,0,0,0,0,0,0,0,0,0,
0,0,0,0,0,0,0,0,0,0,0,0,0,0,0,0
</chunk>
   <chunk x="32" y="0" width="16" height="16">
0,0,0,0,0,0,0,0,0,0,0,0,0,0,0,0,
0,0,0,0,0,0,0,0,0,0,0,0,0,0,0,0,
0,0,0,0,0,0,0,0,0,0,0,0,0,0,0,0,
0,49,49,49,49,49,49,49,49,49,0,0,49,49,0,0,
0,49,49,49,49,49,49,49,49,49,0,0,49,49,0,0,
0,81,81,81,81,81,81,81,83,81,0,0,81,81,0,0,
0,0,0,0,0,0,0,0,0,0,0,0,0,0,0,0,
0,0,0,0,0,0,0,0,0,0,0,0,0,0,0,0,
0,0,0,0,0,0,0,0,0,0,0,0,0,0,0,0,
0,0,0,0,0,0,0,0,0,0,0,0,0,0,0,0,
0,0,0,0,0,0,0,0,0,0,0,0,0,0,0,0,
0,0,0,0,0,0,0,0,0,0,0,0,0,0,0,0,
0,0,0,0,0,0,0,0,0,0,0,0,0,0,0,0,
0,0,0,0,0,0,0,0,0,0,0,0,0,0,0,0,
0,0,0,0,0,0,0,0,0,0,0,0,0,0,0,0,
0,0,0,0,0,0,0,0,0,0,0,0,0,0,0,0
</chunk>
  </data>
 </layer>
 <layer id="7" name="WallShadow" width="30" height="20">
  <data encoding="csv">
   <chunk x="48" y="-48" width="16" height="16">
0,0,0,0,0,0,0,0,0,0,0,0,0,0,0,0,
0,0,0,0,0,0,0,0,0,0,0,0,0,318,318,318,
0,0,0,0,0,0,0,0,0,0,0,0,0,0,0,0,
0,0,0,0,0,0,0,0,0,0,0,0,0,0,0,0,
0,0,0,0,0,0,0,0,0,0,0,0,0,0,0,0,
0,0,0,0,0,0,0,0,0,0,0,0,0,0,0,0,
0,0,0,0,0,0,0,0,0,0,0,0,0,0,0,0,
0,0,0,0,0,0,0,0,0,0,0,0,0,0,0,0,
0,0,0,0,0,0,0,0,0,0,0,0,0,0,0,0,
0,0,0,0,0,0,0,0,0,0,0,0,0,0,0,0,
0,0,0,0,0,0,0,0,0,0,0,0,0,0,0,0,
0,0,0,0,0,0,0,0,0,0,0,0,0,0,0,0,
0,0,0,0,0,0,0,0,0,0,0,0,0,0,0,0,
0,0,0,0,0,0,0,0,0,0,0,0,0,0,0,0,
0,0,0,0,0,0,0,0,0,0,0,0,0,0,0,0,
0,0,0,0,0,0,0,0,0,0,0,0,0,0,0,0
</chunk>
   <chunk x="48" y="-32" width="16" height="16">
0,0,0,0,0,0,0,0,0,0,0,0,0,0,0,0,
0,0,0,0,0,0,0,0,0,0,0,0,0,0,0,0,
0,0,0,0,0,0,0,0,0,0,0,0,0,0,0,0,
0,0,0,0,0,0,0,0,0,0,0,0,0,0,0,0,
0,0,0,0,0,0,0,0,0,0,0,0,1610613054,0,0,0,
0,0,0,0,0,0,0,0,0,0,0,0,1610613054,0,0,0,
0,0,0,0,0,0,0,0,0,0,0,0,1610613054,0,0,0,
0,0,0,0,0,0,0,0,0,0,0,0,0,0,0,0,
0,0,0,0,0,0,0,0,0,0,0,0,0,0,0,0,
0,0,0,0,0,0,0,0,0,0,0,0,0,0,0,0,
0,0,0,0,0,0,0,0,0,0,0,0,0,0,0,0,
0,0,0,0,0,0,0,0,0,0,0,0,0,0,0,0,
0,0,0,0,0,0,0,0,0,0,0,0,0,0,0,0,
0,0,0,0,0,0,0,0,0,0,0,0,0,0,0,0,
0,0,0,0,0,0,0,0,0,0,0,0,0,0,0,0,
0,0,0,0,0,0,0,0,0,0,0,0,0,0,0,0
</chunk>
   <chunk x="16" y="-16" width="16" height="16">
0,0,0,0,0,0,0,0,536871230,0,0,0,2684354878,0,0,0,
0,0,0,0,0,0,0,0,536871230,0,0,0,2684354878,0,0,0,
0,0,0,0,0,0,0,0,536871230,0,0,0,2684354878,0,0,0,
0,0,0,0,0,0,0,0,0,0,0,0,0,0,0,0,
0,0,0,0,0,0,0,0,0,0,0,0,0,0,0,0,
0,0,0,0,0,0,0,0,0,0,0,0,0,0,0,0,
0,0,0,0,0,0,0,0,0,0,0,0,0,0,0,0,
0,0,0,0,0,0,0,0,0,0,0,0,0,0,0,0,
0,0,0,0,0,0,0,0,0,0,0,0,0,0,0,0,
0,0,0,0,0,0,0,0,0,0,0,0,0,0,0,0,
0,0,0,0,0,0,0,0,0,0,0,0,0,0,0,0,
0,0,0,0,0,0,0,0,0,0,0,0,0,0,0,0,
0,0,0,0,0,0,0,0,0,0,0,0,0,0,0,0,
0,0,0,0,0,0,0,0,0,0,0,0,0,0,0,0,
0,0,0,0,0,0,0,0,0,0,0,0,0,0,0,0,
0,0,0,0,0,0,0,0,0,0,0,0,0,0,0,0
</chunk>
   <chunk x="48" y="-16" width="16" height="16">
0,0,0,0,0,0,0,0,0,0,0,0,0,0,0,0,
0,0,3758096702,0,0,0,0,0,0,0,0,0,0,0,0,0,
0,0,3758096702,0,0,0,0,0,0,0,0,0,0,0,0,0,
0,0,3758096702,0,0,0,0,0,0,0,0,0,0,0,0,0,
0,0,0,0,0,0,0,0,0,0,0,0,0,0,0,0,
0,0,0,0,0,0,0,0,0,0,0,0,0,0,0,0,
0,0,0,0,0,0,0,0,0,0,0,0,0,0,0,0,
0,0,0,0,0,0,0,0,0,0,0,0,0,0,0,0,
0,0,0,0,0,0,0,0,0,0,0,0,0,0,0,0,
0,0,0,0,0,0,0,0,0,0,0,0,0,0,0,0,
0,0,0,0,0,0,0,0,0,0,0,0,0,0,0,0,
0,0,0,0,0,0,0,0,0,0,0,0,0,0,0,0,
0,0,0,0,0,0,0,0,0,0,0,0,0,0,0,0,
0,0,0,0,0,0,0,0,0,0,0,0,0,0,0,0,
0,0,0,0,0,0,0,0,0,0,0,0,0,0,0,0,
0,0,0,0,0,0,0,0,0,0,0,0,0,0,0,0
</chunk>
   <chunk x="32" y="0" width="16" height="16">
0,0,0,0,0,0,0,0,0,0,0,0,0,0,0,0,
0,0,0,0,0,0,0,0,0,0,0,0,0,0,0,0,
0,0,0,0,0,0,0,0,0,0,0,0,0,0,0,0,
0,536871230,0,0,0,0,0,0,0,0,0,0,0,2684354878,0,0,
0,536871230,0,0,0,0,0,0,0,0,0,0,0,2684354878,0,0,
0,536871230,0,0,0,0,0,0,0,0,0,0,0,2684354878,0,0,
0,0,0,0,0,0,0,0,0,0,0,0,0,0,0,0,
0,0,0,0,0,0,0,0,0,0,0,0,0,0,0,0,
0,0,0,0,0,0,0,0,0,0,0,0,0,0,0,0,
0,0,0,0,0,0,0,0,0,0,0,0,0,0,0,0,
0,0,0,0,0,0,0,0,0,0,0,0,0,0,0,0,
0,0,0,0,0,0,0,0,0,0,0,0,0,0,0,0,
0,0,0,0,0,0,0,0,0,0,0,0,0,0,0,0,
0,0,0,0,0,0,0,0,0,0,0,0,0,0,0,0,
0,0,0,0,0,0,0,0,0,0,0,0,0,0,0,0,
0,0,0,0,0,0,0,0,0,0,0,0,0,0,0,0
</chunk>
  </data>
 </layer>
 <layer id="12" name="Spikes" width="30" height="20">
  <properties>
   <property name="damageable" type="int" value="0"/>
  </properties>
  <data encoding="csv">
   <chunk x="16" y="-16" width="16" height="16">
0,0,0,0,0,0,0,0,0,0,0,0,0,0,0,0,
0,0,0,0,0,0,0,0,0,0,0,0,0,0,0,0,
0,0,0,0,0,0,0,0,0,0,0,0,0,0,0,0,
0,0,0,0,0,0,0,0,0,0,0,0,0,0,0,0,
0,0,0,0,0,0,0,0,0,0,0,0,0,0,0,0,
0,0,0,0,0,0,0,0,0,0,0,0,0,0,0,0,
0,0,0,0,0,0,0,0,0,0,0,0,0,0,0,0,
0,0,0,0,0,0,0,0,0,0,0,0,0,0,0,0,
0,0,0,0,0,0,0,0,0,0,257,257,0,0,0,0,
0,0,0,0,0,0,0,0,0,0,0,0,0,0,0,0,
0,0,0,0,0,0,0,0,0,0,0,0,257,0,0,0,
0,0,0,0,0,0,0,0,0,0,0,0,0,0,0,0,
0,0,0,0,0,0,0,0,0,257,0,0,0,0,0,0,
0,0,0,0,0,0,0,0,0,0,0,257,0,0,0,0,
0,0,0,0,0,0,0,0,0,0,0,0,0,0,0,0,
0,0,0,0,0,0,0,0,0,0,0,0,0,0,0,0
</chunk>
   <chunk x="48" y="-16" width="16" height="16">
0,0,0,0,0,0,0,0,0,0,0,0,0,0,0,0,
0,0,0,0,0,0,0,0,0,0,0,0,0,0,0,0,
0,0,0,0,0,0,0,0,0,0,0,0,0,0,0,0,
0,0,0,0,0,0,0,0,0,257,0,0,0,0,0,0,
0,0,0,0,0,0,0,0,0,0,0,0,0,0,0,0,
0,0,0,0,0,0,0,0,0,0,0,257,0,0,0,0,
0,0,0,0,0,0,0,0,0,257,0,0,0,0,0,0,
0,0,0,0,0,0,0,0,257,0,0,0,0,0,0,0,
0,0,0,0,0,0,0,0,0,0,0,0,0,0,0,0,
0,0,0,0,0,0,0,0,0,0,0,0,0,0,0,0,
0,0,0,0,0,0,0,0,0,0,0,0,0,0,0,0,
0,0,0,0,0,0,0,0,0,0,0,0,0,0,0,0,
0,0,0,0,0,0,0,0,0,0,0,0,0,0,0,0,
0,0,0,0,0,0,0,0,0,0,0,0,0,0,0,0,
0,0,0,0,0,0,0,0,0,0,0,0,0,0,0,0,
0,0,0,0,0,0,0,0,0,0,0,0,0,0,0,0
</chunk>
   <chunk x="0" y="0" width="16" height="16">
0,0,0,0,0,0,0,0,0,0,0,0,0,0,0,0,
0,0,0,0,0,0,0,0,0,0,0,0,0,0,0,0,
0,0,0,0,0,0,0,0,0,0,0,0,0,0,0,0,
0,0,0,0,0,0,0,0,0,0,0,0,0,0,0,0,
0,0,0,0,0,0,0,0,0,0,0,0,0,0,257,257,
0,0,0,0,0,0,0,0,0,257,0,0,0,0,0,0,
0,0,0,0,0,0,0,0,0,0,0,0,0,0,0,0,
0,0,0,0,0,0,0,0,0,0,0,0,0,0,0,0,
0,0,0,0,0,0,0,0,0,0,0,0,0,0,0,0,
0,0,0,0,0,0,0,0,0,0,0,0,0,0,0,0,
0,0,0,0,0,0,0,0,0,0,0,0,0,0,0,0,
0,0,0,0,0,0,0,0,0,0,0,0,0,0,0,0,
0,0,0,0,0,0,0,0,0,0,0,0,0,0,0,0,
0,0,0,0,0,0,0,0,0,0,0,0,0,0,0,0,
0,0,0,0,0,0,0,0,0,0,0,0,0,0,0,0,
0,0,0,0,0,0,0,0,0,0,0,0,0,0,0,0
</chunk>
   <chunk x="16" y="0" width="16" height="16">
0,0,0,0,0,0,0,0,0,257,0,0,257,0,0,0,
0,0,0,0,0,0,0,0,0,0,0,0,0,0,0,0,
0,0,0,0,0,0,0,0,0,0,0,0,0,0,0,0,
0,0,0,0,0,0,0,0,257,0,0,0,0,0,0,0,
2147483917,0,0,0,0,0,0,0,257,0,0,257,0,0,0,0,
2147483929,0,0,265,257,0,0,0,257,0,0,257,0,0,0,0,
0,0,0,269,257,0,0,0,0,0,0,257,0,0,0,0,
0,0,0,0,0,0,0,0,257,0,0,0,0,0,0,0,
0,0,0,0,0,0,0,0,257,0,0,257,0,0,0,0,
0,0,0,0,0,0,0,0,0,0,0,257,0,0,0,0,
0,0,0,0,0,0,0,0,0,0,0,0,0,0,0,0,
0,0,0,0,0,0,0,0,0,0,0,0,0,0,0,0,
0,0,0,0,0,0,0,0,0,0,0,0,0,0,0,0,
0,0,0,0,0,0,0,0,0,0,0,0,0,0,0,0,
0,0,0,0,0,0,0,0,0,0,0,0,0,0,0,0,
0,0,0,0,0,0,0,0,0,0,0,0,0,0,0,0
</chunk>
   <chunk x="32" y="0" width="16" height="16">
0,0,0,0,0,0,0,0,0,0,0,0,0,0,0,0,
0,0,0,0,0,0,0,0,0,0,0,0,0,0,0,0,
0,0,0,0,0,0,0,0,0,0,0,0,0,0,0,0,
0,0,0,0,0,0,0,0,0,0,0,0,0,0,0,0,
0,0,0,0,0,0,0,0,0,0,0,0,0,0,0,0,
0,0,0,0,0,0,0,0,0,0,0,0,0,0,0,0,
0,0,0,0,0,0,0,0,0,0,0,0,0,0,0,0,
0,265,2147483913,0,0,0,0,0,265,2147483913,0,0,0,0,0,0,
0,0,0,2147483913,0,0,0,265,0,0,0,0,0,0,0,0,
0,0,0,0,2147483913,0,265,0,0,0,0,0,0,0,0,0,
0,0,0,0,0,0,0,0,0,0,0,0,0,0,0,0,
0,0,0,0,0,0,0,0,0,0,0,0,0,0,0,0,
0,0,257,2147483929,0,0,0,281,257,0,0,0,0,0,0,0,
0,0,2147483929,0,0,0,0,0,281,0,0,0,0,0,0,0,
0,0,0,0,0,0,0,0,0,0,0,0,0,0,0,0,
0,0,0,0,0,0,0,0,0,0,0,0,0,0,0,0
</chunk>
   <chunk x="32" y="16" width="16" height="16">
0,0,0,0,0,0,0,0,0,0,0,0,0,0,0,0,
0,0,2147483913,0,0,0,0,0,265,0,0,0,0,0,0,0,
0,0,257,2147483913,0,0,0,265,257,0,0,0,0,0,0,0,
0,0,0,0,0,0,0,0,0,0,0,0,0,0,0,0,
0,0,0,0,0,0,0,0,0,0,0,0,0,0,0,0,
0,0,0,0,0,0,0,0,0,0,0,0,0,0,0,0,
0,0,0,0,0,0,0,0,0,0,0,0,0,0,0,0,
0,0,0,0,0,0,0,0,0,0,0,0,0,0,0,0,
0,0,0,0,0,0,0,0,0,0,0,0,0,0,0,0,
0,0,0,0,0,0,0,0,0,0,0,0,0,0,0,0,
0,0,0,0,0,0,0,0,0,0,0,0,0,0,0,0,
0,0,0,0,0,0,0,0,0,0,0,0,0,0,0,0,
0,0,0,0,0,0,0,0,0,0,0,0,0,0,0,0,
0,0,0,0,0,0,0,0,0,0,0,0,0,0,0,0,
0,0,0,0,0,0,0,0,0,0,0,0,0,0,0,0,
0,0,0,0,0,0,0,0,0,0,0,0,0,0,0,0
</chunk>
  </data>
 </layer>
 <layer id="13" name="MovingSpikes" width="30" height="20">
  <data encoding="csv">
   <chunk x="16" y="-16" width="16" height="16">
0,0,0,0,0,0,0,0,0,0,0,0,0,0,0,0,
0,0,0,0,0,0,0,0,0,0,0,0,0,0,0,0,
0,0,0,0,0,0,0,0,0,0,0,0,0,0,0,0,
0,0,0,0,0,0,0,0,0,0,0,0,0,0,0,0,
0,0,0,0,0,0,0,0,0,0,0,0,0,0,0,0,
0,0,0,0,0,0,0,0,0,0,0,0,0,0,0,0,
0,0,0,0,0,0,0,0,0,0,0,0,0,0,0,0,
0,0,0,0,0,0,0,0,0,0,0,0,0,0,0,0,
0,0,0,0,0,0,0,0,0,0,0,0,258,0,0,0,
0,0,0,0,0,0,0,0,0,0,258,258,258,0,0,0,
0,0,0,0,0,0,0,0,0,258,258,258,0,0,0,0,
0,0,0,0,0,0,0,0,0,258,258,258,258,0,0,0,
0,0,0,0,0,0,0,0,0,0,0,0,258,0,0,0,
0,0,0,0,0,0,0,0,0,258,258,0,258,0,0,0,
0,0,0,0,0,0,0,0,0,258,257,258,0,0,0,0,
0,0,0,0,0,0,0,0,0,258,258,258,0,0,0,0
</chunk>
   <chunk x="48" y="-16" width="16" height="16">
0,0,0,0,0,0,0,0,0,0,0,0,0,0,0,0,
0,0,0,0,0,0,0,0,0,0,0,0,0,0,0,0,
0,0,0,0,0,0,0,0,0,0,0,0,0,0,0,0,
0,0,0,0,0,0,0,0,0,0,0,0,0,0,0,0,
0,0,0,0,0,0,0,0,0,0,0,0,0,0,0,0,
0,0,0,0,0,0,0,0,0,0,262,0,0,0,0,0,
0,0,0,0,0,0,0,0,0,0,0,0,0,0,0,0,
0,0,0,0,0,0,0,0,0,0,0,0,0,0,0,0,
0,0,0,0,0,0,0,0,0,0,0,0,0,0,0,0,
0,0,0,0,0,0,0,0,0,0,0,0,0,0,0,0,
0,0,0,0,0,0,0,0,0,0,0,0,0,0,0,0,
0,0,0,0,0,0,0,0,0,0,0,0,0,0,0,0,
0,0,0,0,0,0,0,0,0,0,0,0,0,0,0,0,
0,0,0,0,0,0,0,0,0,0,0,0,0,0,0,0,
0,0,0,0,0,0,0,0,0,0,0,0,0,0,0,0,
0,0,0,0,0,0,0,0,0,0,0,0,0,0,0,0
</chunk>
   <chunk x="16" y="0" width="16" height="16">
0,0,0,0,0,0,0,0,0,0,258,258,0,0,0,0,
0,0,0,0,0,0,0,0,0,0,0,0,0,0,0,0,
0,0,0,0,0,0,0,0,0,0,0,0,0,0,0,0,
0,0,0,0,0,0,0,0,0,0,0,0,0,0,0,0,
0,0,0,0,0,0,0,0,0,0,0,0,0,0,0,0,
0,0,0,0,0,0,0,0,0,0,0,0,0,0,0,0,
0,0,0,0,0,0,0,0,0,0,0,0,0,0,0,0,
0,0,0,0,0,0,0,0,0,0,0,0,0,0,0,0,
0,0,0,0,0,0,0,0,0,0,0,0,0,0,0,0,
0,0,0,0,0,0,0,0,0,0,0,0,0,0,0,0,
0,0,0,0,0,0,0,0,0,0,0,0,0,0,0,0,
0,0,0,0,0,0,0,0,0,0,0,0,0,0,0,0,
0,0,0,0,0,0,0,0,0,0,0,0,0,0,0,0,
0,0,0,0,0,0,0,0,0,0,0,0,0,0,0,0,
0,0,0,0,0,0,0,0,0,0,0,0,0,0,0,0,
0,0,0,0,0,0,0,0,0,0,0,0,0,0,0,0
</chunk>
  </data>
 </layer>
 <objectgroup id="10" name="ObjectsFloor">
  <object id="209" template="Bones2.tx" x="328.5" y="156.5"/>
  <object id="210" template="Bones3.tx" x="305.5" y="207.5"/>
  <object id="229" template="Bones4.tx" x="264" y="167.667"/>
  <object id="230" template="Bones1.tx" x="307.333" y="234.333"/>
  <object id="233" template="Bones1.tx" x="286" y="135.333"/>
  <object id="260" template="Bones1.tx" x="544" y="192"/>
  <object id="261" template="Bones4.tx" x="481.5" y="220"/>
  <object id="263" template="Bones3.tx" x="490.5" y="182"/>
  <object id="264" template="Bones5.tx" x="587" y="151"/>
  <object id="270" template="Bones2.tx" x="706" y="172.5"/>
  <object id="271" template="Bones4.tx" x="740.5" y="310.5"/>
  <object id="272" template="Bones6.tx" x="929" y="173"/>
  <object id="273" template="Bones4.tx" x="920.75" y="166"/>
  <object id="274" template="Bones1.tx" x="813" y="267"/>
  <object id="275" template="Bones3.tx" x="795" y="60"/>
  <object id="276" template="Bones2.tx" x="797" y="-239"/>
  <object id="323" template="Bones1.tx" x="1079.5" y="544"/>
  <object id="326" template="Bones2.tx" gid="2147484107" x="1151.5" y="692" rotation="0"/>
  <object id="327" template="Bones3.tx" x="1232" y="546"/>
  <object id="329" template="Bones3.tx" x="1324" y="502.5"/>
  <object id="331" template="Bones4.tx" gid="2147484109" x="1103" y="436" rotation="0"/>
  <object id="332" template="Bones4.tx" gid="2147484109" x="1316" y="513.5" rotation="0"/>
  <object id="333" template="Bones5.tx" x="1184" y="603"/>
  <object id="343" type="WoodenGeneralFivefingers" gid="514" x="1232" y="-32" width="96" height="96">
   <properties>
    <property name="Durability" type="int" value="2"/>
   </properties>
  </object>
  <object id="388" template="Bones2.tx" x="1259" y="259"/>
  <object id="389" template="Bones4.tx" x="1111" y="268.333"/>
  <object id="404" type="StoneThorns" gid="453" x="1888" y="-288" width="32" height="32">
   <properties>
    <property name="Durability" type="int" value="3"/>
   </properties>
  </object>
  <object id="439" template="Bones3.tx" x="1651.5" y="-356"/>
  <object id="440" template="Bones4.tx" x="1768.5" y="-266.5"/>
  <object id="441" template="Bones4.tx" x="1798.5" y="-628"/>
  <object id="442" template="Bones3.tx" x="1798.5" y="-637.5"/>
  <object id="443" template="Bones2.tx" x="1765.5" y="-769.5"/>
 </objectgroup>
 <layer id="18" name="SpikesOnWall" width="30" height="20">
  <data encoding="csv">
   <chunk x="32" y="0" width="16" height="16">
0,0,0,0,0,0,0,0,0,0,0,0,0,0,0,0,
0,0,0,0,0,0,0,0,0,0,0,0,0,0,0,0,
0,0,0,0,0,0,0,0,0,0,0,0,0,0,0,0,
0,0,0,24,0,24,0,24,0,0,0,0,0,0,0,0,
0,0,24,0,24,0,24,0,24,0,0,0,0,0,0,0,
0,0,0,26,26,26,26,26,0,0,0,0,0,0,0,0,
0,0,0,0,0,0,0,0,0,0,0,0,0,0,0,0,
0,0,0,0,0,0,0,0,0,0,0,0,0,0,0,0,
0,0,0,0,0,0,0,0,0,0,0,0,0,0,0,0,
0,0,0,0,0,0,0,0,0,0,0,0,0,0,0,0,
0,0,0,0,0,0,0,0,0,0,0,0,0,0,0,0,
0,0,0,0,0,0,0,0,0,0,0,0,0,0,0,0,
0,0,0,0,0,0,0,0,0,0,0,0,0,0,0,0,
0,0,0,0,0,0,0,0,0,0,0,0,0,0,0,0,
0,0,0,0,0,0,0,0,0,0,0,0,0,0,0,0,
0,0,0,0,0,0,0,0,0,0,0,0,0,0,0,0
</chunk>
  </data>
 </layer>
 <objectgroup id="9" name="Objects">
  <object id="1" template="Vase1.tx" x="768" y="224"/>
  <object id="2" template="Vase3.tx" gid="295" x="864" y="256" rotation="0"/>
  <object id="10" template="WoodenChestGold.tx" x="832" y="-384"/>
  <object id="12" template="LeverDungeonOFF.tx" type="LeverDungeonOFF" x="800" y="-448"/>
  <object id="13" template="WoodenTabletStand.tx" x="928" y="64"/>
  <object id="15" type="WoodenToilet" gid="342" x="1152" y="544" width="96" height="160">
   <properties>
    <property name="Durability" type="int" value="2"/>
   </properties>
  </object>
  <object id="17" template="SpikyLog.tx" x="1024" y="512"/>
  <object id="18" template="SpikyLog.tx" x="1344" y="512"/>
  <object id="19" template="SpikyLog.tx" x="1184" y="672"/>
  <object id="20" template="SpikyLog.tx" x="1184" y="256"/>
  <object id="41" template="WoodenChest.tx" x="1344" y="-32"/>
  <object id="42" template="WoodenBarrel.tx" x="1440" y="-32"/>
  <object id="43" template="WoodenBarrelClosed.tx" x="1728" y="-736"/>
  <object id="46" template="WoodenTabletStand.tx" x="1824" y="-416"/>
  <object id="47" template="WoodenBarrelGold.tx" x="2048" y="-704"/>
  <object id="49" template="CrossbowChargedDown.tx" gid="381" x="2016" y="-800" rotation="0"/>
  <object id="73" template="Stone1.tx" x="1504" y="-288"/>
  <object id="74" template="Stone3.tx" x="1632" y="-384"/>
  <object id="78" template="WoodPin1.tx" x="1824" y="-512"/>
  <object id="79" template="Stone1.tx" x="1728" y="-576"/>
  <object id="80" template="Stone1.tx" x="2016" y="-704"/>
  <object id="85" template="Stone2.tx" x="1984" y="-704"/>
  <object id="87" template="Stone1.tx" gid="2147484038" x="1984" y="-736" rotation="0"/>
  <object id="88" template="Stone3.tx" gid="392" x="2016" y="-736" rotation="0"/>
  <object id="90" template="WoodenBarrel.tx" x="1856" y="-384"/>
  <object id="91" template="WoodenBarrelClosed.tx" x="1888" y="-352"/>
  <object id="117" template="CrossbowChargedUp.tx" x="1440" y="-1248"/>
  <object id="135" template="WoodenBarrelGold.tx" x="1536" y="-1536"/>
  <object id="136" template="WoodenChest.tx" x="1536" y="-1792"/>
  <object id="137" template="WoodenBarrel.tx" x="1504" y="-1792"/>
  <object id="139" template="CrossbowChargedDown.tx" x="1568" y="-1568"/>
  <object id="140" template="WoodPin2.tx" x="1600" y="-1344"/>
  <object id="148" template="MovingTower.tx" type="MovingTower" x="1696" y="-1088"/>
  <object id="149" template="MovingTower.tx" x="1728" y="-1088"/>
  <object id="150" template="MovingTower.tx" x="1664" y="-1088"/>
  <object id="154" template="MovingTower.tx" x="1728" y="-768"/>
  <object id="155" template="MovingTower.tx" x="1728" y="-800"/>
  <object id="156" template="MovingTower.tx" type="MovingTower" x="1728" y="-832"/>
  <object id="157" template="MovingTower.tx" x="1824" y="-608"/>
  <object id="158" template="MovingTower.tx" x="1824" y="-640"/>
  <object id="159" template="MovingTower.tx" x="1824" y="-672"/>
  <object id="160" template="MovingTower.tx" type="MovingTower" x="1536" y="-1088"/>
  <object id="166" template="Vase2.tx" x="1472" y="-1312"/>
  <object id="167" type="WarningTabletFront" gid="442" x="256" y="96" width="96" height="96">
   <properties>
    <property name="Durability" type="int" value="2"/>
   </properties>
  </object>
  <object id="168" type="WarningTabletBack" gid="443" x="256" y="288" width="96" height="96">
   <properties>
    <property name="Durability" type="int" value="2"/>
   </properties>
  </object>
  <object id="171" type="WarningArrowFront" gid="444" x="192" y="128" width="64" height="96">
   <properties>
    <property name="Durability" type="int" value="2"/>
   </properties>
  </object>
  <object id="172" type="WarningArrowFront" gid="2147484092" x="352" y="128" width="64" height="96">
   <properties>
    <property name="Durability" type="int" value="2"/>
   </properties>
  </object>
  <object id="173" type="WarningArrowBack" gid="445" x="192" y="256" width="64" height="96">
   <properties>
    <property name="Durability" type="int" value="2"/>
   </properties>
  </object>
  <object id="176" type="WarningArrowBack" gid="2147484093" x="352" y="256" width="64" height="96">
   <properties>
    <property name="Durability" type="int" value="2"/>
   </properties>
  </object>
  <object id="180" template="TorchFire.tx" type="TorchFire" x="160" y="160"/>
  <object id="182" template="TorchFire.tx" type="TorchFire" x="416" y="160"/>
  <object id="183" template="TorchFire.tx" x="160" y="256"/>
  <object id="184" template="TorchFire.tx" x="416" y="256"/>
  <object id="185" template="TorchFire.tx" x="224" y="64"/>
  <object id="186" template="TorchFire.tx" x="352" y="64"/>
  <object id="187" template="TorchFire.tx" x="352" y="320"/>
  <object id="188" template="TorchFire.tx" x="224" y="320"/>
  <object id="196" template="Stalagmite2.tx" x="672" y="96"/>
  <object id="198" template="Stalagmite1.tx" x="544" y="288"/>
  <object id="200" template="TorchFire.tx" x="544" y="128"/>
  <object id="201" template="TorchFire.tx" x="640" y="288"/>
  <object id="202" template="WoodenTabletStand.tx" type="WoodenTabletStand" x="736" y="160"/>
  <object id="234" template="WoodenSignRight.tx" type="WoodenSignRight" x="736" y="384"/>
  <object id="237" type="WoodenSignDown" gid="466" x="941" y="160" width="64" height="64"/>
  <object id="254" type="Morgenstern" gid="2147484116" x="666.5" y="224.5" width="32" height="64">
   <properties>
    <property name="Durability" type="int" value="4"/>
   </properties>
  </object>
  <object id="257" type="WoodenSignLeftRight" gid="469" x="913" y="281" width="64" height="80">
   <properties>
    <property name="Durability" type="int" value="2"/>
   </properties>
  </object>
  <object id="258" template="PapyrusNotes.tx" x="768" y="-352"/>
  <object id="277" type="StatueArchitect1" gid="473" x="704" y="-96" width="64" height="128"/>
  <object id="278" type="StatueArchitect2" gid="474" x="960" y="-96" width="64" height="128"/>
  <object id="279" template="Stalagmite2.tx" x="928" y="-32"/>
  <object id="280" template="Stalagmite1.tx" x="768" y="-256"/>
  <object id="281" template="TorchFire.tx" x="736" y="0"/>
  <object id="282" template="TorchFire.tx" x="960" y="0"/>
  <object id="283" template="TorchFire.tx" x="736" y="-224"/>
  <object id="284" template="TorchFire.tx" x="949" y="-209.5"/>
  <object id="285" type="BannerHammer" gid="476" x="832" y="-440" width="64" height="64">
   <properties>
    <property name="Durability" type="int" value="1"/>
   </properties>
  </object>
  <object id="287" type="Pie" gid="478" x="1184" y="240" width="32" height="32">
   <properties>
    <property name="Durability" type="int" value="0"/>
   </properties>
  </object>
  <object id="289" type="WoodenTabletWarning" gid="479" x="1056" y="320" width="64" height="64">
   <properties>
    <property name="Durability" type="int" value="2"/>
   </properties>
  </object>
  <object id="292" type="WoodenTabletToilet" gid="2147484128" x="1088" y="352" width="64" height="64">
   <properties>
    <property name="Durability" type="int" value="2"/>
   </properties>
  </object>
  <object id="294" type="WoodenTabletPie" gid="2147484129" x="1280" y="320" width="64" height="64">
   <properties>
    <property name="Durability" type="int" value="2"/>
   </properties>
  </object>
  <object id="295" type="WoodenTabletWarning" gid="479" x="1248" y="352" width="64" height="64">
   <properties>
    <property name="Durability" type="int" value="2"/>
   </properties>
  </object>
  <object id="296" type="WoodenTabletWarning" gid="479" x="928" y="544" width="64" height="64">
   <properties>
    <property name="Durability" type="int" value="2"/>
   </properties>
  </object>
  <object id="297" type="WoodenTabletWarning" gid="2147484127" x="1216" y="768" width="64" height="64">
   <properties>
    <property name="Durability" type="int" value="2"/>
   </properties>
  </object>
  <object id="298" type="WoodenTabletWarning" gid="2147484127" x="1408" y="576" width="64" height="64">
   <properties>
    <property name="Durability" type="int" value="2"/>
   </properties>
  </object>
  <object id="299" template="WoodenFlagStand.tx" type="WoodenFlagStand" gid="2147484135" x="1360" y="256" rotation="0"/>
  <object id="300" type="PuppetOnPole1" gid="498" x="1312" y="416" width="64" height="96">
   <properties>
    <property name="Durability" type="int" value="2"/>
   </properties>
  </object>
  <object id="304" type="PuppetOnPole3" gid="500" x="1301.67" y="656" width="64" height="96">
   <properties>
    <property name="Durability" type="int" value="2"/>
   </properties>
  </object>
  <object id="305" type="PuppetOnPole4" gid="501" x="1088" y="704" width="64" height="96">
   <properties>
    <property name="Durability" type="int" value="2"/>
   </properties>
  </object>
  <object id="306" type="PuppetOnPole1" gid="2147484146" x="1461" y="554" width="64" height="96">
   <properties>
    <property name="Durability" type="int" value="2"/>
   </properties>
  </object>
  <object id="307" type="PuppetOnPole1" gid="2147484146" x="928" y="640" width="64" height="96">
   <properties>
    <property name="Durability" type="int" value="2"/>
   </properties>
  </object>
  <object id="308" type="PuppetOnPole1" gid="2147484146" x="1024" y="448" width="64" height="96">
   <properties>
    <property name="Durability" type="int" value="2"/>
   </properties>
  </object>
  <object id="309" type="PuppetOnPole2" gid="2147484147" x="1415" y="487" width="64" height="96">
   <properties>
    <property name="Durability" type="int" value="2"/>
   </properties>
  </object>
  <object id="310" type="PuppetOnPole2" gid="499" x="1035.5" y="633.5" width="64" height="96">
   <properties>
    <property name="Durability" type="int" value="2"/>
   </properties>
  </object>
  <object id="313" type="PuppetOnPole3" gid="500" x="896" y="512" width="64" height="96">
   <properties>
    <property name="Durability" type="int" value="2"/>
   </properties>
  </object>
  <object id="316" type="PuppetOnPole2" gid="499" x="1263" y="711" width="64" height="96">
   <properties>
    <property name="Durability" type="int" value="2"/>
   </properties>
  </object>
  <object id="319" template="Stalagmite1.tx" x="992" y="672"/>
  <object id="320" template="Stalagmite1.tx" x="1184" y="768"/>
  <object id="321" template="Stalagmite2.tx" x="1376" y="416"/>
  <object id="322" template="Stalagmite2.tx" x="1376" y="640"/>
  <object id="334" template="Candle1Fire.tx" x="992" y="544"/>
  <object id="335" template="Candle1Fire.tx" gid="502" x="1376" y="480" rotation="0"/>
  <object id="336" template="Candle1Fire.tx" x="1216" y="704"/>
  <object id="337" template="Candle1Fire.tx" x="1152" y="384"/>
  <object id="338" template="Candle2Fire.tx" x="1216" y="384"/>
  <object id="339" template="Candle2Fire.tx" x="992" y="480"/>
  <object id="340" template="Candle2Fire.tx" x="1152" y="704"/>
  <object id="341" template="Candle2Fire.tx" x="1376" y="544"/>
  <object id="345" type="BannerArrow" gid="519" x="1408" y="-128" width="32" height="64">
   <properties>
    <property name="Durability" type="int" value="1"/>
   </properties>
  </object>
  <object id="346" type="BannerArrow" gid="519" x="1312" y="-128" width="32" height="64">
   <properties>
    <property name="Durability" type="int" value="1"/>
   </properties>
  </object>
  <object id="359" template="CrossbowChargedDown.tx" x="1472" y="-416"/>
  <object id="361" template="WoodenBarrelArrows.tx" x="1344" y="-352"/>
  <object id="362" type="BannerArrow" gid="519" x="1504" y="-544" width="32" height="64">
   <properties>
    <property name="Durability" type="int" value="1"/>
   </properties>
  </object>
  <object id="367" template="CrossbowChargedRight.tx" type="CrossbowChargedRight" x="1664" y="-576"/>
  <object id="368" template="CrossbowChargedLeft.tx" type="CrossbowChargedLeft" x="1824" y="-512"/>
  <object id="369" template="CrossbowChargedUp.tx" x="1600" y="-256"/>
  <object id="377" template="CrossbowChargedLeft.tx" x="1824" y="-640"/>
  <object id="378" template="CrossbowChargedLeft.tx" x="1824" y="-672"/>
  <object id="379" template="CrossbowChargedLeft.tx" x="1824" y="-704"/>
  <object id="380" template="CrossbowChargedRight.tx" x="1664" y="-800"/>
  <object id="381" template="CrossbowChargedRight.tx" type="CrossbowChargedRight" x="1664" y="-832"/>
  <object id="382" template="CrossbowChargedRight.tx" x="1664" y="-864"/>
  <object id="385" template="CrossbowChargedRight.tx" x="1472" y="-1120"/>
  <object id="386" type="WoodenTargetWall1" gid="522" x="1344" y="-416" width="64" height="64">
   <properties>
    <property name="Durability" type="int" value="2"/>
   </properties>
  </object>
  <object id="387" type="WoodenTargetWall1" gid="523" x="1413" y="-402" width="64" height="64">
   <properties>
    <property name="Durability" type="int" value="2"/>
   </properties>
  </object>
  <object id="391" template="Stalagmite2.tx" x="1472" y="-1568"/>
  <object id="392" template="Candle1Fire.tx" x="1348" y="-55"/>
  <object id="394" template="Candle2Fire.tx" x="1403" y="1"/>
  <object id="395" template="Candle2Fire.tx" x="928" y="128"/>
  <object id="398" template="Candle1Fire.tx" x="704" y="320"/>
  <object id="400" template="Candle1Fire.tx" x="1385" y="-358"/>
  <object id="401" template="Candle1Fire.tx" x="1149" y="226"/>
  <object id="402" template="Candle2Fire.tx" x="1216" y="252"/>
  <object id="403" template="Candle2Fire.tx" x="1587" y="-317"/>
  <object id="405" type="StatueArrowWithBow" gid="524" x="1728" y="-321.667" width="128" height="96">
   <properties>
    <property name="Durability" type="int" value="4"/>
   </properties>
  </object>
  <object id="406" template="Stalagmite2.tx" x="1792" y="-160"/>
  <object id="407" template="Stalagmite1.tx" x="1920" y="-320"/>
  <object id="425" template="Candle1.tx" x="1732" y="-296"/>
  <object id="426" template="Candle2.tx" x="1862" y="-252"/>
  <object id="428" template="TorchFire.tx" x="1728" y="-480"/>
  <object id="429" template="TorchFire.tx" x="1728" y="-640"/>
  <object id="430" template="TorchFire.tx" x="1824" y="-864"/>
  <object id="431" template="TorchFire.tx" x="1824" y="-1024"/>
  <object id="434" template="ChainsCandlesFire.tx" x="1632" y="-1184"/>
  <object id="435" template="ChainsCandlesFire.tx" x="1728" y="-1184"/>
  <object id="436" template="ChainsTop.tx" x="1632" y="-1216"/>
  <object id="437" template="ChainsTop.tx" x="1728" y="-1216"/>
  <object id="445" type="BannerAxe" gid="550" x="2040" y="-896" width="32" height="64"/>
  <object id="446" type="BannerHeart" gid="549" x="1992" y="-896" width="32" height="64"/>
  <object id="447" template="Candle1.tx" type="Candle1" x="1987" y="-814"/>
  <object id="448" template="Candle2.tx" type="Candle2" x="2006" y="-831"/>
  <object id="449" type="SpearArrow" gid="525" x="1696" y="-1056" width="32" height="64">
   <properties>
    <property name="Durability" type="int" value="2"/>
   </properties>
  </object>
  <object id="450" type="SpearArrow" gid="525" x="1632" y="-1056" width="32" height="64">
   <properties>
    <property name="Durability" type="int" value="2"/>
   </properties>
  </object>
  <object id="451" type="SpearArrow" gid="525" x="1568" y="-1056" width="32" height="64">
   <properties>
    <property name="Durability" type="int" value="2"/>
   </properties>
  </object>
  <object id="452" template="WoodenSignRight.tx" type="WoodenSignLeft" gid="2147484113" x="1824" y="-1120" rotation="0"/>
  <object id="454" type="SpearArrow" gid="525" x="1408" y="-1376" width="32" height="64">
   <properties>
    <property name="Durability" type="int" value="2"/>
   </properties>
  </object>
  <object id="455" type="SpearArrow" gid="525" x="1408" y="-1472" width="32" height="64">
   <properties>
    <property name="Durability" type="int" value="2"/>
   </properties>
  </object>
  <object id="456" type="SpearArrow" gid="525" x="1664" y="-1376" width="32" height="64">
   <properties>
    <property name="Durability" type="int" value="2"/>
   </properties>
  </object>
  <object id="457" type="SpearArrow" gid="525" x="1664" y="-1472" width="32" height="64">
   <properties>
    <property name="Durability" type="int" value="2"/>
   </properties>
  </object>
  <object id="460" type="PuppetOnPole2" gid="499" x="1408" y="-1760" width="64" height="96">
   <properties>
    <property name="Durability" type="int" value="2"/>
   </properties>
  </object>
  <object id="461" type="PuppetOnPole3" gid="500" x="1632" y="-1760" width="64" height="96">
   <properties>
    <property name="Durability" type="int" value="2"/>
   </properties>
  </object>
  <object id="465" type="OilLamp" gid="556" x="1502" y="-1756" width="32" height="32"/>
  <object id="466" type="StatueTroll" gid="411" x="1952" y="-832" width="96" height="64">
   <properties>
    <property name="Durability" type="int" value="3"/>
   </properties>
  </object>
 </objectgroup>
 <layer id="3" name="Roof" width="30" height="20">
  <data encoding="csv">
   <chunk x="32" y="-48" width="16" height="16">
0,0,0,0,0,0,0,0,0,0,0,0,0,0,0,0,
0,0,0,0,0,0,0,0,0,0,0,0,0,0,0,4,
0,0,0,0,0,0,0,0,0,0,0,0,0,0,0,20,
0,0,0,0,0,0,0,0,0,0,0,0,0,0,0,0,
0,0,0,0,0,0,0,0,0,0,0,0,0,0,0,0,
0,0,0,0,0,0,0,0,0,0,0,0,0,0,0,0,
0,0,0,0,0,0,0,0,0,0,0,0,0,0,0,0,
0,0,0,0,0,0,0,0,0,0,0,0,0,0,0,0,
0,0,0,0,0,0,0,0,0,0,0,0,0,0,0,0,
0,0,0,0,0,0,0,0,0,0,0,0,0,0,0,0,
0,0,0,0,0,0,0,0,0,0,0,0,0,0,0,0,
0,0,0,0,0,0,0,0,0,0,0,0,0,0,0,0,
0,0,0,0,0,0,0,0,0,0,0,0,0,0,0,0,
0,0,0,0,0,0,0,0,0,0,0,0,0,0,0,0,
0,0,0,0,0,0,0,0,0,0,0,0,0,0,0,0,
0,0,0,0,0,0,0,0,0,0,0,0,0,0,0,0
</chunk>
   <chunk x="48" y="-48" width="16" height="16">
0,0,0,0,0,0,0,0,0,0,0,0,0,0,0,0,
34,5,0,0,0,0,0,0,0,0,0,0,0,0,0,0,
2,21,0,0,0,0,0,0,0,0,0,0,0,0,0,0,
0,0,0,0,0,0,0,0,0,0,0,0,0,0,0,0,
0,0,0,0,0,0,0,0,0,0,0,0,0,0,0,0,
0,0,0,0,0,0,0,0,0,0,0,0,0,0,0,0,
0,0,0,0,0,0,0,0,0,0,0,0,0,0,0,0,
0,4,34,34,34,34,34,34,5,0,0,0,0,0,0,0,
0,20,2,2,2,2,2,2,21,0,0,0,0,0,0,0,
0,0,0,0,0,0,0,0,0,0,0,0,0,0,0,0,
0,0,0,0,0,0,0,0,0,0,0,0,0,0,0,0,
0,0,0,0,0,0,0,0,0,0,0,0,0,0,0,0,
0,0,0,0,0,0,0,0,0,0,0,0,0,0,0,0,
0,0,0,0,0,0,0,0,0,0,0,0,0,0,0,0,
0,0,0,0,0,0,0,0,0,0,0,0,0,0,0,0,
0,0,0,0,0,0,0,0,0,0,0,0,0,0,0,0
</chunk>
   <chunk x="16" y="-32" width="16" height="16">
0,0,0,0,0,0,0,0,0,0,0,0,0,0,0,0,
0,0,0,0,0,0,0,0,0,0,0,0,0,0,0,0,
0,0,0,0,0,0,0,0,0,0,0,0,0,0,0,0,
0,0,0,0,0,0,0,0,0,0,0,0,0,0,0,0,
0,0,0,0,0,0,0,0,0,0,0,0,0,0,0,0,
0,0,0,0,0,0,0,0,0,0,0,0,0,0,0,0,
0,0,0,0,0,0,0,0,0,0,0,0,0,0,0,0,
0,0,0,0,0,0,0,0,0,0,0,0,0,0,0,0,
0,0,0,0,0,0,0,0,0,0,0,0,0,0,0,0,
0,0,0,0,0,0,0,0,0,0,0,0,0,0,0,0,
0,0,0,0,0,0,0,0,0,0,0,0,0,0,0,0,
0,0,0,0,0,0,0,0,0,0,0,0,0,0,0,0,
0,0,0,0,0,0,0,0,0,0,0,0,0,0,0,0,
0,0,0,0,0,0,0,0,0,0,0,0,0,0,0,0,
0,0,0,0,0,0,0,0,0,0,0,0,0,0,0,0,
0,0,0,0,0,0,0,0,2,2,2,2,2,0,0,0
</chunk>
   <chunk x="32" y="-32" width="16" height="16">
0,0,0,0,0,0,0,0,0,0,0,0,0,0,0,0,
0,0,0,0,0,0,0,0,0,0,0,0,0,0,0,0,
0,0,0,0,0,0,0,0,0,0,0,0,0,0,0,0,
0,0,0,0,0,0,0,0,0,0,0,0,0,0,0,0,
0,0,0,0,0,0,0,0,0,0,0,0,0,0,0,0,
0,0,0,0,0,0,0,0,0,0,0,0,0,0,0,0,
0,0,0,0,0,0,0,0,0,0,0,0,0,0,0,0,
0,0,0,0,0,0,0,0,0,0,0,0,0,0,0,0,
0,0,0,0,0,0,0,0,0,0,0,0,0,0,0,0,
0,0,0,0,0,0,0,0,0,0,0,0,0,0,0,0,
0,0,0,0,0,0,0,0,0,0,0,0,0,0,0,0,
0,0,0,0,0,0,0,0,0,0,0,0,0,0,0,0,
0,0,0,0,0,0,0,0,0,0,0,0,0,1,2,2,
0,0,0,0,0,0,0,0,0,0,0,0,0,17,0,0,
0,0,0,0,0,0,0,0,0,0,0,0,0,17,0,0,
0,0,0,0,0,0,0,0,0,0,0,0,0,17,0,0
</chunk>
   <chunk x="48" y="-32" width="16" height="16">
0,0,0,0,0,0,0,0,0,0,0,0,0,0,0,0,
0,0,0,0,0,0,0,0,0,0,0,0,0,1,2,2,
0,0,0,0,0,0,0,0,0,0,0,0,0,17,0,0,
0,0,0,0,0,0,0,0,0,0,0,0,2,21,0,0,
0,0,0,0,0,0,0,0,0,0,0,0,0,0,0,0,
0,0,0,0,0,0,0,0,0,0,0,0,0,0,0,0,
0,0,0,0,0,0,0,0,0,0,0,0,0,0,0,0,
0,0,0,0,0,0,0,0,0,0,0,0,0,0,0,0,
0,0,0,0,0,0,0,0,0,0,0,0,34,5,0,0,
0,0,0,0,0,0,0,0,0,0,0,0,0,17,0,0,
0,0,0,0,0,0,0,0,0,0,0,0,0,33,34,34,
0,0,0,0,0,0,0,0,0,0,0,0,0,0,0,0,
2,3,0,0,0,0,0,0,0,0,0,0,0,0,0,0,
0,19,0,0,0,0,0,0,0,0,0,0,0,0,0,0,
0,19,0,0,0,0,0,0,0,0,0,0,0,0,0,0,
0,19,0,0,0,0,0,0,0,0,0,0,0,0,0,0
</chunk>
   <chunk x="64" y="-32" width="16" height="16">
0,0,0,0,0,0,0,0,0,0,0,0,0,0,0,0,
2,3,0,0,0,0,0,0,0,0,0,0,0,0,0,0,
0,19,0,0,0,0,0,0,0,0,0,0,0,0,0,0,
0,19,0,0,0,0,0,0,0,0,0,0,0,0,0,0,
0,19,0,0,0,0,0,0,0,0,0,0,0,0,0,0,
0,19,0,0,0,0,0,0,0,0,0,0,0,0,0,0,
0,19,0,0,0,0,0,0,0,0,0,0,0,0,0,0,
0,19,0,0,0,0,0,0,0,0,0,0,0,0,0,0,
0,19,0,0,0,0,0,0,0,0,0,0,0,0,0,0,
0,19,0,0,0,0,0,0,0,0,0,0,0,0,0,0,
34,35,0,0,0,0,0,0,0,0,0,0,0,0,0,0,
0,0,0,0,0,0,0,0,0,0,0,0,0,0,0,0,
0,0,0,0,0,0,0,0,0,0,0,0,0,0,0,0,
0,0,0,0,0,0,0,0,0,0,0,0,0,0,0,0,
0,0,0,0,0,0,0,0,0,0,0,0,0,0,0,0,
0,0,0,0,0,0,0,0,0,0,0,0,0,0,0,0
</chunk>
   <chunk x="0" y="-16" width="16" height="16">
0,0,0,0,0,0,0,0,0,0,0,0,0,0,0,0,
0,0,0,0,0,0,0,0,0,0,0,0,0,0,0,0,
0,0,0,0,0,0,0,0,0,0,0,0,0,0,0,0,
0,0,0,0,0,0,0,0,0,0,0,0,0,0,0,0,
0,0,0,0,0,0,0,0,0,0,0,0,0,0,0,0,
0,0,0,0,0,0,0,0,0,0,0,0,0,0,0,0,
0,0,0,0,0,0,0,0,0,0,0,0,0,0,0,0,
0,0,0,0,0,0,0,0,0,0,0,0,0,0,0,0,
0,0,0,0,0,0,0,0,0,0,0,0,0,0,0,0,
0,0,0,0,0,0,0,0,0,0,0,0,0,0,0,0,
0,0,0,0,0,0,0,0,0,0,0,0,0,0,0,0,
0,0,0,0,0,0,0,0,0,0,0,0,0,0,0,0,
0,0,0,0,0,0,0,0,0,0,0,0,0,0,0,0,
0,0,0,0,0,0,0,0,0,0,0,0,0,0,0,0,
308,308,308,308,0,0,0,0,0,0,0,0,0,0,0,0,
308,308,308,308,0,0,0,0,0,0,0,0,0,0,0,0
</chunk>
   <chunk x="32" y="-16" width="16" height="16">
0,0,0,0,0,0,0,0,0,1,2,2,2,21,0,0,
0,0,0,0,0,0,0,0,0,17,0,0,0,0,0,0,
0,0,0,0,0,0,0,0,0,17,0,0,0,0,0,0,
0,0,0,0,0,0,0,0,0,17,0,0,0,0,0,0,
0,0,0,0,0,0,0,0,0,17,0,0,0,0,0,0,
0,0,0,0,0,0,0,0,0,17,0,0,0,0,0,0,
0,0,0,0,0,0,0,0,0,17,0,0,4,34,5,0,
0,0,0,0,0,0,0,0,0,17,521,0,19,0,33,34,
0,0,0,0,0,0,0,0,0,17,521,0,19,0,0,0,
0,0,0,0,0,0,0,0,1,21,521,0,20,3,0,0,
0,0,0,0,0,0,1,2,21,0,0,0,0,20,3,0,
0,0,0,0,0,0,17,0,0,0,0,0,0,0,19,0,
0,0,0,0,0,0,17,0,0,0,0,0,0,0,19,0,
0,0,0,0,0,0,17,0,0,0,0,0,0,0,19,0,
0,0,0,0,0,0,17,0,0,0,0,0,0,0,19,0,
0,0,0,0,0,0,33,34,5,0,0,0,0,4,35,0
</chunk>
   <chunk x="48" y="-16" width="16" height="16">
0,20,2,0,0,0,0,0,0,0,0,0,0,0,0,0,
0,0,0,0,0,0,0,0,0,0,0,0,0,0,0,0,
0,0,0,0,0,0,0,0,0,0,0,0,0,0,0,0,
0,0,0,0,0,0,0,0,0,0,0,0,0,0,0,0,
0,0,0,0,0,0,0,0,0,0,0,0,0,0,0,0,
0,0,0,0,0,0,0,0,0,0,0,0,0,0,0,0,
4,5,0,0,0,0,0,0,0,0,0,0,0,0,0,0,
35,17,0,0,0,0,0,0,0,0,0,0,0,0,0,0,
0,17,0,0,0,0,0,0,0,0,0,0,0,0,0,0,
0,33,34,34,34,0,0,0,0,0,0,0,0,0,0,0,
0,0,0,0,0,0,0,0,0,0,0,0,0,0,0,0,
0,0,0,0,0,0,0,0,0,0,0,0,0,0,0,0,
0,0,0,0,0,0,0,0,0,0,0,0,0,0,0,0,
0,0,0,0,0,0,0,0,0,0,0,0,0,0,0,0,
0,0,0,0,0,0,0,0,0,0,0,0,0,0,0,0,
0,0,0,0,0,0,0,0,0,0,0,0,0,0,0,0
</chunk>
   <chunk x="32" y="0" width="16" height="16">
0,0,0,0,0,0,0,0,33,5,0,0,4,35,0,0,
0,0,0,0,0,0,0,0,0,17,0,0,19,0,0,0,
0,2,2,2,2,2,2,2,2,21,0,0,20,2,0,0,
0,0,0,0,0,0,0,0,0,0,0,0,0,0,0,0,
0,0,0,0,0,0,0,0,0,0,0,0,0,0,0,0,
0,0,0,0,0,0,0,0,0,0,0,0,0,0,0,0,
0,0,0,0,0,0,0,0,0,0,0,0,0,0,0,0,
0,0,0,0,0,0,0,0,0,0,0,0,0,0,0,0,
0,0,0,0,0,0,0,0,0,0,0,0,0,0,0,0,
0,0,0,0,0,0,0,0,0,0,0,0,0,0,0,0,
0,0,0,0,0,0,0,0,0,0,0,0,0,0,0,0,
0,0,0,0,0,0,0,0,0,0,0,0,0,0,0,0,
0,0,0,0,0,0,0,0,0,0,0,0,0,0,0,0,
0,0,0,0,0,0,0,0,0,0,0,0,0,0,0,0,
0,0,0,0,0,0,0,0,0,0,0,0,0,0,0,0,
0,0,0,0,0,0,0,0,0,0,0,0,0,0,0,0
</chunk>
  </data>
 </layer>
 <layer id="4" name="RoofShadow" width="30" height="20">
  <data encoding="csv">
   <chunk x="64" y="-48" width="16" height="16">
0,0,0,0,0,0,0,0,0,0,0,0,0,0,0,0,
0,0,0,0,0,0,0,0,0,0,0,0,0,0,0,0,
0,0,0,0,0,0,0,0,0,0,0,0,0,0,0,0,
0,0,0,0,0,0,0,0,0,0,0,0,0,0,0,0,
0,0,0,0,0,0,0,0,0,0,0,0,0,0,0,0,
0,0,0,0,0,0,0,0,0,0,0,0,0,0,0,0,
0,0,0,0,0,0,0,0,0,0,0,0,0,0,0,0,
0,0,0,0,0,0,0,0,0,0,0,0,0,0,0,0,
0,0,0,0,0,0,0,0,0,1073742142,1073742142,1073742142,0,0,0,0,
0,0,0,0,0,0,0,0,0,308,308,308,0,0,0,0,
0,0,0,0,0,0,0,0,0,308,308,308,0,0,0,0,
0,0,0,0,0,0,0,0,0,0,0,0,0,0,0,0,
0,0,0,0,0,0,0,0,0,0,0,0,0,0,0,0,
0,0,0,0,0,0,0,0,0,0,0,0,0,0,0,0,
0,0,0,0,0,0,0,0,0,0,0,0,0,0,0,0,
0,0,0,0,0,0,0,0,0,0,0,0,0,0,0,0
</chunk>
   <chunk x="80" y="-48" width="16" height="16">
0,0,0,0,0,0,0,0,0,0,0,0,0,0,0,0,
0,0,0,0,0,0,0,0,0,0,0,0,0,0,0,0,
0,0,0,0,0,0,0,0,0,0,0,0,0,0,0,0,
0,0,0,0,0,0,0,0,0,0,0,0,0,0,0,0,
0,0,0,0,0,0,0,0,0,0,0,0,0,0,0,2684354878,
0,0,0,0,0,0,0,0,0,0,0,0,0,0,0,2684354878,
0,0,0,0,0,0,0,0,0,0,0,0,0,0,0,2684354878,
0,0,0,0,0,0,0,0,0,0,0,0,0,0,0,2684354878,
0,308,308,308,308,308,308,536871228,0,0,2684354876,308,308,308,308,308,
0,308,308,308,308,308,308,536871228,0,0,2684354876,308,308,308,308,308,
0,308,308,308,308,308,308,536871228,0,0,2684354876,308,308,308,308,308,
0,308,308,308,308,308,308,536871228,0,0,2684354876,308,308,308,308,308,
0,308,308,308,308,308,308,536871228,0,0,2684354876,308,308,308,308,308,
0,308,308,308,308,308,308,536871228,0,0,2684354876,308,308,308,308,308,
0,308,308,308,308,308,308,536871228,0,0,2684354876,308,308,308,308,308,
0,308,308,308,308,308,308,536871228,0,0,2684354876,308,308,308,308,308
</chunk>
   <chunk x="96" y="-48" width="16" height="16">
0,0,0,0,0,0,0,0,0,0,0,0,0,0,0,0,
0,0,0,0,0,0,0,0,0,0,0,0,0,0,0,0,
0,0,0,0,0,0,0,0,0,0,0,0,0,0,0,0,
0,0,0,0,0,0,0,0,0,0,0,0,0,0,0,0,
308,308,0,0,0,0,0,0,0,0,0,0,0,0,0,0,
308,308,0,0,0,0,0,0,0,0,0,0,0,0,0,0,
308,308,0,0,0,0,0,0,0,0,0,0,0,0,0,0,
308,308,0,0,0,0,0,0,0,0,0,0,0,0,0,0,
308,0,0,0,0,0,0,0,0,0,0,0,0,0,0,0,
308,0,0,0,0,0,0,0,0,0,0,0,0,0,0,0,
308,0,0,0,0,0,0,0,0,0,0,0,0,0,0,0,
308,0,0,0,0,0,0,0,0,0,0,0,0,0,0,0,
308,0,0,0,0,0,0,0,0,0,0,0,0,0,0,0,
308,0,0,0,0,0,0,0,0,0,0,0,0,0,0,0,
308,0,0,0,0,0,0,0,0,0,0,0,0,0,0,0,
308,0,0,0,0,0,0,0,0,0,0,0,0,0,0,0
</chunk>
   <chunk x="16" y="-32" width="16" height="16">
0,0,0,0,0,0,0,0,0,0,0,0,0,0,0,0,
0,0,0,0,0,0,0,0,0,0,0,0,0,0,0,0,
0,0,0,0,0,0,0,0,0,0,0,0,0,0,0,0,
0,0,0,0,0,0,0,0,0,0,0,0,0,0,0,0,
0,0,0,0,0,0,0,0,0,0,0,0,0,0,0,0,
0,0,0,0,0,0,0,0,0,0,0,0,0,0,0,0,
0,0,0,0,0,0,0,0,0,0,0,0,0,0,0,0,
0,0,0,0,0,0,0,0,0,0,0,0,0,0,0,0,
0,0,0,0,0,0,0,0,0,0,0,0,0,0,0,0,
0,0,0,0,0,0,0,0,0,0,0,0,0,0,0,0,
0,0,0,0,0,0,0,0,0,0,0,0,0,0,0,0,
0,0,0,0,0,0,0,0,0,0,0,0,0,0,0,0,
0,0,0,0,0,0,0,0,0,0,0,0,0,0,0,0,
0,0,0,0,0,0,0,0,0,0,0,0,0,0,0,0,
0,0,0,0,0,0,0,0,0,0,0,0,0,0,0,0,
0,0,0,0,0,0,0,0,536871230,0,0,0,2684354878,0,0,0
</chunk>
   <chunk x="48" y="-32" width="16" height="16">
0,0,0,0,0,0,0,0,0,0,0,0,0,0,0,0,
0,0,0,0,0,0,0,0,0,0,0,0,0,0,0,0,
0,0,0,0,0,0,0,0,0,0,0,0,0,0,0,0,
0,0,0,0,0,0,0,0,0,0,0,0,1610613054,0,0,0,
0,0,0,0,0,0,0,0,0,0,0,0,0,0,0,0,
0,0,0,0,0,0,0,0,0,0,0,0,0,0,0,0,
0,0,0,0,0,0,0,0,0,0,0,0,0,0,0,0,
0,0,0,0,0,0,0,0,0,0,0,0,0,0,0,0,
0,0,0,0,0,0,0,0,0,0,0,0,1610613054,0,0,0,
0,0,0,0,0,0,0,0,0,0,0,0,0,0,0,0,
0,0,0,0,0,0,0,0,0,0,0,0,0,0,0,0,
0,0,0,0,0,0,0,0,0,0,0,0,0,0,0,0,
0,0,0,0,0,0,0,0,0,0,0,0,0,0,0,0,
0,0,0,0,0,0,0,0,0,0,0,0,0,0,0,0,
0,0,0,0,0,0,0,0,0,0,0,0,0,0,0,0,
0,0,0,0,0,0,0,0,0,0,0,0,0,0,0,0
</chunk>
   <chunk x="48" y="-16" width="16" height="16">
0,0,3758096702,0,0,0,0,0,0,0,0,0,0,0,0,0,
0,0,0,0,0,0,0,0,0,0,0,0,0,0,0,0,
0,0,0,0,0,0,0,0,0,0,0,0,0,0,0,0,
0,0,0,0,0,0,0,0,0,0,0,0,0,0,0,0,
0,0,0,0,0,0,0,0,0,0,0,0,0,0,0,0,
0,0,0,0,0,0,0,0,0,0,0,0,0,0,0,0,
0,0,0,0,0,0,0,0,0,0,0,0,0,0,0,0,
0,0,0,0,0,0,0,0,0,0,0,0,0,0,0,0,
0,0,0,0,0,0,0,0,0,0,0,0,0,0,0,0,
0,0,0,0,2684354878,0,0,0,0,0,0,0,0,0,0,0,
0,0,0,0,0,0,0,0,0,0,0,0,0,0,0,0,
0,0,0,0,0,0,0,0,0,0,0,0,0,0,0,0,
0,0,0,0,0,0,0,0,0,0,0,0,0,0,0,0,
0,0,0,0,0,0,0,0,0,0,0,0,0,0,0,0,
0,0,0,0,0,0,0,0,0,0,0,0,0,0,0,0,
0,0,0,0,0,0,0,0,0,0,0,0,0,0,0,0
</chunk>
   <chunk x="0" y="0" width="16" height="16">
318,318,318,318,0,0,0,0,0,0,0,0,0,0,0,0,
0,0,0,0,0,0,0,0,0,0,0,0,0,0,0,0,
0,0,0,0,0,0,0,0,0,0,0,0,0,0,0,0,
0,0,0,0,0,0,0,0,0,0,0,0,0,0,0,0,
0,0,0,0,0,0,0,0,0,0,0,0,0,0,0,0,
0,0,0,0,0,0,0,0,0,0,0,0,0,0,0,0,
0,0,0,0,0,0,0,0,0,0,0,0,0,0,0,0,
0,0,0,0,0,0,0,0,0,0,0,0,0,0,0,0,
0,0,0,0,0,0,0,0,0,0,0,0,0,0,0,0,
0,0,0,0,0,0,0,0,0,0,0,0,0,0,0,0,
0,0,0,0,0,0,0,0,0,0,0,0,0,0,0,0,
0,0,0,0,0,0,0,0,0,0,0,0,0,0,0,0,
0,0,0,0,0,0,0,0,0,0,0,0,0,0,0,0,
0,0,0,0,0,0,0,0,0,0,0,0,0,0,0,0,
0,0,0,0,0,0,0,0,0,0,0,0,0,0,0,0,
0,0,0,0,0,0,0,0,0,0,0,0,0,0,0,0
</chunk>
   <chunk x="32" y="0" width="16" height="16">
0,0,0,0,0,0,0,0,0,0,0,0,0,0,0,0,
0,0,0,0,0,0,0,0,0,0,0,0,0,0,0,0,
0,536871230,0,0,0,0,0,0,0,0,0,0,0,2684354878,0,0,
0,0,0,0,0,0,0,0,0,0,0,0,0,0,0,0,
0,0,0,0,0,0,0,0,0,0,0,0,0,0,0,0,
0,0,0,0,0,0,0,0,0,0,0,0,0,0,0,0,
0,0,0,0,0,0,0,0,0,0,0,0,0,0,0,0,
0,0,0,0,0,0,0,0,0,0,0,0,0,0,0,0,
0,0,0,0,0,0,0,0,0,0,0,0,0,0,0,0,
0,0,0,0,0,0,0,0,0,0,0,0,0,0,0,0,
0,0,0,0,0,0,0,0,0,0,0,0,0,0,0,0,
0,0,0,0,0,0,0,0,0,0,0,0,0,0,0,0,
0,0,0,0,0,0,0,0,0,0,0,0,0,0,0,0,
0,0,0,0,0,0,0,0,0,0,0,0,0,0,0,0,
0,0,0,0,0,0,0,0,0,0,0,0,0,0,0,0,
0,0,0,0,0,0,0,0,0,0,0,0,0,0,0,0
</chunk>
  </data>
 </layer>
 <layer id="27" name="BARRIER_GROUND" width="30" height="20" opacity="0">
  <data encoding="csv">
   <chunk x="32" y="-64" width="16" height="16">
0,0,0,0,0,0,0,0,0,0,0,0,0,0,0,0,
0,0,0,0,0,0,0,0,0,0,0,0,0,0,0,0,
0,0,0,0,0,0,0,0,0,0,0,0,0,0,0,0,
0,0,0,0,0,0,0,0,0,0,0,0,0,0,0,0,
0,0,0,0,0,0,0,0,0,0,0,0,0,0,0,0,
0,0,0,0,0,0,0,0,0,0,0,0,0,0,0,0,
0,0,0,0,0,0,0,0,0,0,0,0,0,0,0,558,
0,0,0,0,0,0,0,0,0,0,0,0,0,0,558,0,
0,0,0,0,0,0,0,0,0,0,0,0,0,0,558,0,
0,0,0,0,0,0,0,0,0,0,0,0,0,0,0,558,
0,0,0,0,0,0,0,0,0,0,0,0,0,0,0,558,
0,0,0,0,0,0,0,0,0,0,0,0,0,0,0,558,
0,0,0,0,0,0,0,0,0,0,0,0,0,0,0,558,
0,0,0,0,0,0,0,0,0,0,0,0,0,0,0,558,
0,0,0,0,0,0,0,0,0,0,0,0,0,0,0,558,
0,0,0,0,0,0,0,0,0,0,0,0,0,0,558,558
</chunk>
   <chunk x="48" y="-64" width="16" height="16">
0,0,0,0,0,0,0,0,0,0,0,0,0,0,0,0,
0,0,0,0,0,0,0,0,0,0,0,0,0,0,0,0,
0,0,0,0,0,0,0,0,0,0,0,0,0,0,0,0,
0,0,0,0,0,0,0,0,0,0,0,0,0,0,0,0,
0,0,0,0,0,0,0,0,0,0,0,0,0,0,0,0,
0,0,0,0,0,0,0,0,0,0,0,0,0,0,0,0,
558,558,0,0,0,0,0,0,0,0,0,0,0,0,0,0,
0,0,558,0,0,0,0,0,0,0,0,0,0,0,0,0,
0,0,558,0,0,0,0,0,0,0,0,0,0,0,0,0,
0,558,0,0,0,0,0,0,0,0,0,0,0,0,0,0,
0,558,0,0,0,0,0,0,0,0,0,0,0,0,0,0,
0,558,0,0,0,0,0,0,0,0,0,0,0,0,0,0,
0,558,0,0,0,0,0,0,0,0,0,0,0,0,0,0,
0,558,0,0,0,0,0,0,0,0,0,0,0,0,0,0,
0,558,0,0,0,0,0,0,0,0,0,0,0,0,0,0,
0,558,558,0,0,0,0,0,0,0,0,0,0,0,0,0
</chunk>
   <chunk x="32" y="-48" width="16" height="16">
0,0,0,0,0,0,0,0,0,0,0,0,0,558,0,0,
0,0,0,0,0,0,0,0,0,0,0,0,0,558,0,561,
0,0,0,0,0,0,0,0,0,0,0,0,0,558,0,558,
0,0,0,0,0,0,0,0,0,0,0,0,0,558,0,558,
0,0,0,0,0,0,0,0,0,0,0,0,0,558,0,558,
0,0,0,0,0,0,0,0,0,0,0,0,0,558,0,558,
0,0,0,0,0,0,0,0,0,0,0,0,0,0,558,0,
0,0,0,0,0,0,0,0,0,0,0,0,0,0,0,558,
0,0,0,0,0,0,0,0,0,0,0,0,0,0,0,558,
0,0,0,0,0,0,0,0,0,0,0,0,0,0,0,558,
0,0,0,0,0,0,0,0,0,0,0,0,0,0,0,558,
0,0,0,0,0,0,0,0,0,0,0,0,0,0,0,558,
0,0,0,0,0,0,0,0,0,0,0,0,0,0,0,558,
0,0,0,0,0,0,0,0,0,0,0,0,0,0,0,0,
0,0,0,0,0,0,0,0,0,0,0,0,0,0,0,0,
0,0,0,0,0,0,0,0,0,0,0,0,0,0,0,0
</chunk>
   <chunk x="48" y="-48" width="16" height="16">
0,0,0,558,0,0,0,0,0,0,0,0,0,0,0,0,
561,561,0,558,0,0,0,0,0,0,0,0,0,0,0,0,
0,558,0,0,558,0,0,0,0,0,0,0,0,0,0,0,
0,558,0,0,558,0,0,0,0,0,0,0,0,0,0,0,
0,558,0,558,0,0,0,0,0,0,0,0,0,0,0,0,
558,558,0,558,558,558,558,558,558,558,558,558,558,558,558,558,
0,0,0,0,0,0,0,0,0,0,0,0,0,0,0,0,
0,561,561,561,561,561,561,561,561,558,558,558,558,558,558,558,
0,558,0,0,0,0,0,0,0,0,0,0,0,0,0,0,
0,558,0,0,0,0,0,0,0,0,0,0,0,0,0,0,
0,558,0,0,0,0,0,0,0,0,0,0,0,0,0,0,
0,558,558,558,558,558,558,558,558,558,0,0,0,0,0,0,
0,0,0,0,0,0,0,0,0,558,0,0,0,0,0,0,
558,558,558,558,558,558,558,0,0,558,0,0,0,0,0,0,
0,0,0,0,0,0,558,0,0,558,0,0,0,0,0,0,
0,0,0,0,0,0,558,0,0,558,0,0,0,0,0,0
</chunk>
   <chunk x="64" y="-48" width="16" height="16">
0,0,0,0,0,0,0,0,0,0,0,0,0,0,0,0,
0,0,0,0,0,0,0,0,0,0,0,0,0,0,0,0,
0,0,0,0,0,0,0,0,0,0,0,0,0,0,0,0,
0,0,0,0,0,0,0,0,0,0,0,0,0,0,0,0,
0,0,0,0,0,0,0,0,0,0,0,0,0,0,0,0,
558,558,558,558,558,558,558,558,558,558,558,558,558,558,558,558,
0,0,0,0,0,0,0,0,0,0,0,0,0,0,0,0,
558,558,558,558,558,558,558,558,558,558,0,558,558,558,558,558,
0,0,0,0,0,0,0,0,0,558,0,558,0,0,0,0,
0,0,0,0,0,0,0,0,0,0,558,0,0,0,0,0,
0,0,0,0,0,0,0,0,0,0,0,0,0,0,0,0,
0,0,0,0,0,0,0,0,0,0,0,0,0,0,0,0,
0,0,0,0,0,0,0,0,0,0,0,0,0,0,0,0,
0,0,0,0,0,0,0,0,0,0,0,0,0,0,0,0,
0,0,0,0,0,0,0,0,0,0,0,0,0,0,0,0,
0,0,0,0,0,0,0,0,0,0,0,0,0,0,0,0
</chunk>
   <chunk x="80" y="-48" width="16" height="16">
0,0,0,0,0,0,0,0,0,0,0,0,0,0,0,0,
0,0,0,0,0,0,0,0,0,0,0,0,0,0,0,0,
0,0,0,0,0,0,0,0,0,0,0,0,0,0,0,0,
0,0,0,0,0,0,0,0,0,0,0,0,0,0,0,0,
0,0,0,0,0,0,0,0,0,0,0,0,0,0,0,0,
558,558,558,558,558,558,558,558,558,558,558,558,558,558,558,558,
0,0,0,0,0,0,0,0,0,0,0,0,0,0,0,0,
558,558,558,558,558,558,558,558,558,558,558,558,558,558,558,558,
0,0,0,0,0,0,0,0,0,0,0,0,0,0,0,0,
0,0,0,0,0,0,0,0,0,0,0,0,0,0,0,0,
0,0,0,0,0,0,0,0,0,0,0,0,0,0,0,0,
0,0,0,0,0,0,0,0,0,0,0,0,0,0,0,0,
0,0,0,0,0,0,0,0,0,0,0,0,0,0,0,0,
0,0,0,0,0,0,0,0,0,0,0,0,0,0,0,0,
0,0,0,0,0,0,0,0,0,0,0,0,0,0,0,0,
0,0,0,0,0,0,0,0,0,0,0,0,0,0,0,0
</chunk>
   <chunk x="96" y="-48" width="16" height="16">
0,0,0,0,0,0,0,0,0,0,0,0,0,0,0,0,
0,0,0,0,0,0,0,0,0,0,0,0,0,0,0,0,
0,0,0,0,0,0,0,0,0,0,0,0,0,0,0,0,
0,0,0,0,0,0,0,0,0,0,0,0,0,0,0,0,
0,0,0,0,0,0,0,0,0,0,0,0,0,0,0,0,
558,558,0,0,0,0,0,0,0,0,0,0,0,0,0,0,
0,0,558,0,0,0,0,0,0,0,0,0,0,0,0,0,
558,558,0,0,0,0,0,0,0,0,0,0,0,0,0,0,
0,0,0,0,0,0,0,0,0,0,0,0,0,0,0,0,
0,0,0,0,0,0,0,0,0,0,0,0,0,0,0,0,
0,0,0,0,0,0,0,0,0,0,0,0,0,0,0,0,
0,0,0,0,0,0,0,0,0,0,0,0,0,0,0,0,
0,0,0,0,0,0,0,0,0,0,0,0,0,0,0,0,
0,0,0,0,0,0,0,0,0,0,0,0,0,0,0,0,
0,0,0,0,0,0,0,0,0,0,0,0,0,0,0,0,
0,0,0,0,0,0,0,0,0,0,0,0,0,0,0,0
</chunk>
   <chunk x="48" y="-32" width="16" height="16">
0,0,0,0,0,0,558,0,0,558,0,0,0,0,0,0,
0,0,0,0,0,0,558,0,0,558,0,0,0,0,0,0,
0,0,0,0,0,0,558,0,0,558,0,0,0,0,0,0,
0,0,0,0,0,0,558,0,0,558,0,0,0,0,0,0,
0,0,0,0,0,558,0,0,0,558,0,0,0,0,558,558,
0,0,0,0,0,558,0,0,0,558,0,0,0,558,0,0,
0,0,0,0,0,558,0,0,0,558,558,558,558,558,0,0,
0,0,0,0,0,0,558,0,0,0,0,0,0,0,0,0,
0,0,0,0,0,558,0,0,0,558,558,558,558,561,0,0,
0,0,0,0,0,0,558,0,0,0,558,0,0,558,0,0,
0,0,0,0,0,0,558,0,0,0,558,0,0,558,561,561,
0,0,0,0,0,0,558,0,0,0,558,0,0,0,0,0,
0,0,0,0,0,0,558,0,0,558,0,0,0,0,0,0,
0,0,0,0,0,558,0,0,0,558,0,0,0,0,0,0,
0,0,0,0,0,0,558,0,0,558,0,0,0,0,0,0,
0,0,0,0,0,0,558,0,0,0,558,0,0,0,0,0
</chunk>
   <chunk x="64" y="-32" width="16" height="16">
0,0,0,0,0,0,0,0,0,0,0,0,0,0,0,0,
0,0,0,0,0,0,0,0,0,0,0,0,0,0,0,0,
0,0,0,0,0,0,0,0,0,0,0,0,0,0,0,0,
0,0,0,0,0,0,0,0,0,0,0,0,0,0,0,0,
558,0,0,0,0,0,0,0,0,0,0,0,0,0,0,0,
0,558,0,0,0,0,0,0,0,0,0,0,0,0,0,0,
0,558,0,0,0,0,0,0,0,0,0,0,0,0,0,0,
0,558,0,0,0,0,0,0,0,0,0,0,0,0,0,0,
0,558,0,0,0,0,0,0,0,0,0,0,0,0,0,0,
0,558,0,0,0,0,0,0,0,0,0,0,0,0,0,0,
561,558,0,0,0,0,0,0,0,0,0,0,0,0,0,0,
0,0,0,0,0,0,0,0,0,0,0,0,0,0,0,0,
0,0,0,0,0,0,0,0,0,0,0,0,0,0,0,0,
0,0,0,0,0,0,0,0,0,0,0,0,0,0,0,0,
0,0,0,0,0,0,0,0,0,0,0,0,0,0,0,0,
0,0,0,0,0,0,0,0,0,0,0,0,0,0,0,0
</chunk>
   <chunk x="0" y="-16" width="16" height="16">
0,0,0,0,0,0,0,0,0,0,0,0,0,0,0,0,
0,0,0,0,0,0,0,0,0,0,0,0,0,0,0,0,
0,0,0,0,0,0,0,0,0,0,0,0,0,0,0,0,
0,0,0,0,0,0,0,0,0,0,0,0,0,0,0,0,
0,0,0,0,0,0,0,0,0,0,0,0,0,0,0,0,
0,0,0,0,0,0,0,0,0,0,0,0,0,0,0,0,
0,0,0,0,0,0,0,0,0,0,0,0,0,0,0,0,
0,0,0,0,0,0,0,0,0,0,0,0,0,0,0,0,
0,0,0,0,0,0,0,0,0,0,0,0,0,0,0,0,
0,0,0,0,0,0,0,0,0,0,0,0,0,0,0,0,
0,0,0,0,0,0,0,0,0,0,0,0,0,0,0,0,
0,0,0,0,0,0,0,0,0,0,0,0,0,0,0,0,
0,0,0,0,0,0,0,0,0,0,0,0,0,0,0,0,
0,0,0,0,0,0,0,0,0,0,0,0,0,0,0,0,
0,558,558,0,0,0,0,0,0,0,0,0,0,0,0,0,
558,0,0,558,0,0,0,0,0,0,0,0,0,0,0,0
</chunk>
   <chunk x="16" y="-16" width="16" height="16">
0,0,0,0,0,0,0,0,0,0,0,0,0,0,0,0,
0,0,0,0,0,0,0,0,0,0,0,0,0,0,0,0,
0,0,0,0,0,0,0,0,0,558,558,558,0,0,0,0,
0,0,0,0,0,0,0,0,558,0,0,0,558,558,558,0,
0,0,0,0,0,0,0,558,0,0,0,0,0,0,0,558,
0,0,0,0,0,0,0,0,558,558,0,0,558,558,558,0,
0,0,0,0,0,0,0,0,0,558,0,0,558,0,0,0,
0,0,0,0,0,0,0,0,558,0,0,0,0,558,0,0,
0,0,0,0,0,0,0,0,558,0,0,0,0,558,0,0,
0,0,0,0,0,0,0,0,558,0,0,0,0,558,0,0,
0,0,0,0,0,0,0,0,558,0,0,0,0,558,0,0,
0,0,0,0,0,0,0,0,558,0,0,0,0,558,0,0,
0,0,0,0,0,0,0,0,558,0,0,0,0,558,0,0,
0,0,0,0,0,0,0,0,558,0,0,0,0,558,0,0,
0,0,0,0,0,0,0,0,558,0,0,0,0,558,0,0,
0,0,0,0,0,0,0,0,558,0,0,0,0,558,0,0
</chunk>
   <chunk x="32" y="-16" width="16" height="16">
0,0,0,0,0,0,0,0,0,0,0,0,0,0,0,0,
0,0,0,0,0,0,0,0,0,0,0,0,0,0,0,0,
0,0,0,0,0,0,0,0,0,0,0,0,0,0,0,0,
0,0,0,0,0,0,0,0,0,0,558,558,558,558,558,558,
0,0,0,0,0,0,0,0,0,558,0,0,0,0,0,0,
0,0,0,0,0,0,0,0,0,558,0,0,0,0,0,0,
0,0,0,0,0,0,0,0,0,558,0,0,561,561,561,0,
0,0,0,0,0,0,0,0,0,558,0,0,558,0,558,561,
0,0,0,0,0,0,0,0,0,558,0,0,558,0,0,0,
0,0,0,0,0,0,0,0,0,558,0,0,558,0,0,0,
0,0,0,0,0,0,0,0,0,558,0,0,558,0,0,0,
0,0,0,0,0,0,0,0,0,558,0,0,558,0,0,0,
0,0,0,0,0,0,0,0,0,558,0,0,558,0,0,0,
0,0,0,0,0,0,0,558,558,0,0,0,0,558,0,0,
0,0,0,0,0,0,558,0,0,0,0,0,0,0,558,0,
0,0,0,0,0,0,558,561,561,0,0,0,0,561,558,0
</chunk>
   <chunk x="48" y="-16" width="16" height="16">
0,0,0,0,0,0,558,0,0,558,0,0,0,0,0,0,
0,0,0,0,0,0,558,0,0,558,0,0,0,0,0,0,
0,0,0,558,0,558,0,0,0,0,558,0,0,0,0,0,
558,558,558,0,558,0,0,558,558,0,0,558,0,0,0,0,
0,0,0,0,0,0,558,0,0,558,0,0,558,0,0,0,
0,0,0,0,0,0,558,0,0,558,0,0,558,0,0,0,
561,561,558,558,558,0,0,558,558,0,0,0,558,0,0,0,
558,0,0,0,0,558,0,0,0,0,0,558,0,0,0,0,
0,0,0,0,0,0,558,0,0,0,558,0,0,0,0,0,
0,0,0,0,0,0,0,558,558,558,558,0,0,0,0,0,
0,0,0,0,0,0,0,0,0,0,0,0,0,0,0,0,
0,0,0,0,0,0,0,0,0,0,0,0,0,0,0,0,
0,0,0,0,0,0,0,0,0,0,0,0,0,0,0,0,
0,0,0,0,0,0,0,0,0,0,0,0,0,0,0,0,
0,0,0,0,0,0,0,0,0,0,0,0,0,0,0,0,
0,0,0,0,0,0,0,0,0,0,0,0,0,0,0,0
</chunk>
   <chunk x="0" y="0" width="16" height="16">
558,0,0,558,0,0,0,0,0,0,0,0,0,0,0,0,
558,0,0,558,0,0,0,0,0,0,0,0,0,0,0,0,
558,0,0,558,0,0,0,0,558,558,558,0,0,0,0,0,
558,0,0,558,0,0,0,558,0,0,0,558,0,0,558,558,
558,0,0,558,558,558,558,0,0,0,0,0,558,558,0,0,
558,0,0,0,0,0,0,0,0,0,0,0,0,0,0,0,
0,558,558,558,558,558,558,0,0,0,0,0,558,558,0,0,
0,0,0,0,0,0,0,558,0,0,0,558,0,0,558,558,
0,0,0,0,0,0,0,0,558,558,558,0,0,0,0,0,
0,0,0,0,0,0,0,0,0,0,0,0,0,0,0,0,
0,0,0,0,0,0,0,0,0,0,0,0,0,0,0,0,
0,0,0,0,0,0,0,0,0,0,0,0,0,0,0,0,
0,0,0,0,0,0,0,0,0,0,0,0,0,0,0,0,
0,0,0,0,0,0,0,0,0,0,0,0,0,0,0,0,
0,0,0,0,0,0,0,0,0,0,0,0,0,0,0,0,
0,0,0,0,0,0,0,0,0,0,0,0,0,0,0,0
</chunk>
   <chunk x="16" y="0" width="16" height="16">
0,0,0,0,0,0,0,0,558,0,0,0,0,558,0,0,
0,0,0,0,0,0,0,0,558,0,0,0,0,0,558,0,
0,0,0,0,0,0,0,0,558,558,0,0,558,558,0,558,
558,558,558,558,558,558,558,558,0,0,0,0,0,0,558,0,
0,0,0,0,0,0,0,558,0,0,0,0,0,0,558,0,
0,0,0,0,0,0,0,0,0,0,0,0,0,0,558,0,
0,0,0,0,0,0,0,0,0,0,0,0,0,0,0,0,
558,558,558,558,558,558,0,0,0,0,0,0,0,0,0,0,
0,0,0,0,0,558,0,0,0,0,0,0,558,0,558,558,
0,0,0,0,0,558,0,0,0,0,0,0,558,558,0,0,
0,0,0,0,0,0,558,558,558,558,558,558,0,0,0,0,
0,0,0,0,0,0,0,0,0,0,0,0,0,0,0,0,
0,0,0,0,0,0,0,0,0,0,0,0,0,0,0,0,
0,0,0,0,0,0,0,0,0,0,0,0,0,0,0,558,
0,0,0,0,0,0,0,0,0,0,0,0,0,0,558,0,
0,0,0,0,0,0,0,0,0,0,0,0,0,0,558,0
</chunk>
   <chunk x="32" y="0" width="16" height="16">
0,0,0,0,0,0,0,0,0,558,0,0,558,0,0,0,
0,0,0,0,0,0,0,0,0,558,0,0,558,0,0,0,
0,0,0,0,0,0,0,0,0,558,0,0,558,0,0,0,
558,0,0,0,0,0,0,0,0,558,0,0,558,0,0,0,
558,0,0,0,0,0,0,0,0,558,0,0,558,0,0,0,
558,558,558,558,558,558,558,558,558,558,0,0,558,0,0,0,
0,0,0,0,0,0,0,0,0,0,0,0,558,0,0,0,
0,0,0,0,0,0,0,0,0,0,0,0,558,0,0,0,
558,558,558,0,0,0,0,0,558,558,558,558,0,0,0,0,
0,0,558,558,0,0,0,558,558,0,0,0,0,0,0,0,
0,0,0,0,558,0,558,0,0,0,0,0,0,0,0,0,
0,0,558,558,0,0,0,558,558,0,0,0,0,0,0,0,
0,558,0,0,0,0,0,0,0,558,0,0,0,0,0,0,
558,558,0,0,0,0,0,0,0,558,558,558,0,0,0,0,
0,0,0,0,0,0,0,0,0,0,0,0,558,0,0,0,
0,0,0,0,0,0,0,0,0,0,0,0,558,0,0,0
</chunk>
   <chunk x="16" y="16" width="16" height="16">
0,0,0,0,0,0,0,0,0,0,0,0,0,0,558,0,
0,0,0,0,0,0,0,0,0,0,0,0,0,0,0,558,
0,0,0,0,0,0,0,0,0,0,0,0,0,0,0,0,
0,0,0,0,0,0,0,0,0,0,0,0,0,0,0,0,
0,0,0,0,0,0,0,0,0,0,0,0,0,0,0,0,
0,0,0,0,0,0,0,0,0,0,0,0,0,0,0,0,
0,0,0,0,0,0,0,0,0,0,0,0,0,0,0,0,
0,0,0,0,0,0,0,0,0,0,0,0,0,0,0,0,
0,0,0,0,0,0,0,0,0,0,0,0,0,0,0,0,
0,0,0,0,0,0,0,0,0,0,0,0,0,0,0,0,
0,0,0,0,0,0,0,0,0,0,0,0,0,0,0,0,
0,0,0,0,0,0,0,0,0,0,0,0,0,0,0,0,
0,0,0,0,0,0,0,0,0,0,0,0,0,0,0,0,
0,0,0,0,0,0,0,0,0,0,0,0,0,0,0,0,
0,0,0,0,0,0,0,0,0,0,0,0,0,0,0,0,
0,0,0,0,0,0,0,0,0,0,0,0,0,0,0,0
</chunk>
   <chunk x="32" y="16" width="16" height="16">
0,0,0,0,0,0,0,0,0,0,0,0,558,0,0,0,
558,558,0,0,0,0,0,0,0,558,558,558,0,0,0,0,
0,558,0,0,0,0,0,0,0,558,0,0,0,0,0,0,
0,0,558,558,0,0,0,558,558,0,0,0,0,0,0,0,
0,0,0,558,0,0,0,558,0,0,0,0,0,0,0,0,
0,0,0,558,0,0,0,558,0,0,0,0,0,0,0,0,
0,0,0,0,558,558,558,0,0,0,0,0,0,0,0,0,
0,0,0,0,0,0,0,0,0,0,0,0,0,0,0,0,
0,0,0,0,0,0,0,0,0,0,0,0,0,0,0,0,
0,0,0,0,0,0,0,0,0,0,0,0,0,0,0,0,
0,0,0,0,0,0,0,0,0,0,0,0,0,0,0,0,
0,0,0,0,0,0,0,0,0,0,0,0,0,0,0,0,
0,0,0,0,0,0,0,0,0,0,0,0,0,0,0,0,
0,0,0,0,0,0,0,0,0,0,0,0,0,0,0,0,
0,0,0,0,0,0,0,0,0,0,0,0,0,0,0,0,
0,0,0,0,0,0,0,0,0,0,0,0,0,0,0,0
</chunk>
  </data>
 </layer>
 <layer id="29" name="BARRIER_SECRET_WAY_1" width="30" height="20" opacity="0">
  <data encoding="csv">
   <chunk x="16" y="-16" width="16" height="16">
0,0,0,0,0,0,0,0,0,0,0,0,0,0,0,0,
0,0,0,0,0,0,0,0,0,0,0,0,0,0,0,0,
0,0,0,0,0,0,0,0,0,0,0,0,0,0,0,0,
0,0,0,0,0,0,0,0,0,0,0,0,0,0,0,0,
0,0,0,0,0,0,0,0,0,0,0,0,558,0,0,0,
0,0,0,0,0,0,0,0,0,0,0,0,0,0,0,0,
0,0,0,0,0,0,0,0,0,0,0,0,0,0,0,0,
0,0,0,0,0,0,0,0,0,0,0,0,0,0,0,0,
0,0,0,0,0,0,0,0,0,0,0,0,0,0,0,0,
0,0,0,0,0,0,0,0,0,0,0,0,0,0,0,0,
0,0,0,0,0,0,0,0,0,0,0,0,0,0,0,0,
0,0,0,0,0,0,0,0,0,0,0,0,0,0,0,0,
0,0,0,0,0,0,0,0,0,0,0,0,0,0,0,0,
0,0,0,0,0,0,0,0,0,0,0,0,0,0,0,0,
0,0,0,0,0,0,0,0,0,0,0,0,0,0,0,0,
0,0,0,0,0,0,0,0,0,0,0,0,0,0,0,0
</chunk>
   <chunk x="16" y="0" width="16" height="16">
0,0,0,0,0,0,0,0,0,0,0,0,0,0,0,0,
0,0,0,0,0,0,0,0,0,0,0,0,0,0,0,0,
0,0,0,0,0,0,0,0,0,0,0,0,0,0,0,0,
0,0,0,0,0,0,0,0,0,0,0,0,0,0,0,0,
0,0,0,0,0,0,0,0,0,0,0,0,0,0,0,0,
0,0,0,0,0,0,0,0,0,0,0,0,0,0,0,558,
0,0,0,0,0,0,0,0,0,0,0,0,0,0,0,0,
0,0,0,0,0,0,0,0,0,0,0,0,0,0,0,0,
0,0,0,0,0,0,0,0,0,0,0,0,0,0,0,0,
0,0,0,0,0,0,0,0,0,0,0,0,0,0,0,0,
0,0,0,0,0,0,0,0,0,0,0,0,0,0,0,0,
0,0,0,0,0,0,0,0,0,0,0,0,0,0,0,0,
0,0,0,0,0,0,0,0,0,0,0,0,0,0,0,0,
0,0,0,0,0,0,0,0,0,0,0,0,0,0,0,0,
0,0,0,0,0,0,0,0,0,0,0,0,0,0,0,0,
0,0,0,0,0,0,0,0,0,0,0,0,0,0,0,0
</chunk>
  </data>
 </layer>
 <layer id="28" name="BARRIER_AIR" width="30" height="20" opacity="0">
  <data encoding="csv">
   <chunk x="32" y="-64" width="16" height="16">
0,0,0,0,0,0,0,0,0,0,0,0,0,0,0,0,
0,0,0,0,0,0,0,0,0,0,0,0,0,0,0,0,
0,0,0,0,0,0,0,0,559,559,559,559,559,559,559,559,
0,0,0,0,0,0,0,559,0,0,0,0,0,0,0,0,
0,0,0,0,0,0,0,559,0,0,0,0,0,0,0,0,
0,0,0,0,0,0,0,559,0,0,0,0,0,0,0,0,
0,0,0,0,0,0,0,559,0,0,0,0,0,0,0,0,
0,0,0,0,0,0,0,559,0,0,0,0,0,0,0,0,
0,0,0,0,0,0,0,559,0,0,0,0,0,0,0,0,
0,0,0,0,0,0,0,559,0,0,0,0,0,0,0,0,
0,0,0,0,0,0,0,559,0,0,0,0,0,0,0,0,
0,0,0,0,0,0,0,559,0,0,0,0,0,0,0,0,
0,0,0,0,0,0,0,559,0,0,0,0,0,0,0,0,
0,0,0,0,0,0,0,559,0,0,0,0,0,0,0,0,
0,0,0,0,0,0,0,559,0,0,0,0,0,0,0,0,
0,0,0,0,0,0,0,559,0,0,0,0,0,0,0,0
</chunk>
   <chunk x="48" y="-64" width="16" height="16">
0,0,0,0,0,0,0,0,0,0,0,0,0,0,0,0,
0,0,0,0,0,0,0,0,0,0,0,0,0,0,0,0,
559,559,559,559,559,559,559,559,559,559,559,559,0,0,0,0,
0,0,0,0,0,0,0,0,0,0,0,0,559,0,0,0,
0,0,0,0,0,0,0,0,0,0,0,0,559,0,0,0,
0,0,0,0,0,0,0,0,0,0,0,0,559,0,0,0,
0,0,0,0,0,0,0,0,0,0,0,0,559,0,0,0,
0,0,0,0,0,0,0,0,0,0,0,0,559,0,0,0,
0,0,0,0,0,0,0,0,0,0,0,0,0,559,559,559,
0,0,0,0,0,0,0,0,0,0,0,0,0,0,0,0,
0,0,0,0,0,0,0,0,0,0,0,0,0,0,0,0,
0,0,0,0,0,0,0,0,0,0,0,0,0,0,0,0,
0,0,0,0,0,0,0,0,0,0,0,0,0,0,0,0,
0,0,0,0,0,0,0,0,0,0,0,0,0,0,0,0,
0,0,0,0,0,0,0,0,0,0,0,0,0,0,0,0,
0,0,0,0,0,0,0,0,0,0,0,0,0,0,0,0
</chunk>
   <chunk x="64" y="-64" width="16" height="16">
0,0,0,0,0,0,0,0,0,0,0,0,0,0,0,0,
0,0,0,0,0,0,0,0,0,0,0,0,0,0,0,0,
0,0,0,0,0,0,0,0,0,0,0,0,0,0,0,0,
0,0,0,0,0,0,0,0,0,0,0,0,0,0,0,0,
0,0,0,0,0,0,0,0,0,0,0,0,0,0,0,0,
0,0,0,0,0,0,0,0,0,0,0,0,0,0,0,0,
0,0,0,0,0,0,0,0,0,0,0,0,0,0,0,0,
0,0,0,0,0,0,0,0,0,0,0,0,0,0,0,0,
559,559,559,559,559,559,559,559,559,559,559,559,559,559,559,559,
0,0,0,0,0,0,0,0,0,0,0,0,0,0,0,0,
0,0,0,0,0,0,0,0,0,0,0,0,0,0,0,0,
0,0,0,0,0,0,0,0,0,0,0,0,0,0,0,0,
0,0,0,0,0,0,0,0,0,0,0,0,0,0,0,0,
0,0,0,0,0,0,0,0,0,0,0,0,0,0,0,0,
0,0,0,0,0,0,0,0,0,0,0,0,0,0,0,0,
0,0,0,0,0,0,0,0,0,0,0,0,0,0,0,0
</chunk>
   <chunk x="80" y="-64" width="16" height="16">
0,0,0,0,0,0,0,0,0,0,0,0,0,0,0,0,
0,0,0,0,0,0,0,0,0,0,0,0,0,0,0,0,
0,0,0,0,0,0,0,0,0,0,0,0,0,0,0,0,
0,0,0,0,0,0,0,0,0,0,0,0,0,0,0,0,
0,0,0,0,0,0,0,0,0,0,0,0,0,0,0,0,
0,0,0,0,0,0,0,0,0,0,0,0,0,0,0,0,
0,0,0,0,0,0,0,0,0,0,0,0,0,0,0,0,
0,0,0,0,0,0,0,0,0,0,0,0,0,0,0,0,
559,559,559,559,559,559,559,559,559,559,559,559,559,559,559,559,
0,0,0,0,0,0,0,0,0,0,0,0,0,0,0,0,
0,0,0,0,0,0,0,0,0,0,0,0,0,0,0,0,
0,0,0,0,0,0,0,0,0,0,0,0,0,0,0,0,
0,0,0,0,0,0,0,0,0,0,0,0,0,0,0,0,
0,0,0,0,0,0,0,0,0,0,0,0,0,0,0,0,
0,0,0,0,0,0,0,0,0,0,0,0,0,0,0,0,
0,0,0,0,0,0,0,0,0,0,0,0,0,0,0,0
</chunk>
   <chunk x="96" y="-64" width="16" height="16">
0,0,0,0,0,0,0,0,0,0,0,0,0,0,0,0,
0,0,0,0,0,0,0,0,0,0,0,0,0,0,0,0,
0,0,0,0,0,0,0,0,0,0,0,0,0,0,0,0,
0,0,0,0,0,0,0,0,0,0,0,0,0,0,0,0,
0,0,0,0,0,0,0,0,0,0,0,0,0,0,0,0,
0,0,0,0,0,0,0,0,0,0,0,0,0,0,0,0,
0,0,0,0,0,0,0,0,0,0,0,0,0,0,0,0,
0,0,0,0,0,0,0,0,0,0,0,0,0,0,0,0,
559,0,0,0,0,0,0,0,0,0,0,0,0,0,0,0,
0,559,0,0,0,0,0,0,0,0,0,0,0,0,0,0,
0,559,0,0,0,0,0,0,0,0,0,0,0,0,0,0,
0,559,0,0,0,0,0,0,0,0,0,0,0,0,0,0,
0,559,0,0,0,0,0,0,0,0,0,0,0,0,0,0,
0,559,0,0,0,0,0,0,0,0,0,0,0,0,0,0,
0,559,0,0,0,0,0,0,0,0,0,0,0,0,0,0,
0,559,0,0,0,0,0,0,0,0,0,0,0,0,0,0
</chunk>
   <chunk x="32" y="-48" width="16" height="16">
0,0,0,0,0,0,0,559,0,0,0,0,0,0,0,0,
0,0,0,0,0,0,0,559,0,0,0,0,0,0,0,562,
0,0,0,0,0,0,0,559,0,0,0,0,0,0,0,559,
0,0,0,0,0,0,0,559,0,0,0,0,0,0,0,559,
0,0,0,0,0,0,0,559,0,0,0,0,0,0,0,559,
0,0,0,0,0,0,0,559,0,0,0,0,0,0,0,559,
0,0,0,0,0,0,0,559,0,0,0,0,0,0,0,0,
0,0,0,0,0,0,0,559,0,0,0,0,0,0,0,0,
0,0,0,0,0,0,0,559,0,0,0,0,0,0,0,0,
0,0,0,0,0,0,0,559,0,0,0,0,0,0,0,0,
0,0,0,0,0,0,0,559,0,0,0,0,0,0,0,0,
0,0,0,0,0,0,0,559,0,0,0,0,0,0,0,0,
0,0,0,0,0,0,0,559,0,0,0,0,0,0,0,0,
0,0,0,0,0,0,0,559,0,0,0,0,0,0,0,0,
0,0,0,0,0,0,0,559,0,0,0,0,0,0,0,0,
0,0,0,0,0,0,0,559,0,0,0,0,0,0,0,0
</chunk>
   <chunk x="48" y="-48" width="16" height="16">
0,0,0,0,0,0,0,0,0,0,0,0,0,0,0,0,
562,562,0,0,0,0,0,0,0,0,0,0,0,0,0,0,
0,559,0,0,0,0,0,0,0,0,0,0,0,0,0,0,
0,559,0,0,0,0,0,0,0,0,0,0,0,0,0,0,
0,559,0,0,0,0,0,0,0,0,0,0,0,0,0,0,
559,559,0,0,0,0,0,0,0,0,0,0,0,0,0,0,
0,0,0,0,0,0,0,0,0,0,0,0,0,0,0,0,
0,562,562,562,562,562,562,562,562,0,0,0,0,0,0,0,
0,559,0,0,0,0,0,0,559,0,0,0,0,0,0,0,
0,559,0,0,0,0,0,0,559,0,0,0,0,0,0,0,
0,559,0,0,0,0,0,0,559,0,0,0,0,0,0,0,
0,559,559,559,559,559,559,559,559,0,0,0,0,0,0,0,
0,0,0,0,0,0,0,0,0,0,0,0,0,0,0,0,
0,0,0,0,0,0,0,0,0,0,0,0,0,0,0,0,
0,0,0,0,0,0,0,0,0,0,0,0,0,0,0,0,
0,0,0,0,0,0,0,0,0,0,0,0,0,559,559,559
</chunk>
   <chunk x="64" y="-48" width="16" height="16">
0,0,0,0,0,0,0,0,0,0,0,0,0,0,0,0,
0,0,0,0,0,0,0,0,0,0,0,0,0,0,0,0,
0,0,0,0,0,0,0,0,0,0,0,0,0,0,0,0,
0,0,0,0,0,0,0,0,0,0,0,0,0,0,0,0,
0,0,0,0,0,0,0,0,0,0,0,0,0,0,0,0,
0,0,0,0,0,0,0,0,0,0,0,0,0,0,0,0,
0,0,0,0,0,0,0,0,0,0,0,0,0,0,0,0,
0,0,0,0,0,0,0,0,0,0,0,0,0,0,0,0,
0,0,0,0,0,0,0,0,0,0,0,0,0,0,0,0,
0,0,0,0,0,0,0,0,0,0,0,0,0,0,0,0,
0,0,0,0,0,0,0,0,0,0,0,0,0,0,0,0,
0,0,0,0,0,0,0,0,0,0,0,0,0,0,0,0,
0,0,0,0,0,0,0,0,0,0,0,0,0,0,0,0,
0,0,0,0,0,0,0,0,0,0,0,0,0,0,0,0,
0,0,0,0,0,0,0,0,0,0,0,0,0,0,0,0,
559,559,559,559,559,559,559,559,559,559,559,559,559,559,559,559
</chunk>
   <chunk x="80" y="-48" width="16" height="16">
0,0,0,0,0,0,0,0,0,0,0,0,0,0,0,0,
0,0,0,0,0,0,0,0,0,0,0,0,0,0,0,0,
0,0,0,0,0,0,0,0,0,0,0,0,0,0,0,0,
0,0,0,0,0,0,0,0,0,0,0,0,0,0,0,0,
0,0,0,0,0,0,0,0,0,0,0,0,0,0,0,0,
0,0,0,0,0,0,0,0,0,0,0,0,0,0,0,0,
0,0,0,0,0,0,0,0,0,0,0,0,0,0,0,0,
0,0,0,0,0,0,0,0,0,0,0,0,0,0,0,0,
0,0,0,0,0,0,0,0,0,0,0,0,0,0,0,0,
0,0,0,0,0,0,0,0,0,0,0,0,0,0,0,0,
0,0,0,0,0,0,0,0,0,0,0,0,0,0,0,0,
0,0,0,0,0,0,0,0,0,0,0,0,0,0,0,0,
0,0,0,0,0,0,0,0,0,0,0,0,0,0,0,0,
0,0,0,0,0,0,0,0,0,0,0,0,0,0,0,0,
0,0,0,0,0,0,0,0,0,0,0,0,0,0,0,0,
559,559,559,559,559,559,559,559,559,559,559,559,559,559,559,559
</chunk>
   <chunk x="96" y="-48" width="16" height="16">
0,559,0,0,0,0,0,0,0,0,0,0,0,0,0,0,
0,559,0,0,0,0,0,0,0,0,0,0,0,0,0,0,
0,559,0,0,0,0,0,0,0,0,0,0,0,0,0,0,
0,559,0,0,0,0,0,0,0,0,0,0,0,0,0,0,
0,559,0,0,0,0,0,0,0,0,0,0,0,0,0,0,
0,0,559,0,0,0,0,0,0,0,0,0,0,0,0,0,
0,0,559,0,0,0,0,0,0,0,0,0,0,0,0,0,
0,0,559,0,0,0,0,0,0,0,0,0,0,0,0,0,
0,559,0,0,0,0,0,0,0,0,0,0,0,0,0,0,
0,559,0,0,0,0,0,0,0,0,0,0,0,0,0,0,
0,559,0,0,0,0,0,0,0,0,0,0,0,0,0,0,
0,559,0,0,0,0,0,0,0,0,0,0,0,0,0,0,
0,559,0,0,0,0,0,0,0,0,0,0,0,0,0,0,
0,559,0,0,0,0,0,0,0,0,0,0,0,0,0,0,
0,559,0,0,0,0,0,0,0,0,0,0,0,0,0,0,
559,0,0,0,0,0,0,0,0,0,0,0,0,0,0,0
</chunk>
   <chunk x="32" y="-32" width="16" height="16">
0,0,0,0,0,0,0,559,0,0,0,0,0,0,0,0,
0,0,0,0,0,0,0,559,0,0,0,0,0,0,0,0,
0,0,0,0,0,0,0,0,559,559,559,559,559,559,559,559,
0,0,0,0,0,0,0,0,0,0,0,0,0,0,0,0,
0,0,0,0,0,0,0,0,0,0,0,0,0,0,0,0,
0,0,0,0,0,0,0,0,0,0,0,0,0,0,0,0,
0,0,0,0,0,0,0,0,0,0,0,0,0,0,0,0,
0,0,0,0,0,0,0,0,0,0,0,0,0,0,0,0,
0,0,0,0,0,0,0,0,0,0,0,0,0,0,0,0,
0,0,0,0,0,0,0,0,0,0,0,0,0,0,0,0,
0,0,0,0,0,0,0,0,0,0,0,0,0,0,0,0,
0,0,0,0,0,0,0,0,0,0,0,0,0,0,0,0,
0,0,0,0,0,0,0,0,0,0,0,0,0,0,0,0,
0,0,0,0,0,0,0,0,0,0,0,0,0,0,0,0,
0,0,0,0,0,0,0,0,0,0,0,0,0,0,0,0,
0,0,0,0,0,0,0,0,0,0,0,0,0,0,559,559
</chunk>
   <chunk x="48" y="-32" width="16" height="16">
0,0,0,0,0,0,0,0,0,0,0,0,559,0,0,0,
0,0,0,0,0,0,0,0,0,0,0,0,559,0,0,0,
559,559,0,0,0,0,0,0,0,0,0,0,559,0,0,0,
0,0,559,0,0,0,0,0,0,0,0,0,559,0,0,0,
0,0,559,0,0,0,0,0,0,0,0,0,559,0,559,559,
0,0,559,0,0,0,0,0,0,0,0,0,559,559,0,0,
0,0,559,0,0,0,0,0,0,0,0,0,559,559,0,0,
0,0,559,0,0,0,0,0,0,0,0,0,0,0,0,0,
0,0,559,0,0,0,0,0,0,0,0,0,562,562,0,0,
0,0,559,0,0,0,0,0,0,0,0,0,559,559,0,0,
0,0,559,0,0,0,0,0,0,0,0,0,559,559,562,562,
0,0,559,0,0,0,0,0,0,0,0,0,559,0,0,0,
0,0,559,0,0,0,0,0,0,0,0,0,559,559,0,0,
0,0,559,0,0,0,0,0,0,0,0,0,0,0,559,0,
0,0,559,0,0,0,0,0,0,0,0,0,0,0,559,0,
559,0,559,0,0,0,0,0,0,0,0,0,0,0,0,559
</chunk>
   <chunk x="64" y="-32" width="16" height="16">
0,0,0,0,0,0,0,0,0,0,0,0,0,0,0,0,
0,0,0,0,0,0,0,0,0,0,0,0,0,0,0,0,
0,0,0,0,0,0,0,0,0,0,0,0,0,0,0,0,
0,0,0,0,0,0,0,0,0,0,0,0,0,0,0,0,
559,0,0,0,0,0,0,0,0,0,0,0,0,0,0,0,
0,559,0,0,0,0,0,0,0,0,0,0,0,0,0,0,
0,559,0,0,0,0,0,0,0,0,0,0,0,0,0,0,
0,559,0,0,0,0,0,0,0,0,0,0,0,0,0,0,
0,559,0,0,0,0,0,0,0,0,0,0,0,0,0,0,
0,559,0,0,0,0,0,0,0,0,0,0,0,0,0,0,
562,559,0,0,0,0,0,0,0,0,0,0,0,0,0,0,
0,0,0,0,0,0,0,0,0,0,0,0,0,0,0,0,
0,0,0,0,0,0,0,0,0,0,0,0,0,0,0,0,
0,0,0,0,0,0,0,0,0,0,0,0,0,0,0,0,
0,0,0,0,0,0,0,0,0,0,0,0,0,0,0,0,
559,559,0,0,0,0,0,0,0,0,0,0,0,0,0,0
</chunk>
   <chunk x="-16" y="-16" width="16" height="16">
0,0,0,0,0,0,0,0,0,0,0,0,0,0,0,0,
0,0,0,0,0,0,0,0,0,0,0,0,0,0,0,0,
0,0,0,0,0,0,0,0,0,0,0,0,0,0,0,0,
0,0,0,0,0,0,0,0,0,0,0,0,0,0,0,0,
0,0,0,0,0,0,0,0,0,0,0,0,0,0,0,0,
0,0,0,0,0,0,0,0,0,0,0,0,0,0,0,0,
0,0,0,0,0,0,0,0,0,0,0,0,0,0,0,0,
0,0,0,0,0,0,0,0,0,0,0,0,0,0,0,0,
0,0,0,0,0,0,0,0,0,0,0,0,0,0,0,0,
0,0,0,0,0,0,0,0,0,0,0,0,0,0,0,0,
0,0,0,0,0,0,0,0,0,0,0,0,0,0,0,0,
0,0,0,0,0,0,0,0,0,0,0,0,0,0,0,0,
0,0,0,0,0,0,0,0,0,0,0,0,0,0,0,0,
0,0,0,0,0,0,0,0,0,0,0,0,0,0,0,0,
0,0,0,0,0,0,0,0,0,0,559,559,559,559,559,559,
0,0,0,0,0,0,0,0,0,559,0,0,0,0,0,0
</chunk>
   <chunk x="0" y="-16" width="16" height="16">
0,0,0,0,0,0,0,0,0,0,0,0,0,0,0,0,
0,0,0,0,0,0,0,0,0,0,0,0,0,0,0,0,
0,0,0,0,0,0,0,0,0,0,0,0,0,0,0,0,
0,0,0,0,0,0,0,0,0,0,0,0,0,0,0,0,
0,0,0,0,0,0,0,0,0,0,0,0,0,0,0,0,
0,0,0,0,0,0,0,0,0,0,0,0,0,0,0,0,
0,0,0,0,0,0,0,0,0,0,0,0,0,0,0,0,
0,0,0,0,0,0,0,0,0,0,0,0,0,0,0,0,
0,0,0,0,0,0,0,0,0,0,0,0,0,0,0,0,
0,0,0,0,0,0,0,0,0,0,0,0,0,0,0,0,
0,0,0,0,0,0,0,0,0,0,0,0,0,0,0,0,
0,0,0,0,0,559,559,559,559,559,559,559,559,559,559,559,
0,0,0,0,559,0,0,0,0,0,0,0,0,0,0,0,
0,0,0,0,559,0,0,0,0,0,0,0,0,0,0,0,
559,559,559,559,0,0,0,0,0,0,0,0,0,0,0,0,
0,0,0,0,0,0,0,0,0,0,0,0,0,0,0,0
</chunk>
   <chunk x="16" y="-16" width="16" height="16">
0,0,0,0,0,0,0,0,0,0,0,0,0,0,0,0,
0,0,0,0,0,0,0,0,0,0,0,0,0,0,0,0,
0,0,0,0,0,559,559,559,559,559,559,559,559,559,559,559,
0,0,0,0,559,0,0,0,0,0,0,0,0,0,0,0,
0,0,0,0,559,0,0,0,0,0,0,0,0,0,0,0,
0,0,0,0,559,0,0,0,0,0,0,0,0,0,0,0,
0,0,0,0,559,0,0,0,0,0,0,0,0,0,0,0,
0,0,0,0,559,0,0,0,0,0,0,0,0,0,0,0,
0,0,0,0,559,0,0,0,0,0,0,0,0,0,0,0,
0,0,0,0,559,0,0,0,0,0,0,0,0,0,0,0,
0,0,0,0,559,0,0,0,0,0,0,0,0,0,0,0,
559,559,559,559,0,0,0,0,0,0,0,0,0,0,0,0,
0,0,0,0,0,0,0,0,0,0,0,0,0,0,0,0,
0,0,0,0,0,0,0,0,0,0,0,0,0,0,0,0,
0,0,0,0,0,0,0,0,0,0,0,0,0,0,0,0,
0,0,0,0,0,0,0,0,0,0,0,0,0,0,0,0
</chunk>
   <chunk x="32" y="-16" width="16" height="16">
0,0,0,0,0,0,0,0,0,0,0,0,0,559,0,0,
0,0,0,0,0,0,0,0,0,0,0,0,0,559,0,0,
559,0,0,0,0,0,0,0,0,0,0,0,0,559,0,0,
0,559,0,0,0,0,0,0,0,0,559,559,559,559,0,0,
0,559,0,0,0,0,0,0,0,559,0,0,0,0,0,0,
0,559,0,0,0,0,0,0,0,559,0,0,0,0,0,0,
0,559,0,0,0,0,0,0,0,559,0,0,562,562,562,0,
0,559,0,0,0,0,0,0,0,559,0,0,559,0,559,562,
0,559,0,0,0,0,0,0,0,559,0,0,559,0,0,0,
0,559,0,0,0,0,0,0,0,559,0,0,559,0,0,0,
0,559,0,0,0,0,0,0,0,559,0,0,559,0,0,0,
0,559,0,0,0,0,0,0,0,559,0,0,559,0,0,0,
0,559,0,0,0,0,0,0,0,559,0,0,559,0,0,0,
0,559,0,0,0,0,0,559,559,0,0,0,0,559,0,0,
0,559,0,0,0,0,559,0,0,0,0,0,0,0,559,0,
0,559,0,0,0,0,559,562,562,0,0,0,0,562,559,0
</chunk>
   <chunk x="48" y="-16" width="16" height="16">
0,559,559,0,0,0,0,0,0,0,0,0,0,0,0,0,
0,559,559,0,0,0,0,0,0,0,0,0,0,0,0,0,
0,559,559,0,0,0,0,0,0,0,0,0,0,0,0,0,
0,559,559,0,0,0,0,0,0,0,0,0,0,0,0,0,
0,0,0,0,0,0,0,0,0,0,0,0,0,0,0,0,
0,0,0,0,0,0,0,0,0,0,0,0,0,0,0,0,
562,562,0,0,0,0,0,0,0,0,0,0,0,0,0,0,
559,559,0,0,0,0,0,0,0,0,0,0,0,0,0,0,
0,559,0,0,0,0,0,0,0,0,0,0,0,0,0,0,
0,0,559,559,0,0,0,0,0,0,0,0,0,0,0,0,
0,0,0,0,559,0,0,0,0,0,0,0,0,0,0,0,
0,0,0,0,0,559,0,0,0,0,0,0,0,0,0,0,
0,0,0,0,0,0,559,0,0,0,0,0,0,0,0,0,
0,0,0,0,0,0,0,559,559,0,0,0,0,0,559,559,
0,0,0,0,0,0,0,0,0,559,559,559,559,559,0,0,
0,0,0,0,0,0,0,0,0,0,0,0,0,0,0,0
</chunk>
   <chunk x="64" y="-16" width="16" height="16">
0,0,559,0,0,0,0,0,0,0,0,0,0,0,0,0,
0,0,559,0,0,0,0,0,0,0,0,0,0,0,0,0,
0,0,559,0,0,0,0,0,0,0,0,0,0,0,0,0,
0,0,559,0,0,0,0,0,0,0,0,0,0,0,0,0,
0,0,559,0,0,0,0,0,0,0,0,0,0,0,0,0,
0,0,559,0,0,0,0,0,0,0,0,0,0,0,0,0,
0,0,559,0,0,0,0,0,0,0,0,0,0,0,0,0,
0,0,559,0,0,0,0,0,0,0,0,0,0,0,0,0,
0,0,559,0,0,0,0,0,0,0,0,0,0,0,0,0,
0,559,0,0,0,0,0,0,0,0,0,0,0,0,0,0,
0,559,0,0,0,0,0,0,0,0,0,0,0,0,0,0,
0,559,0,0,0,0,0,0,0,0,0,0,0,0,0,0,
559,0,0,0,0,0,0,0,0,0,0,0,0,0,0,0,
0,0,0,0,0,0,0,0,0,0,0,0,0,0,0,0,
0,0,0,0,0,0,0,0,0,0,0,0,0,0,0,0,
0,0,0,0,0,0,0,0,0,0,0,0,0,0,0,0
</chunk>
   <chunk x="-16" y="0" width="16" height="16">
0,0,0,0,0,0,0,0,0,559,0,0,0,0,0,0,
0,0,0,0,0,0,0,0,0,559,0,0,0,0,0,0,
0,0,0,0,0,0,0,0,0,559,0,0,0,0,0,0,
0,0,0,0,0,0,0,0,0,559,0,0,0,0,0,0,
0,0,0,0,0,0,0,0,0,559,0,0,0,0,0,0,
0,0,0,0,0,0,0,0,0,559,0,0,0,0,0,0,
0,0,0,0,0,0,0,0,0,559,0,0,0,0,0,0,
0,0,0,0,0,0,0,0,0,559,0,0,0,0,0,0,
0,0,0,0,0,0,0,0,0,559,0,0,0,0,0,0,
0,0,0,0,0,0,0,0,0,559,0,0,0,0,0,0,
0,0,0,0,0,0,0,0,0,559,0,0,0,0,0,0,
0,0,0,0,0,0,0,0,0,559,0,0,0,0,0,0,
0,0,0,0,0,0,0,0,0,559,0,0,0,0,0,0,
0,0,0,0,0,0,0,0,0,559,0,0,0,0,0,0,
0,0,0,0,0,0,0,0,0,559,0,0,0,0,0,0,
0,0,0,0,0,0,0,0,0,0,559,559,559,559,559,559
</chunk>
   <chunk x="0" y="0" width="16" height="16">
0,0,0,0,0,0,0,0,0,0,0,0,0,0,0,0,
0,0,0,0,0,0,0,0,0,0,0,0,0,0,0,0,
0,0,0,0,0,0,0,0,0,0,0,0,0,0,0,0,
0,0,0,0,0,0,0,0,0,0,0,0,0,0,0,0,
0,0,0,0,0,0,0,0,0,0,0,0,0,0,0,0,
0,0,0,0,0,0,0,0,0,0,0,0,0,0,0,0,
0,0,0,0,0,0,0,0,0,0,0,0,0,0,0,0,
0,0,0,0,0,0,0,0,0,0,0,0,0,0,0,0,
0,0,0,0,0,0,0,0,0,0,0,0,0,0,0,0,
0,0,0,0,0,0,0,0,0,0,0,0,0,0,0,0,
0,0,0,0,0,0,0,0,0,0,0,0,0,0,0,0,
0,0,0,0,0,0,0,0,0,0,0,0,0,0,0,0,
0,0,0,0,0,0,0,0,0,0,0,0,0,0,0,0,
0,0,0,0,0,0,0,0,0,0,0,0,0,0,0,0,
0,0,0,0,0,0,0,0,0,0,0,0,0,0,0,0,
559,559,559,559,559,559,559,559,559,559,559,559,559,559,0,0
</chunk>
   <chunk x="32" y="0" width="16" height="16">
0,559,0,0,0,0,0,0,0,559,0,0,559,0,0,0,
0,559,0,0,0,0,0,0,0,559,0,0,559,0,0,0,
0,559,0,0,0,0,0,0,0,559,0,0,559,0,0,0,
0,559,0,0,0,0,0,0,0,559,0,0,559,0,0,0,
0,559,0,0,0,0,0,0,0,559,0,0,559,0,0,0,
0,559,559,559,559,559,559,559,559,559,0,0,559,559,559,559,
0,0,0,0,0,0,0,0,0,0,0,0,0,0,0,0,
0,0,0,0,0,0,0,0,0,0,0,0,0,0,0,0,
0,0,0,0,0,0,0,0,0,0,0,0,0,0,0,0,
0,0,0,0,0,0,0,0,0,0,0,0,0,0,0,0,
0,0,0,0,0,0,0,0,0,0,0,0,0,0,0,0,
0,0,0,0,0,0,0,0,0,0,0,0,0,0,0,0,
0,0,0,0,0,0,0,0,0,0,0,0,0,0,0,0,
0,0,0,0,0,0,0,0,0,0,0,0,0,0,0,0,
0,0,0,0,0,0,0,0,0,0,0,0,0,0,0,0,
0,0,0,0,0,0,0,0,0,0,0,0,0,0,0,0
</chunk>
   <chunk x="48" y="0" width="16" height="16">
0,0,0,0,0,0,0,0,0,0,0,0,0,0,0,0,
0,0,0,0,0,0,0,0,0,0,0,0,0,0,0,0,
0,0,0,0,0,0,0,0,0,0,0,0,0,0,0,0,
0,0,0,0,0,0,0,0,0,0,0,0,0,0,0,0,
0,0,0,0,0,0,0,0,0,0,0,0,0,0,0,0,
559,0,0,0,0,0,0,0,0,0,0,0,0,0,0,0,
0,559,0,0,0,0,0,0,0,0,0,0,0,0,0,0,
0,0,559,559,559,0,0,0,0,0,0,0,0,0,0,0,
0,0,0,0,0,559,0,0,0,0,0,0,0,0,0,0,
0,0,0,0,0,559,0,0,0,0,0,0,0,0,0,0,
0,0,0,0,0,559,0,0,0,0,0,0,0,0,0,0,
0,0,0,0,0,559,0,0,0,0,0,0,0,0,0,0,
0,0,0,0,0,559,0,0,0,0,0,0,0,0,0,0,
0,0,0,0,0,559,0,0,0,0,0,0,0,0,0,0,
0,0,0,0,0,559,0,0,0,0,0,0,0,0,0,0,
0,0,0,0,0,559,0,0,0,0,0,0,0,0,0,0
</chunk>
   <chunk x="0" y="16" width="16" height="16">
0,0,0,0,0,0,0,0,0,0,0,0,0,0,559,0,
0,0,0,0,0,0,0,0,0,0,0,0,0,0,0,559,
0,0,0,0,0,0,0,0,0,0,0,0,0,0,0,0,
0,0,0,0,0,0,0,0,0,0,0,0,0,0,0,0,
0,0,0,0,0,0,0,0,0,0,0,0,0,0,0,0,
0,0,0,0,0,0,0,0,0,0,0,0,0,0,0,0,
0,0,0,0,0,0,0,0,0,0,0,0,0,0,0,0,
0,0,0,0,0,0,0,0,0,0,0,0,0,0,0,0,
0,0,0,0,0,0,0,0,0,0,0,0,0,0,0,0,
0,0,0,0,0,0,0,0,0,0,0,0,0,0,0,0,
0,0,0,0,0,0,0,0,0,0,0,0,0,0,0,0,
0,0,0,0,0,0,0,0,0,0,0,0,0,0,0,0,
0,0,0,0,0,0,0,0,0,0,0,0,0,0,0,0,
0,0,0,0,0,0,0,0,0,0,0,0,0,0,0,0,
0,0,0,0,0,0,0,0,0,0,0,0,0,0,0,0,
0,0,0,0,0,0,0,0,0,0,0,0,0,0,0,0
</chunk>
   <chunk x="16" y="16" width="16" height="16">
0,0,0,0,0,0,0,0,0,0,0,0,0,0,0,0,
559,0,0,0,0,0,0,0,0,0,0,0,0,0,0,0,
0,559,0,0,0,0,0,0,0,0,0,0,0,0,0,0,
0,0,559,559,559,0,0,0,0,0,0,0,0,0,0,0,
0,0,0,0,0,559,0,0,0,0,0,0,0,0,0,0,
0,0,0,0,0,0,559,0,0,0,0,0,0,0,0,0,
0,0,0,0,0,0,0,559,0,0,0,0,0,0,0,0,
0,0,0,0,0,0,0,559,0,0,0,0,0,0,0,0,
0,0,0,0,0,0,0,559,0,0,0,0,0,0,0,0,
0,0,0,0,0,0,0,559,0,0,0,0,0,0,0,0,
0,0,0,0,0,0,0,559,0,0,0,0,0,0,0,0,
0,0,0,0,0,0,0,559,0,0,0,0,0,0,0,0,
0,0,0,0,0,0,0,559,0,0,0,0,0,0,0,0,
0,0,0,0,0,0,0,559,0,0,0,0,0,0,0,0,
0,0,0,0,0,0,0,559,0,0,0,0,0,0,0,0,
0,0,0,0,0,0,0,0,559,559,559,559,559,559,559,559
</chunk>
   <chunk x="32" y="16" width="16" height="16">
0,0,0,0,0,0,0,0,0,0,0,0,0,0,0,0,
0,0,0,0,0,0,0,0,0,0,0,0,0,0,0,0,
0,0,0,0,0,0,0,0,0,0,0,0,0,0,0,0,
0,0,0,0,0,0,0,0,0,0,0,0,0,0,0,0,
0,0,0,0,0,0,0,0,0,0,0,0,0,0,0,0,
0,0,0,0,0,0,0,0,0,0,0,0,0,0,0,0,
0,0,0,0,0,0,0,0,0,0,0,0,0,0,0,0,
0,0,0,0,0,0,0,0,0,0,0,0,0,0,0,0,
0,0,0,0,0,0,0,0,0,0,0,0,0,0,0,0,
0,0,0,0,0,0,0,0,0,0,0,0,0,0,0,0,
0,0,0,0,0,0,0,0,0,0,0,0,0,0,0,0,
0,0,0,0,0,0,0,0,0,0,0,0,0,0,0,0,
0,0,0,0,0,0,0,0,0,0,0,0,0,0,0,0,
0,0,0,0,0,0,0,0,0,0,0,0,0,0,0,0,
0,0,0,0,0,0,0,0,0,0,0,0,0,0,0,0,
559,559,559,559,559,559,559,559,559,559,559,559,559,559,559,559
</chunk>
   <chunk x="48" y="16" width="16" height="16">
0,0,0,0,0,559,0,0,0,0,0,0,0,0,0,0,
0,0,0,0,0,559,0,0,0,0,0,0,0,0,0,0,
0,0,0,0,0,559,0,0,0,0,0,0,0,0,0,0,
0,0,0,0,0,559,0,0,0,0,0,0,0,0,0,0,
0,0,0,0,0,559,0,0,0,0,0,0,0,0,0,0,
0,0,0,0,0,559,0,0,0,0,0,0,0,0,0,0,
0,0,0,0,0,559,0,0,0,0,0,0,0,0,0,0,
0,0,0,0,0,559,0,0,0,0,0,0,0,0,0,0,
0,0,0,0,0,559,0,0,0,0,0,0,0,0,0,0,
0,0,0,0,0,559,0,0,0,0,0,0,0,0,0,0,
0,0,0,0,0,559,0,0,0,0,0,0,0,0,0,0,
0,0,0,0,0,559,0,0,0,0,0,0,0,0,0,0,
0,0,0,0,0,559,0,0,0,0,0,0,0,0,0,0,
0,0,0,0,0,559,0,0,0,0,0,0,0,0,0,0,
0,0,0,559,559,0,0,0,0,0,0,0,0,0,0,0,
559,559,559,0,0,0,0,0,0,0,0,0,0,0,0,0
</chunk>
  </data>
 </layer>
</map>
