<?xml version="1.0" encoding="UTF-8"?>
<map version="1.10" tiledversion="1.10.1" orientation="orthogonal" renderorder="right-down" width="30" height="20" tilewidth="32" tileheight="32" infinite="1" nextlayerid="38" nextobjectid="819">
 <tileset firstgid="1" source="0_TimeTravel_Dungeon.tsx"/>
 <tileset firstgid="257" source="1_TimeTravel_Spinis.tsx"/>
 <tileset firstgid="293" source="0_TimeTravel_Vases.tsx"/>
 <tileset firstgid="299" source="0_TimeTravel_Chest.tsx"/>
 <tileset firstgid="305" source="0_TimeTravel_Lever.tsx"/>
 <tileset firstgid="308" source="0_Dark.tsx"/>
 <tileset firstgid="338" source="0_TimeTravel_WoodenTablets.tsx"/>
 <tileset firstgid="342" source="0_TimeTravel_VillageToilet.tsx"/>
 <tileset firstgid="343" source="0_TimeTravel_SpikyLog.tsx"/>
 <tileset firstgid="344" source="0_TimeTravel_Barrels.tsx"/>
 <tileset firstgid="360" source="0_TimeTravel_CrossbowStand.tsx"/>
 <tileset firstgid="363" source="0_TimeTravel_Crossbow.tsx"/>
 <tileset firstgid="390" source="0_TimeTravel_Stones.tsx"/>
 <tileset firstgid="402" source="0_TimeTravel_Woods.tsx"/>
 <tileset firstgid="411" source="0_TimeTravel_TrollStatue.tsx"/>
 <tileset firstgid="412" source="0_TimeTravel_MovingTower.tsx"/>
 <tileset firstgid="442" source="0_TimeTravel_WarningTablet.tsx"/>
 <tileset firstgid="444" source="0_TimeTravel_WarningArrow.tsx"/>
 <tileset firstgid="446" source="0_TimeTravel_Torch.tsx"/>
 <tileset firstgid="451" source="0_TimeTravel_SafetyZone.tsx"/>
 <tileset firstgid="452" source="0_TimeTravel_StalagmiteGiant.tsx"/>
 <tileset firstgid="453" source="0_TimeTravel_StoneThorns.tsx"/>
 <tileset firstgid="458" source="0_TimeTravel_Bones.tsx"/>
 <tileset firstgid="465" source="0_TimeTravel_WoodenSign.tsx"/>
 <tileset firstgid="468" source="0_TimeTravel_Morgenstern.tsx"/>
 <tileset firstgid="469" source="0_TimeTravel_WoodenSignLeftRight.tsx"/>
 <tileset firstgid="470" source="0_TimeTravel_Note.tsx"/>
 <tileset firstgid="473" source="0_TimeTravel_StoneStatues.tsx"/>
 <tileset firstgid="476" source="0_TimeTravel_Banners1.tsx"/>
 <tileset firstgid="478" source="0_TimeTravel_Pie.tsx"/>
 <tileset firstgid="479" source="0_TimeTravel_WoodenTabletsBig.tsx"/>
 <tileset firstgid="482" source="0_TimeTravel_Flags.tsx"/>
 <tileset firstgid="498" source="0_TimeTravel_PuppetsOnPoles.tsx"/>
 <tileset firstgid="502" source="0_TimeTravel_SmallDecor.tsx"/>
 <tileset firstgid="514" source="0_TimeTravel_GeneralFivefinger.tsx"/>
 <tileset firstgid="518" source="0_TimeTravel_Lute.tsx"/>
 <tileset firstgid="519" source="0_TimeTravel_BannerArrow.tsx"/>
 <tileset firstgid="521" source="0_TimeTravel_SignageBannersRed.tsx"/>
 <tileset firstgid="522" source="0_TimeTravel_Target.tsx"/>
 <tileset firstgid="524" source="0_TimeTravel_ArrowStatue.tsx"/>
 <tileset firstgid="525" source="0_TimeTravel_SpearArrow.tsx"/>
 <tileset firstgid="526" source="0_TimeTravel_WoodenTablet.tsx"/>
 <tileset firstgid="538" source="0_TimeTravel_Chains.tsx"/>
 <tileset firstgid="549" source="0_TimeTravel_Banners2.tsx"/>
 <tileset firstgid="555" source="0_TimeTravel_OilLamp.tsx"/>
 <tileset firstgid="558" source="0_InvisibleWall.tsx"/>
 <tileset firstgid="564" source="0_TimeTravel_DungeonLaboratory.tsx"/>
 <tileset firstgid="820" source="0_TimeTravel_WallDecor.tsx"/>
 <tileset firstgid="836" source="0_TimeTravel_BarrelOfWeapon.tsx"/>
 <tileset firstgid="837" source="0_TimeTravel_WoodenTableBread.tsx"/>
 <tileset firstgid="838" source="0_TimeTravel_Stool.tsx"/>
 <tileset firstgid="839" source="0_TimeTravel_FlimsyDecor.tsx"/>
 <tileset firstgid="842" source="0_TimeTravel_Food.tsx"/>
 <tileset firstgid="845" source="0_TimeTravel_HayGiant.tsx"/>
 <tileset firstgid="848" source="0_TimeTravel_WoodenCircularSaw.tsx"/>
 <tileset firstgid="866" source="0_TimeTravel_Mannequin.tsx"/>
 <tileset firstgid="872" source="0_TimeTravel_WoodenTable2.tsx"/>
 <tileset firstgid="873" source="0_TimeTravel_Alchemy1.tsx"/>
 <tileset firstgid="874" source="0_TimeTravel_Alchemy2.tsx"/>
 <tileset firstgid="878" source="0_TimeTravel_Alchemy3.tsx"/>
 <tileset firstgid="882" source="0_TimeTravel_Bookshelf.tsx"/>
 <tileset firstgid="883" source="0_TimeTravel_Cage3.tsx"/>
 <tileset firstgid="884" source="0_TimeTravel_MedievalTorture.tsx"/>
 <tileset firstgid="890" source="0_TimeTravel_MiniBarrel.tsx"/>
 <tileset firstgid="894" source="0_TimeTravel_IronHumanShapedCage.tsx"/>
 <tileset firstgid="896" source="0_TimeTravel_SwingingBalls.tsx"/>
 <tileset firstgid="900" source="0_TimeTravel_Cage2.tsx"/>
 <tileset firstgid="901" source="0_TimeTravel_WoodenTableMushroom.tsx"/>
 <tileset firstgid="902" source="0_TimeTravel_MushroomsInPots.tsx"/>
 <tileset firstgid="918" source="0_TimeTravel_StateOfGod.tsx"/>
 <tileset firstgid="919" source="0_TimeTravel_PictureWings.tsx"/>
 <tileset firstgid="920" source="0_TimeTravel_BasketWithFlowersPurple.tsx"/>
 <tileset firstgid="921" source="0_TimeTravel_BarrelCheese.tsx"/>
 <layer id="33" name="Ditch" width="30" height="20">
  <data encoding="csv">
   <chunk x="32" y="0" width="16" height="16">
0,0,0,0,0,0,0,0,0,0,0,0,0,0,0,0,
0,0,0,0,0,0,0,0,0,0,0,0,0,0,0,0,
0,0,0,0,0,0,0,0,0,0,0,0,0,0,0,0,
0,0,0,0,0,0,0,0,0,0,0,0,0,0,0,0,
0,0,0,0,0,0,0,0,0,0,0,0,0,0,0,0,
0,0,0,0,0,0,0,0,0,0,0,0,0,0,0,0,
0,0,0,0,0,0,0,0,0,0,0,0,0,0,0,0,
0,0,0,0,0,0,0,0,0,0,0,0,0,0,0,0,
0,0,0,0,0,0,0,0,0,0,0,0,0,0,0,0,
0,0,0,0,0,0,0,0,0,0,0,0,0,0,0,0,
0,0,0,0,0,0,0,0,0,0,700,685,701,0,0,0,
0,0,0,0,0,0,0,0,0,0,0,0,0,0,0,0,
0,0,0,0,0,0,0,0,0,0,0,0,0,0,0,0,
0,0,0,0,0,0,0,0,0,0,0,0,0,0,0,0,
0,0,0,0,0,0,0,0,0,0,0,0,0,0,0,0,
0,0,0,0,0,0,0,0,0,0,0,0,0,0,0,0
</chunk>
   <chunk x="48" y="0" width="16" height="16">
0,0,0,0,0,0,0,0,0,0,0,0,0,0,0,0,
0,0,0,0,0,0,0,0,0,0,0,0,0,0,0,0,
0,0,0,0,0,0,0,0,0,0,0,0,0,0,0,0,
0,0,0,0,0,0,0,0,0,0,0,0,0,0,0,0,
0,0,0,0,0,0,0,0,0,0,0,0,0,0,0,0,
0,0,0,0,0,0,0,0,0,0,0,684,0,0,0,0,
0,0,0,0,0,0,0,0,0,0,0,0,0,0,0,0,
0,0,0,0,0,0,0,0,0,0,0,0,0,0,0,0,
0,0,0,0,0,0,0,0,0,0,0,0,0,0,0,0,
0,0,0,0,0,0,0,0,0,0,0,0,0,0,0,0,
0,0,0,0,0,0,0,0,0,0,0,0,0,0,0,0,
0,0,0,0,0,0,0,0,0,0,0,0,0,0,0,0,
0,0,0,0,0,0,0,0,0,0,0,0,0,0,0,0,
0,0,0,0,0,0,0,0,0,0,0,0,0,0,0,0,
0,0,0,0,0,0,0,0,0,0,0,0,0,0,0,0,
0,0,0,0,0,0,0,0,0,0,0,0,0,0,0,0
</chunk>
  </data>
 </layer>
 <layer id="1" name="Floor" width="30" height="20">
  <data encoding="csv">
   <chunk x="64" y="-48" width="16" height="16">
0,0,0,0,0,0,0,0,0,0,0,0,0,0,0,0,
0,0,0,0,0,0,0,0,0,0,0,0,0,0,0,0,
0,0,0,0,0,0,0,0,0,0,0,0,0,0,0,0,
0,0,0,0,0,0,0,0,0,0,0,0,0,0,0,0,
0,0,0,0,0,0,0,0,0,0,0,0,0,0,0,0,
308,308,0,0,0,0,0,0,0,0,0,0,0,0,0,0,
308,308,0,0,0,0,0,0,0,0,0,0,0,0,0,0,
308,308,0,0,0,0,0,0,0,0,0,0,0,0,0,0,
664,664,0,0,0,0,0,0,0,0,0,0,0,0,0,0,
664,664,0,0,0,0,0,0,0,0,0,0,0,0,0,0,
620,621,0,0,0,0,0,0,0,0,0,0,0,0,0,0,
2147484301,2147484300,0,0,0,0,0,0,0,0,0,0,0,0,0,0,
652,653,0,0,0,0,0,0,0,0,0,0,0,0,0,0,
636,637,0,0,0,0,0,0,0,0,0,0,0,0,0,0,
2147484301,2147484300,0,0,0,0,0,0,0,0,0,0,0,0,0,0,
652,653,0,0,0,0,0,0,0,0,0,0,0,0,0,0
</chunk>
   <chunk x="64" y="-32" width="16" height="16">
652,653,0,0,0,0,0,0,0,0,0,0,0,0,0,0,
2147484301,2147484300,0,0,0,0,0,0,0,0,0,0,0,0,0,0,
652,653,0,0,0,0,0,0,0,0,0,0,0,0,0,0,
636,637,0,0,0,0,0,0,0,0,0,0,0,0,0,0,
2147484285,2147484284,0,0,0,0,0,0,0,0,0,0,0,0,0,0,
652,653,0,0,0,0,0,0,0,0,0,0,0,0,0,0,
2147484285,2147484284,0,0,0,0,0,0,0,0,0,0,0,0,0,0,
636,637,0,0,0,0,0,0,0,0,0,0,0,0,0,0,
652,653,0,0,0,0,0,0,0,0,0,0,0,0,0,0,
652,653,0,0,0,0,0,0,0,0,0,0,0,0,0,0,
2147484301,2147484300,0,0,0,0,0,0,0,0,0,0,0,0,0,0,
636,637,0,0,0,0,0,0,0,0,0,0,0,0,0,0,
652,653,0,0,0,0,0,0,0,0,0,0,0,0,0,0,
668,669,0,0,0,0,0,0,0,0,0,0,0,0,0,0,
664,664,0,0,0,0,0,0,0,0,0,0,0,0,0,0,
664,664,0,0,0,0,0,0,0,0,0,0,0,0,0,0
</chunk>
   <chunk x="0" y="-16" width="16" height="16">
0,0,0,0,0,0,0,0,0,0,0,0,0,0,0,0,
0,0,0,0,0,0,0,0,0,0,0,0,0,0,0,0,
0,0,0,0,0,0,0,0,0,0,0,0,0,0,0,0,
0,0,0,0,0,0,0,0,0,664,664,664,664,0,0,664,
0,0,0,0,0,0,0,0,0,664,664,664,664,664,664,664,
0,0,0,0,0,0,0,0,0,664,664,664,664,664,664,664,
0,0,0,0,0,0,0,0,0,0,664,664,0,0,0,0,
0,0,0,0,0,0,0,0,0,0,664,664,0,0,0,0,
0,0,0,0,0,0,0,0,0,0,664,664,0,0,0,0,
0,0,0,0,0,0,0,0,0,0,664,664,0,0,0,0,
0,0,0,0,0,0,0,0,0,0,664,664,0,0,0,0,
0,0,0,0,0,0,0,664,664,664,664,664,664,664,664,664,
0,0,0,0,0,0,0,0,664,664,0,0,0,0,0,0,
0,0,0,0,0,0,0,0,664,664,0,0,0,0,0,0,
0,0,0,0,0,0,0,0,664,664,0,0,0,0,0,0,
0,0,0,0,0,0,0,0,664,664,0,0,0,0,0,0
</chunk>
   <chunk x="16" y="-16" width="16" height="16">
0,0,0,0,0,0,0,0,0,0,0,0,0,0,0,0,
0,0,0,0,0,0,0,0,0,0,0,0,0,0,0,0,
0,0,0,0,0,0,0,0,0,0,0,0,0,0,0,0,
664,664,664,0,0,0,0,0,0,0,0,0,0,0,0,0,
664,664,664,0,0,0,0,0,0,0,0,0,0,0,0,0,
664,664,664,0,0,0,0,0,0,0,0,0,0,0,0,0,
664,664,0,0,0,0,0,0,0,0,0,0,0,0,0,0,
664,664,0,0,0,0,0,0,0,0,0,0,0,0,0,0,
664,664,0,0,0,0,0,0,0,0,0,0,0,0,0,0,
664,664,0,0,0,0,0,0,0,0,0,0,0,0,0,0,
664,664,0,0,0,664,664,664,664,664,664,664,664,664,664,664,
664,664,664,664,664,664,664,664,664,664,664,664,664,664,664,664,
0,0,0,0,0,664,664,664,664,664,664,664,664,664,664,664,
0,0,0,0,0,0,0,0,0,0,0,0,0,0,0,0,
0,0,0,0,0,0,0,0,0,0,0,0,0,0,0,0,
0,0,0,0,0,0,0,0,0,0,0,0,0,0,0,0
</chunk>
   <chunk x="32" y="-16" width="16" height="16">
0,0,0,0,0,0,0,0,0,0,0,0,0,0,0,0,
0,0,0,0,0,0,0,0,0,0,0,0,0,0,0,0,
0,0,0,0,0,0,0,0,0,0,0,0,0,0,0,0,
0,0,0,0,0,0,0,0,0,0,0,0,0,0,0,0,
0,0,0,0,0,0,0,0,0,0,0,0,0,0,0,0,
0,0,0,0,0,0,0,0,0,0,0,0,0,0,0,0,
0,0,0,0,0,0,0,0,0,0,0,0,0,0,0,0,
0,0,0,0,0,0,0,0,0,0,0,0,0,0,0,0,
0,0,0,0,0,0,0,0,0,0,0,0,0,0,0,0,
0,0,0,0,0,0,0,0,664,664,0,0,664,664,664,664,
664,664,664,664,664,0,0,0,664,664,664,664,664,664,664,664,
664,664,664,664,664,664,664,664,664,664,664,664,664,664,664,664,
664,664,664,664,664,0,0,0,664,664,664,664,664,664,664,664,
0,0,0,0,0,0,0,0,664,664,664,664,664,664,664,664,
0,0,0,0,0,0,0,0,664,664,664,0,0,0,664,664,
0,0,0,0,0,0,0,0,664,664,664,0,0,0,664,664
</chunk>
   <chunk x="48" y="-16" width="16" height="16">
0,0,0,0,0,0,0,0,0,0,0,0,0,0,0,0,
0,0,0,0,0,0,0,0,0,0,0,0,0,0,0,0,
0,0,0,0,0,0,0,0,0,0,0,0,0,0,0,0,
0,0,0,0,0,0,0,0,0,0,0,0,0,0,0,0,
0,0,0,0,0,0,0,0,0,0,0,0,0,0,0,0,
0,0,0,0,0,0,0,0,0,0,0,0,0,0,0,0,
0,0,0,0,0,0,0,0,0,0,0,0,0,0,0,0,
0,0,0,0,0,0,0,0,0,0,0,0,0,0,0,0,
0,0,0,0,0,0,0,0,0,0,0,0,0,0,0,0,
664,664,0,0,0,0,0,0,0,0,0,0,0,0,0,0,
664,664,0,0,0,0,0,0,0,0,0,0,0,0,0,0,
664,664,664,664,664,664,664,664,664,0,0,0,0,0,0,0,
664,664,664,664,664,664,664,664,664,664,664,664,664,664,664,664,
664,664,664,664,664,664,664,664,664,664,664,664,664,664,664,664,
664,664,664,664,0,0,664,664,664,0,0,0,0,0,0,0,
664,664,664,664,0,0,664,664,664,0,0,0,0,0,0,0
</chunk>
   <chunk x="64" y="-16" width="16" height="16">
664,664,0,0,0,0,0,0,0,0,0,0,0,0,0,0,
664,664,0,0,0,0,0,0,0,0,0,0,0,0,0,0,
664,664,0,0,0,0,0,0,0,0,0,0,0,0,0,0,
664,664,0,0,0,0,0,0,0,0,0,0,0,0,0,0,
664,664,0,0,0,0,0,0,0,0,0,0,0,0,0,0,
664,664,0,0,0,0,0,0,0,0,0,0,0,0,0,0,
664,664,0,0,0,0,0,0,0,0,0,0,0,0,0,0,
664,664,0,0,0,0,0,0,0,0,0,0,0,0,0,0,
664,664,0,0,0,0,0,0,0,0,0,0,0,0,0,0,
664,664,0,0,0,0,0,0,0,0,0,0,0,0,0,0,
664,664,0,0,0,0,0,0,0,0,0,0,0,0,0,0,
664,664,0,0,0,0,0,0,0,0,0,0,0,0,0,0,
664,664,0,0,0,0,0,0,0,0,0,0,0,0,0,0,
664,664,0,0,0,0,0,0,0,0,0,0,0,0,0,0,
0,0,0,0,0,0,0,0,0,0,0,0,0,0,0,0,
0,0,0,0,0,0,0,0,0,0,0,0,0,0,0,0
</chunk>
   <chunk x="-16" y="0" width="16" height="16">
0,0,0,0,0,0,0,0,0,0,0,0,0,0,0,0,
0,0,0,0,0,0,0,0,0,0,0,0,0,0,0,664,
0,0,0,0,0,0,0,0,0,0,0,0,0,0,0,664,
0,0,0,0,0,0,0,0,0,0,0,0,0,0,0,664,
0,0,0,0,0,0,0,0,0,0,0,0,0,0,0,0,
0,0,0,0,0,0,0,0,0,0,0,0,0,0,0,0,
0,0,0,0,0,0,0,0,0,0,0,0,0,0,0,0,
0,0,0,0,0,0,0,0,0,0,0,0,0,0,0,0,
0,0,0,0,0,0,0,0,0,0,0,0,0,0,0,0,
0,0,0,0,0,0,0,0,0,0,0,664,664,664,0,0,
0,0,0,0,0,0,0,0,0,0,0,664,664,664,664,664,
0,0,0,0,0,0,0,0,0,0,0,0,0,0,0,0,
0,0,0,0,0,0,0,0,0,0,0,0,0,0,0,0,
0,0,0,0,0,0,0,0,0,0,0,0,0,0,0,0,
0,0,0,0,0,0,0,0,0,0,0,0,0,0,0,0,
0,0,0,0,0,0,0,0,0,0,0,0,0,0,0,0
</chunk>
   <chunk x="0" y="0" width="16" height="16">
0,0,0,0,0,0,0,0,664,664,0,0,0,0,0,0,
664,664,664,664,0,0,0,0,664,664,0,0,0,0,0,0,
664,664,664,664,664,664,664,664,664,664,0,0,0,0,0,0,
664,664,664,664,664,664,664,664,664,664,0,0,0,0,0,0,
664,664,664,0,0,0,0,0,0,0,0,0,0,0,0,0,
664,664,664,0,0,0,0,0,0,0,0,0,0,0,0,0,
664,664,664,0,0,0,0,0,0,0,0,0,0,0,0,0,
664,664,664,0,0,0,0,0,0,0,0,0,0,0,0,0,
664,664,664,0,0,0,0,0,0,0,0,0,0,0,0,0,
664,664,664,0,0,664,664,664,0,0,0,0,0,0,0,0,
664,664,664,664,664,664,664,664,0,0,0,0,0,0,0,0,
664,664,664,0,0,0,0,0,0,0,0,0,0,0,0,0,
664,664,664,0,0,0,0,0,0,0,0,0,0,0,0,0,
664,664,664,0,0,0,0,0,0,0,0,0,0,0,0,0,
664,664,664,0,0,0,0,0,0,0,0,0,0,0,0,0,
664,664,664,0,0,0,0,0,0,0,0,0,0,0,0,0
</chunk>
   <chunk x="32" y="0" width="16" height="16">
0,0,0,0,0,0,0,0,664,664,664,0,0,0,664,664,
0,0,0,0,0,0,0,0,664,664,664,0,0,0,664,664,
0,0,0,0,0,0,0,0,664,664,664,0,0,0,664,664,
0,0,0,0,0,0,0,0,664,664,664,0,0,0,664,664,
0,0,0,0,0,0,0,0,664,664,664,0,0,0,664,664,
0,0,0,0,0,0,0,0,664,664,664,664,664,664,664,664,
0,0,0,0,0,0,0,0,664,664,664,664,664,664,664,664,
0,0,0,0,0,0,0,0,664,664,664,664,664,664,664,664,
0,0,0,0,0,0,0,0,664,664,664,664,664,664,664,664,
0,0,0,0,0,0,0,0,664,664,664,664,664,664,664,664,
0,0,0,0,0,0,0,0,664,664,0,0,0,664,664,664,
0,0,0,0,0,0,0,0,0,0,0,0,0,0,0,0,
0,0,0,0,0,0,0,0,0,0,0,664,0,0,0,0,
0,0,0,0,0,0,0,0,0,0,0,0,0,0,0,0,
0,0,0,0,0,0,0,0,0,0,0,0,0,0,0,0,
0,0,0,0,0,0,0,0,0,0,0,0,0,0,0,0
</chunk>
   <chunk x="48" y="0" width="16" height="16">
664,664,0,0,0,0,664,664,664,0,0,0,0,0,0,0,
664,664,0,0,0,0,664,664,664,0,0,0,0,0,0,0,
664,664,0,0,0,0,664,664,664,0,0,0,0,0,0,0,
664,664,0,0,0,0,664,664,664,0,0,0,0,0,0,0,
664,664,0,0,0,0,664,664,664,0,0,664,0,0,0,0,
664,664,0,0,0,0,664,664,664,0,0,0,0,0,0,0,
664,664,664,664,664,664,664,664,664,0,0,0,0,0,0,0,
664,664,664,664,664,664,664,664,664,0,0,0,0,0,0,0,
664,664,664,664,664,664,664,664,664,0,0,0,0,0,0,0,
0,0,0,0,664,664,664,664,664,0,0,0,0,0,0,0,
0,0,0,0,664,664,664,664,664,0,0,0,0,0,0,0,
0,0,0,0,0,0,0,0,0,0,0,0,0,0,0,0,
0,0,0,0,0,0,0,0,0,0,0,0,0,0,0,0,
0,0,0,0,0,0,0,0,0,0,0,0,0,0,0,0,
0,0,0,0,0,0,0,0,0,0,0,0,0,0,0,0,
0,0,0,0,0,0,0,0,0,0,0,0,0,0,0,0
</chunk>
   <chunk x="-16" y="16" width="16" height="16">
0,0,0,0,0,0,0,0,0,0,0,664,664,664,0,0,
0,0,0,0,0,0,0,0,0,0,0,664,664,664,664,664,
0,0,0,0,0,0,0,0,0,0,0,0,0,0,0,0,
0,0,0,0,0,0,0,0,0,0,0,0,0,0,0,0,
0,0,0,0,0,0,0,0,0,0,0,0,0,0,0,0,
0,0,0,0,0,0,0,0,0,0,0,0,0,0,0,0,
0,0,0,0,0,0,0,0,0,0,0,0,0,0,0,0,
0,0,0,0,0,0,0,0,0,0,0,664,664,664,0,0,
0,0,0,0,0,0,0,0,0,0,0,664,664,664,664,664,
0,0,0,0,0,0,0,0,0,0,0,0,0,0,0,0,
0,0,0,0,0,0,0,0,0,0,0,0,0,0,0,0,
0,0,0,0,0,0,0,0,0,0,0,0,0,0,0,0,
0,0,0,0,0,0,0,0,0,0,0,0,0,0,0,0,
0,0,0,0,0,0,0,0,0,0,0,0,0,0,0,0,
0,0,0,0,0,0,0,0,0,0,0,0,0,0,0,0,
0,0,0,0,0,0,0,0,0,0,0,0,0,0,0,0
</chunk>
   <chunk x="0" y="16" width="16" height="16">
664,664,664,0,0,664,664,664,0,0,0,0,0,0,0,0,
664,664,664,664,664,664,664,664,0,0,0,0,0,0,0,0,
664,664,664,0,0,0,0,0,0,0,0,0,0,0,0,0,
664,664,664,0,0,0,0,0,0,0,0,0,0,0,0,0,
664,664,664,0,0,0,0,0,0,0,0,0,0,0,0,0,
664,664,664,0,0,0,0,0,0,0,0,0,0,0,0,0,
664,664,664,0,0,0,0,0,0,0,0,0,0,0,0,0,
664,664,664,0,0,664,664,664,0,0,0,0,0,0,0,0,
664,664,664,664,664,664,664,664,0,0,0,0,0,0,0,0,
664,664,664,0,0,0,0,0,0,0,0,0,0,0,0,0,
664,664,664,0,0,0,0,0,0,0,0,0,0,0,0,0,
664,664,664,0,0,0,0,0,0,0,0,0,0,0,0,0,
664,664,664,0,0,0,0,0,0,0,0,0,0,0,0,0,
664,664,664,0,0,0,0,0,0,0,0,0,0,0,0,0,
664,664,664,0,0,0,0,0,0,0,0,0,0,0,0,0,
664,664,664,0,0,0,0,0,0,0,0,0,0,0,0,0
</chunk>
   <chunk x="-16" y="32" width="16" height="16">
0,0,0,0,0,0,0,0,0,0,0,0,0,0,0,0,
0,0,0,0,0,0,0,0,0,0,0,0,0,0,0,0,
0,0,0,0,0,0,0,0,0,0,0,0,0,0,0,0,
0,0,0,0,0,0,0,0,0,0,0,0,0,0,0,0,
0,0,0,0,0,0,0,0,0,0,0,0,0,0,0,0,
0,0,0,0,0,0,0,0,0,0,0,0,0,0,0,0,
0,0,0,0,0,0,0,0,0,0,0,0,0,0,0,0,
0,0,0,0,0,0,0,0,0,0,0,0,0,0,0,0,
0,0,0,0,0,0,0,0,0,0,0,0,0,0,0,0,
0,0,0,0,0,0,0,0,0,0,0,0,0,0,0,0,
0,0,0,0,0,0,0,0,0,0,0,0,0,0,664,664,
0,0,0,0,0,0,0,0,0,0,0,0,0,0,664,664,
0,0,0,0,0,0,0,0,0,0,0,0,0,0,664,664,
0,0,0,0,0,0,0,0,0,0,0,0,0,0,0,0,
0,0,0,0,0,0,0,0,0,0,0,0,0,0,0,0,
0,0,0,0,0,0,0,0,0,0,0,0,0,0,0,0
</chunk>
   <chunk x="0" y="32" width="16" height="16">
664,664,664,0,0,0,0,0,0,0,0,0,0,0,0,0,
664,664,664,0,0,0,0,0,0,0,0,0,0,0,0,0,
664,664,664,0,0,0,0,0,0,0,0,0,0,0,0,0,
664,664,664,0,0,0,0,0,0,0,0,0,0,0,0,0,
664,664,664,0,0,0,0,0,0,0,0,0,0,0,0,0,
664,664,664,0,0,0,0,0,0,0,0,0,0,0,0,0,
664,664,664,0,0,0,0,0,0,0,0,0,0,0,0,0,
664,664,664,0,0,0,0,0,0,0,0,0,0,0,0,0,
664,664,664,0,0,0,0,0,0,0,0,0,0,0,0,0,
664,664,664,664,664,664,664,664,0,0,0,0,0,0,0,0,
664,664,664,664,664,664,664,664,0,0,0,0,0,0,0,0,
664,664,664,664,664,664,664,664,0,0,0,0,0,0,0,0,
664,664,664,664,664,664,664,664,0,0,0,0,0,0,0,0,
664,664,664,0,0,0,0,0,0,0,0,0,0,0,0,0,
664,664,664,0,0,0,0,0,0,0,0,0,0,0,0,0,
664,664,664,0,0,0,0,0,0,0,0,0,0,0,0,0
</chunk>
   <chunk x="0" y="48" width="16" height="16">
664,664,664,0,0,0,0,0,0,0,0,0,0,0,0,0,
664,664,664,0,0,0,0,0,0,0,0,0,0,0,0,0,
664,664,664,0,0,0,0,0,0,0,0,0,0,0,0,0,
664,664,664,0,0,0,0,0,0,0,0,0,0,0,0,0,
664,664,664,0,0,0,0,0,0,0,0,0,0,0,0,0,
664,664,664,0,0,0,0,0,0,0,0,0,0,0,0,0,
664,664,664,664,664,664,0,0,0,0,0,0,0,0,0,0,
664,664,664,664,664,664,0,0,0,0,0,0,0,0,0,0,
664,664,664,664,664,664,0,0,0,0,0,0,0,0,0,0,
0,0,0,0,0,0,0,0,0,0,0,0,0,0,0,0,
0,0,0,0,0,0,0,0,0,0,0,0,0,0,0,0,
0,0,0,0,0,0,0,0,0,0,0,0,0,0,0,0,
0,0,0,0,0,0,0,0,0,0,0,0,0,0,0,0,
0,0,0,0,0,0,0,0,0,0,0,0,0,0,0,0,
0,0,0,0,0,0,0,0,0,0,0,0,0,0,0,0,
0,0,0,0,0,0,0,0,0,0,0,0,0,0,0,0
</chunk>
  </data>
 </layer>
 <layer id="23" name="FloorDecor" width="30" height="20">
  <data encoding="csv">
   <chunk x="32" y="-16" width="16" height="16">
0,0,0,0,0,0,0,0,0,0,0,0,0,0,0,0,
0,0,0,0,0,0,0,0,0,0,0,0,0,0,0,0,
0,0,0,0,0,0,0,0,0,0,0,0,0,0,0,0,
0,0,0,0,0,0,0,0,0,0,0,0,0,0,0,0,
0,0,0,0,0,0,0,0,0,0,0,0,0,0,0,0,
0,0,0,0,0,0,0,0,0,0,0,0,0,0,0,0,
0,0,0,0,0,0,0,0,0,0,0,0,0,0,0,0,
0,0,0,0,0,0,0,0,0,0,0,0,0,0,0,0,
0,0,0,0,0,0,0,0,0,0,0,0,0,0,0,0,
0,0,0,0,0,0,0,0,0,0,0,0,0,0,0,856,
0,0,0,0,0,0,0,0,0,0,0,0,0,0,0,864,
0,0,0,0,0,0,0,0,0,0,0,0,0,0,0,864,
0,0,0,0,0,0,0,0,0,0,0,0,0,0,0,864,
0,0,0,0,0,0,0,0,0,0,0,0,0,0,0,864,
0,0,0,0,0,0,0,0,0,0,0,0,0,0,0,864,
0,0,0,0,0,0,0,0,0,0,0,0,0,0,0,864
</chunk>
   <chunk x="32" y="0" width="16" height="16">
0,0,0,0,0,0,0,0,0,0,0,0,0,0,0,864,
0,0,0,0,0,0,0,0,0,0,0,0,0,0,0,864,
0,0,0,0,0,0,0,0,0,0,0,0,0,0,0,864,
0,0,0,0,0,0,0,0,0,0,0,0,0,0,0,864,
0,0,0,0,0,0,0,0,0,0,0,0,0,0,0,864,
0,0,0,0,0,0,0,0,0,0,0,0,0,0,0,864,
0,0,0,0,0,0,0,0,0,0,0,0,0,0,0,864,
0,0,0,0,0,0,0,0,0,0,0,0,0,0,0,864,
0,0,0,0,0,0,0,0,0,0,0,0,0,0,0,864,
0,0,0,0,0,0,0,0,0,0,0,0,0,0,0,865,
0,0,0,0,0,0,0,0,0,0,0,0,0,0,0,0,
0,0,0,0,0,0,0,0,0,0,0,0,0,0,0,0,
0,0,0,0,0,0,0,0,0,0,0,0,0,0,0,0,
0,0,0,0,0,0,0,0,0,0,0,0,0,0,0,0,
0,0,0,0,0,0,0,0,0,0,0,0,0,0,0,0,
0,0,0,0,0,0,0,0,0,0,0,0,0,0,0,0
</chunk>
  </data>
 </layer>
 <layer id="30" name="DitchFloor" width="30" height="20">
  <data encoding="csv">
   <chunk x="32" y="-16" width="16" height="16">
0,0,0,0,0,0,0,0,0,0,0,0,0,0,0,0,
0,0,0,0,0,0,0,0,0,0,0,0,0,0,0,0,
0,0,0,0,0,0,0,0,0,0,0,0,0,0,0,0,
0,0,0,0,0,0,0,0,0,0,0,0,0,0,0,0,
0,0,0,0,0,0,0,0,0,0,0,0,0,0,0,0,
0,0,0,0,0,0,0,0,0,0,0,0,0,0,0,0,
0,0,0,0,0,0,0,0,0,0,0,0,0,0,0,0,
0,0,0,0,0,0,0,0,0,0,0,0,0,0,0,0,
0,0,0,0,0,0,0,0,0,0,0,0,0,0,666,666,
0,0,0,0,0,0,0,0,0,0,0,0,0,0,0,0,
0,0,0,0,0,0,0,0,0,0,0,0,0,0,0,0,
0,0,0,0,0,0,0,0,0,0,0,0,0,0,0,0,
0,0,0,0,0,0,0,0,0,0,0,0,0,0,0,0,
0,0,0,0,0,0,0,0,0,0,0,0,0,0,0,0,
0,0,0,0,0,0,0,0,0,0,0,0,0,0,0,0,
0,0,0,0,0,0,0,0,0,0,0,0,0,0,0,0
</chunk>
   <chunk x="48" y="-16" width="16" height="16">
0,0,0,0,0,0,0,0,0,0,0,0,0,0,0,0,
0,0,0,0,0,0,0,0,0,0,0,0,0,0,0,0,
0,0,0,0,0,0,0,0,0,0,0,0,0,0,0,0,
0,0,0,0,0,0,0,0,0,0,0,0,0,0,0,0,
0,0,0,0,0,0,0,0,0,0,0,0,0,0,0,0,
0,0,0,0,0,0,0,0,0,0,0,0,0,0,0,0,
0,0,0,0,0,0,0,0,0,0,0,0,0,0,0,0,
0,0,0,0,0,0,0,0,0,0,0,0,0,0,0,0,
666,0,0,0,0,0,0,0,0,0,0,0,0,0,0,0,
0,0,0,0,0,0,0,0,0,0,0,0,0,0,0,0,
0,0,0,0,0,0,0,0,0,0,0,0,0,0,0,0,
0,0,0,0,0,0,0,0,0,0,0,0,0,0,0,0,
0,0,0,0,0,0,0,0,0,0,0,0,0,0,0,0,
0,0,0,0,0,0,0,0,0,0,0,0,0,0,0,0,
0,0,0,0,0,0,0,0,0,0,0,0,0,0,0,0,
0,0,0,0,0,0,0,0,0,0,0,0,0,0,0,0
</chunk>
   <chunk x="32" y="0" width="16" height="16">
0,0,0,0,0,0,0,0,0,0,0,0,0,0,0,0,
0,0,0,0,0,0,0,0,0,0,0,0,0,0,0,0,
0,0,0,0,0,0,0,0,0,0,0,0,0,0,0,0,
0,0,0,0,0,0,0,0,0,0,0,0,0,0,0,0,
0,0,0,0,0,0,0,0,0,0,0,0,0,0,0,0,
0,0,0,0,0,0,0,0,0,0,0,0,0,0,0,0,
0,0,0,0,0,0,0,0,0,0,0,0,0,0,0,0,
0,0,0,0,0,0,0,0,0,0,0,0,0,0,0,0,
0,0,0,0,0,0,0,0,0,0,0,0,0,0,0,0,
0,0,0,0,0,0,0,0,0,0,0,0,0,0,0,0,
0,0,0,0,0,0,0,0,0,0,665,698,667,0,0,0,
0,0,0,0,0,0,0,0,0,0,0,666,0,0,0,0,
0,0,0,0,0,0,0,0,0,0,681,0,683,0,0,0,
0,0,0,0,0,0,0,0,0,0,0,0,0,0,0,0,
0,0,0,0,0,0,0,0,0,0,0,0,0,0,0,0,
0,0,0,0,0,0,0,0,0,0,0,0,0,0,0,0
</chunk>
   <chunk x="48" y="0" width="16" height="16">
0,0,0,0,0,0,0,0,0,0,0,0,0,0,0,0,
0,0,0,0,0,0,0,0,0,0,0,0,0,0,0,0,
0,0,0,0,0,0,0,0,0,0,0,0,0,0,0,0,
0,0,0,0,0,0,0,0,0,683,0,666,0,0,0,0,
0,0,0,0,0,0,0,0,0,683,681,0,0,0,0,0,
0,0,0,0,0,0,0,0,0,683,0,698,0,0,0,0,
0,0,0,0,0,0,0,0,0,0,0,0,0,0,0,0,
0,0,0,0,0,0,0,0,0,0,0,0,0,0,0,0,
0,0,0,0,0,0,0,0,0,0,0,0,0,0,0,0,
0,0,0,0,0,0,0,0,0,0,0,0,0,0,0,0,
0,0,0,0,0,0,0,0,0,0,0,0,0,0,0,0,
0,0,0,0,0,0,0,0,0,0,0,0,0,0,0,0,
0,0,0,0,0,0,0,0,0,0,0,0,0,0,0,0,
0,0,0,0,0,0,0,0,0,0,0,0,0,0,0,0,
0,0,0,0,0,0,0,0,0,0,0,0,0,0,0,0,
0,0,0,0,0,0,0,0,0,0,0,0,0,0,0,0
</chunk>
  </data>
 </layer>
 <layer id="6" name="FloorShadow" width="30" height="20">
  <data encoding="csv">
   <chunk x="64" y="-48" width="16" height="16">
0,0,0,0,0,0,0,0,0,0,0,0,0,0,0,0,
0,0,0,0,0,0,0,0,0,0,0,0,0,0,0,0,
0,0,0,0,0,0,0,0,0,0,0,0,0,0,0,0,
0,0,0,0,0,0,0,0,0,0,0,0,0,0,0,0,
0,0,0,0,0,0,0,0,0,0,0,0,0,0,0,0,
0,0,0,0,0,0,0,0,0,0,0,0,0,0,0,0,
0,0,0,0,0,0,0,0,0,0,0,0,0,0,0,0,
0,0,0,0,0,0,0,0,0,0,0,0,0,0,0,0,
536871244,2684354892,0,0,0,0,0,0,0,0,0,0,0,0,0,0,
1610613046,2684354870,0,0,0,0,0,0,0,0,0,0,0,0,0,0,
1610613046,2684354870,0,0,0,0,0,0,0,0,0,0,0,0,0,0,
1610613046,2684354870,0,0,0,0,0,0,0,0,0,0,0,0,0,0,
1610613046,2684354870,0,0,0,0,0,0,0,0,0,0,0,0,0,0,
1610613046,2684354870,0,0,0,0,0,0,0,0,0,0,0,0,0,0,
1610613046,2684354870,0,0,0,0,0,0,0,0,0,0,0,0,0,0,
1610613046,2684354870,0,0,0,0,0,0,0,0,0,0,0,0,0,0
</chunk>
   <chunk x="64" y="-32" width="16" height="16">
1610613046,2684354870,0,0,0,0,0,0,0,0,0,0,0,0,0,0,
1610613046,2684354870,0,0,0,0,0,0,0,0,0,0,0,0,0,0,
1610613046,2684354870,0,0,0,0,0,0,0,0,0,0,0,0,0,0,
1610613046,2684354870,0,0,0,0,0,0,0,0,0,0,0,0,0,0,
1610613046,2684354870,0,0,0,0,0,0,0,0,0,0,0,0,0,0,
1610613046,2684354870,0,0,0,0,0,0,0,0,0,0,0,0,0,0,
1610613046,2684354870,0,0,0,0,0,0,0,0,0,0,0,0,0,0,
1610613046,2684354870,0,0,0,0,0,0,0,0,0,0,0,0,0,0,
1610613046,2684354870,0,0,0,0,0,0,0,0,0,0,0,0,0,0,
1610613046,2684354870,0,0,0,0,0,0,0,0,0,0,0,0,0,0,
1610613046,2684354870,0,0,0,0,0,0,0,0,0,0,0,0,0,0,
1610613046,2684354870,0,0,0,0,0,0,0,0,0,0,0,0,0,0,
1610613046,2684354870,0,0,0,0,0,0,0,0,0,0,0,0,0,0,
1610613046,2684354870,0,0,0,0,0,0,0,0,0,0,0,0,0,0,
1610613046,2684354870,0,0,0,0,0,0,0,0,0,0,0,0,0,0,
1610613046,2684354870,0,0,0,0,0,0,0,0,0,0,0,0,0,0
</chunk>
   <chunk x="0" y="-16" width="16" height="16">
0,0,0,0,0,0,0,0,0,0,0,0,0,0,0,0,
0,0,0,0,0,0,0,0,0,0,0,0,0,0,0,0,
0,0,0,0,0,0,0,0,0,0,0,0,0,0,0,0,
0,0,0,0,0,0,0,0,0,333,310,310,2147483981,0,0,333,
0,0,0,0,0,0,0,0,0,1610613046,0,0,322,310,310,2147483970,
0,0,0,0,0,0,0,0,0,1610613046,0,0,0,0,0,0,
0,0,0,0,0,0,0,0,0,0,0,0,0,0,0,0,
0,0,0,0,0,0,0,0,0,0,0,0,0,0,0,0,
0,0,0,0,0,0,0,0,0,0,536871234,2684354882,0,0,0,0,
0,0,0,0,0,0,0,0,0,0,1610613046,3758096694,0,0,0,0,
0,0,0,0,0,0,0,0,0,0,1610613046,3758096694,0,0,0,0,
0,0,0,0,0,0,0,333,310,310,2147483970,322,310,310,310,310,
0,0,0,0,0,0,0,0,0,0,0,0,0,0,0,0,
0,0,0,0,0,0,0,0,0,0,0,0,0,0,0,0,
0,0,0,0,0,0,0,0,3221225794,2684354882,0,0,0,0,0,0,
0,0,0,0,0,0,0,0,1610613046,2684354870,0,0,0,0,0,0
</chunk>
   <chunk x="16" y="-16" width="16" height="16">
0,0,0,0,0,0,0,0,0,0,0,0,0,0,0,0,
0,0,0,0,0,0,0,0,0,0,0,0,0,0,0,0,
0,0,0,0,0,0,0,0,0,0,0,0,0,0,0,0,
310,310,2147483981,0,0,0,0,0,0,0,0,0,0,0,0,0,
0,0,3758096694,0,0,0,0,0,0,0,0,0,0,0,0,0,
0,0,3758096694,0,0,0,0,0,0,0,0,0,0,0,0,0,
0,0,0,0,0,0,0,0,0,0,0,0,0,0,0,0,
0,0,0,0,0,0,0,0,0,0,0,0,0,0,0,0,
3221225794,2684354882,0,0,0,0,0,0,0,0,0,0,0,0,0,0,
1610613046,2684354870,0,0,0,0,0,0,0,0,0,0,0,0,0,0,
1610613046,2684354870,0,0,0,333,310,310,310,310,310,310,310,310,310,310,
2147483970,322,310,310,310,2147483970,0,0,0,0,0,0,0,0,0,0,
0,0,0,0,0,0,0,0,0,0,0,0,0,0,0,0,
0,0,0,0,0,0,0,0,0,0,0,0,0,0,0,0,
0,0,0,0,0,0,0,0,0,0,0,0,0,0,0,0,
0,0,0,0,0,0,0,0,0,0,0,0,0,0,0,0
</chunk>
   <chunk x="32" y="-16" width="16" height="16">
0,0,0,0,0,0,0,0,0,0,0,0,0,0,0,0,
0,0,0,0,0,0,0,0,0,0,0,0,0,0,0,0,
0,0,0,0,0,0,0,0,0,0,0,0,0,0,0,0,
0,0,0,0,0,0,0,0,0,0,0,0,0,0,0,0,
0,0,0,0,0,0,0,0,0,0,0,0,0,0,0,0,
0,0,0,0,0,0,0,0,0,0,0,0,0,0,0,0,
0,0,0,0,0,0,0,0,0,0,0,0,0,0,0,0,
0,0,0,0,0,0,0,0,0,0,0,0,0,0,0,0,
0,0,0,0,0,0,0,0,0,0,0,0,0,0,1610613046,0,
0,0,0,0,0,0,0,0,333,2147483981,0,0,333,310,2147483970,0,
310,310,310,310,2147483981,0,0,0,1610613046,322,310,310,2147483970,0,0,0,
0,0,0,0,322,310,310,310,2147483970,0,0,0,0,0,0,0,
0,0,0,0,0,0,0,0,0,0,0,0,0,0,0,0,
0,0,0,0,0,0,0,0,0,0,0,0,0,0,0,0,
0,0,0,0,0,0,0,0,536871234,0,0,0,0,0,0,0,
0,0,0,0,0,0,0,0,1610613046,0,0,0,0,0,0,0
</chunk>
   <chunk x="48" y="-16" width="16" height="16">
0,0,0,0,0,0,0,0,0,0,0,0,0,0,0,0,
0,0,0,0,0,0,0,0,0,0,0,0,0,0,0,0,
0,0,0,0,0,0,0,0,0,0,0,0,0,0,0,0,
0,0,0,0,0,0,0,0,0,0,0,0,0,0,0,0,
0,0,0,0,0,0,0,0,0,0,0,0,0,0,0,0,
0,0,0,0,0,0,0,0,0,0,0,0,0,0,0,0,
0,0,0,0,0,0,0,0,0,0,0,0,0,0,0,0,
0,0,0,0,0,0,0,0,0,0,0,0,0,0,0,0,
3758096694,0,0,0,0,0,0,0,0,0,0,0,0,0,0,0,
322,2147483981,0,0,0,0,0,0,0,0,0,0,0,0,0,0,
0,2684354870,0,0,0,0,0,0,0,0,0,0,0,0,0,0,
0,322,310,310,310,310,310,310,2684354893,0,0,0,0,0,0,0,
0,0,0,0,0,0,0,0,322,310,310,310,310,310,310,310,
0,0,0,0,0,0,0,0,0,0,0,0,0,0,0,0,
0,0,0,0,0,0,0,0,0,0,0,0,0,0,0,0,
0,0,0,0,0,0,0,0,0,0,0,0,0,0,0,0
</chunk>
   <chunk x="64" y="-16" width="16" height="16">
1610613046,2684354870,0,0,0,0,0,0,0,0,0,0,0,0,0,0,
1610613046,2684354870,0,0,0,0,0,0,0,0,0,0,0,0,0,0,
1610613046,2684354870,0,0,0,0,0,0,0,0,0,0,0,0,0,0,
1610613046,2684354870,0,0,0,0,0,0,0,0,0,0,0,0,0,0,
1610613046,2684354870,0,0,0,0,0,0,0,0,0,0,0,0,0,0,
1610613046,2684354870,0,0,0,0,0,0,0,0,0,0,0,0,0,0,
1610613046,2684354870,0,0,0,0,0,0,0,0,0,0,0,0,0,0,
1610613046,2684354870,0,0,0,0,0,0,0,0,0,0,0,0,0,0,
1610613046,2684354870,0,0,0,0,0,0,0,0,0,0,0,0,0,0,
1610613046,2684354870,0,0,0,0,0,0,0,0,0,0,0,0,0,0,
1610613046,2684354870,0,0,0,0,0,0,0,0,0,0,0,0,0,0,
1610613046,2684354870,0,0,0,0,0,0,0,0,0,0,0,0,0,0,
2147483970,2684354870,0,0,0,0,0,0,0,0,0,0,0,0,0,0,
0,2684354870,0,0,0,0,0,0,0,0,0,0,0,0,0,0,
0,0,0,0,0,0,0,0,0,0,0,0,0,0,0,0,
0,0,0,0,0,0,0,0,0,0,0,0,0,0,0,0
</chunk>
   <chunk x="-16" y="0" width="16" height="16">
0,0,0,0,0,0,0,0,0,0,0,0,0,0,0,0,
0,0,0,0,0,0,0,0,0,0,0,0,0,0,0,333,
0,0,0,0,0,0,0,0,0,0,0,0,0,0,0,1610613046,
0,0,0,0,0,0,0,0,0,0,0,0,0,0,0,1610613046,
0,0,0,0,0,0,0,0,0,0,0,0,0,0,0,0,
0,0,0,0,0,0,0,0,0,0,0,0,0,0,0,0,
0,0,0,0,0,0,0,0,0,0,0,0,0,0,0,0,
0,0,0,0,0,0,0,0,0,0,0,0,0,0,0,0,
0,0,0,0,0,0,0,0,0,0,0,0,0,0,0,0,
0,0,0,0,0,0,0,0,0,0,0,333,310,2147483981,0,0,
0,0,0,0,0,0,0,0,0,0,0,1610613046,0,322,310,310,
0,0,0,0,0,0,0,0,0,0,0,0,0,0,0,0,
0,0,0,0,0,0,0,0,0,0,0,0,0,0,0,0,
0,0,0,0,0,0,0,0,0,0,0,0,0,0,0,0,
0,0,0,0,0,0,0,0,0,0,0,0,0,0,0,0,
0,0,0,0,0,0,0,0,0,0,0,0,0,0,0,0
</chunk>
   <chunk x="0" y="0" width="16" height="16">
0,0,0,0,0,0,0,0,1610613046,2684354870,0,0,0,0,0,0,
310,310,310,2147483981,0,0,0,0,1610613046,2684354870,0,0,0,0,0,0,
0,0,0,322,310,310,310,310,2147483970,2684354870,0,0,0,0,0,0,
0,0,0,0,0,0,0,0,0,2684354870,0,0,0,0,0,0,
0,0,0,0,0,0,0,0,0,0,0,0,0,0,0,0,
0,0,0,0,0,0,0,0,0,0,0,0,0,0,0,0,
3221225794,0,1073742146,0,0,0,0,0,0,0,0,0,0,0,0,0,
1610613046,0,3758096694,0,0,0,0,0,0,0,0,0,0,0,0,0,
1610613046,0,3758096694,0,0,0,0,0,0,0,0,0,0,0,0,0,
1610613046,0,3758096694,0,0,333,310,2147483981,0,0,0,0,0,0,0,0,
2147483970,0,322,310,310,2147483970,0,2684354870,0,0,0,0,0,0,0,0,
0,0,0,0,0,0,0,0,0,0,0,0,0,0,0,0,
0,0,0,0,0,0,0,0,0,0,0,0,0,0,0,0,
3221225794,0,1073742146,0,0,0,0,0,0,0,0,0,0,0,0,0,
1610613046,0,3758096694,0,0,0,0,0,0,0,0,0,0,0,0,0,
1610613046,0,3758096694,0,0,0,0,0,0,0,0,0,0,0,0,0
</chunk>
   <chunk x="32" y="0" width="16" height="16">
0,0,0,0,0,0,0,0,1610613046,0,2684354882,0,0,0,536871234,0,
0,0,0,0,0,0,0,0,1610613046,0,3758096694,0,0,0,1610613046,0,
0,0,0,0,0,0,0,0,1610613046,0,3758096694,0,0,0,1610613046,0,
0,0,0,0,0,0,0,0,1610613046,0,3758096694,0,0,0,1610613046,0,
0,0,0,0,0,0,0,0,1610613046,0,3758096694,0,0,0,1610613046,0,
0,0,0,0,0,0,0,0,1610613046,0,322,310,310,310,2147483970,0,
0,0,0,0,0,0,0,0,1610613046,0,0,0,0,0,0,0,
0,0,0,0,0,0,0,0,1610613046,0,0,0,0,0,0,0,
0,0,0,0,0,0,0,0,1610613046,0,0,0,0,0,0,0,
0,0,0,0,0,0,0,0,1610613046,0,0,0,0,0,0,0,
0,0,0,0,0,0,0,0,1610613046,0,0,0,0,0,0,0,
0,0,0,0,0,0,0,0,0,0,0,0,0,0,0,0,
0,0,0,0,0,0,0,0,0,0,0,0,0,0,0,0,
0,0,0,0,0,0,0,0,0,0,0,0,0,0,0,0,
0,0,0,0,0,0,0,0,0,0,0,0,0,0,0,0,
0,0,0,0,0,0,0,0,0,0,0,0,0,0,0,0
</chunk>
   <chunk x="48" y="0" width="16" height="16">
0,0,0,0,0,0,536871234,0,2684354882,0,0,0,0,0,0,0,
0,0,0,0,0,0,1610613046,0,3758096694,0,0,0,0,0,0,0,
0,2684354882,0,0,0,0,1610613046,0,3758096694,0,0,0,0,0,0,0,
0,3758096694,0,0,0,0,1610613046,0,322,310,0,0,0,0,0,0,
0,3758096694,0,0,0,0,1610613046,0,0,0,0,0,0,0,0,0,
0,3758096694,0,0,0,0,1610613046,0,0,0,0,0,0,0,0,0,
0,322,310,310,310,310,2147483970,0,0,0,0,0,0,0,0,0,
0,0,0,0,0,0,0,0,0,0,0,0,0,0,0,0,
0,0,0,0,0,0,0,0,2684354882,0,0,0,0,0,0,0,
0,0,0,0,0,0,0,0,3758096694,0,0,0,0,0,0,0,
0,0,0,0,0,0,0,0,3758096694,0,0,0,0,0,0,0,
0,0,0,0,0,0,0,0,0,0,0,0,0,0,0,0,
0,0,0,0,0,0,0,0,0,0,0,0,0,0,0,0,
0,0,0,0,0,0,0,0,0,0,0,0,0,0,0,0,
0,0,0,0,0,0,0,0,0,0,0,0,0,0,0,0,
0,0,0,0,0,0,0,0,0,0,0,0,0,0,0,0
</chunk>
   <chunk x="-16" y="16" width="16" height="16">
0,0,0,0,0,0,0,0,0,0,0,333,310,2147483981,0,0,
0,0,0,0,0,0,0,0,0,0,0,1610613046,0,322,310,310,
0,0,0,0,0,0,0,0,0,0,0,0,0,0,0,0,
0,0,0,0,0,0,0,0,0,0,0,0,0,0,0,0,
0,0,0,0,0,0,0,0,0,0,0,0,0,0,0,0,
0,0,0,0,0,0,0,0,0,0,0,0,0,0,0,0,
0,0,0,0,0,0,0,0,0,0,0,0,0,0,0,0,
0,0,0,0,0,0,0,0,0,0,0,333,310,2147483981,0,0,
0,0,0,0,0,0,0,0,0,0,0,1610613046,0,322,310,310,
0,0,0,0,0,0,0,0,0,0,0,0,0,0,0,0,
0,0,0,0,0,0,0,0,0,0,0,0,0,0,0,0,
0,0,0,0,0,0,0,0,0,0,0,0,0,0,0,0,
0,0,0,0,0,0,0,0,0,0,0,0,0,0,0,0,
0,0,0,0,0,0,0,0,0,0,0,0,0,0,0,0,
0,0,0,0,0,0,0,0,0,0,0,0,0,0,0,0,
0,0,0,0,0,0,0,0,0,0,0,0,0,0,0,0
</chunk>
   <chunk x="0" y="16" width="16" height="16">
1610613046,0,3758096694,0,0,333,310,2147483981,0,0,0,0,0,0,0,0,
2147483970,0,322,310,310,2147483970,0,2684354870,0,0,0,0,0,0,0,0,
0,0,0,0,0,0,0,0,0,0,0,0,0,0,0,0,
0,0,0,0,0,0,0,0,0,0,0,0,0,0,0,0,
3221225794,0,1073742146,0,0,0,0,0,0,0,0,0,0,0,0,0,
1610613046,0,3758096694,0,0,0,0,0,0,0,0,0,0,0,0,0,
1610613046,0,3758096694,0,0,0,0,0,0,0,0,0,0,0,0,0,
1610613046,0,3758096694,0,0,333,310,2147483981,0,0,0,0,0,0,0,0,
2147483970,0,322,310,310,2147483970,0,2684354870,0,0,0,0,0,0,0,0,
0,0,0,0,0,0,0,0,0,0,0,0,0,0,0,0,
0,0,0,0,0,0,0,0,0,0,0,0,0,0,0,0,
536871234,0,2684354882,0,0,0,0,0,0,0,0,0,0,0,0,0,
1610613046,0,2684354870,0,0,0,0,0,0,0,0,0,0,0,0,0,
1610613046,0,3758096694,0,0,0,0,0,0,0,0,0,0,0,0,0,
1610613046,0,3758096694,0,0,0,0,0,0,0,0,0,0,0,0,0,
1610613046,0,3758096694,0,0,0,0,0,0,0,0,0,0,0,0,0
</chunk>
   <chunk x="-16" y="32" width="16" height="16">
0,0,0,0,0,0,0,0,0,0,0,0,0,0,0,0,
0,0,0,0,0,0,0,0,0,0,0,0,0,0,0,0,
0,0,0,0,0,0,0,0,0,0,0,0,0,0,0,0,
0,0,0,0,0,0,0,0,0,0,0,0,0,0,0,0,
0,0,0,0,0,0,0,0,0,0,0,0,0,0,0,0,
0,0,0,0,0,0,0,0,0,0,0,0,0,0,0,0,
0,0,0,0,0,0,0,0,0,0,0,0,0,0,0,0,
0,0,0,0,0,0,0,0,0,0,0,0,0,0,0,0,
0,0,0,0,0,0,0,0,0,0,0,0,0,0,0,0,
0,0,0,0,0,0,0,0,0,0,0,0,0,0,0,0,
0,0,0,0,0,0,0,0,0,0,0,0,0,0,333,310,
0,0,0,0,0,0,0,0,0,0,0,0,0,0,1610613046,0,
0,0,0,0,0,0,0,0,0,0,0,0,0,0,1610613046,0,
0,0,0,0,0,0,0,0,0,0,0,0,0,0,0,0,
0,0,0,0,0,0,0,0,0,0,0,0,0,0,0,0,
0,0,0,0,0,0,0,0,0,0,0,0,0,0,0,0
</chunk>
   <chunk x="0" y="32" width="16" height="16">
1610613046,0,3758096694,0,0,0,0,0,0,0,0,0,0,0,0,0,
1610613046,0,3758096694,0,0,0,0,0,0,0,0,0,0,0,0,0,
1610613046,0,3758096694,0,0,0,0,0,0,0,0,0,0,0,0,0,
1610613046,0,3758096694,0,0,0,0,0,0,0,0,0,0,0,0,0,
1610613046,0,3758096694,0,0,0,0,0,0,0,0,0,0,0,0,0,
1610613046,0,3758096694,0,0,0,0,0,0,0,0,0,0,0,0,0,
1610613046,0,3758096694,0,0,0,0,0,0,0,0,0,0,0,0,0,
1610613046,0,3758096694,0,0,0,0,0,0,0,0,0,0,0,0,0,
1610613046,0,2684354870,0,0,0,0,0,0,0,0,0,0,0,0,0,
1610613046,0,322,310,310,310,310,2147483981,0,0,0,0,0,0,0,0,
2147483970,0,0,0,0,0,0,2684354870,0,0,0,0,0,0,0,0,
0,0,0,0,0,0,0,2684354870,0,0,0,0,0,0,0,0,
0,0,0,0,0,0,0,2684354870,0,0,0,0,0,0,0,0,
0,0,0,0,0,0,0,0,0,0,0,0,0,0,0,0,
0,0,0,0,0,0,0,0,0,0,0,0,0,0,0,0,
536871234,0,2684354882,0,0,0,0,0,0,0,0,0,0,0,0,0
</chunk>
   <chunk x="0" y="48" width="16" height="16">
1610613046,0,2684354870,0,0,0,0,0,0,0,0,0,0,0,0,0,
1610613046,0,2684354870,0,0,0,0,0,0,0,0,0,0,0,0,0,
1610613046,0,2684354870,0,0,0,0,0,0,0,0,0,0,0,0,0,
1610613046,0,2684354870,0,0,0,0,0,0,0,0,0,0,0,0,0,
1610613046,0,2684354870,0,0,0,0,0,0,0,0,0,0,0,0,0,
1610613046,0,2684354870,0,0,0,0,0,0,0,0,0,0,0,0,0,
1610613046,0,322,310,310,2147483981,0,0,0,0,0,0,0,0,0,0,
1610613046,0,0,0,0,2684354870,0,0,0,0,0,0,0,0,0,0,
1610613046,0,0,0,0,2684354870,0,0,0,0,0,0,0,0,0,0,
0,0,0,0,0,0,0,0,0,0,0,0,0,0,0,0,
0,0,0,0,0,0,0,0,0,0,0,0,0,0,0,0,
0,0,0,0,0,0,0,0,0,0,0,0,0,0,0,0,
0,0,0,0,0,0,0,0,0,0,0,0,0,0,0,0,
0,0,0,0,0,0,0,0,0,0,0,0,0,0,0,0,
0,0,0,0,0,0,0,0,0,0,0,0,0,0,0,0,
0,0,0,0,0,0,0,0,0,0,0,0,0,0,0,0
</chunk>
  </data>
 </layer>
 <layer id="2" name="Wall" width="30" height="20">
  <data encoding="csv">
   <chunk x="-16" y="-16" width="16" height="16">
0,0,0,0,0,0,0,0,0,0,0,0,0,0,0,0,
0,0,0,0,0,0,0,0,0,0,0,0,0,0,0,0,
0,0,0,0,0,0,0,0,0,0,0,0,0,0,0,0,
0,0,0,0,0,0,0,0,0,0,0,0,0,0,0,0,
0,0,0,0,0,0,0,0,0,0,0,0,0,0,0,0,
0,0,0,0,0,0,0,0,0,0,0,0,0,0,0,0,
0,0,0,0,0,0,0,0,0,0,0,0,0,0,0,0,
0,0,0,0,0,0,0,0,0,0,0,0,0,0,0,0,
0,0,0,0,0,0,0,0,0,0,0,0,0,0,0,0,
0,0,0,0,0,0,0,0,0,0,0,0,0,0,0,0,
0,0,0,0,0,0,0,0,0,0,0,0,0,0,0,0,
0,0,0,0,0,0,0,0,0,0,0,0,0,0,0,0,
0,0,0,0,0,0,0,0,0,0,0,0,0,0,0,0,
0,0,0,0,0,0,0,0,0,0,0,0,0,0,0,0,
0,0,0,0,0,0,0,0,0,0,0,0,0,0,0,612,
0,0,0,0,0,0,0,0,0,0,0,0,0,0,0,612
</chunk>
   <chunk x="0" y="-16" width="16" height="16">
0,0,0,0,0,0,0,0,0,612,612,612,612,0,0,612,
0,0,0,0,0,0,0,0,0,612,612,612,612,612,612,612,
0,0,0,0,0,0,0,0,0,648,648,648,648,612,612,648,
0,0,0,0,0,0,0,0,0,0,0,0,0,648,648,0,
0,0,0,0,0,0,0,0,0,0,0,0,0,0,0,0,
0,0,0,0,0,0,0,0,0,0,0,0,0,0,0,0,
0,0,0,0,0,0,0,0,0,0,0,0,0,0,0,0,
0,0,0,0,0,0,0,0,0,0,0,0,0,0,0,0,
0,0,0,0,0,0,0,612,612,612,0,0,612,612,612,612,
0,0,0,0,0,0,0,612,612,612,0,0,612,612,612,612,
0,0,0,0,0,0,0,648,648,648,0,0,648,648,648,648,
0,0,0,0,0,0,0,0,0,0,0,0,0,0,0,0,
0,0,0,0,0,0,0,0,0,0,0,0,0,0,0,0,
0,0,0,0,0,0,0,0,0,0,0,0,0,0,0,0,
612,612,612,612,0,0,0,0,0,0,0,0,0,0,0,0,
612,612,612,612,602,612,612,612,0,0,0,0,0,0,0,0
</chunk>
   <chunk x="16" y="-16" width="16" height="16">
612,612,612,0,0,0,0,0,0,0,0,0,0,0,0,0,
612,612,612,0,0,0,0,0,0,0,0,0,0,0,0,0,
648,648,648,0,0,0,0,0,0,0,0,0,0,0,0,0,
0,0,0,0,0,0,0,0,0,0,0,0,0,0,0,0,
0,0,0,0,0,0,0,0,0,0,0,0,0,0,0,0,
0,0,0,0,0,0,0,0,0,0,0,0,0,0,0,0,
0,0,0,0,0,0,0,0,0,0,0,0,0,0,0,0,
0,0,0,0,0,612,612,612,612,612,612,612,618,612,612,612,
0,0,612,612,612,612,612,612,612,617,612,612,612,612,612,612,
0,0,612,612,612,648,648,648,648,648,648,648,648,648,648,648,
0,0,648,648,648,0,0,0,0,0,0,0,0,0,0,0,
0,0,0,0,0,0,0,0,0,0,0,0,0,0,0,0,
0,0,0,0,0,0,0,0,0,0,0,0,0,0,0,0,
0,0,0,0,0,0,0,0,0,0,0,0,0,0,0,0,
0,0,0,0,0,0,0,0,0,0,0,0,0,0,0,0,
0,0,0,0,0,0,0,0,0,0,0,0,0,0,0,0
</chunk>
   <chunk x="32" y="-16" width="16" height="16">
0,0,0,0,0,0,0,0,0,0,0,0,0,0,0,0,
0,0,0,0,0,0,0,0,0,0,0,0,0,0,0,0,
0,0,0,0,0,0,0,0,0,0,0,0,0,0,0,0,
0,0,0,0,0,0,0,0,0,0,0,0,0,0,0,0,
0,0,0,0,0,0,0,0,0,0,0,0,0,0,612,612,
0,0,0,0,0,0,0,0,0,0,0,0,0,0,612,600,
0,0,0,0,0,0,0,0,612,612,0,0,612,612,648,648,
612,612,612,612,612,0,0,0,612,588,612,612,612,617,0,0,
612,612,612,612,612,612,612,612,603,604,612,602,648,648,0,0,
648,648,648,648,648,612,612,612,0,0,648,648,0,0,0,0,
0,0,0,0,0,648,648,648,0,0,0,0,0,0,0,0,
0,0,0,0,0,0,0,0,0,0,0,0,0,0,0,0,
0,0,0,0,0,0,0,0,0,0,0,0,0,0,0,0,
0,0,0,0,0,0,0,0,0,0,0,0,0,0,0,0,
0,0,0,0,0,0,0,0,0,0,0,0,0,0,0,0,
0,0,0,0,0,0,0,0,0,0,0,0,0,0,0,0
</chunk>
   <chunk x="48" y="-16" width="16" height="16">
0,0,0,0,0,0,0,0,0,0,0,0,0,0,0,0,
0,0,0,0,0,0,0,0,0,0,0,0,0,0,0,0,
0,0,0,0,0,0,0,0,0,0,0,0,0,0,0,0,
0,0,0,0,0,0,0,0,0,0,0,0,0,0,0,0,
612,0,0,0,0,0,0,0,0,0,0,0,0,0,0,0,
612,0,0,0,0,0,0,0,0,0,0,0,0,0,0,0,
648,612,0,0,0,0,0,0,0,0,0,0,0,0,0,0,
0,612,0,0,0,0,0,0,0,0,0,0,0,0,0,0,
0,648,612,612,612,612,612,612,612,0,0,0,0,0,0,0,
0,0,601,612,612,612,588,612,612,612,612,617,612,612,618,612,
0,0,648,648,648,603,604,648,648,612,602,612,612,601,617,612,
0,0,0,0,0,0,0,0,0,648,648,648,648,648,648,648,
0,0,0,0,0,0,0,0,0,0,0,0,0,0,0,0,
0,0,0,0,0,0,0,0,0,0,0,0,0,0,0,0,
0,0,0,0,0,0,0,0,0,0,0,0,0,0,0,0,
0,0,0,0,0,0,0,0,0,0,0,0,0,0,0,0
</chunk>
   <chunk x="-16" y="0" width="16" height="16">
0,0,0,0,0,0,0,0,0,0,0,0,0,0,0,648,
0,0,0,0,0,0,0,0,0,0,0,0,0,0,0,0,
0,0,0,0,0,0,0,0,0,0,0,0,0,0,0,0,
0,0,0,0,0,0,0,0,0,0,0,0,0,0,0,0,
0,0,0,0,0,0,0,0,0,0,0,0,0,0,0,0,
0,0,0,0,0,0,0,0,0,0,0,0,0,0,0,0,
0,0,0,0,0,0,0,0,0,0,0,612,612,612,0,0,
0,0,0,0,0,0,0,0,0,0,0,612,588,612,612,612,
0,0,0,0,0,0,0,0,0,0,0,603,604,648,612,612,
0,0,0,0,0,0,0,0,0,0,0,0,0,0,648,648,
0,0,0,0,0,0,0,0,0,0,0,0,0,0,0,0,
0,0,0,0,0,0,0,0,0,0,0,0,0,0,0,0,
0,0,0,0,0,0,0,0,0,0,0,0,0,0,0,0,
0,0,0,0,0,0,0,0,0,0,0,612,612,612,0,0,
0,0,0,0,0,0,0,0,0,0,0,612,617,612,612,612,
0,0,0,0,0,0,0,0,0,0,0,648,648,648,612,612
</chunk>
   <chunk x="0" y="0" width="16" height="16">
648,648,648,648,612,612,618,612,0,0,0,0,0,0,0,0,
0,0,0,0,648,648,648,648,0,0,0,0,0,0,0,0,
0,0,0,0,0,0,0,0,0,0,0,0,0,0,0,0,
0,0,0,0,0,0,0,0,0,0,0,0,0,0,0,0,
0,0,0,0,0,0,0,0,0,0,0,0,0,0,0,0,
0,0,0,0,0,0,0,0,0,0,0,0,0,0,0,0,
0,0,0,0,0,612,612,612,0,0,0,0,0,0,0,0,
0,0,0,612,612,612,612,612,0,0,0,0,0,0,0,0,
0,0,0,612,612,648,648,648,0,0,0,0,0,0,0,0,
0,0,0,648,648,0,0,0,0,0,0,0,0,0,0,0,
0,0,0,0,0,0,0,0,0,0,0,0,0,0,0,0,
0,0,0,0,0,0,0,0,0,0,0,0,0,0,0,0,
0,0,0,0,0,0,0,0,0,0,0,0,0,0,0,0,
0,0,0,0,0,612,612,612,0,0,0,0,0,0,0,0,
0,0,0,612,612,612,612,612,0,0,0,0,0,0,0,0,
0,0,0,612,612,648,648,648,0,0,0,0,0,0,0,0
</chunk>
   <chunk x="32" y="0" width="16" height="16">
0,0,0,0,0,0,0,0,0,0,0,0,0,0,0,0,
0,0,0,0,0,0,0,0,0,0,0,0,0,0,0,0,
0,0,0,0,0,0,0,0,0,0,0,612,618,612,0,0,
0,0,0,0,0,0,0,0,0,0,0,601,612,612,0,0,
0,0,0,0,0,0,0,0,0,0,0,648,648,648,0,0,
0,0,0,0,0,0,0,0,0,0,0,0,0,0,0,0,
0,0,0,0,0,0,0,0,0,0,0,0,0,0,0,0,
0,0,0,0,0,0,0,0,0,0,0,0,0,0,0,0,
0,0,0,0,0,0,0,0,0,0,0,0,0,0,0,0,
0,0,0,0,0,0,0,0,0,0,0,0,0,0,0,0,
0,0,0,0,0,0,0,0,0,0,0,0,0,0,0,0,
0,0,0,0,0,0,0,0,0,0,0,0,0,0,0,0,
0,0,0,0,0,0,0,0,0,0,0,0,0,0,0,0,
0,0,0,0,0,0,0,0,0,0,0,0,0,0,0,0,
0,0,0,0,0,0,0,0,0,0,0,0,0,0,0,0,
0,0,0,0,0,0,0,0,0,0,0,0,0,0,0,0
</chunk>
   <chunk x="48" y="0" width="16" height="16">
0,0,0,0,0,0,0,0,0,612,612,612,0,0,0,0,
0,0,0,0,0,0,0,0,0,612,618,612,0,0,0,0,
0,0,0,0,0,0,0,0,0,648,648,648,0,0,0,0,
0,0,612,612,612,617,0,0,0,0,0,0,0,0,0,0,
0,0,612,588,612,612,0,0,0,0,0,0,0,0,0,0,
0,0,603,604,648,648,0,0,0,0,0,0,0,0,0,0,
0,0,0,0,0,0,0,0,0,0,0,0,0,0,0,0,
0,0,0,0,0,0,0,0,0,0,0,0,0,0,0,0,
0,0,0,0,0,0,0,0,0,0,0,0,0,0,0,0,
0,0,0,0,0,0,0,0,0,0,0,0,0,0,0,0,
0,0,0,0,0,0,0,0,0,0,0,0,0,0,0,0,
0,0,0,0,0,0,0,0,0,0,0,0,0,0,0,0,
0,0,0,0,0,0,0,0,0,0,0,0,0,0,0,0,
0,0,0,0,0,0,0,0,0,0,0,0,0,0,0,0,
0,0,0,0,0,0,0,0,0,0,0,0,0,0,0,0,
0,0,0,0,0,0,0,0,0,0,0,0,0,0,0,0
</chunk>
   <chunk x="-16" y="16" width="16" height="16">
0,0,0,0,0,0,0,0,0,0,0,0,0,0,648,648,
0,0,0,0,0,0,0,0,0,0,0,0,0,0,0,0,
0,0,0,0,0,0,0,0,0,0,0,0,0,0,0,0,
0,0,0,0,0,0,0,0,0,0,0,0,0,0,0,0,
0,0,0,0,0,0,0,0,0,0,0,612,612,612,0,0,
0,0,0,0,0,0,0,0,0,0,0,612,612,618,612,612,
0,0,0,0,0,0,0,0,0,0,0,648,648,648,612,612,
0,0,0,0,0,0,0,0,0,0,0,0,0,0,648,648,
0,0,0,0,0,0,0,0,0,0,0,0,0,0,0,0,
0,0,0,0,0,0,0,0,0,0,0,0,0,0,0,0,
0,0,0,0,0,0,0,0,0,0,0,0,0,0,0,0,
0,0,0,0,0,0,0,0,0,0,0,0,0,0,0,0,
0,0,0,0,0,0,0,0,0,0,0,0,0,0,0,0,
0,0,0,0,0,0,0,0,0,0,0,0,0,0,0,0,
0,0,0,0,0,0,0,0,0,0,0,0,0,0,0,0,
0,0,0,0,0,0,0,0,0,0,0,0,0,0,0,0
</chunk>
   <chunk x="0" y="16" width="16" height="16">
0,0,0,648,648,0,0,0,0,0,0,0,0,0,0,0,
0,0,0,0,0,0,0,0,0,0,0,0,0,0,0,0,
0,0,0,0,0,0,0,0,0,0,0,0,0,0,0,0,
0,0,0,0,0,0,0,0,0,0,0,0,0,0,0,0,
0,0,0,0,0,612,612,612,0,0,0,0,0,0,0,0,
0,0,0,612,612,601,612,612,0,0,0,0,0,0,0,0,
0,0,0,612,612,648,648,648,0,0,0,0,0,0,0,0,
0,0,0,648,648,0,0,0,0,0,0,0,0,0,0,0,
0,0,0,0,0,0,0,0,0,0,0,0,0,0,0,0,
0,0,0,0,0,0,0,0,0,0,0,0,0,0,0,0,
0,0,0,0,0,0,0,0,0,0,0,0,0,0,0,0,
0,0,0,0,0,0,0,0,0,0,0,0,0,0,0,0,
0,0,0,0,0,0,0,0,0,0,0,0,0,0,0,0,
0,0,0,0,0,0,0,0,0,0,0,0,0,0,0,0,
0,0,0,0,0,0,0,0,0,0,0,0,0,0,0,0,
0,0,0,0,0,0,0,0,0,0,0,0,0,0,0,0
</chunk>
   <chunk x="-16" y="32" width="16" height="16">
0,0,0,0,0,0,0,0,0,0,0,0,0,0,0,0,
0,0,0,0,0,0,0,0,0,0,0,0,0,0,0,0,
0,0,0,0,0,0,0,0,0,0,0,0,0,0,0,0,
0,0,0,0,0,0,0,0,0,0,0,0,0,0,0,0,
0,0,0,0,0,0,0,0,0,0,0,0,0,0,0,0,
0,0,0,0,0,0,0,0,0,0,0,0,0,0,0,0,
0,0,0,0,0,0,0,0,0,0,0,0,0,0,0,0,
0,0,0,0,0,0,0,0,0,0,0,0,0,0,612,612,
0,0,0,0,0,0,0,0,0,0,0,0,0,0,612,612,
0,0,0,0,0,0,0,0,0,0,0,0,0,0,648,648,
0,0,0,0,0,0,0,0,0,0,0,0,0,0,0,0,
0,0,0,0,0,0,0,0,0,0,0,0,0,0,0,0,
0,0,0,0,0,0,0,0,0,0,0,0,0,0,0,0,
0,0,0,0,0,0,0,0,0,0,0,0,0,0,0,0,
0,0,0,0,0,0,0,0,0,0,0,0,0,0,0,0,
0,0,0,0,0,0,0,0,0,0,0,0,0,0,0,0
</chunk>
   <chunk x="0" y="32" width="16" height="16">
0,0,0,0,0,0,0,0,0,0,0,0,0,0,0,0,
0,0,0,0,0,0,0,0,0,0,0,0,0,0,0,0,
0,0,0,0,0,0,0,0,0,0,0,0,0,0,0,0,
0,0,0,0,0,0,0,0,0,0,0,0,0,0,0,0,
0,0,0,0,0,0,0,0,0,0,0,0,0,0,0,0,
0,0,0,0,0,0,0,0,0,0,0,0,0,0,0,0,
0,0,0,612,612,612,612,612,0,0,0,0,0,0,0,0,
0,0,0,612,612,612,612,612,0,0,0,0,0,0,0,0,
0,0,0,648,648,648,648,648,0,0,0,0,0,0,0,0,
0,0,0,0,0,0,0,0,0,0,0,0,0,0,0,0,
0,0,0,0,0,0,0,0,0,0,0,0,0,0,0,0,
0,0,0,0,0,0,0,0,0,0,0,0,0,0,0,0,
0,0,0,0,0,0,0,0,0,0,0,0,0,0,0,0,
0,0,0,0,0,0,0,0,0,0,0,0,0,0,0,0,
0,0,0,0,0,0,0,0,0,0,0,0,0,0,0,0,
0,0,0,0,0,0,0,0,0,0,0,0,0,0,0,0
</chunk>
   <chunk x="0" y="48" width="16" height="16">
0,0,0,0,0,0,0,0,0,0,0,0,0,0,0,0,
0,0,0,0,0,0,0,0,0,0,0,0,0,0,0,0,
0,0,0,0,0,0,0,0,0,0,0,0,0,0,0,0,
0,0,0,612,612,612,0,0,0,0,0,0,0,0,0,0,
0,0,0,612,612,612,0,0,0,0,0,0,0,0,0,0,
0,0,0,648,648,648,0,0,0,0,0,0,0,0,0,0,
0,0,0,0,0,0,0,0,0,0,0,0,0,0,0,0,
0,0,0,0,0,0,0,0,0,0,0,0,0,0,0,0,
0,0,0,0,0,0,0,0,0,0,0,0,0,0,0,0,
0,0,0,0,0,0,0,0,0,0,0,0,0,0,0,0,
0,0,0,0,0,0,0,0,0,0,0,0,0,0,0,0,
0,0,0,0,0,0,0,0,0,0,0,0,0,0,0,0,
0,0,0,0,0,0,0,0,0,0,0,0,0,0,0,0,
0,0,0,0,0,0,0,0,0,0,0,0,0,0,0,0,
0,0,0,0,0,0,0,0,0,0,0,0,0,0,0,0,
0,0,0,0,0,0,0,0,0,0,0,0,0,0,0,0
</chunk>
  </data>
 </layer>
 <layer id="7" name="WallShadow" width="30" height="20">
  <data encoding="csv"/>
 </layer>
 <layer id="31" name="Spikes" width="30" height="20">
  <properties>
   <property name="damageable" type="int" value="0"/>
  </properties>
  <data encoding="csv">
   <chunk x="32" y="-16" width="16" height="16">
0,0,0,0,0,0,0,0,0,0,0,0,0,0,0,0,
0,0,0,0,0,0,0,0,0,0,0,0,0,0,0,0,
0,0,0,0,0,0,0,0,0,0,0,0,0,0,0,0,
0,0,0,0,0,0,0,0,0,0,0,0,0,0,0,0,
0,0,0,0,0,0,0,0,0,0,0,0,0,0,0,0,
0,0,0,0,0,0,0,0,0,0,0,0,0,0,0,0,
0,0,0,0,0,0,0,0,0,0,0,0,0,0,0,0,
0,0,0,0,0,0,0,0,0,0,0,0,0,0,0,0,
0,0,0,0,0,0,0,0,0,0,0,0,0,0,0,0,
0,0,0,0,0,0,0,0,0,0,0,0,0,0,0,0,
0,0,0,0,0,0,0,0,0,0,0,0,0,0,0,0,
0,0,0,0,0,0,0,0,0,0,0,0,0,0,0,0,
0,0,0,0,0,0,0,0,0,0,0,0,0,0,0,0,
0,0,0,0,0,0,0,0,0,0,0,0,0,0,0,0,
0,0,0,0,0,0,0,0,0,0,0,0,0,0,0,0,
0,0,0,0,0,0,0,0,257,0,0,0,0,0,0,0
</chunk>
   <chunk x="32" y="0" width="16" height="16">
0,0,0,0,0,0,0,0,0,0,0,0,0,0,0,0,
0,0,0,0,0,0,0,0,0,0,0,0,0,0,0,0,
0,0,0,0,0,0,0,0,0,0,0,0,0,0,0,0,
0,0,0,0,0,0,0,0,0,0,0,0,0,0,0,0,
0,0,0,0,0,0,0,0,0,0,257,0,0,0,0,0,
0,0,0,0,0,0,0,0,0,0,0,0,0,0,0,0,
0,0,0,0,0,0,0,0,0,0,0,0,0,0,0,0,
0,0,0,0,0,0,0,0,0,0,0,0,0,0,0,0,
0,0,0,0,0,0,0,0,0,0,0,0,0,0,0,0,
0,0,0,0,0,0,0,0,0,0,0,0,0,0,0,0,
0,0,0,0,0,0,0,0,0,0,0,0,0,0,0,0,
0,0,0,0,0,0,0,0,0,0,0,0,0,0,0,0,
0,0,0,0,0,0,0,0,0,0,0,0,0,0,0,0,
0,0,0,0,0,0,0,0,0,0,0,0,0,0,0,0,
0,0,0,0,0,0,0,0,0,0,0,0,0,0,0,0,
0,0,0,0,0,0,0,0,0,0,0,0,0,0,0,0
</chunk>
  </data>
 </layer>
 <layer id="32" name="MovingSpikes" width="30" height="20">
  <data encoding="csv">
   <chunk x="32" y="0" width="16" height="16">
0,0,0,0,0,0,0,0,0,0,0,0,0,0,0,0,
0,0,0,0,0,0,0,0,0,0,0,0,0,0,258,0,
0,0,0,0,0,0,0,0,0,0,0,0,0,0,0,0,
0,0,0,0,0,0,0,0,0,0,0,0,0,0,0,0,
0,0,0,0,0,0,0,0,0,0,0,0,0,0,0,0,
0,0,0,0,0,0,0,0,0,0,0,0,0,0,0,0,
0,0,0,0,0,0,0,0,0,0,0,0,0,0,0,0,
0,0,0,0,0,0,0,0,0,0,0,0,0,0,0,0,
0,0,0,0,0,0,0,0,0,0,0,0,0,0,0,0,
0,0,0,0,0,0,0,0,0,0,0,0,0,0,0,0,
0,0,0,0,0,0,0,0,0,0,0,0,0,0,0,0,
0,0,0,0,0,0,0,0,0,0,0,0,0,0,0,0,
0,0,0,0,0,0,0,0,0,0,0,0,0,0,0,0,
0,0,0,0,0,0,0,0,0,0,0,0,0,0,0,0,
0,0,0,0,0,0,0,0,0,0,0,0,0,0,0,0,
0,0,0,0,0,0,0,0,0,0,0,0,0,0,0,0
</chunk>
   <chunk x="48" y="0" width="16" height="16">
0,0,0,0,0,0,0,0,0,0,0,0,0,0,0,0,
0,0,0,0,0,0,0,0,0,0,0,0,0,0,0,0,
0,0,0,0,0,0,0,0,0,0,0,0,0,0,0,0,
0,0,0,0,0,0,0,0,0,0,0,0,0,0,0,0,
0,0,0,0,0,0,0,0,0,0,0,0,0,0,0,0,
258,0,0,0,0,0,0,0,0,0,0,0,0,0,0,0,
0,0,0,0,0,0,0,0,0,0,0,0,0,0,0,0,
0,0,0,0,0,0,0,0,0,0,0,0,0,0,0,0,
0,0,0,0,0,0,0,0,0,0,0,0,0,0,0,0,
0,0,0,0,0,0,0,0,0,0,0,0,0,0,0,0,
0,0,0,0,0,0,0,0,0,0,0,0,0,0,0,0,
0,0,0,0,0,0,0,0,0,0,0,0,0,0,0,0,
0,0,0,0,0,0,0,0,0,0,0,0,0,0,0,0,
0,0,0,0,0,0,0,0,0,0,0,0,0,0,0,0,
0,0,0,0,0,0,0,0,0,0,0,0,0,0,0,0,
0,0,0,0,0,0,0,0,0,0,0,0,0,0,0,0
</chunk>
  </data>
 </layer>
 <objectgroup id="10" name="ObjectsFloor">
  <object id="712" template="Bones1.tx" x="1344" y="192"/>
  <object id="713" template="Bones2.tx" x="1312" y="64"/>
  <object id="714" template="Bones6.tx" x="1408" y="320"/>
  <object id="715" template="Bones5.tx" x="1440" y="224"/>
  <object id="716" template="Bones5.tx" x="1536" y="128"/>
  <object id="717" template="Bones3.tx" x="1568" y="64"/>
  <object id="718" template="Bones4.tx" x="1559" y="55"/>
  <object id="720" template="Bones2.tx" x="1536" y="-192"/>
  <object id="721" template="Bones1.tx" x="1728" y="-96"/>
  <object id="722" template="Bones2.tx" x="1696" y="-96"/>
  <object id="723" template="Bones5.tx" gid="462" x="1792" y="96" rotation="0"/>
  <object id="724" template="Bones6.tx" x="1792" y="114"/>
  <object id="725" template="Bones2.tx" x="1792" y="352"/>
  <object id="726" template="Bones1.tx" x="1696" y="288"/>
  <object id="727" template="Bones2.tx" x="1312" y="-128"/>
  <object id="815" template="Bones1.tx" x="2016" y="-64"/>
  <object id="816" template="Bones5.tx" x="2048" y="-96"/>
  <object id="817" template="Bones4.tx" x="2080" y="-192"/>
  <object id="818" template="Bones4.tx" gid="2147484109" x="2048" y="-288" rotation="0"/>
 </objectgroup>
 <layer id="35" name="SpikesOnWall" width="30" height="20">
  <data encoding="csv">
   <chunk x="48" y="-16" width="16" height="16">
0,0,0,0,0,0,0,0,0,0,0,0,0,0,0,0,
0,0,0,0,0,0,0,0,0,0,0,0,0,0,0,0,
0,0,0,0,0,0,0,0,0,0,0,0,0,0,0,0,
0,0,0,0,0,0,0,0,0,0,0,0,0,0,0,0,
0,0,0,0,0,0,0,0,0,0,0,0,0,0,0,0,
0,0,0,0,0,0,0,0,0,0,0,0,0,0,0,0,
0,0,0,0,0,0,0,0,0,0,0,0,0,0,0,0,
0,0,0,0,0,0,0,0,0,0,0,0,0,0,0,0,
0,0,0,0,0,0,0,0,0,0,0,0,0,0,0,0,
0,0,0,0,24,0,0,24,0,0,0,0,0,0,0,0,
0,0,0,0,26,0,0,26,0,0,0,0,0,0,0,0,
0,0,0,0,0,0,0,0,0,0,0,0,0,0,0,0,
0,0,0,0,0,0,0,0,0,0,0,0,0,0,0,0,
0,0,0,0,0,0,0,0,0,0,0,0,0,0,0,0,
0,0,0,0,0,0,0,0,0,0,0,0,0,0,0,0,
0,0,0,0,0,0,0,0,0,0,0,0,0,0,0,0
</chunk>
  </data>
 </layer>
 <objectgroup id="9" name="Objects">
  <object id="525" template="Mannequin1.tx" gid="2147484519" x="193" y="339" rotation="0"/>
  <object id="529" template="CrossbowStandUp.tx" x="1344" y="416"/>
  <object id="530" template="CrossbowStandLeft.tx" x="1824" y="159"/>
  <object id="531" template="CrossbowChargedLeft.tx" x="1824" y="159"/>
  <object id="532" template="CrossbowChargedUp.tx" x="1344" y="416"/>
  <object id="536" template="SpikyLog.tx" x="1376" y="192"/>
  <object id="537" template="SpikyLog.tx" x="1568" y="-192"/>
  <object id="540" template="WoodenBarrelPoison.tx" x="1760" y="320"/>
  <object id="542" gid="848" x="1504" y="256" width="32" height="32"/>
  <object id="543" type="PictureWashHands" gid="824" x="112" y="1696" width="64" height="64"/>
  <object id="544" type="BarrelWeapons" gid="836" x="-64" y="1376" width="96" height="96"/>
  <object id="545" template="WoodenBarrelClosed.tx" x="-64" y="1376"/>
  <object id="546" template="WoodenTableBread.tx" x="160" y="1376"/>
  <object id="547" template="WoodenStool.tx" x="224" y="1344"/>
  <object id="548" template="WoodenStool.tx" x="205" y="1385"/>
  <object id="549" template="WoodenBarrelClosed.tx" x="224" y="1440"/>
  <object id="550" template="WoodenBarrelGold.tx" x="128" y="1344"/>
  <object id="551" template="WoodenBarrelClosed.tx" x="-64" y="1408"/>
  <object id="552" template="HayBundle.tx" x="0" y="1824"/>
  <object id="553" template="HayBundle.tx" x="0" y="1792"/>
  <object id="554" template="WoodPin1.tx" x="-64" y="1440"/>
  <object id="555" template="WoodPin1.tx" x="32" y="1312"/>
  <object id="556" template="WoodPin2.tx" x="64" y="1312"/>
  <object id="557" template="WoodPin2.tx" gid="2147484054" x="0" y="1312" rotation="0"/>
  <object id="558" template="HayBundle.tx" x="96" y="1344"/>
  <object id="559" type="BannerPoisonGray" gid="554" x="128" y="1280" width="32" height="64"/>
  <object id="560" type="BannerPoisonGray" gid="554" x="192" y="1280" width="32" height="64"/>
  <object id="561" template="WoodenBarrelClosed.tx" x="192" y="1440"/>
  <object id="562" type="HayGiant" gid="846" x="96" y="1824" width="96" height="128"/>
  <object id="563" gid="842" x="160" y="1344" width="32" height="32"/>
  <object id="564" gid="843" x="192" y="1344" width="32" height="32"/>
  <object id="568" gid="872" x="544" y="-340" width="64" height="96"/>
  <object id="570" gid="873" x="270" y="-352" width="96" height="96"/>
  <object id="572" gid="874" x="560" y="-310" width="64" height="64"/>
  <object id="573" gid="875" x="494" y="-384" width="64" height="64"/>
  <object id="575" gid="876" x="370" y="-382" width="64" height="64"/>
  <object id="578" gid="877" x="423.5" y="-350.5" width="64" height="64"/>
  <object id="579" template="WoodenBarrelPoisonEmpty.tx" type="WoodenBarrelPoisonEmpty" x="416" y="-352"/>
  <object id="585" gid="831" x="289" y="-431" width="64" height="64"/>
  <object id="586" gid="882" x="480" y="-448" width="64" height="64"/>
  <object id="597" gid="832" x="415" y="-177" width="64" height="64"/>
  <object id="598" gid="833" x="544" y="-440" width="64" height="64"/>
  <object id="600" template="ChainsTop.tx" x="352" y="-480"/>
  <object id="601" template="ChainsCandles.tx" x="352" y="-448"/>
  <object id="603" template="Cage3.tx" x="288" y="-288"/>
  <object id="605" template="Mannequin.tx" x="224" y="-125"/>
  <object id="606" template="Mannequin.tx" gid="2147484519" x="244" y="-144" rotation="0"/>
  <object id="608" template="WoodenStool.tx" x="530" y="-360"/>
  <object id="609" template="Vase3.tx" x="288" y="-320"/>
  <object id="612" template="Vase2.tx" x="352" y="-384"/>
  <object id="613" template="Vase1.tx" gid="2147483941" x="385" y="-360" rotation="0"/>
  <object id="614" template="WoodenBarrel.tx" x="480" y="-384"/>
  <object id="615" template="ChainsTop.tx" x="480" y="-224"/>
  <object id="616" template="ChainsCandles.tx" x="480" y="-192"/>
  <object id="617" template="ChainsTop.tx" x="384" y="-224"/>
  <object id="618" template="ChainsCandles.tx" x="384" y="-192"/>
  <object id="619" template="ChainsTop.tx" x="608" y="-224"/>
  <object id="620" template="ChainsCandles.tx" x="608" y="-192"/>
  <object id="621" template="ChainsTop.tx" x="256" y="-224"/>
  <object id="622" template="ChainsCandles.tx" x="256" y="-192"/>
  <object id="623" template="ShacklesOpen.tx" x="1641" y="-192"/>
  <object id="624" template="ShacklesOpen.tx" x="1688" y="-192"/>
  <object id="625" template="ShacklesOpen.tx" x="1736" y="-192"/>
  <object id="626" template="ShacklesOpen.tx" x="1783" y="-192"/>
  <object id="627" gid="884" x="1392" y="-183" width="96" height="96"/>
  <object id="633" gid="892" x="1463" y="-197" width="32" height="32"/>
  <object id="635" gid="885" x="1601" y="221" width="128" height="128"/>
  <object id="641" gid="886" x="1376" y="214" width="128" height="128"/>
  <object id="643" gid="2147484537" x="1260" y="-161" width="128" height="128"/>
  <object id="644" template="WoodenBarrelClosed.tx" x="1312" y="-192"/>
  <object id="664" template="WoodenBarrel.tx" x="1280" y="320"/>
  <object id="667" template="WoodenBarrel.tx" x="1376" y="-64"/>
  <object id="669" template="WoodenBarrelClosed.tx" x="1408" y="-64"/>
  <object id="670" template="WoodPin1.tx" x="1440" y="-64"/>
  <object id="671" template="WoodPin1.tx" gid="2147484053" x="1312" y="352" rotation="0"/>
  <object id="672" template="WoodenBarrelArrows.tx" x="1280" y="352"/>
  <object id="673" template="WoodenBarrelTar.tx" x="1568" y="160"/>
  <object id="674" template="WoodenBarrelClosed.tx" x="1568" y="128"/>
  <object id="679" template="Mannequin1.tx" x="1280" y="288"/>
  <object id="685" template="WoodPin2.tx" x="1568" y="96"/>
  <object id="687" template="Mannequin1.tx" x="1360" y="-168"/>
  <object id="690" template="WoodPin2.tx" gid="2147484054" x="1664" y="352" rotation="0"/>
  <object id="693" template="WoodenBarrelClosed.tx" x="1728" y="160"/>
  <object id="695" template="WoodenBarrelArrows.tx" x="1728" y="192"/>
  <object id="697" template="WoodPin1.tx" gid="2147484053" x="1792" y="64" rotation="0"/>
  <object id="701" template="SwingingBall1.tx" x="1575" y="0"/>
  <object id="705" template="Cage3.tx" x="1504" y="352"/>
  <object id="706" template="Cage2.tx" x="1440" y="352"/>
  <object id="708" template="Cage3.tx" x="1792" y="32"/>
  <object id="710" template="Cage3.tx" x="1728" y="128"/>
  <object id="711" template="WoodPin1.tx" gid="2147484053" x="1472" y="320" rotation="0"/>
  <object id="735" template="StoneCrystal.tx" x="1856" y="-96"/>
  <object id="736" template="StoneCrystal.tx" x="1856" y="-64"/>
  <object id="737" gid="901" x="864" y="-160" width="128" height="64"/>
  <object id="742" template="WoodenBarrel.tx" x="832" y="-160"/>
  <object id="744" template="WoodenBarrel.tx" x="1152" y="-160"/>
  <object id="746" template="WoodenBarrelArrows.tx" x="1120" y="-160"/>
  <object id="748" template="WoodenBarrelPoisonEmpty.tx" x="672" y="-160"/>
  <object id="749" gid="2147484524" x="781" y="-160" width="64" height="64"/>
  <object id="750" gid="2147484523" x="1073" y="-160" width="64" height="64"/>
  <object id="751" template="Mannequin.tx" x="736" y="-160"/>
  <object id="752" template="Mannequin.tx" gid="2147484519" x="762" y="-173" rotation="0"/>
  <object id="753" template="WoodenBarrelSpikes.tx" x="1056" y="-160"/>
  <object id="754" type="BannerPoisonGray" gid="554" x="1056" y="-224" width="32" height="64"/>
  <object id="755" type="BannerPoisonGray" gid="554" x="768" y="-224" width="32" height="64"/>
  <object id="756" type="BannerAxe" gid="550" x="704" y="-224" width="32" height="64"/>
  <object id="757" type="BannerAxe" gid="550" x="1120" y="-224" width="32" height="64"/>
  <object id="758" template="ChainsTop.tx" x="992" y="-256"/>
  <object id="759" template="ChainsCandles.tx" x="992" y="-224"/>
  <object id="762" template="ChainsTop.tx" x="832" y="-256"/>
  <object id="763" template="ChainsCandles.tx" x="832" y="-224"/>
  <object id="764" template="Bones2.tx" x="64" y="992"/>
  <object id="765" template="Bones4.tx" x="0" y="736"/>
  <object id="766" template="Bones5.tx" x="32" y="608"/>
  <object id="767" template="Bones4.tx" x="64" y="544"/>
  <object id="768" template="Bones3.tx" x="160" y="768"/>
  <object id="769" template="Bones5.tx" x="224" y="800"/>
  <object id="771" template="Bones5.tx" x="-160" y="320"/>
  <object id="772" template="Bones6.tx" x="-128" y="768"/>
  <object id="773" template="Bones4.tx" x="192" y="576"/>
  <object id="774" template="Bones1.tx" x="-160" y="544"/>
  <object id="776" template="Bones5.tx" x="1152" y="-128"/>
  <object id="777" template="Bones3.tx" x="1141" y="-107"/>
  <object id="778" template="Bones2.tx" x="1102" y="-135"/>
  <object id="779" template="Bones1.tx" x="1050" y="-106"/>
  <object id="780" template="Bones4.tx" x="988" y="-121"/>
  <object id="781" template="Bones2.tx" x="522" y="-248"/>
  <object id="782" template="Bones5.tx" x="342" y="-317"/>
  <object id="783" template="Bones2.tx" x="271" y="15"/>
  <object id="784" template="Bones1.tx" x="285" y="65"/>
  <object id="785" template="Bones4.tx" x="251" y="90"/>
  <object id="786" template="Bones4.tx" gid="2147484109" x="273" y="131" rotation="0"/>
  <object id="787" template="Vase3.tx" x="992" y="-160"/>
  <object id="788" template="Vase2.tx" x="704" y="-160"/>
  <object id="789" template="WoodenBarrelClosed.tx" x="1024" y="-160"/>
  <object id="790" template="ChainsTop.tx" x="1952" y="-192"/>
  <object id="791" template="ChainsCandles.tx" x="1952" y="-160"/>
  <object id="793" gid="918" x="-32" y="100" width="160" height="192"/>
  <object id="794" gid="919" x="-32" y="32" width="160" height="96"/>
  <object id="796" gid="920" x="-35" y="88" width="64" height="64"/>
  <object id="797" template="Candle1Fire.tx" x="0" y="103"/>
  <object id="798" template="Candle2Fire.tx" x="58" y="102"/>
  <object id="799" template="Candle1Fire.tx" gid="2147484150" x="43" y="113" rotation="0"/>
  <object id="800" template="Candle2Fire.tx" gid="2147484156" x="22" y="110" rotation="0"/>
  <object id="803" gid="923" x="73" y="65" width="32" height="64"/>
  <object id="804" template="BottlePotion4.tx" x="97" y="80"/>
  <object id="805" template="BottlePotion2.tx" x="81" y="89"/>
  <object id="806" template="BottlePotion3.tx" x="-26" y="97"/>
  <object id="809" template="Candle1Fire.tx" gid="2147484150" x="-32" y="128" rotation="0"/>
  <object id="811" template="Candle2Fire.tx" gid="2147484156" x="64" y="160" rotation="0"/>
  <object id="812" template="Candle2.tx" x="0" y="416"/>
  <object id="813" template="Candle1.tx" x="64" y="928"/>
  <object id="814" template="Candle2.tx" gid="2147484158" x="0" y="224" rotation="0"/>
 </objectgroup>
 <objectgroup id="11" name="ObjectsOnTable">
  <object id="581" gid="878" x="500.333" y="-454.667" width="32" height="32"/>
  <object id="582" gid="879" x="580" y="-383" width="32" height="32"/>
  <object id="583" gid="880" x="574" y="-407" width="32" height="32"/>
  <object id="584" gid="881" x="558" y="-380" width="32" height="32"/>
  <object id="588" gid="511" x="556" y="-411" width="32" height="32"/>
  <object id="591" gid="507" x="517" y="-453" width="32" height="32"/>
  <object id="738" gid="902" x="872" y="-191" width="64" height="64"/>
  <object id="739" gid="906" x="847" y="-195" width="64" height="64"/>
  <object id="740" gid="910" x="905" y="-190" width="64" height="64"/>
  <object id="741" gid="914" x="937" y="-199" width="64" height="64"/>
 </objectgroup>
 <layer id="3" name="Roof" width="30" height="20">
  <data encoding="csv">
   <chunk x="48" y="-48" width="16" height="16">
0,0,0,0,0,0,0,0,0,0,0,0,0,0,0,0,
0,0,0,0,0,0,0,0,0,0,0,0,0,0,0,0,
0,0,0,0,0,0,0,0,0,0,0,0,0,0,0,0,
0,0,0,0,0,0,0,0,0,0,0,0,0,0,0,0,
0,0,0,0,0,0,0,0,0,0,0,0,0,0,0,0,
0,0,0,0,0,0,0,0,0,0,0,0,0,0,0,580,
0,0,0,0,0,0,0,0,0,0,0,0,0,0,0,580,
0,0,0,0,0,0,0,0,0,0,0,0,0,0,0,580,
0,0,0,0,0,0,0,0,0,0,0,0,0,0,0,580,
0,0,0,0,0,0,0,0,0,0,0,0,0,0,0,580,
0,0,0,0,0,0,0,0,0,0,0,0,0,0,0,580,
0,0,0,0,0,0,0,0,0,0,0,0,0,0,0,580,
0,0,0,0,0,0,0,0,0,0,0,0,0,0,0,580,
0,0,0,0,0,0,0,0,0,0,0,0,0,0,0,580,
0,0,0,0,0,0,0,0,0,0,0,0,0,0,0,580,
0,0,0,0,0,0,0,0,0,0,0,0,0,0,0,580
</chunk>
   <chunk x="64" y="-48" width="16" height="16">
0,0,0,0,0,0,0,0,0,0,0,0,0,0,0,0,
0,0,0,0,0,0,0,0,0,0,0,0,0,0,0,0,
0,0,0,0,0,0,0,0,0,0,0,0,0,0,0,0,
0,0,0,0,0,0,0,0,0,0,0,0,0,0,0,0,
0,0,0,0,0,0,0,0,0,0,0,0,0,0,0,0,
0,0,582,0,0,0,0,0,0,0,0,0,0,0,0,0,
0,0,582,0,0,0,0,0,0,0,0,0,0,0,0,0,
0,0,582,0,0,0,0,0,0,0,0,0,0,0,0,0,
0,0,582,0,0,0,0,0,0,0,0,0,0,0,0,0,
0,0,582,0,0,0,0,0,0,0,0,0,0,0,0,0,
0,0,582,0,0,0,0,0,0,0,0,0,0,0,0,0,
0,0,582,0,0,0,0,0,0,0,0,0,0,0,0,0,
0,0,582,0,0,0,0,0,0,0,0,0,0,0,0,0,
0,0,582,0,0,0,0,0,0,0,0,0,0,0,0,0,
0,0,582,0,0,0,0,0,0,0,0,0,0,0,0,0,
0,0,582,0,0,0,0,0,0,0,0,0,0,0,0,0
</chunk>
   <chunk x="0" y="-32" width="16" height="16">
0,0,0,0,0,0,0,0,0,0,0,0,0,0,0,0,
0,0,0,0,0,0,0,0,0,0,0,0,0,0,0,0,
0,0,0,0,0,0,0,0,0,0,0,0,0,0,0,0,
0,0,0,0,0,0,0,0,0,0,0,0,0,0,0,0,
0,0,0,0,0,0,0,0,0,0,0,0,0,0,0,0,
0,0,0,0,0,0,0,0,0,0,0,0,0,0,0,0,
0,0,0,0,0,0,0,0,0,0,0,0,0,0,0,0,
0,0,0,0,0,0,0,0,0,0,0,0,0,0,0,0,
0,0,0,0,0,0,0,0,0,0,0,0,0,0,0,0,
0,0,0,0,0,0,0,0,0,0,0,0,0,0,0,0,
0,0,0,0,0,0,0,0,0,0,0,0,0,0,0,0,
0,0,0,0,0,0,0,0,0,0,0,0,0,0,0,0,
0,0,0,0,0,0,0,0,0,0,0,0,0,0,0,0,
0,0,0,0,0,0,0,0,0,0,0,0,0,0,0,0,
0,0,0,0,0,0,0,0,0,0,0,0,0,0,0,0,
0,0,0,0,0,0,0,0,564,565,565,565,565,566,564,565
</chunk>
   <chunk x="16" y="-32" width="16" height="16">
0,0,0,0,0,0,0,0,0,0,0,0,0,0,0,0,
0,0,0,0,0,0,0,0,0,0,0,0,0,0,0,0,
0,0,0,0,0,0,0,0,0,0,0,0,0,0,0,0,
0,0,0,0,0,0,0,0,0,0,0,0,0,0,0,0,
0,0,0,0,0,0,0,0,0,0,0,0,0,0,0,0,
0,0,0,0,0,0,0,0,0,0,0,0,0,0,0,0,
0,0,0,0,0,0,0,0,0,0,0,0,0,0,0,0,
0,0,0,0,0,0,0,0,0,0,0,0,0,0,0,0,
0,0,0,0,0,0,0,0,0,0,0,0,0,0,0,0,
0,0,0,0,0,0,0,0,0,0,0,0,0,0,0,0,
0,0,0,0,0,0,0,0,0,0,0,0,0,0,0,0,
0,0,0,0,0,0,0,0,0,0,0,0,0,0,0,0,
0,0,0,0,0,0,0,0,0,0,0,0,0,0,0,0,
0,0,0,0,0,0,0,0,0,0,0,0,0,0,0,0,
0,0,0,0,0,0,0,0,0,0,0,0,0,0,0,0,
565,565,565,566,0,0,0,0,0,0,0,0,0,0,0,0
</chunk>
   <chunk x="48" y="-32" width="16" height="16">
0,0,0,0,0,0,0,0,0,0,0,0,0,0,0,580,
0,0,0,0,0,0,0,0,0,0,0,0,0,0,0,580,
0,0,0,0,0,0,0,0,0,0,0,0,0,0,0,580,
0,0,0,0,0,0,0,0,0,0,0,0,0,0,0,580,
0,0,0,0,0,0,0,0,0,0,0,0,0,0,0,580,
0,0,0,0,0,0,0,0,0,0,0,0,0,0,0,580,
0,0,0,0,0,0,0,0,0,0,0,0,0,0,0,580,
0,0,0,0,0,0,0,0,0,0,0,0,0,0,0,580,
0,0,0,0,0,0,0,0,0,0,0,0,0,0,0,580,
0,0,0,0,0,0,0,0,0,0,0,0,0,0,0,580,
0,0,0,0,0,0,0,0,0,0,0,0,0,0,0,580,
0,0,0,0,0,0,0,0,0,0,0,0,0,0,0,580,
0,0,0,0,0,0,0,0,0,0,0,0,0,0,0,580,
0,0,0,0,0,0,0,0,0,0,0,0,0,0,0,580,
0,0,0,0,0,0,0,0,0,0,0,0,0,0,0,580,
0,0,0,0,0,0,0,0,0,0,0,0,0,0,0,580
</chunk>
   <chunk x="64" y="-32" width="16" height="16">
0,0,582,0,0,0,0,0,0,0,0,0,0,0,0,0,
0,0,582,0,0,0,0,0,0,0,0,0,0,0,0,0,
0,0,582,0,0,0,0,0,0,0,0,0,0,0,0,0,
0,0,582,0,0,0,0,0,0,0,0,0,0,0,0,0,
0,0,582,0,0,0,0,0,0,0,0,0,0,0,0,0,
0,0,582,0,0,0,0,0,0,0,0,0,0,0,0,0,
0,0,582,0,0,0,0,0,0,0,0,0,0,0,0,0,
0,0,582,0,0,0,0,0,0,0,0,0,0,0,0,0,
0,0,582,0,0,0,0,0,0,0,0,0,0,0,0,0,
0,0,582,0,0,0,0,0,0,0,0,0,0,0,0,0,
0,0,582,0,0,0,0,0,0,0,0,0,0,0,0,0,
0,0,582,0,0,0,0,0,0,0,0,0,0,0,0,0,
0,0,582,0,0,0,0,0,0,0,0,0,0,0,0,0,
0,0,582,0,0,0,0,0,0,0,0,0,0,0,0,0,
0,0,582,0,0,0,0,0,0,0,0,0,0,0,0,0,
0,0,582,0,0,0,0,0,0,0,0,0,0,0,0,0
</chunk>
   <chunk x="-16" y="-16" width="16" height="16">
0,0,0,0,0,0,0,0,0,0,0,0,0,0,0,0,
0,0,0,0,0,0,0,0,0,0,0,0,0,0,0,0,
0,0,0,0,0,0,0,0,0,0,0,0,0,0,0,0,
0,0,0,0,0,0,0,0,0,0,0,0,0,0,0,0,
0,0,0,0,0,0,0,0,0,0,0,0,0,0,0,0,
0,0,0,0,0,0,0,0,0,0,0,0,0,0,0,0,
0,0,0,0,0,0,0,0,0,0,0,0,0,0,0,0,
0,0,0,0,0,0,0,0,0,0,0,0,0,0,0,0,
0,0,0,0,0,0,0,0,0,0,0,0,0,0,0,0,
0,0,0,0,0,0,0,0,0,0,0,0,0,0,0,0,
0,0,0,0,0,0,0,0,0,0,0,0,0,0,0,0,
0,0,0,0,0,0,0,0,0,0,0,0,0,0,0,0,
0,0,0,0,0,0,0,0,0,0,0,0,0,0,0,0,
0,0,0,0,0,0,0,0,0,0,0,0,0,0,564,565,
0,0,0,0,0,0,0,0,0,0,0,0,0,0,580,0,
0,0,0,0,0,0,0,0,0,0,0,0,0,0,580,0
</chunk>
   <chunk x="0" y="-16" width="16" height="16">
0,0,0,0,0,0,0,0,580,0,0,0,0,583,584,0,
0,0,0,0,0,0,0,0,580,0,0,0,0,0,0,0,
0,0,0,0,0,0,0,0,580,0,0,0,0,0,0,0,
0,0,0,0,0,0,0,0,580,0,0,0,0,0,0,0,
0,0,0,0,0,0,0,0,580,0,0,0,0,0,0,0,
0,0,0,0,0,0,0,0,580,0,0,0,0,0,0,0,
0,0,0,0,0,0,0,0,596,568,0,0,567,597,597,568,
0,0,0,0,0,0,564,565,565,584,0,0,583,565,565,584,
0,0,0,0,0,0,580,0,0,0,0,0,0,0,0,0,
0,0,0,0,0,0,580,0,0,0,0,0,0,0,0,0,
0,0,0,0,0,0,580,0,0,0,0,0,0,0,0,0,
0,0,0,0,0,0,580,0,0,0,0,0,0,0,0,0,
0,0,0,0,0,0,596,568,0,0,567,597,597,597,597,597,
565,565,565,565,566,0,0,580,0,0,582,0,0,0,0,0,
0,0,0,0,583,565,565,584,0,0,582,0,0,0,0,0,
0,0,0,0,0,0,0,0,0,0,582,0,0,0,0,0
</chunk>
   <chunk x="16" y="-16" width="16" height="16">
0,0,0,582,0,0,0,0,0,0,0,0,0,0,0,0,
0,0,0,582,0,0,0,0,0,0,0,0,0,0,0,0,
0,0,0,582,0,0,0,0,0,0,0,0,0,0,0,0,
0,0,0,582,0,0,0,0,0,0,0,0,0,0,0,0,
0,0,0,582,0,0,0,0,0,0,0,0,0,0,0,0,
0,0,0,582,0,0,0,0,0,0,0,0,0,0,0,0,
0,0,567,598,564,565,565,565,565,565,565,565,565,565,565,565,
0,0,583,565,584,0,0,0,0,0,0,0,0,0,0,0,
0,0,0,0,0,0,0,0,0,0,0,0,0,0,0,0,
0,0,0,0,0,0,0,0,0,0,0,0,0,0,0,0,
0,0,0,0,0,0,0,0,0,0,0,0,0,0,0,0,
0,0,0,0,0,0,0,0,0,0,0,0,0,0,0,0,
597,597,597,597,568,0,0,0,0,0,0,0,0,0,0,0,
0,0,0,0,596,597,597,597,597,597,597,597,597,597,597,597,
0,0,0,0,0,0,0,0,0,0,0,0,0,0,0,0,
0,0,0,0,0,0,0,0,0,0,0,0,0,0,0,0
</chunk>
   <chunk x="32" y="-16" width="16" height="16">
0,0,0,0,0,0,0,0,0,0,0,0,0,0,0,0,
0,0,0,0,0,0,0,0,0,0,0,0,0,0,0,0,
0,0,0,0,0,0,0,0,0,0,0,0,0,0,0,0,
0,0,0,0,0,0,0,0,0,0,0,0,0,564,565,565,
0,0,0,0,0,0,0,0,0,0,0,0,0,580,0,0,
0,0,0,0,0,0,0,564,565,565,566,564,565,584,0,0,
565,565,565,565,565,566,0,580,0,0,583,584,0,0,0,0,
0,0,0,0,0,583,565,584,0,0,0,0,0,0,0,0,
0,0,0,0,0,0,0,0,0,0,0,0,0,0,0,0,
0,0,0,0,0,0,0,0,0,0,0,0,0,0,0,0,
0,0,0,0,0,0,0,0,0,0,0,0,0,0,0,0,
0,0,0,0,0,0,0,0,0,0,0,0,0,0,0,0,
0,0,0,0,0,567,597,568,0,0,0,0,0,0,0,0,
597,597,597,597,597,598,0,580,0,0,0,0,0,0,0,0,
0,0,0,0,0,0,0,580,0,0,0,567,597,568,0,0,
0,0,0,0,0,0,0,580,0,0,0,582,0,580,0,0
</chunk>
   <chunk x="48" y="-16" width="16" height="16">
0,0,0,0,0,0,0,0,0,0,0,0,0,0,0,580,
0,0,0,0,0,0,0,0,0,0,0,0,0,0,0,580,
0,0,0,0,0,0,0,0,0,0,0,0,0,0,0,580,
565,566,0,0,0,0,0,0,0,0,0,0,0,0,0,580,
0,582,0,0,0,0,0,0,0,0,0,0,0,0,0,580,
0,583,566,0,0,0,0,0,0,0,0,0,0,0,0,580,
0,0,582,0,0,0,0,0,0,0,0,0,0,0,0,580,
0,0,583,565,565,565,565,565,565,566,0,0,0,0,0,580,
0,0,0,0,0,0,0,0,0,583,565,565,565,565,565,584,
0,0,0,0,0,0,0,0,0,0,0,0,0,0,0,0,
0,0,0,0,0,0,0,0,0,0,0,0,0,0,0,0,
0,0,0,0,0,0,0,0,0,0,0,0,0,0,0,0,
0,0,0,0,0,0,0,0,0,0,0,0,0,0,0,0,
0,0,0,0,0,0,0,0,0,0,0,0,0,0,0,0,
0,0,0,0,567,568,0,0,0,567,597,597,597,597,597,597,
0,0,0,0,582,580,0,0,0,583,565,565,566,0,0,0
</chunk>
   <chunk x="64" y="-16" width="16" height="16">
0,0,582,0,0,0,0,0,0,0,0,0,0,0,0,0,
0,0,582,0,0,0,0,0,0,0,0,0,0,0,0,0,
0,0,582,0,0,0,0,0,0,0,0,0,0,0,0,0,
0,0,582,0,0,0,0,0,0,0,0,0,0,0,0,0,
0,0,582,0,0,0,0,0,0,0,0,0,0,0,0,0,
0,0,582,0,0,0,0,0,0,0,0,0,0,0,0,0,
0,0,582,0,0,0,0,0,0,0,0,0,0,0,0,0,
0,0,582,0,0,0,0,0,0,0,0,0,0,0,0,0,
0,0,582,0,0,0,0,0,0,0,0,0,0,0,0,0,
0,0,582,0,0,0,0,0,0,0,0,0,0,0,0,0,
0,0,582,0,0,0,0,0,0,0,0,0,0,0,0,0,
0,0,582,0,0,0,0,0,0,0,0,0,0,0,0,0,
0,0,582,0,0,0,0,0,0,0,0,0,0,0,0,0,
0,0,582,0,0,0,0,0,0,0,0,0,0,0,0,0,
597,597,598,0,0,0,0,0,0,0,0,0,0,0,0,0,
0,0,0,0,0,0,0,0,0,0,0,0,0,0,0,0
</chunk>
   <chunk x="-16" y="0" width="16" height="16">
0,0,0,0,0,0,0,0,0,0,0,0,0,0,580,0,
0,0,0,0,0,0,0,0,0,0,0,0,0,0,580,0,
0,0,0,0,0,0,0,0,0,0,0,0,0,0,580,0,
0,0,0,0,0,0,0,0,0,0,0,0,0,0,580,0,
0,0,0,0,0,0,0,0,0,0,0,0,0,0,596,568,
0,0,0,0,0,0,0,0,0,0,564,565,565,565,566,580,
0,0,0,0,0,0,0,0,0,0,580,0,0,0,583,584,
0,0,0,0,0,0,0,0,0,0,580,0,0,0,0,0,
0,0,0,0,0,0,0,0,0,0,580,0,0,0,0,0,
0,0,0,0,0,0,0,0,0,0,580,0,0,0,0,0,
0,0,0,0,0,0,0,0,0,0,580,0,0,0,0,0,
0,0,0,0,0,0,0,0,0,0,596,597,597,597,597,568,
0,0,0,0,0,0,0,0,0,0,564,565,565,565,566,580,
0,0,0,0,0,0,0,0,0,0,580,0,0,0,583,584,
0,0,0,0,0,0,0,0,0,0,580,0,0,0,0,0,
0,0,0,0,0,0,0,0,0,0,580,0,0,0,0,0
</chunk>
   <chunk x="0" y="0" width="16" height="16">
0,0,0,0,0,0,0,0,0,0,582,0,0,0,0,0,
0,0,0,0,0,0,0,0,0,0,582,0,0,0,0,0,
0,0,0,0,0,0,0,0,0,0,582,0,0,0,0,0,
0,0,0,0,0,0,0,0,0,0,582,0,0,0,0,0,
0,0,0,567,597,597,597,597,597,597,598,0,0,0,0,0,
0,0,0,582,564,565,565,565,566,0,0,0,0,0,0,0,
0,0,0,583,584,0,0,0,582,0,0,0,0,0,0,0,
0,0,0,0,0,0,0,0,582,0,0,0,0,0,0,0,
0,0,0,0,0,0,0,0,582,0,0,0,0,0,0,0,
0,0,0,0,0,0,0,0,582,0,0,0,0,0,0,0,
0,0,0,0,0,0,0,0,582,0,0,0,0,0,0,0,
0,0,0,567,597,597,597,597,598,0,0,0,0,0,0,0,
0,0,0,582,564,565,565,565,566,0,0,0,0,0,0,0,
0,0,0,583,584,0,0,0,582,0,0,0,0,0,0,0,
0,0,0,0,0,0,0,0,582,0,0,0,0,0,0,0,
0,0,0,0,0,0,0,0,582,0,0,0,0,0,0,0
</chunk>
   <chunk x="32" y="0" width="16" height="16">
0,0,0,0,0,0,0,580,0,0,0,582,0,580,0,0,
0,0,0,0,0,0,0,580,0,0,0,583,565,584,0,0,
0,0,0,0,0,0,0,580,0,0,0,0,0,0,0,0,
0,0,0,0,0,0,0,580,0,0,0,0,0,0,0,0,
0,0,0,0,0,0,0,580,0,0,0,0,0,0,0,0,
0,0,0,0,0,0,0,580,0,0,0,0,0,0,0,0,
0,0,0,0,0,0,0,580,0,0,0,0,0,0,0,0,
0,0,0,0,0,0,0,580,0,0,0,0,0,0,0,0,
0,0,0,0,0,0,0,580,0,0,0,0,0,0,0,0,
0,0,0,0,0,0,0,580,0,0,0,0,0,0,0,0,
0,0,0,0,0,0,0,580,0,0,0,0,0,0,0,0,
0,0,0,0,0,0,0,596,597,568,0,0,0,567,597,597,
0,0,0,0,0,0,0,0,0,580,0,0,0,582,0,0,
0,0,0,0,0,0,0,0,0,596,597,597,597,598,0,0,
0,0,0,0,0,0,0,0,0,0,0,0,0,0,0,0,
0,0,0,0,0,0,0,0,0,0,0,0,0,0,0,0
</chunk>
   <chunk x="48" y="0" width="16" height="16">
0,0,567,597,598,580,0,0,0,0,0,0,582,0,0,0,
0,0,582,0,0,580,0,0,0,0,0,0,582,0,0,0,
0,0,583,565,565,584,0,0,0,0,0,0,582,0,0,0,
0,0,0,0,0,0,0,0,0,0,0,0,582,0,0,0,
0,0,0,0,0,0,0,0,0,0,0,0,582,0,0,0,
0,0,0,0,0,0,0,0,0,0,0,0,582,0,0,0,
0,0,0,0,0,0,0,0,0,567,597,597,598,0,0,0,
0,0,0,0,0,0,0,0,0,582,0,0,0,0,0,0,
0,0,0,0,0,0,0,0,0,582,0,0,0,0,0,0,
567,597,597,568,0,0,0,0,0,582,0,0,0,0,0,0,
582,0,0,580,0,0,0,0,0,582,0,0,0,0,0,0,
598,0,0,596,597,597,597,597,597,598,0,0,0,0,0,0,
0,0,0,0,0,0,0,0,0,0,0,0,0,0,0,0,
0,0,0,0,0,0,0,0,0,0,0,0,0,0,0,0,
0,0,0,0,0,0,0,0,0,0,0,0,0,0,0,0,
0,0,0,0,0,0,0,0,0,0,0,0,0,0,0,0
</chunk>
   <chunk x="-16" y="16" width="16" height="16">
0,0,0,0,0,0,0,0,0,0,580,0,0,0,0,0,
0,0,0,0,0,0,0,0,0,0,580,0,0,0,0,0,
0,0,0,0,0,0,0,0,0,0,596,597,597,597,597,568,
0,0,0,0,0,0,0,0,0,0,564,565,565,565,566,580,
0,0,0,0,0,0,0,0,0,0,580,0,0,0,583,584,
0,0,0,0,0,0,0,0,0,0,580,0,0,0,0,0,
0,0,0,0,0,0,0,0,0,0,580,0,0,0,0,0,
0,0,0,0,0,0,0,0,0,0,580,0,0,0,0,0,
0,0,0,0,0,0,0,0,0,0,580,0,0,0,0,0,
0,0,0,0,0,0,0,0,0,0,596,597,597,597,597,568,
0,0,0,0,0,0,0,0,0,0,0,0,0,0,0,580,
0,0,0,0,0,0,0,0,0,0,0,0,0,0,0,580,
0,0,0,0,0,0,0,0,0,0,0,0,0,0,0,580,
0,0,0,0,0,0,0,0,0,0,0,0,0,0,0,580,
0,0,0,0,0,0,0,0,0,0,0,0,0,0,0,580,
0,0,0,0,0,0,0,0,0,0,0,0,0,0,0,580
</chunk>
   <chunk x="0" y="16" width="16" height="16">
0,0,0,0,0,0,0,0,582,0,0,0,0,0,0,0,
0,0,0,0,0,0,0,0,582,0,0,0,0,0,0,0,
0,0,0,567,597,597,597,597,598,0,0,0,0,0,0,0,
0,0,0,582,564,565,565,565,566,0,0,0,0,0,0,0,
0,0,0,583,584,0,0,0,582,0,0,0,0,0,0,0,
0,0,0,0,0,0,0,0,582,0,0,0,0,0,0,0,
0,0,0,0,0,0,0,0,582,0,0,0,0,0,0,0,
0,0,0,0,0,0,0,0,582,0,0,0,0,0,0,0,
0,0,0,0,0,0,0,0,582,0,0,0,0,0,0,0,
0,0,0,567,597,597,597,597,598,0,0,0,0,0,0,0,
0,0,0,582,0,0,0,0,0,0,0,0,0,0,0,0,
0,0,0,582,0,0,0,0,0,0,0,0,0,0,0,0,
0,0,0,582,0,0,0,0,0,0,0,0,0,0,0,0,
0,0,0,582,0,0,0,0,0,0,0,0,0,0,0,0,
0,0,0,582,0,0,0,0,0,0,0,0,0,0,0,0,
0,0,0,582,0,0,0,0,0,0,0,0,0,0,0,0
</chunk>
   <chunk x="-16" y="32" width="16" height="16">
0,0,0,0,0,0,0,0,0,0,0,0,0,0,0,580,
0,0,0,0,0,0,0,0,0,0,0,0,0,0,0,580,
0,0,0,0,0,0,0,0,0,0,0,0,0,0,0,580,
0,0,0,0,0,0,0,0,0,0,0,0,0,0,0,580,
0,0,0,0,0,0,0,0,0,0,0,0,0,0,0,580,
0,0,0,0,0,0,0,0,0,0,0,0,0,0,0,580,
0,0,0,0,0,0,0,0,0,0,0,0,0,564,565,584,
0,0,0,0,0,0,0,0,0,0,0,0,0,580,0,0,
0,0,0,0,0,0,0,0,0,0,0,0,0,580,0,0,
0,0,0,0,0,0,0,0,0,0,0,0,0,580,0,0,
0,0,0,0,0,0,0,0,0,0,0,0,0,580,0,0,
0,0,0,0,0,0,0,0,0,0,0,0,0,580,0,0,
0,0,0,0,0,0,0,0,0,0,0,0,0,580,0,0,
0,0,0,0,0,0,0,0,0,0,0,0,0,596,597,568,
0,0,0,0,0,0,0,0,0,0,0,0,0,0,0,580,
0,0,0,0,0,0,0,0,0,0,0,0,0,0,0,580
</chunk>
   <chunk x="0" y="32" width="16" height="16">
0,0,0,582,0,0,0,0,0,0,0,0,0,0,0,0,
0,0,0,582,0,0,0,0,0,0,0,0,0,0,0,0,
0,0,0,582,0,0,0,0,0,0,0,0,0,0,0,0,
0,0,0,582,0,0,0,0,0,0,0,0,0,0,0,0,
0,0,0,582,0,0,0,0,0,0,0,0,0,0,0,0,
0,0,0,583,565,565,565,565,566,0,0,0,0,0,0,0,
0,0,0,0,0,0,0,0,582,0,0,0,0,0,0,0,
0,0,0,0,0,0,0,0,582,0,0,0,0,0,0,0,
0,0,0,0,0,0,0,0,582,0,0,0,0,0,0,0,
0,0,0,0,0,0,0,0,582,0,0,0,0,0,0,0,
0,0,0,0,0,0,0,0,582,0,0,0,0,0,0,0,
0,0,0,0,0,0,0,0,582,0,0,0,0,0,0,0,
0,0,0,0,0,0,0,0,582,0,0,0,0,0,0,0,
0,0,0,567,597,597,597,597,598,0,0,0,0,0,0,0,
0,0,0,582,0,0,0,0,0,0,0,0,0,0,0,0,
0,0,0,582,0,0,0,0,0,0,0,0,0,0,0,0
</chunk>
   <chunk x="-16" y="48" width="16" height="16">
0,0,0,0,0,0,0,0,0,0,0,0,0,0,0,580,
0,0,0,0,0,0,0,0,0,0,0,0,0,0,0,580,
0,0,0,0,0,0,0,0,0,0,0,0,0,0,0,580,
0,0,0,0,0,0,0,0,0,0,0,0,0,0,0,580,
0,0,0,0,0,0,0,0,0,0,0,0,0,0,0,580,
0,0,0,0,0,0,0,0,0,0,0,0,0,0,0,580,
0,0,0,0,0,0,0,0,0,0,0,0,0,0,0,580,
0,0,0,0,0,0,0,0,0,0,0,0,0,0,0,580,
0,0,0,0,0,0,0,0,0,0,0,0,0,0,0,580,
0,0,0,0,0,0,0,0,0,0,0,0,0,0,0,596,
0,0,0,0,0,0,0,0,0,0,0,0,0,0,0,0,
0,0,0,0,0,0,0,0,0,0,0,0,0,0,0,0,
0,0,0,0,0,0,0,0,0,0,0,0,0,0,0,0,
0,0,0,0,0,0,0,0,0,0,0,0,0,0,0,0,
0,0,0,0,0,0,0,0,0,0,0,0,0,0,0,0,
0,0,0,0,0,0,0,0,0,0,0,0,0,0,0,0
</chunk>
   <chunk x="0" y="48" width="16" height="16">
0,0,0,582,0,0,0,0,0,0,0,0,0,0,0,0,
0,0,0,582,0,0,0,0,0,0,0,0,0,0,0,0,
0,0,0,583,565,565,566,0,0,0,0,0,0,0,0,0,
0,0,0,0,0,0,582,0,0,0,0,0,0,0,0,0,
0,0,0,0,0,0,582,0,0,0,0,0,0,0,0,0,
0,0,0,0,0,0,582,0,0,0,0,0,0,0,0,0,
0,0,0,0,0,0,582,0,0,0,0,0,0,0,0,0,
0,0,0,0,0,0,582,0,0,0,0,0,0,0,0,0,
0,0,0,0,0,0,582,0,0,0,0,0,0,0,0,0,
597,597,597,597,597,597,598,0,0,0,0,0,0,0,0,0,
0,0,0,0,0,0,0,0,0,0,0,0,0,0,0,0,
0,0,0,0,0,0,0,0,0,0,0,0,0,0,0,0,
0,0,0,0,0,0,0,0,0,0,0,0,0,0,0,0,
0,0,0,0,0,0,0,0,0,0,0,0,0,0,0,0,
0,0,0,0,0,0,0,0,0,0,0,0,0,0,0,0,
0,0,0,0,0,0,0,0,0,0,0,0,0,0,0,0
</chunk>
  </data>
 </layer>
 <layer id="4" name="RoofShadow" width="30" height="20">
  <data encoding="csv">
   <chunk x="48" y="-48" width="16" height="16">
0,0,0,0,0,0,0,0,0,0,0,0,0,0,0,0,
0,0,0,0,0,0,0,0,0,0,0,0,0,0,0,0,
0,0,0,0,0,0,0,0,0,0,0,0,0,0,0,0,
0,0,0,0,0,0,0,0,0,0,0,0,0,0,0,0,
0,0,0,0,0,0,0,0,0,0,0,0,0,0,0,0,
0,0,0,0,0,0,0,0,0,0,0,0,0,0,0,316,
0,0,0,0,0,0,0,0,0,0,0,0,0,0,0,0,
0,0,0,0,0,0,0,0,0,0,0,0,0,0,0,0,
0,0,0,0,0,0,0,0,0,0,0,0,0,0,0,0,
0,0,0,0,0,0,0,0,0,0,0,0,0,0,0,0,
0,0,0,0,0,0,0,0,0,0,0,0,0,0,0,0,
0,0,0,0,0,0,0,0,0,0,0,0,0,0,0,0,
0,0,0,0,0,0,0,0,0,0,0,0,0,0,0,0,
0,0,0,0,0,0,0,0,0,0,0,0,0,0,0,0,
0,0,0,0,0,0,0,0,0,0,0,0,0,0,0,0,
0,0,0,0,0,0,0,0,0,0,0,0,0,0,0,0
</chunk>
   <chunk x="64" y="-48" width="16" height="16">
0,0,0,0,0,0,0,0,0,0,0,0,0,0,0,0,
0,0,0,0,0,0,0,0,0,0,0,0,0,0,0,0,
0,0,0,0,0,0,0,0,0,0,0,0,0,0,0,0,
0,0,0,0,0,0,0,0,0,0,0,0,0,0,0,0,
0,0,0,0,0,0,0,0,0,0,0,0,0,0,0,0,
316,316,316,0,0,0,0,0,0,0,0,0,0,0,0,0,
0,0,0,0,0,0,0,0,0,0,0,0,0,0,0,0,
0,0,0,0,0,0,0,0,0,0,0,0,0,0,0,0,
0,0,0,0,0,0,0,0,0,0,0,0,0,0,0,0,
0,0,0,0,0,0,0,0,0,0,0,0,0,0,0,0,
0,0,0,0,0,0,0,0,0,0,0,0,0,0,0,0,
0,0,0,0,0,0,0,0,0,0,0,0,0,0,0,0,
0,0,0,0,0,0,0,0,0,0,0,0,0,0,0,0,
0,0,0,0,0,0,0,0,0,0,0,0,0,0,0,0,
0,0,0,0,0,0,0,0,0,0,0,0,0,0,0,0,
0,0,0,0,0,0,0,0,0,0,0,0,0,0,0,0
</chunk>
  </data>
 </layer>
 <layer id="37" name="RoofShadowBehindTheStones" width="30" height="20" opacity="0">
  <data encoding="csv">
   <chunk x="48" y="-48" width="16" height="16">
0,0,0,0,0,0,0,0,0,0,0,0,0,0,0,0,
0,0,0,0,0,0,0,0,0,0,0,0,0,0,0,0,
0,0,0,0,0,0,0,0,0,0,0,0,0,0,0,0,
0,0,0,0,0,0,0,0,0,0,0,0,0,0,0,0,
0,0,0,0,0,0,0,0,0,0,0,0,0,0,0,0,
0,0,0,0,0,0,0,0,0,0,0,0,0,0,0,308,
0,0,0,0,0,0,0,0,0,0,0,0,0,0,0,308,
0,0,0,0,0,0,0,0,0,0,0,0,0,0,0,308,
0,0,0,0,0,0,0,0,0,0,0,0,0,0,0,308,
0,0,0,0,0,0,0,0,0,0,0,0,0,0,0,308,
0,0,0,0,0,0,0,0,0,0,0,0,0,0,0,308,
0,0,0,0,0,0,0,0,0,0,0,0,0,0,0,308,
0,0,0,0,0,0,0,0,0,0,0,0,0,0,0,308,
0,0,0,0,0,0,0,0,0,0,0,0,0,0,0,308,
0,0,0,0,0,0,0,0,0,0,0,0,0,0,0,308,
0,0,0,0,0,0,0,0,0,0,0,0,0,0,0,308
</chunk>
   <chunk x="64" y="-48" width="16" height="16">
0,0,0,0,0,0,0,0,0,0,0,0,0,0,0,0,
0,0,0,0,0,0,0,0,0,0,0,0,0,0,0,0,
0,0,0,0,0,0,0,0,0,0,0,0,0,0,0,0,
0,0,0,0,0,0,0,0,0,0,0,0,0,0,0,0,
0,0,0,0,0,0,0,0,0,0,0,0,0,0,0,0,
308,308,308,0,0,0,0,0,0,0,0,0,0,0,0,0,
308,308,308,0,0,0,0,0,0,0,0,0,0,0,0,0,
308,308,308,0,0,0,0,0,0,0,0,0,0,0,0,0,
308,308,308,0,0,0,0,0,0,0,0,0,0,0,0,0,
308,308,308,0,0,0,0,0,0,0,0,0,0,0,0,0,
308,308,308,0,0,0,0,0,0,0,0,0,0,0,0,0,
308,308,308,0,0,0,0,0,0,0,0,0,0,0,0,0,
308,308,308,0,0,0,0,0,0,0,0,0,0,0,0,0,
308,308,308,0,0,0,0,0,0,0,0,0,0,0,0,0,
308,308,308,0,0,0,0,0,0,0,0,0,0,0,0,0,
308,308,308,0,0,0,0,0,0,0,0,0,0,0,0,0
</chunk>
   <chunk x="48" y="-32" width="16" height="16">
0,0,0,0,0,0,0,0,0,0,0,0,0,0,0,308,
0,0,0,0,0,0,0,0,0,0,0,0,0,0,0,308,
0,0,0,0,0,0,0,0,0,0,0,0,0,0,0,308,
0,0,0,0,0,0,0,0,0,0,0,0,0,0,0,308,
0,0,0,0,0,0,0,0,0,0,0,0,0,0,0,308,
0,0,0,0,0,0,0,0,0,0,0,0,0,0,0,308,
0,0,0,0,0,0,0,0,0,0,0,0,0,0,0,308,
0,0,0,0,0,0,0,0,0,0,0,0,0,0,0,308,
0,0,0,0,0,0,0,0,0,0,0,0,0,0,0,308,
0,0,0,0,0,0,0,0,0,0,0,0,0,0,0,308,
0,0,0,0,0,0,0,0,0,0,0,0,0,0,0,308,
0,0,0,0,0,0,0,0,0,0,0,0,0,0,0,308,
0,0,0,0,0,0,0,0,0,0,0,0,0,0,0,308,
0,0,0,0,0,0,0,0,0,0,0,0,0,0,0,308,
0,0,0,0,0,0,0,0,0,0,0,0,0,0,0,308,
0,0,0,0,0,0,0,0,0,0,0,0,0,0,0,308
</chunk>
   <chunk x="64" y="-32" width="16" height="16">
308,308,308,0,0,0,0,0,0,0,0,0,0,0,0,0,
308,308,308,0,0,0,0,0,0,0,0,0,0,0,0,0,
308,308,308,0,0,0,0,0,0,0,0,0,0,0,0,0,
308,308,308,0,0,0,0,0,0,0,0,0,0,0,0,0,
308,308,308,0,0,0,0,0,0,0,0,0,0,0,0,0,
308,308,308,0,0,0,0,0,0,0,0,0,0,0,0,0,
308,308,308,0,0,0,0,0,0,0,0,0,0,0,0,0,
308,308,308,0,0,0,0,0,0,0,0,0,0,0,0,0,
308,308,308,0,0,0,0,0,0,0,0,0,0,0,0,0,
308,308,308,0,0,0,0,0,0,0,0,0,0,0,0,0,
308,308,308,0,0,0,0,0,0,0,0,0,0,0,0,0,
308,308,308,0,0,0,0,0,0,0,0,0,0,0,0,0,
308,308,308,0,0,0,0,0,0,0,0,0,0,0,0,0,
308,308,308,0,0,0,0,0,0,0,0,0,0,0,0,0,
308,308,308,0,0,0,0,0,0,0,0,0,0,0,0,0,
308,308,308,0,0,0,0,0,0,0,0,0,0,0,0,0
</chunk>
   <chunk x="48" y="-16" width="16" height="16">
0,0,0,0,0,0,0,0,0,0,0,0,0,0,0,308,
0,0,0,0,0,0,0,0,0,0,0,0,0,0,0,308,
0,0,0,0,0,0,0,0,0,0,0,0,0,0,0,308,
0,0,0,0,0,0,0,0,0,0,0,0,0,0,0,308,
0,0,0,0,0,0,0,0,0,0,0,0,0,0,0,308,
0,0,0,0,0,0,0,0,0,0,0,0,0,0,0,308,
0,0,0,0,0,0,0,0,0,0,0,0,0,0,0,308,
0,0,0,0,0,0,0,0,0,0,0,0,0,0,0,308,
0,0,0,0,0,0,0,0,0,0,0,2684354878,308,308,308,308,
0,0,0,0,0,0,0,0,0,0,0,2684354878,308,308,308,308,
0,0,0,0,0,0,0,0,0,0,0,2684354878,308,308,308,308,
0,0,0,0,0,0,0,0,0,0,0,2684354878,308,308,308,308,
0,0,0,0,0,0,0,0,0,0,0,2684354878,308,308,308,308,
0,0,0,0,0,0,0,0,0,0,0,2684354878,308,308,308,308,
0,0,0,0,0,0,0,0,0,0,0,2684354878,308,308,308,308,
0,0,0,0,0,0,0,0,0,0,0,0,0,0,0,0
</chunk>
   <chunk x="64" y="-16" width="16" height="16">
308,308,308,0,0,0,0,0,0,0,0,0,0,0,0,0,
308,308,308,0,0,0,0,0,0,0,0,0,0,0,0,0,
308,308,308,0,0,0,0,0,0,0,0,0,0,0,0,0,
308,308,308,0,0,0,0,0,0,0,0,0,0,0,0,0,
308,308,308,0,0,0,0,0,0,0,0,0,0,0,0,0,
308,308,308,0,0,0,0,0,0,0,0,0,0,0,0,0,
308,308,308,0,0,0,0,0,0,0,0,0,0,0,0,0,
308,308,308,0,0,0,0,0,0,0,0,0,0,0,0,0,
308,308,308,0,0,0,0,0,0,0,0,0,0,0,0,0,
308,308,308,0,0,0,0,0,0,0,0,0,0,0,0,0,
308,308,308,0,0,0,0,0,0,0,0,0,0,0,0,0,
308,308,308,0,0,0,0,0,0,0,0,0,0,0,0,0,
308,308,308,0,0,0,0,0,0,0,0,0,0,0,0,0,
308,308,308,0,0,0,0,0,0,0,0,0,0,0,0,0,
308,308,308,0,0,0,0,0,0,0,0,0,0,0,0,0,
0,0,0,0,0,0,0,0,0,0,0,0,0,0,0,0
</chunk>
  </data>
 </layer>
 <layer id="27" name="BARRIER_GROUND" width="30" height="20" opacity="0">
  <data encoding="csv">
   <chunk x="48" y="-48" width="16" height="16">
0,0,0,0,0,0,0,0,0,0,0,0,0,0,0,0,
0,0,0,0,0,0,0,0,0,0,0,0,0,0,0,0,
0,0,0,0,0,0,0,0,0,0,0,0,0,0,0,0,
0,0,0,0,0,0,0,0,0,0,0,0,0,0,0,0,
0,0,0,0,0,0,0,0,0,0,0,0,0,0,0,0,
0,0,0,0,0,0,0,0,0,0,0,0,0,0,0,0,
0,0,0,0,0,0,0,0,0,0,0,0,0,0,0,558,
0,0,0,0,0,0,0,0,0,0,0,0,0,0,0,558,
0,0,0,0,0,0,0,0,0,0,0,0,0,0,0,558,
0,0,0,0,0,0,0,0,0,0,0,0,0,0,0,558,
0,0,0,0,0,0,0,0,0,0,0,0,0,0,0,558,
0,0,0,0,0,0,0,0,0,0,0,0,0,0,0,558,
0,0,0,0,0,0,0,0,0,0,0,0,0,0,0,558,
0,0,0,0,0,0,0,0,0,0,0,0,0,0,0,558,
0,0,0,0,0,0,0,0,0,0,0,0,0,0,0,558,
0,0,0,0,0,0,0,0,0,0,0,0,0,0,0,558
</chunk>
   <chunk x="64" y="-48" width="16" height="16">
0,0,0,0,0,0,0,0,0,0,0,0,0,0,0,0,
0,0,0,0,0,0,0,0,0,0,0,0,0,0,0,0,
0,0,0,0,0,0,0,0,0,0,0,0,0,0,0,0,
0,0,0,0,0,0,0,0,0,0,0,0,0,0,0,0,
0,0,0,0,0,0,0,0,0,0,0,0,0,0,0,0,
0,0,0,0,0,0,0,0,0,0,0,0,0,0,0,0,
558,558,558,0,0,0,0,0,0,0,0,0,0,0,0,0,
0,0,558,0,0,0,0,0,0,0,0,0,0,0,0,0,
0,0,558,0,0,0,0,0,0,0,0,0,0,0,0,0,
0,0,558,0,0,0,0,0,0,0,0,0,0,0,0,0,
0,0,558,0,0,0,0,0,0,0,0,0,0,0,0,0,
0,0,558,0,0,0,0,0,0,0,0,0,0,0,0,0,
0,0,558,0,0,0,0,0,0,0,0,0,0,0,0,0,
0,0,558,0,0,0,0,0,0,0,0,0,0,0,0,0,
0,0,558,0,0,0,0,0,0,0,0,0,0,0,0,0,
0,0,558,0,0,0,0,0,0,0,0,0,0,0,0,0
</chunk>
   <chunk x="48" y="-32" width="16" height="16">
0,0,0,0,0,0,0,0,0,0,0,0,0,0,0,558,
0,0,0,0,0,0,0,0,0,0,0,0,0,0,0,558,
0,0,0,0,0,0,0,0,0,0,0,0,0,0,0,558,
0,0,0,0,0,0,0,0,0,0,0,0,0,0,0,558,
0,0,0,0,0,0,0,0,0,0,0,0,0,0,0,558,
0,0,0,0,0,0,0,0,0,0,0,0,0,0,0,558,
0,0,0,0,0,0,0,0,0,0,0,0,0,0,0,558,
0,0,0,0,0,0,0,0,0,0,0,0,0,0,0,558,
0,0,0,0,0,0,0,0,0,0,0,0,0,0,0,558,
0,0,0,0,0,0,0,0,0,0,0,0,0,0,0,558,
0,0,0,0,0,0,0,0,0,0,0,0,0,0,0,558,
0,0,0,0,0,0,0,0,0,0,0,0,0,0,0,558,
0,0,0,0,0,0,0,0,0,0,0,0,0,0,0,558,
0,0,0,0,0,0,0,0,0,0,0,0,0,0,0,558,
0,0,0,0,0,0,0,0,0,0,0,0,0,0,0,558,
0,0,0,0,0,0,0,0,0,0,0,0,0,0,0,558
</chunk>
   <chunk x="64" y="-32" width="16" height="16">
0,0,558,0,0,0,0,0,0,0,0,0,0,0,0,0,
0,0,558,0,0,0,0,0,0,0,0,0,0,0,0,0,
0,0,558,0,0,0,0,0,0,0,0,0,0,0,0,0,
0,0,558,0,0,0,0,0,0,0,0,0,0,0,0,0,
0,0,558,0,0,0,0,0,0,0,0,0,0,0,0,0,
0,0,558,0,0,0,0,0,0,0,0,0,0,0,0,0,
0,0,558,0,0,0,0,0,0,0,0,0,0,0,0,0,
0,0,558,0,0,0,0,0,0,0,0,0,0,0,0,0,
0,0,558,0,0,0,0,0,0,0,0,0,0,0,0,0,
0,0,558,0,0,0,0,0,0,0,0,0,0,0,0,0,
0,0,558,0,0,0,0,0,0,0,0,0,0,0,0,0,
0,0,558,0,0,0,0,0,0,0,0,0,0,0,0,0,
0,0,558,0,0,0,0,0,0,0,0,0,0,0,0,0,
0,0,558,0,0,0,0,0,0,0,0,0,0,0,0,0,
0,0,558,0,0,0,0,0,0,0,0,0,0,0,0,0,
0,0,558,0,0,0,0,0,0,0,0,0,0,0,0,0
</chunk>
   <chunk x="0" y="-16" width="16" height="16">
0,0,0,0,0,0,0,0,0,0,0,0,0,0,0,0,
0,0,0,0,0,0,0,0,0,0,0,0,0,0,0,0,
0,0,0,0,0,0,0,0,0,558,558,558,558,0,0,558,
0,0,0,0,0,0,0,0,558,0,0,0,0,558,558,0,
0,0,0,0,0,0,0,0,558,0,0,0,0,0,0,0,
0,0,0,0,0,0,0,0,558,0,0,0,0,0,0,0,
0,0,0,0,0,0,0,0,558,561,0,0,561,561,561,561,
0,0,0,0,0,0,0,0,0,558,0,0,558,0,0,558,
0,0,0,0,0,0,0,0,0,558,0,0,558,0,0,558,
0,0,0,0,0,0,0,0,0,558,0,0,558,0,0,558,
0,0,0,0,0,0,0,558,558,558,0,0,558,558,558,558,
0,0,0,0,0,0,558,0,0,0,0,0,0,0,0,0,
0,0,0,0,0,0,558,561,0,0,561,561,561,561,561,561,
0,0,0,0,0,0,0,558,0,0,558,0,0,0,0,0,
0,0,0,0,0,0,0,558,0,0,558,0,0,0,0,0,
0,0,0,0,0,0,0,558,0,0,558,0,0,0,0,0
</chunk>
   <chunk x="16" y="-16" width="16" height="16">
0,0,0,0,0,0,0,0,0,0,0,0,0,0,0,0,
0,0,0,0,0,0,0,0,0,0,0,0,0,0,0,0,
558,558,558,0,0,0,0,0,0,0,0,0,0,0,0,0,
0,0,0,558,0,0,0,0,0,0,0,0,0,0,0,0,
0,0,0,558,0,0,0,0,0,0,0,0,0,0,0,0,
0,0,0,558,0,0,0,0,0,0,0,0,0,0,0,0,
0,0,561,558,0,0,0,0,0,0,0,0,0,0,0,0,
0,0,558,0,0,0,0,0,0,0,0,0,0,0,0,0,
0,0,558,0,0,0,0,0,0,0,0,0,0,0,0,0,
0,0,558,0,0,558,558,558,558,558,558,558,558,558,558,558,
0,0,558,558,558,0,0,0,0,0,0,0,0,0,0,0,
0,0,0,0,0,0,0,0,0,0,0,0,0,0,0,0,
561,561,561,561,561,0,0,0,0,0,0,0,0,0,0,0,
0,0,0,0,558,561,561,561,561,561,561,561,561,561,561,561,
0,0,0,0,0,0,0,0,0,0,0,0,0,0,0,0,
0,0,0,0,0,0,0,0,0,0,0,0,0,0,0,0
</chunk>
   <chunk x="32" y="-16" width="16" height="16">
0,0,0,0,0,0,0,0,0,0,0,0,0,0,0,0,
0,0,0,0,0,0,0,0,0,0,0,0,0,0,0,0,
0,0,0,0,0,0,0,0,0,0,0,0,0,0,0,0,
0,0,0,0,0,0,0,0,0,0,0,0,0,0,0,0,
0,0,0,0,0,0,0,0,0,0,0,0,0,0,0,0,
0,0,0,0,0,0,0,0,0,0,0,0,0,0,0,0,
0,0,0,0,0,0,0,0,0,0,0,0,0,0,0,0,
0,0,0,0,0,0,0,0,0,0,0,0,0,0,0,0,
0,0,0,0,0,0,0,0,558,558,0,0,558,558,558,558,
558,558,558,558,558,0,0,558,0,0,558,558,0,0,0,0,
0,0,0,0,0,558,558,558,0,0,0,0,0,0,0,0,
0,0,0,0,0,0,0,0,0,0,0,0,0,0,0,0,
0,0,0,0,0,561,561,561,0,0,0,0,0,0,0,0,
561,561,561,561,561,558,0,558,0,0,0,0,0,0,0,0,
0,0,0,0,0,0,0,558,0,0,0,561,561,561,0,0,
0,0,0,0,0,0,0,558,0,0,0,558,0,558,0,0
</chunk>
   <chunk x="48" y="-16" width="16" height="16">
0,0,0,0,0,0,0,0,0,0,0,0,0,0,0,558,
0,0,0,0,0,0,0,0,0,0,0,0,0,0,0,558,
0,0,0,0,0,0,0,0,0,0,0,0,0,0,0,558,
0,0,0,0,0,0,0,0,0,0,0,0,0,0,0,558,
0,0,0,0,0,0,0,0,0,0,0,0,0,0,0,558,
0,0,0,0,0,0,0,0,0,0,0,0,0,0,0,558,
0,0,0,0,0,0,0,0,0,0,0,0,0,0,0,558,
0,0,0,0,0,0,0,0,0,0,0,0,0,0,0,558,
558,558,0,0,0,0,0,0,0,0,0,0,0,0,0,558,
0,0,558,0,0,0,0,0,0,0,0,0,0,0,0,558,
0,0,558,558,558,558,558,558,558,0,0,0,0,0,0,558,
0,0,0,0,0,0,0,0,0,558,558,558,558,558,558,558,
0,0,0,0,0,0,0,0,0,0,0,0,0,0,0,0,
0,0,0,0,0,0,0,0,0,0,0,0,0,0,0,0,
0,0,0,0,561,561,0,0,0,561,561,561,561,561,561,561,
0,0,0,0,558,558,0,0,0,558,0,0,0,0,0,0
</chunk>
   <chunk x="64" y="-16" width="16" height="16">
0,0,558,0,0,0,0,0,0,0,0,0,0,0,0,0,
0,0,558,0,0,0,0,0,0,0,0,0,0,0,0,0,
0,0,558,0,0,0,0,0,0,0,0,0,0,0,0,0,
0,0,558,0,0,0,0,0,0,0,0,0,0,0,0,0,
0,0,558,0,0,0,0,0,0,0,0,0,0,0,0,0,
0,0,558,0,0,0,0,0,0,0,0,0,0,0,0,0,
0,0,558,0,0,0,0,0,0,0,0,0,0,0,0,0,
0,0,558,0,0,0,0,0,0,0,0,0,0,0,0,0,
0,0,558,0,0,0,0,0,0,0,0,0,0,0,0,0,
0,0,558,0,0,0,0,0,0,0,0,0,0,0,0,0,
0,0,558,0,0,0,0,0,0,0,0,0,0,0,0,0,
0,0,558,0,0,0,0,0,0,0,0,0,0,0,0,0,
0,0,558,0,0,0,0,0,0,0,0,0,0,0,0,0,
0,0,558,0,0,0,0,0,0,0,0,0,0,0,0,0,
561,561,558,0,0,0,0,0,0,0,0,0,0,0,0,0,
0,0,0,0,0,0,0,0,0,0,0,0,0,0,0,0
</chunk>
   <chunk x="-16" y="0" width="16" height="16">
0,0,0,0,0,0,0,0,0,0,0,0,0,0,0,558,
0,0,0,0,0,0,0,0,0,0,0,0,0,0,558,0,
0,0,0,0,0,0,0,0,0,0,0,0,0,0,558,0,
0,0,0,0,0,0,0,0,0,0,0,0,0,0,558,0,
0,0,0,0,0,0,0,0,0,0,0,0,0,0,558,561,
0,0,0,0,0,0,0,0,0,0,0,0,0,0,0,558,
0,0,0,0,0,0,0,0,0,0,0,0,0,0,0,558,
0,0,0,0,0,0,0,0,0,0,0,0,0,0,0,558,
0,0,0,0,0,0,0,0,0,0,0,558,558,558,0,558,
0,0,0,0,0,0,0,0,0,0,558,0,0,0,558,558,
0,0,0,0,0,0,0,0,0,0,558,0,0,0,0,0,
0,0,0,0,0,0,0,0,0,0,558,561,561,561,561,561,
0,0,0,0,0,0,0,0,0,0,0,0,0,0,0,558,
0,0,0,0,0,0,0,0,0,0,0,0,0,0,0,558,
0,0,0,0,0,0,0,0,0,0,0,0,0,0,0,558,
0,0,0,0,0,0,0,0,0,0,0,558,558,558,0,558
</chunk>
   <chunk x="0" y="0" width="16" height="16">
558,558,558,558,0,0,0,558,0,0,558,0,0,0,0,0,
0,0,0,0,558,558,558,558,0,0,558,0,0,0,0,0,
0,0,0,0,0,0,0,0,0,0,558,0,0,0,0,0,
0,0,0,0,0,0,0,0,0,0,558,0,0,0,0,0,
0,0,0,561,561,561,561,561,561,561,558,0,0,0,0,0,
0,0,0,558,0,0,0,0,0,0,0,0,0,0,0,0,
0,0,0,558,0,0,0,0,0,0,0,0,0,0,0,0,
0,0,0,558,0,0,0,0,0,0,0,0,0,0,0,0,
0,0,0,558,0,558,558,558,0,0,0,0,0,0,0,0,
0,0,0,558,558,0,0,0,558,0,0,0,0,0,0,0,
0,0,0,0,0,0,0,0,558,0,0,0,0,0,0,0,
0,0,0,561,561,561,561,561,558,0,0,0,0,0,0,0,
0,0,0,558,0,0,0,0,0,0,0,0,0,0,0,0,
0,0,0,558,0,0,0,0,0,0,0,0,0,0,0,0,
0,0,0,558,0,0,0,0,0,0,0,0,0,0,0,0,
0,0,0,558,0,558,558,558,0,0,0,0,0,0,0,0
</chunk>
   <chunk x="32" y="0" width="16" height="16">
0,0,0,0,0,0,0,558,0,0,0,558,0,558,0,0,
0,0,0,0,0,0,0,558,0,0,0,558,0,558,0,0,
0,0,0,0,0,0,0,558,0,0,0,558,0,558,0,0,
0,0,0,0,0,0,0,558,0,0,0,558,0,558,0,0,
0,0,0,0,0,0,0,558,0,0,0,558,558,558,0,0,
0,0,0,0,0,0,0,558,0,0,0,0,0,0,0,0,
0,0,0,0,0,0,0,558,0,0,0,0,0,0,0,0,
0,0,0,0,0,0,0,558,0,0,0,0,0,0,0,0,
0,0,0,0,0,0,0,558,0,0,0,0,0,0,0,0,
0,0,0,0,0,0,0,558,0,0,0,0,0,0,0,0,
0,0,0,0,0,0,0,558,0,0,558,558,558,0,0,0,
0,0,0,0,0,0,0,558,561,561,558,0,558,561,561,561,
0,0,0,0,0,0,0,0,0,0,0,0,0,0,0,0,
0,0,0,0,0,0,0,0,0,0,0,0,0,0,0,0,
0,0,0,0,0,0,0,0,0,0,0,0,0,0,0,0,
0,0,0,0,0,0,0,0,0,0,0,0,0,0,0,0
</chunk>
   <chunk x="48" y="0" width="16" height="16">
0,0,561,561,558,558,0,0,0,558,0,0,0,0,0,0,
0,0,558,0,0,558,0,0,0,558,0,0,0,0,0,0,
0,0,558,0,0,558,0,0,0,558,0,0,0,0,0,0,
0,0,558,0,0,558,0,0,0,558,0,0,0,0,0,0,
0,0,558,0,0,558,0,0,0,558,0,0,0,0,0,0,
0,0,558,558,558,558,0,0,0,558,0,0,0,0,0,0,
0,0,0,0,0,0,0,0,0,558,0,0,0,0,0,0,
0,0,0,0,0,0,0,0,0,558,0,0,0,0,0,0,
0,0,0,0,0,0,0,0,0,558,0,0,0,0,0,0,
561,561,561,561,0,0,0,0,0,558,0,0,0,0,0,0,
558,0,0,558,0,0,0,0,0,558,0,0,0,0,0,0,
558,0,0,558,561,561,561,561,561,558,0,0,0,0,0,0,
0,0,0,0,0,0,0,0,0,0,0,0,0,0,0,0,
0,0,0,0,0,0,0,0,0,0,0,0,0,0,0,0,
0,0,0,0,0,0,0,0,0,0,0,0,0,0,0,0,
0,0,0,0,0,0,0,0,0,0,0,0,0,0,0,0
</chunk>
   <chunk x="-16" y="16" width="16" height="16">
0,0,0,0,0,0,0,0,0,0,558,0,0,0,558,558,
0,0,0,0,0,0,0,0,0,0,558,0,0,0,0,0,
0,0,0,0,0,0,0,0,0,0,558,561,561,561,561,561,
0,0,0,0,0,0,0,0,0,0,0,0,0,0,0,558,
0,0,0,0,0,0,0,0,0,0,0,0,0,0,0,558,
0,0,0,0,0,0,0,0,0,0,0,0,0,0,0,558,
0,0,0,0,0,0,0,0,0,0,0,558,558,558,0,558,
0,0,0,0,0,0,0,0,0,0,558,0,0,0,558,558,
0,0,0,0,0,0,0,0,0,0,558,0,0,0,0,0,
0,0,0,0,0,0,0,0,0,0,558,561,561,561,561,561,
0,0,0,0,0,0,0,0,0,0,0,0,0,0,0,558,
0,0,0,0,0,0,0,0,0,0,0,0,0,0,0,558,
0,0,0,0,0,0,0,0,0,0,0,0,0,0,0,558,
0,0,0,0,0,0,0,0,0,0,0,0,0,0,0,558,
0,0,0,0,0,0,0,0,0,0,0,0,0,0,0,558,
0,0,0,0,0,0,0,0,0,0,0,0,0,0,0,558
</chunk>
   <chunk x="0" y="16" width="16" height="16">
0,0,0,558,558,0,0,0,558,0,0,0,0,0,0,0,
0,0,0,0,0,0,0,0,558,0,0,0,0,0,0,0,
0,0,0,561,561,561,561,561,558,0,0,0,0,0,0,0,
0,0,0,558,0,0,0,0,0,0,0,0,0,0,0,0,
0,0,0,558,0,0,0,0,0,0,0,0,0,0,0,0,
0,0,0,558,0,0,0,0,0,0,0,0,0,0,0,0,
0,0,0,558,0,558,558,558,0,0,0,0,0,0,0,0,
0,0,0,558,558,0,0,0,558,0,0,0,0,0,0,0,
0,0,0,0,0,0,0,0,558,0,0,0,0,0,0,0,
0,0,0,561,561,561,561,561,558,0,0,0,0,0,0,0,
0,0,0,558,0,0,0,0,0,0,0,0,0,0,0,0,
0,0,0,558,0,0,0,0,0,0,0,0,0,0,0,0,
0,0,0,558,0,0,0,0,0,0,0,0,0,0,0,0,
0,0,0,558,0,0,0,0,0,0,0,0,0,0,0,0,
0,0,0,558,0,0,0,0,0,0,0,0,0,0,0,0,
0,0,0,558,0,0,0,0,0,0,0,0,0,0,0,0
</chunk>
   <chunk x="-16" y="32" width="16" height="16">
0,0,0,0,0,0,0,0,0,0,0,0,0,0,0,558,
0,0,0,0,0,0,0,0,0,0,0,0,0,0,0,558,
0,0,0,0,0,0,0,0,0,0,0,0,0,0,0,558,
0,0,0,0,0,0,0,0,0,0,0,0,0,0,0,558,
0,0,0,0,0,0,0,0,0,0,0,0,0,0,0,558,
0,0,0,0,0,0,0,0,0,0,0,0,0,0,0,558,
0,0,0,0,0,0,0,0,0,0,0,0,0,0,0,558,
0,0,0,0,0,0,0,0,0,0,0,0,0,0,0,558,
0,0,0,0,0,0,0,0,0,0,0,0,0,0,0,558,
0,0,0,0,0,0,0,0,0,0,0,0,0,0,558,558,
0,0,0,0,0,0,0,0,0,0,0,0,0,558,0,0,
0,0,0,0,0,0,0,0,0,0,0,0,0,558,0,0,
0,0,0,0,0,0,0,0,0,0,0,0,0,558,0,0,
0,0,0,0,0,0,0,0,0,0,0,0,0,558,561,561,
0,0,0,0,0,0,0,0,0,0,0,0,0,0,0,558,
0,0,0,0,0,0,0,0,0,0,0,0,0,0,0,558
</chunk>
   <chunk x="0" y="32" width="16" height="16">
0,0,0,558,0,0,0,0,0,0,0,0,0,0,0,0,
0,0,0,558,0,0,0,0,0,0,0,0,0,0,0,0,
0,0,0,558,0,0,0,0,0,0,0,0,0,0,0,0,
0,0,0,558,0,0,0,0,0,0,0,0,0,0,0,0,
0,0,0,558,0,0,0,0,0,0,0,0,0,0,0,0,
0,0,0,558,0,0,0,0,0,0,0,0,0,0,0,0,
0,0,0,558,0,0,0,0,0,0,0,0,0,0,0,0,
0,0,0,558,0,0,0,0,0,0,0,0,0,0,0,0,
0,0,0,558,558,558,558,558,0,0,0,0,0,0,0,0,
0,0,0,0,0,0,0,0,558,0,0,0,0,0,0,0,
0,0,0,0,0,0,0,0,558,0,0,0,0,0,0,0,
0,0,0,0,0,0,0,0,558,0,0,0,0,0,0,0,
0,0,0,0,0,0,0,0,558,0,0,0,0,0,0,0,
0,0,0,561,561,561,561,561,558,0,0,0,0,0,0,0,
0,0,0,558,0,0,0,0,0,0,0,0,0,0,0,0,
0,0,0,558,0,0,0,0,0,0,0,0,0,0,0,0
</chunk>
   <chunk x="-16" y="48" width="16" height="16">
0,0,0,0,0,0,0,0,0,0,0,0,0,0,0,558,
0,0,0,0,0,0,0,0,0,0,0,0,0,0,0,558,
0,0,0,0,0,0,0,0,0,0,0,0,0,0,0,558,
0,0,0,0,0,0,0,0,0,0,0,0,0,0,0,558,
0,0,0,0,0,0,0,0,0,0,0,0,0,0,0,558,
0,0,0,0,0,0,0,0,0,0,0,0,0,0,0,558,
0,0,0,0,0,0,0,0,0,0,0,0,0,0,0,558,
0,0,0,0,0,0,0,0,0,0,0,0,0,0,0,558,
0,0,0,0,0,0,0,0,0,0,0,0,0,0,0,558,
0,0,0,0,0,0,0,0,0,0,0,0,0,0,0,558,
0,0,0,0,0,0,0,0,0,0,0,0,0,0,0,0,
0,0,0,0,0,0,0,0,0,0,0,0,0,0,0,0,
0,0,0,0,0,0,0,0,0,0,0,0,0,0,0,0,
0,0,0,0,0,0,0,0,0,0,0,0,0,0,0,0,
0,0,0,0,0,0,0,0,0,0,0,0,0,0,0,0,
0,0,0,0,0,0,0,0,0,0,0,0,0,0,0,0
</chunk>
   <chunk x="0" y="48" width="16" height="16">
0,0,0,558,0,0,0,0,0,0,0,0,0,0,0,0,
0,0,0,558,0,0,0,0,0,0,0,0,0,0,0,0,
0,0,0,558,0,0,0,0,0,0,0,0,0,0,0,0,
0,0,0,558,0,0,0,0,0,0,0,0,0,0,0,0,
0,0,0,558,0,0,0,0,0,0,0,0,0,0,0,0,
0,0,0,558,558,558,0,0,0,0,0,0,0,0,0,0,
0,0,0,0,0,0,558,0,0,0,0,0,0,0,0,0,
0,0,0,0,0,0,558,0,0,0,0,0,0,0,0,0,
0,0,0,0,0,0,558,0,0,0,0,0,0,0,0,0,
561,561,561,561,561,561,558,0,0,0,0,0,0,0,0,0,
0,0,0,0,0,0,0,0,0,0,0,0,0,0,0,0,
0,0,0,0,0,0,0,0,0,0,0,0,0,0,0,0,
0,0,0,0,0,0,0,0,0,0,0,0,0,0,0,0,
0,0,0,0,0,0,0,0,0,0,0,0,0,0,0,0,
0,0,0,0,0,0,0,0,0,0,0,0,0,0,0,0,
0,0,0,0,0,0,0,0,0,0,0,0,0,0,0,0
</chunk>
  </data>
 </layer>
 <layer id="28" name="BARRIER_AIR" width="30" height="20" opacity="0">
  <data encoding="csv">
   <chunk x="48" y="-48" width="16" height="16">
0,0,0,0,0,0,0,0,0,0,0,0,0,0,0,0,
0,0,0,0,0,0,0,0,0,0,0,0,0,0,0,0,
0,0,0,0,0,0,0,0,0,0,0,0,0,0,0,0,
0,0,0,0,0,0,0,0,0,0,0,0,0,0,0,0,
0,0,0,0,0,0,0,0,0,0,0,0,0,0,0,0,
0,0,0,0,0,0,0,0,0,0,0,0,0,0,0,0,
0,0,0,0,0,0,0,0,0,0,0,0,0,0,0,559,
0,0,0,0,0,0,0,0,0,0,0,0,0,0,0,559,
0,0,0,0,0,0,0,0,0,0,0,0,0,0,0,559,
0,0,0,0,0,0,0,0,0,0,0,0,0,0,0,559,
0,0,0,0,0,0,0,0,0,0,0,0,0,0,0,559,
0,0,0,0,0,0,0,0,0,0,0,0,0,0,0,559,
0,0,0,0,0,0,0,0,0,0,0,0,0,0,0,559,
0,0,0,0,0,0,0,0,0,0,0,0,0,0,0,559,
0,0,0,0,0,0,0,0,0,0,0,0,0,0,0,559,
0,0,0,0,0,0,0,0,0,0,0,0,0,0,0,559
</chunk>
   <chunk x="64" y="-48" width="16" height="16">
0,0,0,0,0,0,0,0,0,0,0,0,0,0,0,0,
0,0,0,0,0,0,0,0,0,0,0,0,0,0,0,0,
0,0,0,0,0,0,0,0,0,0,0,0,0,0,0,0,
0,0,0,0,0,0,0,0,0,0,0,0,0,0,0,0,
0,0,0,0,0,0,0,0,0,0,0,0,0,0,0,0,
0,0,0,0,0,0,0,0,0,0,0,0,0,0,0,0,
559,559,559,0,0,0,0,0,0,0,0,0,0,0,0,0,
0,0,559,0,0,0,0,0,0,0,0,0,0,0,0,0,
0,0,559,0,0,0,0,0,0,0,0,0,0,0,0,0,
0,0,559,0,0,0,0,0,0,0,0,0,0,0,0,0,
0,0,559,0,0,0,0,0,0,0,0,0,0,0,0,0,
0,0,559,0,0,0,0,0,0,0,0,0,0,0,0,0,
0,0,559,0,0,0,0,0,0,0,0,0,0,0,0,0,
0,0,559,0,0,0,0,0,0,0,0,0,0,0,0,0,
0,0,559,0,0,0,0,0,0,0,0,0,0,0,0,0,
0,0,559,0,0,0,0,0,0,0,0,0,0,0,0,0
</chunk>
   <chunk x="48" y="-32" width="16" height="16">
0,0,0,0,0,0,0,0,0,0,0,0,0,0,0,559,
0,0,0,0,0,0,0,0,0,0,0,0,0,0,0,559,
0,0,0,0,0,0,0,0,0,0,0,0,0,0,0,559,
0,0,0,0,0,0,0,0,0,0,0,0,0,0,0,559,
0,0,0,0,0,0,0,0,0,0,0,0,0,0,0,559,
0,0,0,0,0,0,0,0,0,0,0,0,0,0,0,559,
0,0,0,0,0,0,0,0,0,0,0,0,0,0,0,559,
0,0,0,0,0,0,0,0,0,0,0,0,0,0,0,559,
0,0,0,0,0,0,0,0,0,0,0,0,0,0,0,559,
0,0,0,0,0,0,0,0,0,0,0,0,0,0,0,559,
0,0,0,0,0,0,0,0,0,0,0,0,0,0,0,559,
0,0,0,0,0,0,0,0,0,0,0,0,0,0,0,559,
0,0,0,0,0,0,0,0,0,0,0,0,0,0,0,559,
0,0,0,0,0,0,0,0,0,0,0,0,0,0,0,559,
0,0,0,0,0,0,0,0,0,0,0,0,0,0,0,559,
0,0,0,0,0,0,0,0,0,0,0,0,0,0,0,559
</chunk>
   <chunk x="64" y="-32" width="16" height="16">
0,0,559,0,0,0,0,0,0,0,0,0,0,0,0,0,
0,0,559,0,0,0,0,0,0,0,0,0,0,0,0,0,
0,0,559,0,0,0,0,0,0,0,0,0,0,0,0,0,
0,0,559,0,0,0,0,0,0,0,0,0,0,0,0,0,
0,0,559,0,0,0,0,0,0,0,0,0,0,0,0,0,
0,0,559,0,0,0,0,0,0,0,0,0,0,0,0,0,
0,0,559,0,0,0,0,0,0,0,0,0,0,0,0,0,
0,0,559,0,0,0,0,0,0,0,0,0,0,0,0,0,
0,0,559,0,0,0,0,0,0,0,0,0,0,0,0,0,
0,0,559,0,0,0,0,0,0,0,0,0,0,0,0,0,
0,0,559,0,0,0,0,0,0,0,0,0,0,0,0,0,
0,0,559,0,0,0,0,0,0,0,0,0,0,0,0,0,
0,0,559,0,0,0,0,0,0,0,0,0,0,0,0,0,
0,0,559,0,0,0,0,0,0,0,0,0,0,0,0,0,
0,0,559,0,0,0,0,0,0,0,0,0,0,0,0,0,
0,0,559,0,0,0,0,0,0,0,0,0,0,0,0,0
</chunk>
   <chunk x="0" y="-16" width="16" height="16">
0,0,0,0,0,0,0,0,0,0,0,0,0,0,0,0,
0,0,0,0,0,0,0,0,0,0,0,0,0,0,0,0,
0,0,0,0,0,0,0,0,0,559,559,559,559,0,0,559,
0,0,0,0,0,0,0,0,559,0,0,0,0,559,559,0,
0,0,0,0,0,0,0,0,559,0,0,0,0,0,0,0,
0,0,0,0,0,0,0,0,559,0,0,0,0,0,0,0,
0,0,0,0,0,0,0,0,559,562,0,0,562,562,562,562,
0,0,0,0,0,0,0,0,0,559,0,0,559,0,0,559,
0,0,0,0,0,0,0,0,0,559,0,0,559,0,0,559,
0,0,0,0,0,0,0,0,0,559,0,0,559,0,0,559,
0,0,0,0,0,0,0,559,559,559,0,0,559,559,559,559,
0,0,0,0,0,0,559,0,0,0,0,0,0,0,0,0,
0,0,0,0,0,0,559,562,0,0,562,562,562,562,562,562,
0,0,0,0,0,0,0,559,0,0,559,0,0,0,0,0,
0,0,0,0,0,0,0,559,0,0,559,0,0,0,0,0,
0,0,0,0,0,0,0,559,0,0,559,0,0,0,0,0
</chunk>
   <chunk x="16" y="-16" width="16" height="16">
0,0,0,0,0,0,0,0,0,0,0,0,0,0,0,0,
0,0,0,0,0,0,0,0,0,0,0,0,0,0,0,0,
559,559,559,0,0,0,0,0,0,0,0,0,0,0,0,0,
0,0,0,559,0,0,0,0,0,0,0,0,0,0,0,0,
0,0,0,559,0,0,0,0,0,0,0,0,0,0,0,0,
0,0,0,559,0,0,0,0,0,0,0,0,0,0,0,0,
0,0,562,559,0,0,0,0,0,0,0,0,0,0,0,0,
0,0,559,0,0,0,0,0,0,0,0,0,0,0,0,0,
0,0,559,0,0,0,0,0,0,0,0,0,0,0,0,0,
0,0,559,0,0,559,559,559,559,559,559,559,559,559,559,559,
0,0,559,559,559,0,0,0,0,0,0,0,0,0,0,0,
0,0,0,0,0,0,0,0,0,0,0,0,0,0,0,0,
562,562,562,562,562,0,0,0,0,0,0,0,0,0,0,0,
0,0,0,0,559,562,562,562,562,562,562,562,562,562,562,562,
0,0,0,0,0,0,0,0,0,0,0,0,0,0,0,0,
0,0,0,0,0,0,0,0,0,0,0,0,0,0,0,0
</chunk>
   <chunk x="32" y="-16" width="16" height="16">
0,0,0,0,0,0,0,0,0,0,0,0,0,0,0,0,
0,0,0,0,0,0,0,0,0,0,0,0,0,0,0,0,
0,0,0,0,0,0,0,0,0,0,0,0,0,0,0,0,
0,0,0,0,0,0,0,0,0,0,0,0,0,0,0,0,
0,0,0,0,0,0,0,0,0,0,0,0,0,0,0,0,
0,0,0,0,0,0,0,0,0,0,0,0,0,0,0,0,
0,0,0,0,0,0,0,0,0,0,0,0,0,0,559,559,
0,0,0,0,0,0,0,0,0,0,0,0,0,559,0,0,
0,0,0,0,0,0,0,0,559,559,0,0,559,559,0,0,
559,559,559,559,559,0,0,559,0,0,559,559,0,0,0,0,
0,0,0,0,0,559,559,559,0,0,0,0,0,0,0,0,
0,0,0,0,0,0,0,0,0,0,0,0,0,0,0,0,
0,0,0,0,0,562,562,562,0,0,0,0,0,0,0,0,
562,562,562,562,562,559,0,559,0,0,0,0,0,0,0,0,
0,0,0,0,0,0,0,559,0,0,0,562,562,562,0,0,
0,0,0,0,0,0,0,559,0,0,0,559,0,559,0,0
</chunk>
   <chunk x="48" y="-16" width="16" height="16">
0,0,0,0,0,0,0,0,0,0,0,0,0,0,0,559,
0,0,0,0,0,0,0,0,0,0,0,0,0,0,0,559,
0,0,0,0,0,0,0,0,0,0,0,0,0,0,0,559,
0,0,0,0,0,0,0,0,0,0,0,0,0,0,0,559,
0,0,0,0,0,0,0,0,0,0,0,0,0,0,0,559,
0,0,0,0,0,0,0,0,0,0,0,0,0,0,0,559,
559,0,0,0,0,0,0,0,0,0,0,0,0,0,0,559,
0,559,0,0,0,0,0,0,0,0,0,0,0,0,0,559,
0,559,0,0,0,0,0,0,0,0,0,0,0,0,0,559,
0,0,559,0,0,0,0,0,0,0,0,0,0,0,0,559,
0,0,559,559,559,559,559,559,559,0,0,0,0,0,0,559,
0,0,0,0,0,0,0,0,0,559,559,559,559,559,559,559,
0,0,0,0,0,0,0,0,0,0,0,0,0,0,0,0,
0,0,0,0,0,0,0,0,0,0,0,0,0,0,0,0,
0,0,0,0,562,562,0,0,0,562,562,562,562,562,562,562,
0,0,0,0,559,559,0,0,0,559,0,0,0,0,0,0
</chunk>
   <chunk x="64" y="-16" width="16" height="16">
0,0,559,0,0,0,0,0,0,0,0,0,0,0,0,0,
0,0,559,0,0,0,0,0,0,0,0,0,0,0,0,0,
0,0,559,0,0,0,0,0,0,0,0,0,0,0,0,0,
0,0,559,0,0,0,0,0,0,0,0,0,0,0,0,0,
0,0,559,0,0,0,0,0,0,0,0,0,0,0,0,0,
0,0,559,0,0,0,0,0,0,0,0,0,0,0,0,0,
0,0,559,0,0,0,0,0,0,0,0,0,0,0,0,0,
0,0,559,0,0,0,0,0,0,0,0,0,0,0,0,0,
0,0,559,0,0,0,0,0,0,0,0,0,0,0,0,0,
0,0,559,0,0,0,0,0,0,0,0,0,0,0,0,0,
0,0,559,0,0,0,0,0,0,0,0,0,0,0,0,0,
0,0,559,0,0,0,0,0,0,0,0,0,0,0,0,0,
0,0,559,0,0,0,0,0,0,0,0,0,0,0,0,0,
0,0,559,0,0,0,0,0,0,0,0,0,0,0,0,0,
562,562,559,0,0,0,0,0,0,0,0,0,0,0,0,0,
0,0,0,0,0,0,0,0,0,0,0,0,0,0,0,0
</chunk>
   <chunk x="-16" y="0" width="16" height="16">
0,0,0,0,0,0,0,0,0,0,0,0,0,0,0,559,
0,0,0,0,0,0,0,0,0,0,0,0,0,0,559,0,
0,0,0,0,0,0,0,0,0,0,0,0,0,0,559,0,
0,0,0,0,0,0,0,0,0,0,0,0,0,0,559,0,
0,0,0,0,0,0,0,0,0,0,0,0,0,0,559,562,
0,0,0,0,0,0,0,0,0,0,0,0,0,0,0,559,
0,0,0,0,0,0,0,0,0,0,0,0,0,0,0,559,
0,0,0,0,0,0,0,0,0,0,0,0,0,0,0,559,
0,0,0,0,0,0,0,0,0,0,0,559,559,559,0,559,
0,0,0,0,0,0,0,0,0,0,559,0,0,0,559,559,
0,0,0,0,0,0,0,0,0,0,559,0,0,0,0,0,
0,0,0,0,0,0,0,0,0,0,559,562,562,562,562,562,
0,0,0,0,0,0,0,0,0,0,0,0,0,0,0,559,
0,0,0,0,0,0,0,0,0,0,0,0,0,0,0,559,
0,0,0,0,0,0,0,0,0,0,0,0,0,0,0,559,
0,0,0,0,0,0,0,0,0,0,0,559,559,559,0,559
</chunk>
   <chunk x="0" y="0" width="16" height="16">
559,559,559,559,0,0,0,559,0,0,559,0,0,0,0,0,
0,0,0,0,559,559,559,559,0,0,559,0,0,0,0,0,
0,0,0,0,0,0,0,0,0,0,559,0,0,0,0,0,
0,0,0,0,0,0,0,0,0,0,559,0,0,0,0,0,
0,0,0,562,562,562,562,562,562,562,559,0,0,0,0,0,
0,0,0,559,0,0,0,0,0,0,0,0,0,0,0,0,
0,0,0,559,0,0,0,0,0,0,0,0,0,0,0,0,
0,0,0,559,0,0,0,0,0,0,0,0,0,0,0,0,
0,0,0,559,0,559,559,559,0,0,0,0,0,0,0,0,
0,0,0,559,559,0,0,0,559,0,0,0,0,0,0,0,
0,0,0,0,0,0,0,0,559,0,0,0,0,0,0,0,
0,0,0,562,562,562,562,562,559,0,0,0,0,0,0,0,
0,0,0,559,0,0,0,0,0,0,0,0,0,0,0,0,
0,0,0,559,0,0,0,0,0,0,0,0,0,0,0,0,
0,0,0,559,0,0,0,0,0,0,0,0,0,0,0,0,
0,0,0,559,0,559,559,559,0,0,0,0,0,0,0,0
</chunk>
   <chunk x="32" y="0" width="16" height="16">
0,0,0,0,0,0,0,559,0,0,0,559,0,559,0,0,
0,0,0,0,0,0,0,559,0,0,0,559,0,559,0,0,
0,0,0,0,0,0,0,559,0,0,0,559,0,559,0,0,
0,0,0,0,0,0,0,559,0,0,0,559,0,559,0,0,
0,0,0,0,0,0,0,559,0,0,0,559,559,559,0,0,
0,0,0,0,0,0,0,559,0,0,0,0,0,0,0,0,
0,0,0,0,0,0,0,559,0,0,0,0,0,0,0,0,
0,0,0,0,0,0,0,559,0,0,0,0,0,0,0,0,
0,0,0,0,0,0,0,559,0,0,0,0,0,0,0,0,
0,0,0,0,0,0,0,559,0,0,0,0,0,0,0,0,
0,0,0,0,0,0,0,559,0,0,0,0,0,0,0,0,
0,0,0,0,0,0,0,559,562,562,0,0,0,562,562,562,
0,0,0,0,0,0,0,0,0,559,0,0,0,559,0,0,
0,0,0,0,0,0,0,0,0,0,559,559,559,0,0,0,
0,0,0,0,0,0,0,0,0,0,0,0,0,0,0,0,
0,0,0,0,0,0,0,0,0,0,0,0,0,0,0,0
</chunk>
   <chunk x="48" y="0" width="16" height="16">
0,0,562,562,559,559,0,0,0,559,0,0,0,0,0,0,
0,0,559,0,0,559,0,0,0,559,0,0,0,0,0,0,
0,0,559,0,0,559,0,0,0,559,559,559,559,0,0,0,
0,0,559,0,0,559,0,0,0,0,0,0,559,0,0,0,
0,0,559,0,0,559,0,0,0,0,0,0,559,0,0,0,
0,0,559,559,559,559,0,0,0,0,0,0,559,0,0,0,
0,0,0,0,0,0,0,0,0,559,559,559,0,0,0,0,
0,0,0,0,0,0,0,0,0,559,0,0,0,0,0,0,
0,0,0,0,0,0,0,0,0,559,0,0,0,0,0,0,
562,562,562,562,0,0,0,0,0,559,0,0,0,0,0,0,
559,0,0,559,0,0,0,0,0,559,0,0,0,0,0,0,
559,0,0,559,562,562,562,562,562,559,0,0,0,0,0,0,
0,0,0,0,0,0,0,0,0,0,0,0,0,0,0,0,
0,0,0,0,0,0,0,0,0,0,0,0,0,0,0,0,
0,0,0,0,0,0,0,0,0,0,0,0,0,0,0,0,
0,0,0,0,0,0,0,0,0,0,0,0,0,0,0,0
</chunk>
   <chunk x="-16" y="16" width="16" height="16">
0,0,0,0,0,0,0,0,0,0,559,0,0,0,559,559,
0,0,0,0,0,0,0,0,0,0,559,0,0,0,0,0,
0,0,0,0,0,0,0,0,0,0,559,562,562,562,562,562,
0,0,0,0,0,0,0,0,0,0,0,0,0,0,0,559,
0,0,0,0,0,0,0,0,0,0,0,0,0,0,0,559,
0,0,0,0,0,0,0,0,0,0,0,0,0,0,0,559,
0,0,0,0,0,0,0,0,0,0,0,559,559,559,0,559,
0,0,0,0,0,0,0,0,0,0,559,0,0,0,559,559,
0,0,0,0,0,0,0,0,0,0,559,0,0,0,0,0,
0,0,0,0,0,0,0,0,0,0,559,562,562,562,562,562,
0,0,0,0,0,0,0,0,0,0,0,0,0,0,0,559,
0,0,0,0,0,0,0,0,0,0,0,0,0,0,0,559,
0,0,0,0,0,0,0,0,0,0,0,0,0,0,0,559,
0,0,0,0,0,0,0,0,0,0,0,0,0,0,0,559,
0,0,0,0,0,0,0,0,0,0,0,0,0,0,0,559,
0,0,0,0,0,0,0,0,0,0,0,0,0,0,0,559
</chunk>
   <chunk x="0" y="16" width="16" height="16">
0,0,0,559,559,0,0,0,559,0,0,0,0,0,0,0,
0,0,0,0,0,0,0,0,559,0,0,0,0,0,0,0,
0,0,0,562,562,562,562,562,559,0,0,0,0,0,0,0,
0,0,0,559,0,0,0,0,0,0,0,0,0,0,0,0,
0,0,0,559,0,0,0,0,0,0,0,0,0,0,0,0,
0,0,0,559,0,0,0,0,0,0,0,0,0,0,0,0,
0,0,0,559,0,559,559,559,0,0,0,0,0,0,0,0,
0,0,0,559,559,0,0,0,559,0,0,0,0,0,0,0,
0,0,0,0,0,0,0,0,559,0,0,0,0,0,0,0,
0,0,0,562,562,562,562,562,559,0,0,0,0,0,0,0,
0,0,0,559,0,0,0,0,0,0,0,0,0,0,0,0,
0,0,0,559,0,0,0,0,0,0,0,0,0,0,0,0,
0,0,0,559,0,0,0,0,0,0,0,0,0,0,0,0,
0,0,0,559,0,0,0,0,0,0,0,0,0,0,0,0,
0,0,0,559,0,0,0,0,0,0,0,0,0,0,0,0,
0,0,0,559,0,0,0,0,0,0,0,0,0,0,0,0
</chunk>
   <chunk x="-16" y="32" width="16" height="16">
0,0,0,0,0,0,0,0,0,0,0,0,0,0,0,559,
0,0,0,0,0,0,0,0,0,0,0,0,0,0,0,559,
0,0,0,0,0,0,0,0,0,0,0,0,0,0,0,559,
0,0,0,0,0,0,0,0,0,0,0,0,0,0,0,559,
0,0,0,0,0,0,0,0,0,0,0,0,0,0,0,559,
0,0,0,0,0,0,0,0,0,0,0,0,0,0,0,559,
0,0,0,0,0,0,0,0,0,0,0,0,0,0,0,559,
0,0,0,0,0,0,0,0,0,0,0,0,0,0,0,559,
0,0,0,0,0,0,0,0,0,0,0,0,0,0,0,559,
0,0,0,0,0,0,0,0,0,0,0,0,0,0,559,559,
0,0,0,0,0,0,0,0,0,0,0,0,0,559,0,0,
0,0,0,0,0,0,0,0,0,0,0,0,0,559,0,0,
0,0,0,0,0,0,0,0,0,0,0,0,0,559,0,0,
0,0,0,0,0,0,0,0,0,0,0,0,0,559,562,562,
0,0,0,0,0,0,0,0,0,0,0,0,0,0,0,559,
0,0,0,0,0,0,0,0,0,0,0,0,0,0,0,559
</chunk>
   <chunk x="0" y="32" width="16" height="16">
0,0,0,559,0,0,0,0,0,0,0,0,0,0,0,0,
0,0,0,559,0,0,0,0,0,0,0,0,0,0,0,0,
0,0,0,559,0,0,0,0,0,0,0,0,0,0,0,0,
0,0,0,559,0,0,0,0,0,0,0,0,0,0,0,0,
0,0,0,559,0,0,0,0,0,0,0,0,0,0,0,0,
0,0,0,559,0,0,0,0,0,0,0,0,0,0,0,0,
0,0,0,559,0,0,0,0,0,0,0,0,0,0,0,0,
0,0,0,559,0,0,0,0,0,0,0,0,0,0,0,0,
0,0,0,559,559,559,559,559,0,0,0,0,0,0,0,0,
0,0,0,0,0,0,0,0,559,0,0,0,0,0,0,0,
0,0,0,0,0,0,0,0,559,0,0,0,0,0,0,0,
0,0,0,0,0,0,0,0,559,0,0,0,0,0,0,0,
0,0,0,0,0,0,0,0,559,0,0,0,0,0,0,0,
0,0,0,562,562,562,562,562,559,0,0,0,0,0,0,0,
0,0,0,559,0,0,0,0,0,0,0,0,0,0,0,0,
0,0,0,559,0,0,0,0,0,0,0,0,0,0,0,0
</chunk>
   <chunk x="-16" y="48" width="16" height="16">
0,0,0,0,0,0,0,0,0,0,0,0,0,0,0,559,
0,0,0,0,0,0,0,0,0,0,0,0,0,0,0,559,
0,0,0,0,0,0,0,0,0,0,0,0,0,0,0,559,
0,0,0,0,0,0,0,0,0,0,0,0,0,0,0,559,
0,0,0,0,0,0,0,0,0,0,0,0,0,0,0,559,
0,0,0,0,0,0,0,0,0,0,0,0,0,0,0,559,
0,0,0,0,0,0,0,0,0,0,0,0,0,0,0,559,
0,0,0,0,0,0,0,0,0,0,0,0,0,0,0,559,
0,0,0,0,0,0,0,0,0,0,0,0,0,0,0,559,
0,0,0,0,0,0,0,0,0,0,0,0,0,0,0,559,
0,0,0,0,0,0,0,0,0,0,0,0,0,0,0,0,
0,0,0,0,0,0,0,0,0,0,0,0,0,0,0,0,
0,0,0,0,0,0,0,0,0,0,0,0,0,0,0,0,
0,0,0,0,0,0,0,0,0,0,0,0,0,0,0,0,
0,0,0,0,0,0,0,0,0,0,0,0,0,0,0,0,
0,0,0,0,0,0,0,0,0,0,0,0,0,0,0,0
</chunk>
   <chunk x="0" y="48" width="16" height="16">
0,0,0,559,0,0,0,0,0,0,0,0,0,0,0,0,
0,0,0,559,0,0,0,0,0,0,0,0,0,0,0,0,
0,0,0,559,0,0,0,0,0,0,0,0,0,0,0,0,
0,0,0,559,0,0,0,0,0,0,0,0,0,0,0,0,
0,0,0,559,0,0,0,0,0,0,0,0,0,0,0,0,
0,0,0,559,559,559,0,0,0,0,0,0,0,0,0,0,
0,0,0,0,0,0,559,0,0,0,0,0,0,0,0,0,
0,0,0,0,0,0,559,0,0,0,0,0,0,0,0,0,
0,0,0,0,0,0,559,0,0,0,0,0,0,0,0,0,
562,562,562,562,562,562,559,0,0,0,0,0,0,0,0,0,
0,0,0,0,0,0,0,0,0,0,0,0,0,0,0,0,
0,0,0,0,0,0,0,0,0,0,0,0,0,0,0,0,
0,0,0,0,0,0,0,0,0,0,0,0,0,0,0,0,
0,0,0,0,0,0,0,0,0,0,0,0,0,0,0,0,
0,0,0,0,0,0,0,0,0,0,0,0,0,0,0,0,
0,0,0,0,0,0,0,0,0,0,0,0,0,0,0,0
</chunk>
  </data>
 </layer>
 <layer id="29" name="area of crossbow action" width="30" height="20" visible="0">
  <data encoding="csv">
   <chunk x="32" y="0" width="16" height="16">
0,0,0,0,0,0,0,0,0,0,0,0,0,0,0,0,
0,0,0,0,0,0,0,0,0,0,0,0,0,0,0,0,
0,0,0,0,0,0,0,0,0,0,0,0,0,0,0,0,
0,0,0,0,0,0,0,0,0,0,0,0,0,0,0,0,
0,0,0,0,0,0,0,0,0,0,0,0,0,0,0,0,
0,0,0,0,0,0,0,0,0,0,0,560,0,0,0,0,
0,0,0,0,0,0,0,0,0,0,0,560,0,0,0,0,
0,0,0,0,0,0,0,0,0,0,0,560,0,0,0,0,
0,0,0,0,0,0,0,0,0,0,0,560,0,0,0,0,
0,0,0,0,0,0,0,0,0,0,0,560,0,0,0,0,
0,0,0,0,0,0,0,0,0,0,0,560,0,0,0,0,
0,0,0,0,0,0,0,0,0,0,0,0,0,0,0,0,
0,0,0,0,0,0,0,0,0,0,0,0,0,0,0,0,
0,0,0,0,0,0,0,0,0,0,0,0,0,0,0,0,
0,0,0,0,0,0,0,0,0,0,0,0,0,0,0,0,
0,0,0,0,0,0,0,0,0,0,0,0,0,0,0,0
</chunk>
   <chunk x="48" y="0" width="16" height="16">
0,0,0,0,0,0,0,0,0,0,0,0,0,0,0,0,
0,0,0,0,0,0,0,0,0,0,0,0,0,0,0,0,
0,0,0,0,0,0,0,0,0,0,0,0,0,0,0,0,
0,0,0,0,0,0,560,560,560,560,560,0,0,0,0,0,
0,0,0,0,0,0,0,0,0,0,0,0,0,0,0,0,
0,0,0,0,0,0,0,0,0,0,0,0,0,0,0,0,
0,0,0,0,0,0,0,0,0,0,0,0,0,0,0,0,
0,0,0,0,0,0,0,0,0,0,0,0,0,0,0,0,
0,0,0,0,0,0,0,0,0,0,0,0,0,0,0,0,
0,0,0,0,0,0,0,0,0,0,0,0,0,0,0,0,
0,0,0,0,0,0,0,0,0,0,0,0,0,0,0,0,
0,0,0,0,0,0,0,0,0,0,0,0,0,0,0,0,
0,0,0,0,0,0,0,0,0,0,0,0,0,0,0,0,
0,0,0,0,0,0,0,0,0,0,0,0,0,0,0,0,
0,0,0,0,0,0,0,0,0,0,0,0,0,0,0,0,
0,0,0,0,0,0,0,0,0,0,0,0,0,0,0,0
</chunk>
  </data>
 </layer>
</map>
