<?xml version="1.0" encoding="UTF-8"?>
<map version="1.10" tiledversion="1.10.0" orientation="orthogonal" renderorder="right-down" width="30" height="20" tilewidth="32" tileheight="32" infinite="1" nextlayerid="39" nextobjectid="1459">
 <tileset firstgid="1" source="0_TimeTravel_Dungeon.tsx"/>
 <tileset firstgid="257" source="1_TimeTravel_Spinis.tsx"/>
 <tileset firstgid="293" source="0_TimeTravel_Vases.tsx"/>
 <tileset firstgid="299" source="0_TimeTravel_Chest.tsx"/>
 <tileset firstgid="305" source="0_TimeTravel_Lever.tsx"/>
 <tileset firstgid="308" source="0_Dark.tsx"/>
 <tileset firstgid="338" source="0_TimeTravel_WoodenTablets.tsx"/>
 <tileset firstgid="342" source="0_TimeTravel_VillageToilet.tsx"/>
 <tileset firstgid="343" source="0_TimeTravel_SpikyLog.tsx"/>
 <tileset firstgid="344" source="0_TimeTravel_Barrels.tsx"/>
 <tileset firstgid="360" source="0_TimeTravel_CrossbowStand.tsx"/>
 <tileset firstgid="363" source="0_TimeTravel_Crossbow.tsx"/>
 <tileset firstgid="390" source="0_TimeTravel_Stones.tsx"/>
 <tileset firstgid="402" source="0_TimeTravel_Woods.tsx"/>
 <tileset firstgid="411" source="0_TimeTravel_TrollStatue.tsx"/>
 <tileset firstgid="412" source="0_TimeTravel_MovingTower.tsx"/>
 <tileset firstgid="442" source="0_TimeTravel_WarningTablet.tsx"/>
 <tileset firstgid="444" source="0_TimeTravel_WarningArrow.tsx"/>
 <tileset firstgid="446" source="0_TimeTravel_Torch.tsx"/>
 <tileset firstgid="451" source="0_TimeTravel_SafetyZone.tsx"/>
 <tileset firstgid="452" source="0_TimeTravel_StalagmiteGiant.tsx"/>
 <tileset firstgid="453" source="0_TimeTravel_StoneThorns.tsx"/>
 <tileset firstgid="458" source="0_TimeTravel_Bones.tsx"/>
 <tileset firstgid="465" source="0_TimeTravel_WoodenSign.tsx"/>
 <tileset firstgid="468" source="0_TimeTravel_Morgenstern.tsx"/>
 <tileset firstgid="469" source="0_TimeTravel_WoodenSignLeftRight.tsx"/>
 <tileset firstgid="470" source="0_TimeTravel_Note.tsx"/>
 <tileset firstgid="473" source="0_TimeTravel_StoneStatues.tsx"/>
 <tileset firstgid="476" source="0_TimeTravel_Banners1.tsx"/>
 <tileset firstgid="478" source="0_TimeTravel_Pie.tsx"/>
 <tileset firstgid="479" source="0_TimeTravel_WoodenTabletsBig.tsx"/>
 <tileset firstgid="482" source="0_TimeTravel_Flags.tsx"/>
 <tileset firstgid="498" source="0_TimeTravel_PuppetsOnPoles.tsx"/>
 <tileset firstgid="502" source="0_TimeTravel_SmallDecor.tsx"/>
 <tileset firstgid="514" source="0_TimeTravel_GeneralFivefinger.tsx"/>
 <tileset firstgid="518" source="0_TimeTravel_Lute.tsx"/>
 <tileset firstgid="519" source="0_TimeTravel_BannerArrow.tsx"/>
 <tileset firstgid="521" source="0_TimeTravel_SignageBannersRed.tsx"/>
 <tileset firstgid="522" source="0_TimeTravel_Target.tsx"/>
 <tileset firstgid="524" source="0_TimeTravel_ArrowStatue.tsx"/>
 <tileset firstgid="525" source="0_TimeTravel_SpearArrow.tsx"/>
 <tileset firstgid="526" source="0_TimeTravel_WoodenTablet.tsx"/>
 <tileset firstgid="538" source="0_TimeTravel_Chains.tsx"/>
 <tileset firstgid="549" source="0_TimeTravel_Banners2.tsx"/>
 <tileset firstgid="554" source="0_TimeTravel_OilLamp.tsx"/>
 <tileset firstgid="557" source="0_InvisibleWall.tsx"/>
 <tileset firstgid="563" source="0_TimeTravel_BarrelCheese.tsx"/>
 <tileset firstgid="566" source="0_TimeTravel_Mannequin.tsx"/>
 <tileset firstgid="572" source="0_TimeTravel_SwingingBalls.tsx"/>
 <tileset firstgid="576" source="0_TimeTravel_SwingingBallsChains.tsx"/>
 <tileset firstgid="582" source="0_TimeTravel_StatueOfTheSilent.tsx"/>
 <tileset firstgid="585" source="0_TimeTravel_DummyQuest.tsx"/>
 <tileset firstgid="586" source="0_TimeTravel_ShakyFloor.tsx"/>
 <tileset firstgid="591" source="0_TimeTravel_WoodenCircularSaw.tsx"/>
 <tileset firstgid="603" source="0_TimeTravel_BarrelOfWeapon.tsx"/>
 <tileset firstgid="604" source="0_TimeTravel_GiantTorch.tsx"/>
 <tileset firstgid="608" source="0_TimeTravel_Stool.tsx"/>
 <tileset firstgid="609" source="0_TimeTravel_FlimsyDecor.tsx"/>
 <tileset firstgid="612" source="0_TimeTravel_TorchBig.tsx"/>
 <tileset firstgid="615" source="0_TimeTravel_Cage1.tsx"/>
 <tileset firstgid="616" source="0_TimeTravel_Cage2.tsx"/>
 <tileset firstgid="617" source="0_TimeTravel_Cage3.tsx"/>
 <tileset firstgid="618" source="0_TimeTravel_ChainsOnFloor.tsx"/>
 <tileset firstgid="620" source="0_TimeTravel_DummyBloodsucker.tsx"/>
 <tileset firstgid="621" source="0_TimeTravel_ColumnAngle.tsx"/>
 <tileset firstgid="622" source="0_TimeTravel_Food.tsx"/>
 <tileset firstgid="625" source="0_TimeTravel_GiantGuillotine.tsx"/>
 <tileset firstgid="649" source="0_TimeTravel_BlackOil.tsx"/>
 <tileset firstgid="670" source="0_TimeTravel_BarrelSkis.tsx"/>
 <tileset firstgid="671" source="zombieRat6.tsx"/>
 <tileset firstgid="672" source="0_TimeTravel_Arrows.tsx"/>
 <layer id="21" name="Stalagmites" width="30" height="20">
  <data encoding="csv">
   <chunk x="32" y="-464" width="16" height="16">
0,0,0,0,0,0,0,0,0,0,0,0,0,0,0,0,
0,0,0,0,0,0,0,0,0,0,0,0,0,0,0,0,
0,0,0,0,0,0,0,0,0,0,0,0,2147483752,0,0,0,
0,0,0,0,0,0,0,0,0,0,0,0,0,0,0,0,
0,0,0,0,0,0,0,0,0,0,0,0,0,0,0,0,
0,0,0,0,0,0,0,0,0,0,103,0,0,0,0,0,
0,0,0,0,0,0,0,0,0,0,0,2147483753,0,0,0,0,
0,0,0,0,0,0,0,0,0,0,0,0,0,0,0,0,
0,0,0,0,0,0,0,0,0,0,0,0,0,2147483752,0,0,
0,0,0,0,0,0,0,0,0,0,0,0,0,0,0,0,
0,0,0,0,0,0,0,0,0,0,104,0,0,0,0,0,
0,0,0,0,0,0,0,0,0,0,0,0,0,0,0,0,
0,0,0,0,0,0,0,0,0,0,0,0,0,0,0,0,
0,0,0,0,0,0,0,0,0,0,0,0,0,0,0,0,
0,0,0,0,0,0,0,0,0,0,0,0,0,0,0,0,
0,0,0,0,0,0,0,0,0,0,0,0,0,104,0,0
</chunk>
   <chunk x="48" y="-464" width="16" height="16">
0,0,0,0,0,0,0,0,0,0,0,0,0,0,0,0,
0,0,0,0,0,0,0,0,0,0,0,0,0,0,0,0,
0,0,0,103,0,0,0,0,0,0,0,0,0,0,0,0,
0,0,0,0,0,0,0,0,0,0,0,0,0,0,0,0,
0,0,0,0,0,0,0,0,0,0,0,0,0,0,0,0,
0,0,0,0,0,0,0,0,0,0,0,0,0,0,0,0,
0,0,105,0,0,0,0,0,0,0,0,0,0,0,0,0,
0,0,0,2147483752,0,0,0,0,0,0,0,0,0,0,0,0,
0,0,0,0,0,0,0,0,0,0,0,0,0,0,0,0,
0,0,0,0,0,0,0,0,0,0,0,0,0,0,0,0,
0,104,0,0,0,0,0,0,0,0,0,0,0,0,0,0,
0,0,0,0,0,0,0,0,0,0,0,0,0,0,0,0,
0,0,0,0,0,0,0,0,0,0,0,0,0,0,0,0,
0,0,0,0,0,0,0,0,0,0,0,0,0,0,0,0,
0,0,0,0,0,0,0,0,0,0,0,0,0,0,0,0,
0,0,0,0,0,0,0,0,0,0,0,0,0,0,0,0
</chunk>
   <chunk x="32" y="-448" width="16" height="16">
0,0,0,0,0,0,0,0,0,2147483751,0,0,0,0,0,0,
0,0,0,0,0,0,0,0,2147483753,0,0,0,0,0,0,0,
0,0,0,0,0,0,0,0,0,0,0,0,0,0,103,0,
0,0,0,0,0,0,0,0,0,103,0,0,0,0,0,0,
0,0,0,0,0,0,0,0,0,0,0,0,0,0,0,0,
0,0,0,0,0,0,0,0,0,0,0,0,104,0,0,0,
0,0,0,0,0,0,0,0,0,2147483751,0,0,0,0,0,0,
0,0,0,0,0,0,0,0,0,0,0,0,0,0,0,0,
0,0,0,0,0,0,0,0,0,0,0,0,0,0,0,0,
0,0,0,0,0,0,0,0,0,0,2147483753,0,0,0,0,0,
0,0,0,0,0,0,0,0,0,0,0,0,0,0,0,0,
0,0,0,0,0,0,0,0,0,0,2147483752,0,0,0,0,0,
0,0,0,0,0,0,0,0,0,0,0,0,0,0,0,0,
0,0,0,0,0,0,0,0,0,0,0,0,0,0,0,0,
0,0,0,0,0,0,0,0,0,0,0,0,2147483752,0,0,0,
0,0,0,0,0,0,0,0,0,0,0,0,0,0,0,0
</chunk>
   <chunk x="48" y="-448" width="16" height="16">
0,0,0,0,0,2147483753,0,0,0,0,0,0,0,0,0,0,
0,0,0,0,0,0,0,0,0,0,0,0,0,0,0,0,
0,0,0,0,0,0,0,0,0,0,0,0,0,0,0,0,
2147483753,0,0,0,0,0,0,0,0,0,0,0,0,0,0,0,
0,0,0,0,0,0,0,0,0,0,0,0,0,0,0,0,
0,0,0,0,0,103,0,0,0,0,0,0,0,0,0,0,
0,0,0,0,0,0,0,0,0,0,0,0,0,0,0,0,
0,0,0,0,0,0,0,0,0,0,0,0,0,0,0,0,
0,0,0,0,0,0,0,0,0,0,0,0,0,0,0,0,
0,0,0,0,0,103,0,0,0,0,0,0,0,0,0,0,
0,0,0,104,0,0,0,0,0,0,0,0,0,0,0,0,
0,0,0,0,0,0,0,0,0,0,0,0,0,0,0,0,
0,0,0,0,0,0,0,0,0,0,0,0,0,0,0,0,
0,0,0,103,0,0,0,0,0,0,0,0,0,0,0,0,
0,0,0,0,0,0,0,0,0,0,0,0,0,0,0,0,
0,0,0,0,0,103,0,0,0,0,0,0,0,0,0,0
</chunk>
   <chunk x="32" y="-432" width="16" height="16">
0,0,0,0,0,0,0,0,0,0,0,0,0,0,0,0,
0,0,0,0,0,0,0,0,0,0,0,0,2147483751,0,0,0,
0,0,0,0,0,0,0,0,0,0,0,0,0,0,0,0,
0,0,0,0,0,0,0,0,0,0,0,0,0,0,0,0,
0,0,0,0,0,0,0,0,0,2147483751,0,0,0,0,0,0,
0,0,0,0,0,0,0,0,0,0,0,0,0,0,0,0,
0,0,0,0,0,0,0,0,0,0,0,0,0,0,0,0,
0,0,0,0,0,0,0,0,0,0,2147483753,0,0,0,0,0,
0,0,0,0,0,0,0,0,0,0,0,2147483751,0,0,0,0,
0,0,0,0,0,0,0,0,0,0,0,0,0,0,0,0,
0,0,0,0,0,0,0,0,0,2147483751,0,0,0,0,0,0,
0,0,0,0,0,0,0,0,0,0,2147483751,0,0,0,0,0,
0,0,0,0,0,0,0,0,0,0,0,0,0,0,0,0,
0,0,0,0,0,0,0,0,0,0,0,0,0,0,0,0,
0,0,0,0,0,0,0,0,0,0,0,2147483753,0,0,0,0,
0,0,0,0,0,0,0,0,0,0,0,0,2147483751,0,0,0
</chunk>
   <chunk x="48" y="-432" width="16" height="16">
0,0,0,0,0,0,0,0,0,0,0,0,0,0,0,0,
0,0,104,0,0,0,0,0,0,0,0,0,0,0,0,0,
0,0,0,0,0,0,0,0,0,0,0,0,0,0,0,0,
0,0,0,0,0,0,0,0,0,0,0,0,0,0,0,0,
0,0,103,0,0,0,0,0,0,0,0,0,0,0,0,0,
0,0,0,104,0,0,0,0,0,0,0,0,0,0,0,0,
0,0,0,0,0,0,0,0,0,0,0,0,0,0,0,0,
0,0,0,0,0,103,0,0,0,0,0,0,0,0,0,0,
0,0,0,0,0,0,0,0,0,0,0,0,0,0,0,0,
0,0,0,0,0,0,0,0,0,0,0,0,0,0,0,0,
0,0,0,0,105,0,0,0,0,0,0,0,0,0,0,0,
0,0,0,0,0,0,0,0,0,0,0,0,0,0,0,0,
0,0,0,0,0,0,0,0,0,0,0,0,0,0,0,0,
0,0,0,0,0,103,0,0,0,0,0,0,0,0,0,0,
0,0,0,0,0,0,0,0,0,0,0,0,0,0,0,0,
0,0,0,0,0,0,0,0,0,0,0,0,0,0,0,0
</chunk>
   <chunk x="32" y="-416" width="16" height="16">
0,0,0,0,0,0,0,0,0,0,0,0,0,0,0,0,
0,0,0,0,0,0,0,0,0,0,0,0,0,0,0,0,
0,0,0,0,0,0,0,0,0,2147483751,0,0,0,0,0,0,
0,0,0,0,0,0,0,0,0,0,0,0,0,0,0,0,
0,0,0,0,0,0,0,0,0,0,0,0,0,0,0,0,
0,0,0,0,0,0,0,0,0,0,2147483753,0,0,0,0,0,
0,0,0,0,0,0,0,0,0,0,0,0,0,0,0,0,
0,0,0,0,0,0,0,0,0,0,0,0,0,0,0,0,
0,0,0,0,0,0,0,0,0,0,0,0,0,0,0,0,
0,0,0,0,0,0,0,0,0,0,0,0,0,0,0,0,
0,0,0,0,0,0,0,0,0,0,0,0,0,0,0,0,
0,0,0,0,0,0,0,0,0,0,0,0,0,0,0,0,
0,0,0,0,0,0,0,0,0,0,0,0,0,0,0,0,
0,0,0,0,0,0,0,0,0,0,0,0,0,0,0,0,
0,0,0,0,0,0,0,0,0,0,0,2147483752,0,0,0,0,
0,0,0,0,0,0,0,0,0,0,2147483751,0,0,0,0,0
</chunk>
   <chunk x="48" y="-416" width="16" height="16">
0,0,0,0,0,0,0,0,0,0,0,0,0,0,0,0,
0,0,0,105,0,0,0,0,0,0,0,0,0,0,0,0,
0,0,103,0,0,0,0,0,0,0,0,0,0,0,0,0,
0,0,0,104,0,0,0,0,0,0,0,0,0,0,0,0,
0,0,0,0,0,0,0,0,0,0,0,0,0,0,0,0,
0,0,0,0,0,0,0,0,0,0,0,0,0,0,0,0,
0,0,0,0,0,0,0,0,0,0,0,0,0,0,0,0,
0,0,0,0,0,0,0,0,0,0,0,0,0,0,0,0,
0,0,0,0,0,0,0,0,0,0,0,0,0,0,0,0,
0,0,0,103,0,0,0,0,0,0,0,0,0,0,0,0,
0,0,0,0,0,0,0,0,0,0,0,0,0,0,0,0,
0,0,0,0,0,103,0,0,0,0,0,0,0,0,0,0,
0,0,0,0,0,0,0,0,0,0,0,0,0,0,0,0,
0,0,0,0,0,0,0,0,0,0,0,0,0,0,0,0,
0,0,0,0,0,0,0,0,0,0,0,0,0,0,0,0,
0,0,0,105,0,0,0,0,0,0,0,0,0,0,0,0
</chunk>
   <chunk x="32" y="-400" width="16" height="16">
0,0,0,0,0,0,0,0,0,2147483751,0,0,0,0,0,0,
0,0,0,0,0,0,0,0,0,0,0,0,0,0,0,0,
0,0,0,0,0,0,0,0,0,0,0,0,0,0,0,0,
0,0,0,0,0,0,0,0,0,0,0,0,0,0,0,0,
0,0,0,0,0,0,0,0,0,0,0,2147483751,0,0,0,0,
0,0,0,0,0,0,0,0,0,0,0,0,0,0,0,0,
0,0,0,0,0,0,0,0,0,2147483751,0,0,0,0,0,0,
0,0,0,0,0,0,0,0,0,0,0,0,0,0,0,0,
0,0,0,0,0,0,0,0,0,0,0,0,2147483752,0,0,0,
0,0,0,0,0,0,0,0,0,0,0,0,0,0,0,0,
0,0,0,0,0,0,0,0,0,0,0,0,0,0,0,0,
0,0,0,0,0,0,0,0,0,0,0,0,2147483751,0,0,0,
0,0,0,0,0,0,0,0,0,0,0,2147483752,0,0,0,0,
0,0,0,0,0,0,0,0,0,0,0,0,0,0,0,0,
0,0,0,0,0,0,0,0,0,2147483751,0,0,0,0,0,0,
0,0,0,0,0,0,0,0,0,0,0,0,0,0,0,0
</chunk>
   <chunk x="48" y="-400" width="16" height="16">
0,0,0,0,0,0,0,0,0,0,0,0,0,0,0,0,
0,0,0,104,0,0,0,0,0,0,0,0,0,0,0,0,
0,0,0,0,0,0,0,0,0,0,0,0,0,0,0,0,
0,0,0,0,0,103,0,0,0,0,0,0,0,0,0,0,
0,0,0,0,0,0,0,0,0,0,0,0,0,0,0,0,
0,0,0,0,0,0,0,0,0,0,0,0,0,0,0,0,
0,0,0,0,0,0,0,0,0,0,0,0,0,0,0,0,
0,0,0,0,0,0,0,0,0,0,0,0,0,0,0,0,
0,0,0,0,104,0,0,0,0,0,0,0,0,0,0,0,
0,0,0,0,0,103,0,0,0,0,0,0,0,0,0,0,
0,0,0,0,103,0,0,0,0,0,0,0,0,0,0,0,
0,0,0,0,0,0,0,0,0,0,0,0,0,0,0,0,
0,0,0,0,0,0,0,0,0,0,0,0,0,0,0,0,
0,0,0,105,0,0,0,0,0,0,0,0,0,0,0,0,
0,0,0,0,0,0,0,0,0,0,0,0,0,0,0,0,
0,0,0,104,0,0,0,0,0,0,0,0,0,0,0,0
</chunk>
   <chunk x="32" y="-384" width="16" height="16">
0,0,0,0,0,0,0,0,0,0,0,0,0,0,0,0,
0,0,0,0,0,0,0,0,0,0,0,0,0,0,0,0,
0,0,0,0,0,0,0,0,0,0,0,2147483751,0,0,0,0,
0,0,0,0,0,0,0,0,0,0,0,0,0,0,0,0,
0,0,0,0,0,0,0,0,0,2147483751,0,0,0,0,0,0,
0,0,0,0,0,0,0,0,0,0,0,0,0,0,0,0,
0,0,0,0,0,0,0,0,0,0,0,0,2147483752,0,0,0,
0,0,0,0,0,0,0,0,0,0,0,0,0,0,0,0,
0,0,0,0,0,0,0,0,0,0,0,2147483753,0,0,0,0,
0,0,0,0,0,0,0,0,0,0,0,0,2147483751,0,0,0,
0,0,0,0,0,0,0,0,0,0,0,0,0,0,0,0,
0,0,0,0,0,0,0,0,0,0,2147483751,0,0,0,0,0,
0,0,0,0,0,0,0,0,0,2147483751,0,0,0,0,0,0,
0,0,0,0,0,0,0,0,0,0,0,0,0,0,0,0,
0,0,0,0,0,0,0,0,0,0,0,0,0,0,0,0,
0,0,0,0,0,0,0,0,0,0,2147483753,0,0,0,0,0
</chunk>
   <chunk x="48" y="-384" width="16" height="16">
0,0,0,0,103,0,0,0,0,0,0,0,0,0,0,0,
0,0,0,0,0,0,0,0,0,0,0,0,0,0,0,0,
0,0,0,0,0,0,0,0,0,0,0,0,0,0,0,0,
0,0,0,0,0,0,0,0,0,0,0,0,0,0,0,0,
0,0,0,0,0,0,0,0,0,0,0,0,0,0,0,0,
0,0,0,103,0,0,0,0,0,0,0,0,0,0,0,0,
0,0,0,0,0,0,0,0,0,0,0,0,0,0,0,0,
0,0,0,0,0,0,0,0,0,0,0,0,0,0,0,0,
0,0,0,0,103,0,0,0,0,0,0,0,0,0,0,0,
0,0,104,0,0,0,0,0,0,0,0,0,0,0,0,0,
0,0,0,0,0,0,0,0,0,0,0,0,0,0,0,0,
0,0,0,0,0,0,0,0,0,0,0,0,0,0,0,0,
0,0,0,0,0,0,0,0,0,0,0,0,0,0,0,0,
0,0,0,0,0,0,0,0,0,0,0,0,0,0,0,0,
0,0,0,0,0,0,0,0,0,0,0,0,0,0,0,0,
0,0,0,104,0,0,0,0,0,0,0,0,0,0,0,0
</chunk>
   <chunk x="32" y="-368" width="16" height="16">
0,0,0,0,0,0,0,0,0,0,0,2147483751,0,0,0,0,
0,0,0,0,0,0,0,0,0,0,0,0,0,0,0,0,
0,0,0,0,0,0,0,0,0,2147483751,0,0,0,0,0,0,
0,0,0,0,0,0,0,0,0,0,2147483751,0,0,0,0,0,
0,0,0,0,0,0,0,0,0,0,0,0,0,0,0,0,
0,0,0,0,0,0,0,0,0,0,0,0,0,0,0,0,
0,0,0,0,0,0,0,0,0,0,0,0,0,0,0,0,
0,0,0,0,0,0,0,0,0,0,0,0,2147483751,0,0,0,
0,0,0,0,0,0,0,0,0,0,0,0,0,0,0,0,
0,0,0,0,0,0,0,0,0,0,2147483751,0,0,0,0,0,
0,0,0,0,0,0,0,0,0,0,0,0,0,0,0,0,
0,0,0,0,0,0,0,0,0,0,0,0,0,0,0,0,
0,0,0,0,0,0,0,0,0,0,0,0,0,0,0,0,
0,0,0,0,0,0,0,0,0,0,0,103,0,0,0,0,
0,0,0,0,0,0,0,0,0,0,0,0,2147483751,0,0,0,
0,0,0,0,0,0,0,0,0,0,0,0,0,0,0,0
</chunk>
   <chunk x="48" y="-368" width="16" height="16">
0,0,0,0,0,0,0,0,0,0,0,0,0,0,0,0,
0,0,0,0,0,0,0,0,0,0,0,0,0,0,0,0,
0,0,0,103,0,0,0,0,0,0,0,0,0,0,0,0,
0,0,0,0,104,0,0,0,0,0,0,0,0,0,0,0,
0,0,0,0,0,103,0,0,0,0,0,0,0,0,0,0,
0,0,0,0,0,0,0,0,0,0,0,0,0,0,0,0,
0,0,0,0,0,0,0,0,0,0,0,0,0,0,0,0,
0,0,0,0,0,0,0,0,0,0,0,0,0,0,0,0,
0,0,0,105,0,0,0,0,0,0,0,0,0,0,0,0,
0,0,0,0,0,0,0,0,0,0,0,0,0,0,0,0,
0,0,0,104,0,0,0,0,0,0,0,0,0,0,0,0,
0,0,0,0,103,0,0,0,0,0,0,0,0,0,0,0,
0,0,0,104,0,0,0,0,0,0,0,0,0,0,0,0,
0,0,0,0,0,0,0,0,0,0,0,0,0,0,0,0,
0,0,0,0,0,0,0,0,0,0,0,0,0,0,0,0,
0,0,0,0,0,0,0,0,0,0,0,0,0,0,0,0
</chunk>
   <chunk x="32" y="-352" width="16" height="16">
0,0,0,0,0,0,0,0,0,0,0,0,0,0,0,0,
0,0,0,0,0,0,0,0,0,0,105,0,0,0,0,0,
0,0,0,0,0,0,0,0,0,0,0,0,0,0,0,0,
0,0,0,0,0,0,0,0,0,0,0,0,0,0,0,0,
0,0,0,0,0,0,0,0,0,0,0,103,0,0,0,0,
0,0,0,0,0,0,0,0,103,0,0,0,0,0,0,0,
0,0,0,0,0,0,0,0,0,0,0,0,0,0,0,0,
0,0,0,0,0,0,0,0,0,0,0,0,0,0,0,0,
0,0,0,0,0,0,0,0,0,105,0,0,103,0,0,0,
0,0,0,0,0,0,0,0,0,0,0,0,0,0,0,0,
0,0,0,0,0,0,0,0,0,0,0,0,0,0,0,0,
0,0,0,0,0,0,0,0,0,0,0,0,0,0,0,0,
0,0,0,0,0,0,0,0,0,0,0,103,0,0,0,0,
0,0,0,0,0,0,0,0,0,0,0,0,0,0,0,0,
0,0,0,0,0,0,0,0,0,0,0,0,0,0,0,0,
0,0,0,0,0,0,0,0,0,104,0,0,0,0,0,0
</chunk>
   <chunk x="48" y="-352" width="16" height="16">
0,0,103,0,0,0,0,0,0,0,0,0,0,0,0,0,
0,0,0,0,103,0,0,0,0,0,0,0,0,0,0,0,
0,0,0,0,0,0,0,0,0,0,0,0,0,0,0,0,
0,0,0,0,0,0,0,0,0,0,0,0,0,0,0,0,
0,0,0,0,0,0,0,0,0,0,0,0,0,0,0,0,
0,0,0,0,103,0,0,0,0,0,0,0,0,0,0,0,
103,103,104,0,0,103,0,0,0,0,0,0,0,0,0,0,
0,0,0,0,0,0,0,0,0,0,0,0,0,0,0,0,
0,0,0,105,0,0,0,0,0,0,0,0,0,0,0,0,
0,0,103,0,0,0,0,0,0,0,0,0,0,0,0,0,
0,0,0,104,0,0,0,0,0,0,0,0,0,0,0,0,
0,0,0,0,103,0,0,0,0,0,0,0,0,0,0,0,
0,0,0,0,0,0,0,0,0,0,0,0,0,0,0,0,
0,0,0,0,0,0,0,0,0,0,0,0,0,0,0,0,
0,0,0,104,0,0,0,0,0,0,0,0,0,0,0,0,
0,0,0,0,0,0,0,0,0,0,0,0,0,0,0,0
</chunk>
   <chunk x="32" y="-336" width="16" height="16">
0,0,0,0,0,0,0,0,0,0,0,0,0,0,0,0,
0,0,0,0,0,0,0,0,0,0,0,0,0,0,0,0,
0,0,0,0,0,0,0,0,0,0,0,0,0,0,0,0,
0,0,0,0,0,0,0,0,0,103,0,0,0,0,0,0,
0,0,0,0,0,0,0,0,0,0,0,104,0,0,0,0,
0,0,0,0,0,0,0,0,0,0,0,0,0,0,0,0,
0,0,0,0,0,0,0,0,0,0,0,0,0,0,0,0,
0,0,0,0,0,0,0,0,105,0,0,0,0,0,0,0,
0,0,0,0,0,0,0,0,0,0,0,0,103,0,0,0,
0,0,0,0,0,0,0,0,0,0,104,0,0,0,0,0,
0,0,0,0,0,0,0,0,0,0,0,0,0,0,0,0,
0,0,0,0,0,0,0,0,0,0,0,0,0,0,0,0,
0,0,0,0,0,0,0,0,0,105,0,0,0,0,0,0,
0,0,0,0,0,0,0,0,0,0,0,0,0,0,0,0,
0,0,0,0,0,0,0,0,0,0,0,0,0,0,0,0,
0,0,0,0,0,0,0,0,0,0,0,0,103,0,0,0
</chunk>
   <chunk x="48" y="-336" width="16" height="16">
0,0,103,0,0,0,0,0,0,0,0,0,0,0,0,0,
0,0,0,2147483751,0,0,0,0,0,0,0,0,0,0,0,0,
0,0,0,0,0,0,0,0,0,0,0,0,0,0,0,0,
0,0,0,0,0,0,0,0,0,0,0,0,0,0,0,0,
0,0,0,0,103,0,0,0,0,0,0,0,0,0,0,0,
0,0,0,0,0,0,0,0,0,0,0,0,0,0,0,0,
0,0,104,0,0,0,0,0,0,0,0,0,0,0,0,0,
0,0,0,0,0,0,0,0,0,0,0,0,0,0,0,0,
0,0,0,0,0,0,0,0,0,0,0,0,0,0,0,0,
0,0,0,0,0,0,0,0,0,0,0,0,0,0,0,0,
0,0,0,0,0,0,0,0,0,0,0,0,0,0,0,0,
0,0,0,0,105,0,0,0,0,0,0,0,0,0,0,0,
0,0,0,0,0,0,0,0,0,0,0,0,0,0,0,0,
0,0,0,0,0,0,0,0,0,0,0,0,0,0,0,0,
0,0,0,104,0,0,0,0,0,0,0,0,0,0,0,0,
0,0,0,0,0,0,0,0,0,0,0,0,0,0,0,0
</chunk>
   <chunk x="32" y="-320" width="16" height="16">
0,0,0,0,0,0,0,0,0,0,103,0,0,0,0,0,
0,0,0,0,0,0,0,0,0,0,0,0,0,0,0,0,
0,0,0,0,0,0,0,0,0,0,0,104,0,0,0,0,
0,0,0,0,0,0,0,0,0,0,0,0,0,0,0,0,
0,0,0,0,0,0,0,0,0,0,0,0,0,0,0,0,
0,0,0,0,0,0,0,0,0,0,0,0,2147483751,0,0,0,
0,0,0,0,0,0,0,0,0,0,0,0,0,0,0,0,
0,0,0,0,0,0,0,0,0,0,0,0,0,0,0,0,
0,0,0,0,0,0,0,0,0,2147483752,0,0,0,0,0,0,
0,0,0,0,0,0,0,0,0,0,0,0,0,0,0,0,
0,0,0,0,0,0,0,0,0,0,0,0,0,0,0,0,
0,0,0,0,0,0,0,0,0,0,0,103,0,0,0,0,
0,0,0,0,0,0,0,0,0,0,0,0,0,0,0,0,
0,0,0,0,0,0,0,0,0,0,0,0,0,0,0,0,
0,0,0,0,0,0,0,0,0,0,0,0,0,0,0,0,
0,0,0,0,0,0,0,0,0,0,0,0,0,0,0,0
</chunk>
   <chunk x="48" y="-320" width="16" height="16">
0,0,103,0,0,0,0,0,0,0,0,0,0,0,0,0,
0,0,0,0,0,0,0,0,0,0,0,0,0,0,0,0,
0,0,0,0,0,0,0,0,0,0,0,0,0,0,0,0,
0,0,0,0,103,0,0,0,0,0,0,0,0,0,0,0,
0,0,0,0,0,0,0,0,0,0,0,0,0,0,0,0,
0,0,0,0,0,0,0,0,0,0,0,0,0,0,0,0,
0,0,0,0,0,0,0,0,0,0,0,0,0,0,0,0,
0,0,0,0,0,105,0,0,0,0,0,0,0,0,0,0,
0,0,0,0,0,0,0,0,0,0,0,0,0,0,0,0,
0,0,0,0,103,0,0,0,0,0,0,0,0,0,0,0,
0,0,0,0,0,0,0,0,0,0,0,0,0,0,0,0,
0,0,0,0,0,0,0,0,0,0,0,0,0,0,0,0,
0,0,0,0,105,0,0,0,0,0,0,0,0,0,0,0,
0,0,103,0,0,0,0,0,0,0,0,0,0,0,0,0,
0,0,0,0,0,0,104,0,0,0,0,0,0,0,0,0,
0,0,0,2147483751,0,0,0,0,0,0,0,0,0,0,0,0
</chunk>
   <chunk x="32" y="-304" width="16" height="16">
0,0,0,0,0,0,0,0,0,103,0,0,0,0,0,0,
0,0,0,0,0,0,0,0,0,0,0,0,0,0,0,0,
0,0,0,0,0,0,0,0,0,0,0,104,0,0,0,0,
0,0,0,0,0,0,0,0,0,0,0,0,0,0,0,0,
0,0,0,0,0,0,0,0,0,0,2147483751,0,0,0,0,0,
0,0,0,0,0,0,0,0,0,0,0,0,0,0,0,0,
0,0,0,0,0,0,0,0,0,0,0,0,0,0,0,0,
0,0,0,0,0,0,0,0,0,0,0,0,0,0,0,0,
0,0,0,0,0,0,0,0,0,103,0,0,0,0,0,0,
0,0,0,0,0,0,0,0,0,0,0,0,0,0,0,0,
0,0,0,0,0,0,0,0,0,0,0,0,0,0,0,0,
0,0,0,0,0,0,0,0,0,104,0,0,0,0,0,0,
0,0,0,0,0,0,0,0,0,0,0,0,0,0,0,0,
0,0,0,0,0,0,0,0,0,0,0,0,0,0,0,0,
0,0,0,0,0,0,0,0,0,0,0,0,103,0,0,0,
0,0,0,0,0,0,0,0,0,0,0,105,0,0,0,0
</chunk>
   <chunk x="48" y="-304" width="16" height="16">
0,0,0,0,0,0,0,0,0,0,0,0,0,0,0,0,
0,0,0,0,0,0,0,0,0,0,0,0,0,0,0,0,
0,0,0,0,103,0,0,0,0,0,0,0,0,0,0,0,
0,0,0,105,104,0,0,0,0,0,0,0,0,0,0,0,
0,0,0,0,0,0,0,0,0,0,0,0,0,0,0,0,
0,0,0,0,0,0,0,0,0,0,0,0,0,0,0,0,
0,0,0,0,0,0,0,0,0,0,0,0,0,0,0,0,
0,0,0,0,103,0,0,0,0,0,0,0,0,0,0,0,
0,0,0,0,0,0,0,0,0,0,0,0,0,0,0,0,
0,0,0,0,0,0,0,0,0,0,0,0,0,0,0,0,
0,0,0,0,0,0,0,0,0,0,0,0,0,0,0,0,
0,0,103,0,0,0,0,0,0,0,0,0,0,0,0,0,
0,0,0,0,0,0,0,0,0,0,0,0,0,0,0,0,
0,0,0,0,103,0,0,0,0,0,0,0,0,0,0,0,
0,0,0,0,0,103,0,0,0,0,0,0,0,0,0,0,
0,0,104,0,0,0,0,0,0,0,0,0,0,0,0,0
</chunk>
   <chunk x="32" y="-288" width="16" height="16">
0,0,0,0,0,0,0,0,0,0,0,0,0,0,0,0,
0,0,0,0,0,0,0,0,0,0,104,103,0,0,0,0,
0,0,0,0,0,0,0,0,0,0,0,0,0,0,0,0,
0,0,0,0,0,0,0,0,0,0,0,0,0,0,0,0,
0,0,0,0,0,0,0,0,0,0,0,105,0,0,0,0,
0,0,0,0,0,0,0,0,0,0,0,0,0,0,0,0,
0,0,0,0,0,0,0,0,0,0,0,0,0,0,0,0,
0,0,0,0,0,0,0,0,0,0,0,0,103,0,0,0,
0,0,0,0,0,0,0,0,0,0,0,0,0,0,0,0,
0,0,0,0,0,0,0,0,0,0,2147483751,0,0,0,0,0,
0,0,0,0,0,0,0,0,0,0,0,0,0,0,0,0,
0,0,0,0,0,0,0,0,0,0,0,0,0,0,0,0,
0,0,0,0,0,0,0,0,0,0,0,0,0,0,0,0,
0,0,0,0,0,0,0,0,0,0,0,0,0,0,0,0,
0,0,0,0,0,0,0,0,0,0,0,0,0,0,0,0,
0,0,0,0,0,0,0,0,0,0,0,0,0,0,0,0
</chunk>
   <chunk x="48" y="-288" width="16" height="16">
0,0,0,0,0,0,0,0,0,0,0,0,0,0,0,0,
0,0,0,0,103,0,0,0,0,0,0,0,0,0,0,0,
0,0,0,0,0,0,0,0,0,0,0,0,0,0,0,0,
0,0,0,0,0,0,0,0,0,0,0,0,0,0,0,0,
0,0,103,0,0,0,0,0,0,0,0,0,0,0,0,0,
0,0,0,0,104,0,0,0,0,0,0,0,0,0,0,0,
0,0,0,0,0,0,0,0,0,0,0,0,0,0,0,0,
0,0,0,103,0,0,0,0,0,0,0,0,0,0,0,0,
0,0,0,0,0,0,0,0,0,0,0,0,0,0,0,0,
0,0,0,0,0,105,0,0,0,0,0,0,0,0,0,0,
0,0,0,0,0,0,0,0,0,0,0,0,0,0,0,0,
0,0,104,0,0,0,0,0,0,0,0,0,0,0,0,0,
0,0,2147483751,0,2147483752,0,0,0,0,0,0,0,0,0,0,0,
0,0,0,0,0,0,0,0,0,0,0,0,0,0,0,0,
0,0,0,0,0,0,0,0,0,0,0,0,0,0,0,0,
0,0,0,0,0,2147483751,0,0,0,0,0,0,0,0,0,0
</chunk>
   <chunk x="32" y="-272" width="16" height="16">
0,0,0,0,0,0,0,0,0,0,0,0,0,0,0,0,
0,0,0,0,0,0,0,0,0,0,0,0,0,0,0,0,
0,0,0,0,0,0,0,0,0,0,0,0,0,0,0,0,
0,0,0,0,0,0,0,0,0,0,0,0,0,0,0,0,
0,0,0,0,0,0,0,0,0,0,0,0,0,0,0,0,
0,0,0,0,0,0,0,0,0,0,0,0,0,0,0,0,
0,0,0,0,0,0,0,0,0,0,0,0,0,0,0,0,
0,0,0,0,0,0,0,0,0,0,0,0,0,0,0,0,
0,0,0,0,0,0,0,0,0,0,0,0,0,0,0,0,
0,0,0,0,0,0,0,0,0,0,0,0,0,0,0,0,
0,0,0,0,0,0,0,0,0,0,0,0,0,0,0,0,
0,0,0,0,0,0,0,0,0,103,0,0,0,0,0,0,
0,0,0,0,0,0,0,0,0,0,0,104,0,0,0,0,
0,0,0,0,0,0,0,0,0,0,0,0,0,0,0,0,
0,0,0,0,0,0,0,0,0,0,0,0,0,0,0,0,
0,0,0,0,0,0,0,0,0,0,104,0,0,0,0,0
</chunk>
   <chunk x="48" y="-272" width="16" height="16">
0,0,0,0,0,0,0,0,0,0,0,0,0,0,0,0,
0,0,0,0,0,0,0,0,0,0,0,0,0,0,0,0,
0,0,0,0,2147483751,0,0,0,0,0,0,0,0,0,0,0,
0,0,0,105,0,0,0,0,0,0,0,0,0,0,0,0,
0,0,0,103,0,0,0,0,0,0,0,0,0,0,0,0,
0,0,0,0,0,0,0,0,0,0,0,0,0,0,0,0,
0,0,0,0,2147483752,0,0,0,0,0,0,0,0,0,0,0,
0,0,0,0,0,0,0,0,0,0,0,0,0,0,0,0,
0,0,0,0,0,0,0,0,0,0,0,0,0,0,0,0,
0,0,0,2147483753,0,0,0,0,0,0,0,0,0,0,0,0,
0,0,0,0,0,0,0,0,0,0,0,0,0,0,0,0,
0,0,0,0,0,0,0,0,0,0,0,0,0,0,0,0,
0,0,103,0,0,104,0,0,0,0,0,0,0,0,0,0,
0,0,0,0,0,0,0,0,0,0,0,0,0,0,0,0,
0,0,0,0,2147483751,0,0,0,0,0,0,0,0,0,0,0,
0,0,0,0,0,0,0,0,0,0,0,0,0,0,0,0
</chunk>
   <chunk x="32" y="-256" width="16" height="16">
0,0,0,0,0,0,0,0,0,0,0,0,0,0,0,0,
0,0,0,0,0,0,0,0,0,0,0,0,0,0,0,0,
0,0,0,0,0,0,0,0,0,0,0,105,0,0,0,0,
0,0,0,0,0,0,0,0,0,103,0,0,0,0,0,0,
0,0,0,0,0,0,0,0,0,0,0,0,0,0,0,0,
0,0,0,0,0,0,0,0,0,0,0,104,0,0,0,0,
0,0,0,0,0,0,0,0,0,0,0,0,0,0,0,0,
0,0,0,0,0,0,0,0,0,0,0,0,0,0,0,0,
0,0,0,0,0,0,0,0,0,103,0,0,0,0,0,0,
0,0,0,0,0,0,0,0,0,0,0,104,0,0,0,0,
0,0,0,0,0,0,0,0,0,0,105,0,0,0,0,0,
0,0,0,0,0,0,0,0,0,0,0,0,0,0,0,0,
0,0,0,0,0,0,0,0,0,0,0,0,0,0,0,0,
0,0,0,0,0,0,0,0,0,0,0,0,0,0,0,0,
0,0,0,0,0,0,0,0,0,0,103,0,0,0,0,0,
0,0,0,0,0,0,0,0,0,0,0,0,0,0,0,0
</chunk>
   <chunk x="48" y="-256" width="16" height="16">
0,0,0,0,0,0,0,0,0,0,0,0,0,0,0,0,
0,0,0,0,2147483752,0,0,0,0,0,0,0,0,0,0,0,
0,0,103,0,0,0,0,0,0,0,0,0,0,0,0,0,
0,0,0,0,0,0,0,0,0,0,0,0,0,0,0,0,
0,0,0,0,0,0,0,0,0,0,0,0,0,0,0,0,
0,0,0,105,0,0,0,0,0,0,0,0,0,0,0,0,
0,0,0,0,0,0,0,0,0,0,0,0,0,0,0,0,
0,0,0,0,103,0,0,0,0,0,0,0,0,0,0,0,
0,0,0,0,104,103,0,0,0,0,0,0,0,0,0,0,
0,0,0,0,0,0,0,0,0,0,0,0,0,0,0,0,
0,0,0,0,0,0,0,0,0,0,0,0,0,0,0,0,
0,0,0,105,103,0,0,0,0,0,0,0,0,0,0,0,
0,0,0,0,0,0,0,0,0,0,0,0,0,0,0,0,
0,0,0,0,0,0,0,0,0,0,0,0,0,0,0,0,
0,0,0,2147483751,0,0,0,0,0,0,0,0,0,0,0,0,
0,0,0,0,0,0,0,0,0,0,0,0,0,0,0,0
</chunk>
   <chunk x="32" y="-240" width="16" height="16">
0,0,0,0,0,0,0,0,0,0,0,0,0,0,0,0,
0,0,0,0,0,0,0,0,0,0,103,0,0,0,0,0,
0,0,0,0,0,0,0,0,0,0,0,0,0,0,0,0,
0,0,0,0,0,0,0,0,0,0,0,0,103,0,0,0,
0,0,0,0,0,0,0,0,0,0,0,0,0,0,0,0,
0,0,0,0,0,0,0,0,0,0,0,104,0,0,0,0,
0,0,0,0,0,0,0,0,0,0,0,0,0,0,0,0,
0,0,0,0,0,0,0,0,0,0,0,0,0,0,0,0,
0,0,0,0,0,0,0,0,0,0,0,0,0,0,0,0,
0,0,0,0,0,0,0,0,0,0,105,0,0,0,0,0,
0,0,0,0,0,0,0,0,0,0,0,0,0,0,0,0,
0,0,0,0,0,0,0,0,0,0,0,0,0,0,0,0,
0,0,0,0,0,0,0,0,0,0,0,0,0,2147483751,0,103,
0,0,0,0,0,0,0,0,0,103,0,0,0,0,0,0,
0,0,0,0,0,0,0,0,0,0,0,0,0,0,0,0,
0,0,0,0,0,0,0,0,0,0,0,2147483751,0,0,0,0
</chunk>
   <chunk x="48" y="-240" width="16" height="16">
0,0,0,104,0,0,0,0,0,0,0,0,0,0,0,0,
0,0,0,0,0,0,0,0,0,0,0,0,0,0,0,0,
0,0,0,0,0,0,0,0,0,0,0,0,0,0,0,0,
0,0,0,0,0,103,0,0,0,0,0,0,0,0,0,0,
0,0,0,0,0,0,0,0,0,0,0,0,0,0,0,0,
0,0,0,0,0,0,0,0,0,0,0,0,0,0,0,0,
0,0,0,105,104,0,0,0,0,0,0,0,0,0,0,0,
0,0,0,0,0,0,0,0,0,0,0,0,0,0,0,0,
0,0,0,0,0,0,0,0,0,0,0,0,0,0,0,0,
0,0,0,0,103,0,0,0,0,0,0,0,0,0,0,0,
0,0,0,0,0,0,0,0,0,0,0,0,0,0,0,0,
0,0,0,0,0,0,0,0,0,0,0,0,0,0,0,0,
0,0,0,105,0,0,0,0,0,0,0,0,0,0,0,0,
0,0,0,0,0,0,0,0,0,0,0,0,0,0,0,0,
0,0,0,0,0,104,0,0,0,0,0,0,0,0,0,0,
0,0,0,0,0,0,0,0,0,0,0,0,0,0,0,0
</chunk>
   <chunk x="32" y="-224" width="16" height="16">
0,0,0,0,0,0,0,0,0,0,0,0,0,0,0,0,
0,0,0,0,0,0,0,0,0,0,0,0,0,0,0,0,
0,0,0,0,0,0,0,0,0,0,0,0,0,0,0,0,
0,0,0,0,0,0,0,0,0,105,0,0,0,0,0,0,
0,0,0,0,0,0,0,0,0,0,0,0,103,0,0,0,
0,0,0,0,0,0,0,0,0,0,0,0,0,0,0,0,
0,0,0,0,0,0,0,0,0,0,0,0,0,0,0,0,
0,0,0,0,0,0,0,0,0,0,0,104,0,0,0,0,
0,0,0,0,0,0,0,0,0,0,0,0,0,0,0,0,
0,0,0,0,0,0,0,0,104,0,0,0,0,0,0,0,
0,0,0,0,0,0,0,0,0,0,0,0,0,0,0,0,
0,0,0,0,0,0,0,0,0,0,0,0,0,0,0,0,
0,0,0,0,0,0,0,0,0,0,103,0,0,0,0,0,
0,0,0,0,0,0,0,0,0,0,0,0,0,0,0,0,
0,0,0,0,0,0,0,0,0,0,0,0,103,0,0,0,
0,0,0,0,0,0,0,0,0,0,0,0,0,0,0,0
</chunk>
   <chunk x="48" y="-224" width="16" height="16">
103,0,103,0,0,0,0,0,0,0,0,0,0,0,0,0,
0,0,0,0,0,0,0,0,0,0,0,0,0,0,0,0,
0,0,0,0,0,0,0,0,0,0,0,0,0,0,0,0,
0,0,0,0,0,0,0,0,0,0,0,0,0,0,0,0,
0,0,0,104,0,0,103,0,0,0,0,0,0,0,0,0,
0,0,0,0,0,0,0,0,0,0,0,0,0,0,0,0,
0,0,0,0,0,0,0,0,0,0,0,0,0,0,0,0,
0,0,0,0,105,0,0,0,0,0,0,0,0,0,0,0,
0,0,0,0,0,0,0,0,0,0,0,0,0,0,0,0,
0,0,0,0,0,103,0,0,0,0,0,0,0,0,0,0,
0,0,0,104,0,0,0,0,0,0,0,0,0,0,0,0,
0,0,0,0,0,0,0,0,0,0,0,0,0,0,0,0,
0,0,0,0,0,0,0,0,0,0,0,0,0,0,0,0,
0,0,0,0,0,0,0,0,0,0,0,0,0,0,0,0,
0,0,0,0,0,0,0,0,0,0,0,0,0,0,0,0,
0,0,0,0,103,0,0,0,0,0,0,0,0,0,0,0
</chunk>
   <chunk x="32" y="-208" width="16" height="16">
0,0,0,0,0,0,0,0,0,2147483751,0,0,0,0,0,0,
0,0,0,0,0,0,0,0,0,0,0,0,2147483751,0,0,0,
0,0,0,0,0,0,0,0,0,0,0,0,0,0,0,0,
0,0,0,0,0,0,0,0,0,0,105,0,0,0,0,0,
0,0,0,0,0,0,0,0,0,0,0,0,0,0,0,0,
0,0,0,0,0,0,0,0,0,2147483751,0,0,0,0,0,0,
0,0,0,0,0,0,0,0,0,0,0,0,0,0,0,0,
0,0,0,0,0,0,0,0,0,0,0,0,103,0,0,0,
0,0,0,0,0,0,0,0,0,0,0,0,0,0,0,0,
0,0,0,0,0,0,0,0,0,0,0,0,2147483752,0,0,0,
0,0,0,0,0,0,0,0,0,0,0,0,0,0,0,0,
0,0,0,0,0,0,0,0,0,0,0,0,0,0,0,0,
0,0,0,0,0,0,0,0,0,0,0,103,0,0,0,0,
0,0,0,0,0,0,0,0,0,0,0,0,0,0,0,0,
0,0,0,0,0,0,0,0,0,0,0,0,0,0,0,0,
0,0,0,0,0,0,0,0,0,0,0,0,0,0,0,0
</chunk>
   <chunk x="48" y="-208" width="16" height="16">
0,0,0,105,0,0,0,0,0,0,0,0,0,0,0,0,
0,0,0,0,2147483752,0,0,0,0,0,0,0,0,0,0,0,
0,0,0,0,0,0,0,0,0,0,0,0,0,0,0,0,
0,0,0,0,0,0,0,0,0,0,0,0,0,0,0,0,
0,0,0,2147483751,0,0,103,0,0,0,0,0,0,0,0,0,
0,0,0,0,104,0,0,0,0,0,0,0,0,0,0,0,
0,0,0,0,0,0,0,0,0,0,0,0,0,0,0,0,
0,0,0,0,0,0,0,0,0,0,0,0,0,0,0,0,
0,0,0,2147483753,0,0,0,0,0,0,0,0,0,0,0,0,
0,0,0,0,0,0,0,0,0,0,0,0,0,0,0,0,
0,0,0,0,0,0,0,0,0,0,0,0,0,0,0,0,
0,0,0,0,2147483752,0,2147483751,0,0,0,0,0,0,0,0,0,
104,103,0,0,0,0,0,0,0,0,0,0,0,0,0,0,
0,0,0,0,0,0,0,0,0,0,0,0,0,0,0,0,
0,0,0,0,104,0,0,0,0,0,0,0,0,0,0,0,
2147483751,0,0,0,0,0,0,0,0,0,0,0,0,0,0,0
</chunk>
   <chunk x="32" y="-192" width="16" height="16">
0,0,0,0,0,0,0,0,0,0,0,0,105,0,0,0,
0,0,0,0,0,0,0,0,0,0,0,0,0,0,0,0,
0,0,0,0,0,0,0,0,0,0,0,0,0,0,0,0,
0,0,0,0,0,0,0,0,0,0,0,103,0,0,0,0,
0,0,0,0,0,0,0,0,0,0,0,0,0,0,0,0,
0,0,0,0,0,0,0,0,0,0,0,0,0,0,0,0,
0,0,0,0,0,0,0,0,0,0,0,0,0,0,0,0,
0,0,0,0,0,0,0,0,0,0,0,0,0,0,0,0,
0,0,0,0,0,0,0,0,0,0,0,0,0,0,0,0,
0,0,0,0,0,0,0,0,0,0,105,0,0,0,0,0,
0,0,0,0,0,0,0,0,0,104,0,0,0,0,0,0,
0,0,0,0,0,0,0,0,0,0,0,0,0,0,0,0,
0,0,0,0,0,0,0,0,0,0,0,0,0,0,0,0,
0,0,0,0,0,0,0,0,0,0,0,103,0,0,0,0,
0,0,0,0,0,0,0,0,0,0,0,0,0,0,0,0,
0,0,0,0,0,0,0,0,0,0,104,0,0,0,0,0
</chunk>
   <chunk x="48" y="-192" width="16" height="16">
0,0,0,0,0,0,0,0,0,0,0,0,0,0,0,0,
0,0,0,103,0,0,0,0,0,0,0,0,0,0,0,0,
0,0,0,105,104,0,0,0,0,0,0,0,0,0,0,0,
0,0,0,0,0,0,0,0,0,0,0,0,0,0,0,0,
0,0,0,2147483751,0,0,0,0,0,0,0,0,0,0,0,0,
0,0,0,0,0,0,0,0,0,0,0,0,0,0,0,0,
0,0,0,0,0,105,0,0,0,0,0,0,0,0,0,0,
0,0,0,0,0,0,0,0,0,0,0,0,0,0,0,0,
0,0,0,104,103,0,0,0,0,0,0,0,0,0,0,0,
0,0,0,0,0,0,0,0,0,0,0,0,0,0,0,0,
0,0,0,0,0,103,0,0,0,0,0,0,0,0,0,0,
0,0,0,0,0,0,0,0,0,0,0,0,0,0,0,0,
0,0,0,0,105,0,0,0,0,0,0,0,0,0,0,0,
0,0,0,0,0,0,0,0,0,0,0,0,0,0,0,0,
0,0,0,0,0,0,0,0,0,0,0,0,0,0,0,0,
0,0,103,0,0,0,0,0,0,0,0,0,0,0,0,0
</chunk>
   <chunk x="32" y="-176" width="16" height="16">
0,0,0,0,0,0,0,0,0,0,0,105,0,0,0,0,
0,0,0,0,0,0,0,0,0,0,0,0,0,0,0,0,
0,0,0,0,0,0,0,0,0,0,0,0,0,0,0,0,
0,0,0,0,0,0,0,0,0,0,0,0,0,0,0,0,
0,0,0,0,0,0,0,0,0,103,0,0,0,0,0,0,
0,0,0,0,0,0,0,0,0,0,0,0,0,0,0,0,
0,0,0,0,0,0,0,0,0,0,0,0,103,0,0,0,
0,0,0,0,0,0,0,0,0,0,0,0,0,0,0,0,
0,0,0,0,0,0,0,0,0,0,0,0,0,0,0,0,
0,0,0,0,0,0,0,0,0,0,0,0,0,0,0,0,
0,0,0,0,0,0,0,0,0,0,0,2147483753,0,0,0,0,
0,0,0,0,0,0,0,0,0,104,0,0,0,0,0,0,
0,0,0,0,0,0,0,0,0,0,0,0,0,0,0,0,
0,0,0,0,0,0,0,0,0,0,103,0,0,0,0,0,
0,0,0,0,0,0,0,0,0,0,0,0,0,0,0,0,
0,0,0,0,0,0,0,0,0,0,0,0,0,0,0,0
</chunk>
   <chunk x="48" y="-176" width="16" height="16">
0,0,0,104,0,0,0,0,0,0,0,0,0,0,0,0,
0,0,0,0,0,0,0,0,0,0,0,0,0,0,0,0,
0,0,0,0,0,0,0,0,0,0,0,0,0,0,0,0,
0,0,0,0,2147483752,0,0,0,0,0,0,0,0,0,0,0,
0,0,0,0,0,0,103,0,0,0,0,0,0,0,0,0,
0,0,0,104,0,0,0,0,0,0,0,0,0,0,0,0,
0,0,0,0,0,0,0,0,0,0,0,0,0,0,0,0,
0,0,0,0,0,0,0,0,0,0,0,0,0,0,0,0,
0,0,0,0,0,0,0,0,0,0,0,0,0,0,0,0,
0,0,0,0,0,0,0,0,0,0,0,0,0,0,0,0,
0,0,0,105,0,0,103,0,0,0,0,0,0,0,0,0,
0,0,103,0,0,0,0,0,0,0,0,0,0,0,0,0,
0,0,0,0,0,0,0,0,0,0,0,0,0,0,0,0,
0,0,0,0,0,0,0,0,0,0,0,0,0,0,0,0,
0,0,0,0,0,0,0,0,0,0,0,0,0,0,0,0,
0,0,0,0,0,0,0,0,0,0,0,0,0,0,0,0
</chunk>
   <chunk x="32" y="-160" width="16" height="16">
0,0,0,0,0,0,0,0,0,0,105,0,0,0,0,0,
0,0,0,0,0,0,0,0,0,0,0,0,103,0,0,0,
0,0,0,0,0,0,0,0,0,0,0,0,0,0,0,0,
0,0,0,0,0,0,0,0,0,0,0,104,0,0,0,0,
0,0,0,0,0,0,0,0,0,0,0,0,0,0,0,0,
0,0,0,0,0,0,0,0,0,0,0,0,0,0,0,0,
0,0,0,0,0,0,0,0,0,0,0,0,0,0,0,0,
0,0,0,0,0,0,0,0,0,0,0,0,0,0,0,0,
0,0,0,0,0,0,0,0,0,0,105,0,0,0,0,0,
0,0,0,0,0,0,0,0,0,0,0,0,0,0,0,0,
0,0,0,0,0,0,0,0,0,0,0,0,0,0,0,0,
0,0,0,0,0,0,0,0,0,0,0,0,0,0,0,0,
0,0,0,0,0,0,0,0,0,0,0,0,0,0,0,0,
0,0,0,0,0,0,0,0,0,0,0,0,103,0,0,0,
0,0,0,0,0,0,0,0,0,0,2147483751,0,0,0,0,0,
0,0,0,0,0,0,0,0,0,0,0,0,0,0,0,0
</chunk>
   <chunk x="48" y="-160" width="16" height="16">
0,0,0,0,0,0,0,0,0,0,0,0,0,0,0,0,
0,0,0,0,0,0,0,0,0,0,0,0,0,0,0,0,
0,0,0,0,0,0,0,0,0,0,0,0,0,0,0,0,
0,0,0,0,0,0,0,0,0,0,0,0,0,0,0,0,
0,0,0,0,0,0,0,0,0,0,0,0,0,0,0,0,
0,0,0,0,2147483753,0,0,0,0,0,0,0,0,0,0,0,
0,0,0,0,0,0,0,0,0,0,0,0,0,0,0,0,
0,0,0,0,0,0,0,0,0,0,0,0,0,0,0,0,
0,0,0,2147483752,0,0,0,0,0,0,0,0,0,0,0,0,
0,0,0,0,0,0,0,0,0,0,0,0,0,0,0,0,
0,0,0,0,103,0,0,0,0,0,0,0,0,0,0,0,
0,0,0,0,0,0,0,0,0,0,0,0,0,0,0,0,
0,0,0,0,0,0,0,0,0,0,0,0,0,0,0,0,
0,0,0,104,0,0,103,0,0,0,0,0,0,0,0,0,
0,0,0,0,0,0,0,0,0,0,0,0,0,0,0,0,
0,0,103,0,0,105,0,0,0,0,0,0,0,0,0,0
</chunk>
   <chunk x="32" y="-144" width="16" height="16">
0,0,0,0,0,0,0,0,0,0,0,0,104,0,0,0,
0,0,0,0,0,0,0,0,0,0,0,0,0,0,0,0,
0,0,0,0,0,0,0,0,0,0,0,0,0,0,0,0,
0,0,0,0,0,0,0,0,0,0,0,0,0,0,0,0,
0,0,0,0,0,0,0,0,0,0,0,0,0,0,0,0,
0,0,0,0,0,0,0,0,0,0,0,0,0,0,0,0,
0,0,0,0,0,0,0,0,0,104,0,0,0,0,0,0,
0,0,0,0,0,0,0,0,0,0,0,0,103,0,0,0,
0,0,0,0,0,0,0,0,0,0,0,0,0,0,0,0,
0,0,0,0,0,0,0,0,0,0,105,0,0,0,0,0,
0,0,0,0,0,0,0,0,0,0,0,0,0,0,0,0,
0,0,0,0,0,0,0,0,0,0,0,0,0,0,0,0,
0,0,0,0,0,0,0,0,0,0,0,0,0,0,0,0,
0,0,0,0,0,0,0,0,0,0,103,0,0,0,0,0,
0,0,0,0,0,0,0,0,0,0,0,0,0,0,0,0,
0,0,0,0,0,0,0,0,0,105,0,0,0,0,0,0
</chunk>
   <chunk x="48" y="-144" width="16" height="16">
0,0,0,0,0,0,0,0,0,0,0,0,0,0,0,0,
0,0,0,0,0,0,0,0,0,0,0,0,0,0,0,0,
0,0,0,2147483751,0,0,0,0,0,0,0,0,0,0,0,0,
0,0,0,0,0,0,0,0,0,0,0,0,0,0,0,0,
0,0,0,0,0,0,0,0,0,0,0,0,0,0,0,0,
0,0,0,0,0,0,0,0,0,0,0,0,0,0,0,0,
0,0,0,103,0,0,0,0,0,0,0,0,0,0,0,0,
0,0,0,0,0,105,0,0,0,0,0,0,0,0,0,0,
0,0,0,104,0,0,0,0,0,0,0,0,0,0,0,0,
0,0,0,0,0,0,103,0,0,0,0,0,0,0,0,0,
0,0,0,0,0,0,0,0,0,0,0,0,0,0,0,0,
0,0,0,104,0,0,0,0,0,0,0,0,0,0,0,0,
0,0,0,0,105,0,0,0,0,0,0,0,0,0,0,0,
0,0,0,0,0,0,0,0,0,0,0,0,0,0,0,0,
0,0,0,103,0,0,0,0,0,0,0,0,0,0,0,0,
0,0,0,0,0,0,0,0,0,0,0,0,0,0,0,0
</chunk>
   <chunk x="32" y="-128" width="16" height="16">
0,0,0,0,0,0,0,0,0,0,0,0,0,0,0,0,
0,0,0,0,0,0,0,0,0,0,0,105,0,0,0,0,
0,0,0,0,0,0,0,0,0,0,0,0,0,0,0,0,
0,0,0,0,0,0,0,0,0,0,0,0,0,0,0,0,
0,0,0,0,0,0,0,0,0,103,0,0,0,0,0,0,
0,0,0,0,0,0,0,0,0,0,0,0,0,0,0,0,
0,0,0,0,0,0,0,0,0,0,0,0,0,0,0,0,
0,0,0,0,0,0,0,0,0,0,0,0,0,0,0,0,
0,0,0,0,0,0,0,0,0,0,0,0,0,0,0,0,
0,0,0,0,0,0,0,0,0,0,0,0,0,0,0,0,
0,0,0,0,0,0,0,0,0,103,0,0,104,0,0,0,
0,0,0,0,0,0,0,0,0,0,0,0,0,0,0,0,
0,0,0,0,0,0,0,0,0,0,105,0,0,0,0,0,
0,0,0,0,0,0,0,0,0,0,0,103,0,0,0,0,
0,0,0,0,0,0,0,0,0,0,0,0,0,0,0,0,
0,0,0,0,0,0,0,0,0,0,0,0,0,0,0,0
</chunk>
   <chunk x="48" y="-128" width="16" height="16">
0,0,0,0,0,0,0,0,0,0,0,0,0,0,0,0,
0,0,0,0,104,0,0,0,0,0,0,0,0,0,0,0,
0,0,0,0,0,0,0,0,0,0,0,0,0,0,0,0,
0,0,0,0,0,0,103,0,0,0,0,0,0,0,0,0,
0,0,0,0,0,0,0,0,0,0,0,0,0,0,0,0,
0,0,0,2147483753,0,0,0,0,0,0,0,0,0,0,0,0,
0,0,0,2147483752,0,0,0,0,0,0,0,0,0,0,0,0,
0,0,0,0,103,0,0,0,0,0,0,0,0,0,0,0,
0,0,0,0,0,0,0,0,0,0,0,0,0,0,0,0,
0,0,0,0,0,0,0,0,0,0,0,0,0,0,0,0,
0,0,0,0,0,0,0,0,0,0,0,0,0,0,0,0,
0,0,0,2147483752,0,0,0,103,0,0,0,0,0,0,0,0,
0,0,103,0,0,0,105,0,0,0,0,0,0,0,0,0,
0,0,0,0,0,0,0,0,0,0,0,0,0,0,0,0,
0,0,0,0,0,0,0,0,0,0,0,0,0,0,0,0,
0,0,0,0,0,0,0,0,0,0,0,0,0,0,0,0
</chunk>
   <chunk x="32" y="-112" width="16" height="16">
0,0,0,0,0,0,0,0,0,0,0,0,0,0,0,0,
0,0,0,0,0,0,0,0,0,0,0,105,0,0,0,0,
0,0,0,0,0,0,0,0,0,0,0,0,0,0,0,0,
0,0,0,0,0,0,0,0,0,0,0,0,0,0,0,0,
0,0,0,0,0,0,0,0,0,0,0,103,0,0,0,0,
0,0,0,0,0,0,0,0,0,0,0,0,2147483751,0,0,0,
0,0,0,0,0,0,0,0,0,0,0,0,0,0,0,0,
0,0,0,0,0,0,0,0,0,0,0,0,0,0,0,0,
0,0,0,0,0,0,0,0,0,0,0,0,0,0,0,0,
0,0,0,0,0,0,0,0,0,0,0,104,0,0,0,0,
0,0,0,0,0,0,0,0,0,0,2147483751,0,0,0,0,0,
0,0,0,0,0,0,0,0,0,0,0,0,0,0,0,0,
0,0,0,0,0,0,0,0,0,0,0,103,0,0,0,0,
0,0,0,0,0,0,0,0,0,0,0,0,0,0,0,0,
0,0,0,0,0,0,0,0,0,0,0,0,0,0,0,0,
0,0,0,0,0,0,0,0,0,0,0,0,0,0,0,0
</chunk>
   <chunk x="48" y="-112" width="16" height="16">
0,0,0,2147483751,0,0,0,0,0,0,0,0,0,0,0,0,
0,0,0,0,0,0,0,0,0,0,0,0,0,0,0,0,
0,0,0,0,0,0,0,0,0,0,0,0,0,0,0,0,
0,0,0,2147483752,0,0,0,0,0,0,0,0,0,0,0,0,
0,0,0,0,0,103,0,0,0,0,0,0,0,0,0,0,
0,0,0,0,0,0,0,0,0,0,0,0,0,0,0,0,
0,0,104,0,0,0,0,0,0,0,0,0,0,0,0,0,
0,0,0,103,0,0,0,0,0,0,0,0,0,0,0,0,
0,0,0,0,0,0,0,0,0,0,0,0,0,0,0,0,
0,0,2147483751,0,0,0,0,0,0,0,0,0,0,0,0,0,
0,0,0,0,0,0,0,0,0,0,0,0,0,0,0,0,
0,0,0,0,0,0,0,0,0,0,0,0,0,0,0,0,
0,0,0,0,104,0,0,0,0,0,0,0,0,0,0,0,
0,0,0,0,0,0,0,0,0,0,0,0,0,0,0,0,
0,0,0,0,0,0,0,103,0,0,0,0,0,0,0,0,
0,0,0,0,0,105,0,0,0,0,0,0,0,0,0,0
</chunk>
   <chunk x="32" y="-96" width="16" height="16">
0,0,0,0,0,0,0,0,0,105,0,0,0,0,0,0,
0,0,0,0,0,0,0,0,0,0,0,0,0,0,0,0,
0,0,0,0,0,0,0,0,0,0,0,0,0,0,0,0,
0,0,0,0,0,0,0,0,0,0,0,0,0,0,0,0,
0,0,0,0,0,0,0,0,0,0,105,0,0,0,0,0,
0,0,0,0,0,0,0,0,0,0,0,103,0,0,0,0,
0,0,0,0,0,0,0,0,0,0,0,0,0,0,0,0,
0,0,0,0,0,0,0,0,0,0,0,0,0,0,0,0,
0,0,0,0,0,0,0,0,0,2147483751,0,0,0,0,0,0,
0,0,0,0,0,0,0,0,0,0,0,0,0,0,0,0,
0,0,0,0,0,0,0,0,0,0,0,0,0,0,0,0,
0,0,0,0,0,0,0,0,0,0,0,104,0,0,0,0,
0,0,0,0,0,0,0,0,0,0,0,0,0,0,0,0,
0,0,0,0,0,0,0,0,0,105,0,0,0,0,0,0,
0,0,0,0,0,0,0,0,0,0,0,0,0,0,0,0,
0,0,0,0,0,0,0,0,0,0,0,0,0,0,0,0
</chunk>
   <chunk x="48" y="-96" width="16" height="16">
0,0,0,0,0,0,0,0,0,0,0,0,0,0,0,0,
0,0,104,0,0,0,0,0,0,0,0,0,0,0,0,0,
0,0,0,0,0,0,0,0,0,0,0,0,0,0,0,0,
0,0,0,0,0,0,0,0,0,0,0,0,0,0,0,0,
0,0,0,0,0,0,0,0,0,0,0,0,0,0,0,0,
0,0,0,0,104,0,0,0,0,0,0,0,0,0,0,0,
0,0,0,0,0,0,0,0,0,0,0,0,0,0,0,0,
0,0,103,0,0,0,0,0,0,0,0,0,0,0,0,0,
0,0,0,0,0,0,0,0,0,0,0,0,0,0,0,0,
0,0,0,0,0,0,2147483752,0,0,0,0,0,0,0,0,0,
0,0,0,0,0,103,0,0,0,0,0,0,0,0,0,0,
0,0,0,0,0,0,0,0,0,0,0,0,0,0,0,0,
0,0,0,0,0,0,0,0,0,0,0,0,0,0,0,0,
0,0,0,0,104,0,0,0,0,0,0,0,0,0,0,0,
0,0,0,0,105,0,0,0,0,0,0,0,0,0,0,0,
0,0,0,0,0,0,0,0,0,0,0,0,0,0,0,0
</chunk>
   <chunk x="32" y="-80" width="16" height="16">
0,0,0,0,0,0,0,0,0,0,0,0,0,0,0,0,
0,0,0,0,0,0,0,0,0,0,0,103,0,0,0,0,
0,0,0,0,0,0,0,0,0,0,104,0,0,0,0,0,
0,0,0,0,0,0,0,0,0,0,0,0,0,0,0,0,
0,0,0,0,0,0,0,0,0,0,0,0,0,0,0,0,
0,0,0,0,0,0,0,0,0,105,0,0,0,0,0,0,
0,0,0,0,0,0,0,0,0,0,0,0,0,0,0,0,
0,0,0,0,0,0,0,0,0,0,0,104,0,0,0,0,
0,0,0,0,0,0,0,0,0,0,0,0,0,0,0,0,
0,0,0,0,0,0,0,0,0,103,0,0,0,0,0,0,
0,0,0,0,0,0,0,0,0,0,0,0,103,0,0,0,
0,0,0,0,0,0,0,0,0,0,0,0,0,0,0,0,
0,0,0,0,0,0,0,0,0,0,0,105,0,0,0,0,
0,0,0,0,0,0,0,0,0,0,0,0,0,0,0,0,
0,0,0,0,0,0,0,0,0,0,0,0,0,0,0,0,
0,0,0,0,0,0,0,0,0,0,0,0,0,0,0,0
</chunk>
   <chunk x="48" y="-80" width="16" height="16">
0,0,0,0,0,0,0,0,0,0,0,0,0,0,0,0,
0,0,0,103,0,0,0,0,0,0,0,0,0,0,0,0,
0,0,0,0,0,0,0,0,0,0,0,0,0,0,0,0,
0,0,0,0,105,0,0,0,0,0,0,0,0,0,0,0,
0,0,0,103,0,0,0,0,0,0,0,0,0,0,0,0,
0,0,0,0,0,0,0,0,0,0,0,0,0,0,0,0,
0,0,0,0,0,0,0,0,0,0,0,0,0,0,0,0,
0,0,0,0,0,0,0,0,0,0,0,0,0,0,0,0,
0,0,0,0,0,0,0,0,0,0,0,0,0,0,0,0,
0,0,0,0,0,0,0,0,0,0,0,0,0,0,0,0,
0,0,0,0,0,0,0,0,0,0,0,0,0,0,0,0,
0,0,0,0,105,0,0,0,0,0,0,0,0,0,0,0,
0,0,0,0,104,0,0,0,0,0,0,0,0,0,0,0,
0,0,0,2147483753,0,0,0,0,0,0,0,0,0,0,0,0,
0,0,0,0,103,0,0,0,0,0,0,0,0,0,0,0,
0,0,0,0,0,0,0,0,0,0,0,0,0,0,0,0
</chunk>
   <chunk x="32" y="-64" width="16" height="16">
0,0,0,0,0,0,0,0,0,0,103,0,0,0,0,0,
0,0,0,0,0,0,0,0,0,0,0,0,0,0,0,0,
0,0,0,0,0,0,0,0,0,0,0,0,0,0,0,0,
0,0,0,0,0,0,0,0,0,105,0,0,0,0,0,0,
0,0,0,0,0,0,0,0,0,0,0,0,103,0,0,0,
0,0,0,0,0,0,0,0,0,0,0,104,0,0,0,0,
0,0,0,0,0,0,0,0,0,0,0,0,0,0,0,0,
0,0,0,0,0,0,0,0,0,0,0,0,0,0,0,0,
0,0,0,0,0,0,0,0,0,0,0,0,0,0,0,0,
0,0,0,0,0,0,0,0,0,104,0,0,103,0,0,0,
0,0,0,0,0,0,0,0,0,0,0,0,0,0,0,0,
0,0,0,0,0,0,0,0,0,0,0,105,0,0,0,0,
0,0,0,0,0,0,0,0,0,0,0,0,0,0,0,0,
0,0,0,0,0,0,0,0,0,103,0,0,0,0,0,0,
0,0,0,0,0,0,0,0,0,0,0,0,0,0,0,0,
0,0,0,0,0,0,0,0,0,0,0,105,0,0,0,0
</chunk>
   <chunk x="48" y="-64" width="16" height="16">
0,0,0,0,0,0,0,0,0,0,0,0,0,0,0,0,
0,0,0,0,0,0,0,0,0,0,0,0,0,0,0,0,
0,0,0,0,103,0,0,0,0,0,0,0,0,0,0,0,
0,0,0,105,0,0,0,0,0,0,0,0,0,0,0,0,
0,0,0,0,0,0,0,0,0,0,0,0,0,0,0,0,
0,0,0,0,0,0,0,0,0,0,0,0,0,0,0,0,
0,0,0,0,0,0,0,0,0,0,0,0,0,0,0,0,
0,0,0,0,104,0,0,0,0,0,0,0,0,0,0,0,
0,0,0,0,0,0,0,0,0,0,0,0,0,0,0,0,
0,0,0,103,0,0,0,0,0,0,0,0,0,0,0,0,
0,0,0,0,0,0,0,0,0,0,0,0,0,0,0,0,
0,0,0,0,0,0,0,0,0,0,0,0,0,0,0,0,
0,0,0,0,0,0,0,0,0,0,0,0,0,0,0,0,
0,0,104,0,0,0,0,0,0,0,0,0,0,0,0,0,
0,0,0,0,0,0,0,0,0,0,0,0,0,0,0,0,
0,0,0,0,0,105,0,0,0,0,0,0,0,0,0,0
</chunk>
   <chunk x="32" y="-48" width="16" height="16">
0,0,0,0,0,0,0,0,0,0,104,2147483751,0,0,0,0,
0,0,0,0,0,0,0,0,0,0,0,0,0,0,0,0,
0,0,0,0,0,0,0,0,0,0,2147483751,0,0,0,0,0,
0,0,0,0,0,0,0,0,0,0,0,0,0,0,0,0,
0,0,0,0,0,0,0,0,0,0,0,103,0,0,0,0,
0,0,0,0,0,0,0,0,0,0,0,0,0,0,0,0,
0,0,0,0,0,0,0,0,0,0,0,0,0,0,0,0,
0,0,0,0,0,0,0,0,0,104,0,0,0,0,0,0,
0,0,0,0,0,0,0,0,0,0,0,0,0,0,0,0,
0,0,0,0,0,0,0,0,0,0,0,103,0,0,0,0,
0,0,0,0,0,0,0,0,0,0,0,0,0,0,0,0,
0,0,0,0,0,0,0,0,0,0,0,0,0,0,0,0,
0,0,0,0,0,0,0,0,0,103,0,0,0,0,0,0,
0,0,0,0,0,0,0,0,0,0,0,0,0,0,0,0,
0,0,0,0,0,0,0,0,0,0,0,2147483752,0,0,0,0,
0,0,0,0,0,0,0,0,0,0,2147483753,0,0,0,0,0
</chunk>
   <chunk x="48" y="-48" width="16" height="16">
0,0,0,0,0,0,0,0,0,0,0,0,0,0,0,0,
0,0,0,0,0,0,0,0,0,0,0,0,0,0,0,0,
0,0,0,0,0,0,0,0,0,0,0,0,0,0,0,0,
0,0,0,105,0,0,0,0,0,0,0,0,0,0,0,0,
0,0,0,2147483751,0,0,0,0,0,0,0,0,0,0,0,0,
0,0,0,0,0,0,0,0,0,0,0,0,0,0,0,0,
0,0,0,0,0,0,0,0,0,0,0,0,0,0,0,0,
0,0,103,0,0,0,0,0,0,0,0,0,0,0,0,0,
0,0,0,0,0,0,0,0,0,0,0,0,0,0,0,0,
0,0,0,0,0,0,0,0,0,0,0,0,0,0,0,0,
0,0,0,0,0,0,0,0,0,0,0,0,0,0,0,0,
0,0,0,0,0,103,0,0,0,0,0,0,0,0,0,0,
0,0,0,0,0,0,0,0,0,0,0,0,0,0,0,0,
0,0,0,0,0,0,0,0,0,0,0,0,0,0,0,0,
0,0,0,103,0,0,0,0,0,0,0,0,0,0,0,0,
0,0,0,0,0,0,0,0,0,0,0,0,0,0,0,0
</chunk>
   <chunk x="32" y="-32" width="16" height="16">
0,0,0,0,0,0,0,0,0,0,0,0,0,0,0,0,
0,0,0,0,0,0,0,0,0,0,0,0,103,0,0,0,
0,0,0,0,0,0,0,0,0,2147483751,0,0,0,0,0,0,
0,0,0,0,0,0,0,0,0,0,0,104,0,0,0,0,
0,0,0,0,0,0,0,0,0,0,0,0,103,0,0,0,
0,0,0,0,0,0,0,0,0,0,0,0,0,0,0,0,
0,0,0,0,0,0,0,0,0,0,103,0,0,0,0,0,
0,0,0,0,0,0,0,0,0,0,0,0,0,0,0,0,
0,0,0,0,0,0,0,0,0,103,0,0,0,0,0,0,
0,0,0,0,0,0,0,0,0,0,0,0,0,0,0,0,
0,0,0,0,0,0,0,0,0,0,0,0,0,0,0,0,
0,0,0,0,0,0,0,0,0,0,0,2147483751,0,0,0,0,
0,0,0,0,0,0,0,0,0,0,0,0,0,0,0,0,
0,0,0,0,0,0,0,0,0,0,0,0,0,0,0,0,
0,0,0,0,0,0,0,0,0,0,0,0,0,0,0,0,
0,0,0,0,0,0,0,0,0,0,0,0,103,0,0,0
</chunk>
   <chunk x="48" y="-32" width="16" height="16">
0,0,0,0,0,0,0,0,0,0,0,0,0,0,0,0,
0,0,0,0,0,2147483751,0,0,0,0,0,0,0,0,0,0,
0,0,0,0,0,0,0,0,0,0,0,0,0,0,0,0,
0,0,0,0,0,0,0,0,0,0,0,0,0,0,0,0,
0,0,0,2147483752,0,0,0,0,0,0,0,0,0,0,0,0,
0,0,0,0,0,0,0,0,0,0,0,0,0,0,0,0,
0,0,0,0,0,0,0,0,2147483752,0,0,0,0,0,0,0,
0,0,0,0,0,0,0,0,103,0,0,0,0,0,0,0,
0,0,0,0,0,0,0,0,0,0,0,0,0,0,0,0,
0,0,0,0,0,0,0,105,0,0,0,0,0,0,0,0,
0,0,0,105,0,0,0,0,0,0,0,0,0,0,0,0,
0,0,0,0,0,0,0,0,0,0,0,0,0,0,0,0,
0,0,0,0,0,0,0,0,0,0,0,0,0,0,0,0,
0,0,0,0,0,0,0,0,0,0,0,0,0,0,0,0,
0,0,0,0,0,0,2147483751,0,0,0,0,0,0,0,0,0,
0,0,0,0,0,0,0,0,0,0,0,0,0,0,0,0
</chunk>
   <chunk x="32" y="-16" width="16" height="16">
0,0,0,0,0,0,0,0,0,103,0,0,0,0,0,0,
0,0,0,0,0,0,0,0,0,0,2147483752,0,0,0,0,0,
0,0,0,0,0,0,0,0,0,0,0,0,0,0,0,0,
0,0,0,0,0,0,0,0,0,0,0,0,0,0,0,0,
0,0,0,0,0,0,0,0,0,0,0,2147483753,0,0,0,0,
0,0,0,0,0,0,0,0,0,0,0,0,0,0,0,0,
0,0,0,0,0,0,0,0,0,104,0,0,2147483751,0,0,0,
0,0,0,0,0,0,0,0,0,0,0,0,0,0,0,0,
0,0,0,0,0,0,0,0,0,0,0,0,0,0,0,0,
0,0,0,0,0,0,0,0,0,0,0,104,0,0,0,0,
0,0,0,0,0,0,0,0,0,0,0,0,0,0,0,0,
0,0,0,0,0,0,0,0,0,0,0,0,0,0,0,0,
0,0,0,0,0,0,0,0,0,0,103,0,0,0,0,0,
0,0,0,0,0,0,0,0,0,0,0,0,0,0,0,0,
0,0,0,0,0,0,0,0,0,0,0,0,0,0,0,0,
0,0,0,0,0,0,0,0,0,0,0,105,0,0,0,0
</chunk>
   <chunk x="48" y="-16" width="16" height="16">
0,0,0,0,0,104,0,0,0,0,0,0,0,0,0,0,
0,0,0,0,0,0,0,0,0,0,0,0,0,0,0,0,
0,0,0,0,0,0,0,0,0,0,0,0,0,0,0,0,
0,0,103,0,0,0,0,0,0,0,0,0,0,0,0,0,
0,0,0,0,0,0,0,0,0,0,0,0,0,0,0,0,
0,0,0,0,0,0,0,0,0,0,0,0,0,0,0,0,
0,0,0,0,0,0,0,2147483751,0,0,0,0,0,0,0,0,
0,0,0,0,0,104,0,0,0,0,0,0,0,0,0,0,
0,0,0,0,0,0,0,0,0,0,0,0,0,0,0,0,
0,0,0,0,0,0,0,0,0,0,0,0,0,0,0,0,
0,0,0,105,0,0,0,0,103,0,0,0,0,0,0,0,
0,0,0,0,0,0,104,0,0,0,0,0,0,0,0,0,
0,0,0,0,0,0,0,0,0,0,0,0,0,0,0,0,
0,0,0,0,0,0,0,0,0,0,0,0,0,0,0,0,
0,0,0,0,0,104,0,0,0,0,0,0,0,0,0,0,
0,0,0,0,103,0,0,0,0,0,0,0,0,0,0,0
</chunk>
   <chunk x="32" y="0" width="16" height="16">
0,0,0,0,0,0,0,0,0,0,0,0,0,0,0,0,
0,0,0,0,0,0,0,0,0,0,103,0,0,0,0,0,
0,0,0,0,0,0,0,0,0,0,0,0,0,0,0,0,
0,0,0,0,0,0,0,0,0,0,0,0,0,0,0,0,
0,0,0,0,0,0,0,0,0,0,0,0,2147483751,0,0,0,
0,0,0,0,0,0,0,0,0,103,0,0,0,0,0,0,
0,0,0,0,0,0,0,0,0,0,0,0,0,0,0,0,
0,0,0,0,0,0,0,0,0,0,0,0,0,0,0,0,
0,0,0,0,0,0,0,0,0,0,0,0,0,0,0,0,
0,0,0,0,0,0,0,0,0,0,0,0,0,0,0,0,
0,0,0,0,0,0,0,0,0,0,0,0,0,0,0,0,
0,0,0,0,0,0,0,0,0,0,0,0,103,0,0,0,
0,0,0,0,0,0,0,0,0,0,0,0,0,0,0,0,
0,0,0,0,0,0,0,0,0,0,0,0,0,0,0,0,
0,0,0,0,0,0,0,0,0,0,104,0,0,0,0,0,
0,0,0,0,0,0,0,0,0,0,0,0,0,0,0,0
</chunk>
   <chunk x="48" y="0" width="16" height="16">
0,0,0,0,0,0,0,0,0,0,0,0,0,0,0,0,
0,0,0,0,0,0,0,0,0,0,0,0,0,0,0,0,
0,0,103,105,0,0,0,0,0,0,0,0,0,0,0,0,
0,0,0,0,103,0,0,0,0,0,0,0,0,0,0,0,
0,0,0,0,0,0,0,0,0,0,0,0,0,0,0,0,
0,0,0,0,0,0,0,0,0,0,0,0,0,0,0,0,
0,0,0,0,0,0,0,0,0,0,0,0,0,0,0,0,
0,0,0,0,0,0,0,0,0,0,0,0,0,0,0,0,
0,0,0,0,103,0,0,0,0,0,0,0,0,0,0,0,
0,0,0,0,104,0,0,0,0,0,0,0,0,0,0,0,
0,0,0,0,0,0,0,0,0,0,0,0,0,0,0,0,
0,0,0,2147483753,0,0,0,0,0,0,0,0,0,0,0,0,
0,0,0,0,0,0,0,0,0,0,0,0,0,0,0,0,
0,0,0,0,0,0,0,0,0,0,0,0,0,0,0,0,
0,0,0,0,103,0,0,0,0,0,0,0,0,0,0,0,
0,0,0,0,0,0,0,0,0,0,0,0,0,0,0,0
</chunk>
   <chunk x="32" y="16" width="16" height="16">
0,0,0,0,0,0,0,0,0,0,0,0,0,0,0,0,
0,0,0,0,0,0,0,0,0,0,0,0,0,0,0,0,
0,0,0,0,0,0,0,0,0,0,0,105,0,0,0,0,
0,0,0,0,0,0,0,0,0,0,0,0,0,0,0,0,
0,0,0,0,0,0,0,0,0,0,104,0,0,0,0,0,
0,0,0,0,0,0,0,0,0,0,0,0,0,0,0,0,
0,0,0,0,0,0,0,0,0,0,0,0,0,0,0,0,
0,0,0,0,0,0,0,0,0,0,0,0,0,0,0,0,
0,0,0,0,0,0,0,0,0,0,0,2147483751,0,0,0,0,
0,0,0,0,0,0,0,0,0,0,0,0,0,0,0,0,
0,0,0,0,0,0,0,0,0,0,0,0,0,0,0,0,
0,0,0,0,0,0,0,0,0,0,103,0,0,0,0,0,
0,0,0,0,0,0,0,0,0,0,0,0,0,0,0,0,
0,0,0,0,0,0,0,0,0,0,0,0,0,0,0,0,
0,0,0,0,0,0,0,0,0,0,0,0,0,0,0,0,
0,0,0,0,0,0,0,0,0,0,0,0,0,0,0,0
</chunk>
   <chunk x="48" y="16" width="16" height="16">
0,0,0,0,0,0,0,0,0,0,0,0,0,0,0,0,
0,0,0,0,0,0,0,0,0,0,0,0,0,0,0,0,
0,0,0,0,0,0,0,0,0,0,0,0,0,0,0,0,
0,0,0,0,0,0,0,0,0,0,0,0,0,0,0,0,
0,0,0,0,0,0,0,0,0,0,0,0,0,0,0,0,
0,0,0,105,0,0,0,0,0,0,0,0,0,0,0,0,
0,0,0,0,103,0,0,0,0,0,0,0,0,0,0,0,
0,0,0,0,0,0,0,0,0,0,0,0,0,0,0,0,
0,0,0,0,0,104,0,0,0,0,0,0,0,0,0,0,
0,0,0,0,0,0,0,0,0,0,0,0,0,0,0,0,
0,0,0,0,0,0,0,0,0,0,0,0,0,0,0,0,
0,0,0,103,0,0,0,0,0,0,0,0,0,0,0,0,
0,0,0,0,0,0,0,0,0,0,0,0,0,0,0,0,
0,0,0,0,0,0,0,0,0,0,0,0,0,0,0,0,
0,0,0,0,0,0,0,0,0,0,0,0,0,0,0,0,
0,0,0,0,0,0,0,0,0,0,0,0,0,0,0,0
</chunk>
  </data>
 </layer>
 <layer id="16" name="Ditch" width="30" height="20">
  <data encoding="csv">
   <chunk x="48" y="-416" width="16" height="16">
0,0,0,0,0,0,0,0,0,0,0,0,0,0,0,0,
0,0,0,0,0,0,0,0,0,0,0,0,0,0,0,0,
0,0,0,0,0,0,0,0,0,0,0,0,0,0,0,0,
0,0,0,0,0,0,0,0,0,0,0,0,0,0,0,0,
0,0,0,0,0,0,0,0,0,0,0,0,0,0,0,0,
0,0,0,0,0,0,0,0,0,0,0,0,0,0,0,0,
0,0,0,0,0,0,0,0,0,0,0,0,0,0,0,0,
0,0,0,0,0,0,0,0,0,0,0,0,0,0,0,0,
0,0,0,0,0,88,89,89,0,0,0,0,0,0,0,0,
0,0,0,0,0,0,0,0,0,0,0,0,0,0,0,0,
0,0,0,0,0,0,0,0,0,0,0,0,0,0,0,0,
0,0,0,0,0,0,0,0,0,0,0,0,0,0,0,0,
0,0,0,0,0,0,0,0,0,0,0,0,0,0,0,0,
0,0,0,0,0,0,0,0,0,0,0,0,0,0,0,0,
0,0,0,0,0,0,0,0,0,0,0,0,0,0,0,0,
0,0,0,0,0,0,0,0,0,0,0,0,0,0,0,0
</chunk>
   <chunk x="32" y="-368" width="16" height="16">
0,0,0,0,0,0,0,0,0,0,0,0,0,0,0,0,
0,0,0,0,0,0,0,0,0,0,0,0,0,0,0,0,
0,0,0,0,0,0,0,0,0,0,0,0,0,0,0,0,
0,0,0,0,0,0,0,0,0,0,0,0,0,0,0,0,
0,0,0,0,0,0,0,0,0,0,0,0,0,0,0,0,
0,0,0,0,0,0,0,0,0,0,0,0,0,0,0,0,
0,0,0,0,0,0,0,0,0,0,0,0,0,0,0,0,
0,0,0,0,0,0,0,0,0,0,0,0,0,0,0,0,
0,0,0,0,0,0,0,0,0,0,0,0,0,0,0,0,
0,0,0,0,0,0,0,0,0,0,0,0,0,0,0,0,
0,0,0,0,0,0,0,0,0,0,0,0,0,0,0,0,
0,0,0,0,0,0,0,0,0,0,0,0,0,88,90,0,
0,0,0,0,0,0,0,0,0,0,0,0,0,0,0,0,
0,0,0,0,0,0,0,0,0,0,0,0,0,0,0,0,
0,0,0,0,0,0,0,0,0,0,0,0,0,0,0,0,
0,0,0,0,0,0,0,0,0,0,0,0,0,0,0,0
</chunk>
   <chunk x="48" y="-368" width="16" height="16">
0,0,0,0,0,0,0,0,0,0,0,0,0,0,0,0,
0,0,0,0,0,0,0,0,0,0,0,0,0,0,0,0,
0,0,0,0,0,0,0,0,0,0,0,0,0,0,0,0,
0,0,0,0,0,0,0,0,0,0,0,0,0,0,0,0,
0,0,0,0,0,0,0,0,0,0,0,0,0,0,0,0,
0,0,0,0,0,0,0,0,0,0,0,0,0,0,0,0,
0,0,0,0,0,0,0,0,0,0,0,0,0,0,0,0,
0,0,0,0,0,0,0,0,0,0,0,0,0,0,0,0,
0,0,0,0,0,0,0,0,0,0,0,0,0,0,0,0,
0,0,0,0,0,0,0,0,0,0,0,0,0,0,0,0,
0,0,0,0,0,0,0,0,0,0,0,0,0,0,0,0,
88,90,0,0,0,0,0,0,0,0,0,0,0,0,0,0,
0,0,0,0,0,0,0,0,0,0,0,0,0,0,0,0,
0,0,0,0,0,0,0,0,0,0,0,0,0,0,0,0,
0,0,0,0,0,0,0,0,0,0,0,0,0,0,0,0,
0,0,0,0,0,0,0,0,0,0,0,0,0,0,0,0
</chunk>
   <chunk x="32" y="-352" width="16" height="16">
0,0,0,0,0,0,0,0,0,0,0,0,0,0,0,0,
0,0,0,0,0,0,0,0,0,0,0,0,0,0,0,0,
0,0,0,0,0,0,0,0,0,0,0,0,0,0,0,0,
0,0,0,0,0,0,0,0,0,0,0,0,0,0,0,0,
0,0,0,0,0,0,0,0,0,0,0,0,0,0,0,0,
0,0,0,0,0,0,0,0,0,0,0,0,0,0,0,0,
0,0,0,0,0,0,0,0,0,0,0,0,0,0,0,0,
0,0,0,0,0,0,0,0,0,0,0,0,0,0,0,0,
0,0,0,0,0,0,0,0,0,0,0,0,0,0,0,0,
0,0,0,0,0,0,0,0,0,0,0,0,0,0,0,0,
0,0,0,0,0,0,0,0,0,0,0,0,0,0,0,0,
0,0,0,0,0,0,0,0,0,0,0,0,0,0,0,0,
0,0,0,0,0,0,0,89,89,90,0,0,0,0,0,0,
0,0,0,0,0,0,0,0,0,0,0,0,0,0,0,0,
0,0,0,0,0,0,0,0,0,0,0,0,0,0,0,0,
0,0,0,0,0,0,0,0,0,0,0,0,0,0,0,0
</chunk>
   <chunk x="48" y="-352" width="16" height="16">
0,0,0,0,0,0,0,0,0,0,0,0,0,0,0,0,
0,0,0,0,0,0,0,0,0,0,0,0,0,0,0,0,
0,0,0,0,0,0,0,0,0,0,0,0,0,0,0,0,
0,0,0,0,0,0,0,0,0,0,0,0,0,0,0,0,
0,0,0,0,106,0,0,0,0,0,0,0,0,0,0,0,
0,0,0,0,0,88,90,0,0,0,0,0,0,0,0,0,
0,0,0,0,0,0,0,0,0,0,0,0,0,0,0,0,
0,0,0,0,0,0,0,0,0,0,0,0,0,0,0,0,
0,0,0,0,0,0,0,0,0,0,0,0,0,0,0,0,
0,0,0,0,0,0,0,0,0,0,0,0,0,0,0,0,
0,0,0,0,0,0,0,0,0,0,0,0,0,0,0,0,
0,0,0,0,0,0,0,0,0,0,0,0,0,0,0,0,
0,0,0,0,0,0,0,0,0,0,0,0,0,0,0,0,
0,0,0,0,0,0,0,0,0,0,0,0,0,0,0,0,
0,0,106,0,0,0,0,0,0,0,0,0,0,0,0,0,
0,0,0,0,0,0,0,0,0,0,0,0,0,0,0,0
</chunk>
   <chunk x="32" y="-336" width="16" height="16">
0,0,0,0,0,0,0,0,0,0,0,0,0,0,0,0,
0,0,0,0,0,0,0,0,0,0,0,0,0,0,0,0,
0,0,0,0,0,0,0,0,0,0,0,0,0,0,0,0,
0,0,0,0,0,0,0,0,0,0,0,0,0,0,0,0,
0,0,0,0,0,0,0,0,0,0,0,0,0,0,0,0,
0,0,0,0,0,0,0,0,0,0,0,0,0,0,0,0,
0,0,0,0,0,0,0,0,0,0,0,0,0,0,0,0,
0,0,0,0,0,0,0,0,0,0,0,0,0,0,0,0,
0,0,0,0,0,0,0,0,0,0,0,0,0,0,0,0,
0,0,0,0,0,0,0,0,0,0,0,0,0,0,0,0,
0,0,0,0,0,0,0,0,0,0,0,0,0,0,0,0,
0,0,0,0,0,0,0,0,0,0,0,0,0,0,0,0,
0,0,0,0,0,0,0,0,0,0,0,0,0,0,0,0,
0,0,0,0,0,0,0,0,0,0,0,0,0,0,0,0,
0,0,0,0,0,0,0,0,0,0,0,0,0,0,0,0,
0,0,0,0,0,0,0,0,0,0,0,106,0,0,0,0
</chunk>
   <chunk x="48" y="-336" width="16" height="16">
0,0,0,0,0,0,0,0,0,0,0,0,0,0,0,0,
0,0,0,0,0,0,0,0,0,0,0,0,0,0,0,0,
0,0,0,0,0,0,0,0,0,0,0,0,0,0,0,0,
0,0,0,0,106,0,0,0,0,0,0,0,0,0,0,0,
0,0,0,0,0,0,106,0,0,0,0,0,0,0,0,0,
0,0,0,0,0,106,0,0,0,0,0,0,0,0,0,0,
0,0,0,0,0,0,0,0,0,0,0,0,0,0,0,0,
0,0,0,0,0,0,0,0,0,0,0,0,0,0,0,0,
0,0,0,0,0,0,0,0,0,0,0,0,0,0,0,0,
0,0,0,0,0,0,0,0,0,0,0,0,0,0,0,0,
0,0,0,0,0,0,0,0,0,0,0,0,0,0,0,0,
0,0,0,106,0,0,0,0,0,0,0,0,0,0,0,0,
0,0,0,0,0,0,0,0,0,0,0,0,0,0,0,0,
0,0,0,0,0,0,0,0,0,0,0,0,0,0,0,0,
0,0,0,0,0,0,0,0,0,0,0,0,0,0,0,0,
0,0,0,0,0,0,0,0,0,0,0,0,0,0,0,0
</chunk>
   <chunk x="32" y="-320" width="16" height="16">
0,0,0,0,0,0,0,0,0,0,0,0,0,0,0,0,
0,0,0,0,0,0,0,0,0,0,0,0,0,0,0,0,
0,0,0,0,0,0,0,0,0,0,0,0,0,0,0,0,
0,0,0,0,0,0,0,0,0,0,0,0,0,0,0,0,
0,0,0,0,0,0,0,0,0,0,0,0,0,0,0,0,
0,0,0,0,0,0,0,0,0,0,0,0,0,0,0,0,
0,0,0,0,0,0,0,0,0,0,0,0,0,0,0,0,
0,0,0,0,0,0,0,0,0,0,0,0,0,0,0,0,
0,0,0,0,0,0,0,0,0,0,0,106,0,0,0,0,
0,0,0,0,0,0,0,0,0,0,0,0,0,0,0,0,
0,0,0,0,0,0,0,0,0,0,0,0,0,0,0,0,
0,0,0,0,0,0,0,0,0,0,0,0,106,0,0,0,
0,0,0,0,0,0,0,0,0,0,0,0,0,0,0,0,
0,0,0,0,0,0,0,0,0,0,0,0,0,0,0,0,
0,0,0,0,0,0,0,0,0,0,0,0,0,0,0,0,
0,0,0,0,0,0,0,0,0,0,0,0,0,0,0,0
</chunk>
   <chunk x="48" y="-320" width="16" height="16">
0,0,0,0,0,0,0,0,0,0,0,0,0,0,0,0,
0,0,0,0,0,0,0,0,0,0,0,0,0,0,0,0,
0,0,0,0,0,0,0,0,0,0,0,0,0,0,0,0,
0,0,0,0,0,0,0,0,0,0,0,0,0,0,0,0,
0,0,0,0,0,0,0,0,0,0,0,0,0,0,0,0,
0,0,0,106,0,0,0,0,0,0,0,0,0,0,0,0,
0,0,0,0,0,0,0,0,0,0,0,0,0,0,0,0,
0,0,0,0,0,0,0,0,0,0,0,0,0,0,0,0,
0,0,0,106,0,0,0,0,0,0,0,0,0,0,0,0,
0,0,0,0,0,0,0,0,0,0,0,0,0,0,0,0,
0,0,0,0,0,0,0,0,0,0,0,0,0,0,0,0,
0,0,0,106,0,0,0,0,0,0,0,0,0,0,0,0,
0,0,0,0,0,0,0,0,0,0,0,0,0,0,0,0,
0,0,0,0,0,0,0,0,0,0,0,0,0,0,0,0,
0,0,0,0,0,0,0,0,0,0,0,0,0,0,0,0,
0,0,0,0,0,0,0,0,0,0,0,0,0,0,0,0
</chunk>
   <chunk x="32" y="-304" width="16" height="16">
0,0,0,0,0,0,0,0,0,0,0,0,0,0,0,0,
0,0,0,0,0,0,0,0,0,0,0,0,0,0,0,0,
0,0,0,0,0,0,0,0,0,0,0,0,0,0,0,0,
0,0,0,0,0,0,0,89,89,90,0,0,0,0,0,0,
0,0,0,0,0,0,0,0,0,0,0,0,0,0,0,0,
0,0,0,0,0,0,0,0,0,0,0,0,0,0,0,0,
0,0,0,0,0,0,0,0,0,0,0,0,0,0,0,0,
0,0,0,0,0,0,0,0,0,0,0,0,0,0,0,0,
0,0,0,0,0,0,0,0,0,0,0,0,0,0,0,0,
0,0,0,0,0,0,0,0,0,0,0,0,0,0,0,0,
0,0,0,0,0,0,0,0,0,0,0,0,0,0,0,0,
0,0,0,0,0,0,0,0,0,0,0,0,0,0,0,0,
0,0,0,0,0,0,0,0,0,0,0,0,0,0,0,0,
0,0,0,0,0,0,0,0,0,0,0,0,0,0,0,0,
0,0,0,0,0,0,0,0,0,0,0,0,0,0,0,0,
0,0,0,0,0,0,0,0,0,0,0,0,0,0,0,0
</chunk>
   <chunk x="48" y="-304" width="16" height="16">
0,0,0,0,0,0,0,0,0,0,0,0,0,0,0,0,
0,0,106,0,0,0,0,0,0,0,0,0,0,0,0,0,
0,0,0,0,0,0,0,0,0,0,0,0,0,0,0,0,
0,0,0,0,0,0,0,0,0,0,0,0,0,0,0,0,
0,0,0,0,0,0,0,0,0,0,0,0,0,0,0,0,
0,0,0,0,0,0,0,0,0,0,0,0,0,0,0,0,
0,0,0,0,0,0,0,0,0,0,0,0,0,0,0,0,
0,0,0,0,0,0,0,0,0,0,0,0,0,0,0,0,
0,0,0,0,0,0,0,0,0,0,0,0,0,0,0,0,
0,0,0,0,106,0,0,0,0,0,0,0,0,0,0,0,
0,0,0,0,0,0,106,0,0,0,0,0,0,0,0,0,
0,0,0,0,0,106,0,0,0,0,0,0,0,0,0,0,
0,0,0,0,0,0,0,0,0,0,0,0,0,0,0,0,
0,0,0,0,0,0,0,0,0,0,0,0,0,0,0,0,
0,0,0,0,0,0,0,0,0,0,0,0,0,0,0,0,
0,0,0,0,0,0,0,0,0,0,0,0,0,0,0,0
</chunk>
   <chunk x="32" y="-272" width="16" height="16">
0,0,0,0,0,0,0,0,0,0,0,0,0,0,0,0,
0,0,0,0,0,0,0,0,0,0,0,0,0,0,0,0,
0,0,0,0,0,0,0,0,0,0,0,0,0,0,88,89,
0,0,0,0,0,0,0,0,0,0,0,0,0,0,0,0,
0,0,0,0,0,0,0,0,0,0,0,0,106,0,0,0,
0,0,0,0,0,0,0,0,0,0,0,0,0,0,0,0,
0,0,0,0,0,0,0,0,0,0,0,0,0,0,0,0,
0,0,0,0,0,0,0,0,0,0,0,0,0,0,0,0,
0,0,0,0,0,0,0,0,0,0,0,0,0,0,0,0,
0,0,0,0,0,0,0,0,0,0,0,0,0,0,0,0,
0,0,0,0,0,0,0,0,0,0,0,0,0,0,0,0,
0,0,0,0,0,0,0,0,0,0,0,0,0,0,0,0,
0,0,0,0,0,0,0,0,0,0,0,0,0,106,0,0,
0,0,0,0,0,0,0,0,0,0,0,0,0,0,0,0,
0,0,0,0,0,0,0,0,0,0,0,0,0,0,0,0,
0,0,0,0,0,0,0,0,0,0,0,0,0,0,0,0
</chunk>
   <chunk x="48" y="-272" width="16" height="16">
0,0,0,0,0,0,0,0,0,0,0,0,0,0,0,0,
0,0,0,0,88,90,0,0,0,0,0,0,0,0,0,0,
90,0,0,0,0,0,0,0,0,0,0,0,0,0,0,0,
0,0,0,0,0,0,0,0,0,0,0,0,0,0,0,0,
0,0,0,0,0,0,0,0,0,0,0,0,0,0,0,0,
0,0,0,0,0,0,0,0,0,0,0,0,0,0,0,0,
0,0,0,0,0,0,0,0,0,0,0,0,0,0,0,0,
0,0,0,0,0,0,0,0,0,0,0,0,0,0,0,0,
0,0,0,0,0,0,0,0,0,0,0,0,0,0,0,0,
0,0,0,0,0,0,0,0,0,0,0,0,0,0,0,0,
0,0,0,0,0,0,0,0,0,0,0,0,0,0,0,0,
0,0,0,0,0,0,0,0,0,0,0,0,0,0,0,0,
0,106,0,0,0,0,0,0,0,0,0,0,0,0,0,0,
0,0,0,0,0,0,0,0,0,0,0,0,0,0,0,0,
0,0,0,0,0,0,0,0,0,0,0,0,0,0,0,0,
0,0,0,0,0,0,0,0,0,0,0,0,0,0,0,0
</chunk>
   <chunk x="32" y="-256" width="16" height="16">
0,0,0,0,0,0,89,89,90,0,0,0,0,0,0,0,
0,0,0,0,0,0,0,0,0,0,0,0,0,106,0,0,
0,0,0,0,0,0,0,0,0,0,0,0,0,0,0,0,
0,0,0,0,0,0,0,0,0,0,0,0,0,0,0,0,
0,0,0,0,0,0,0,0,0,0,0,0,0,0,0,0,
0,0,0,0,0,0,0,0,0,0,0,0,0,0,0,0,
0,0,0,0,0,0,0,0,0,0,0,0,0,0,0,0,
0,0,0,0,0,0,0,0,0,0,0,0,0,0,0,0,
0,0,0,0,0,0,0,0,0,0,0,0,0,0,0,0,
0,0,0,0,0,0,0,0,0,0,0,0,0,0,0,0,
0,0,0,0,0,0,0,0,0,0,0,0,0,0,0,0,
0,0,0,0,0,0,0,0,0,0,0,0,0,0,0,0,
0,0,0,0,0,0,0,0,0,0,0,0,0,0,0,0,
0,0,0,0,0,0,0,0,0,0,0,0,0,0,0,0,
0,0,0,0,0,0,0,0,0,0,0,0,0,0,0,0,
0,0,0,0,0,0,0,0,0,0,0,0,0,0,0,0
</chunk>
   <chunk x="48" y="-256" width="16" height="16">
0,0,0,0,0,0,88,89,89,0,0,0,0,0,0,0,
0,106,0,0,0,0,0,0,0,0,0,0,0,0,0,0,
0,0,0,0,0,0,0,0,0,0,0,0,0,0,0,0,
0,0,0,0,0,0,0,0,0,0,0,0,0,0,0,0,
0,0,0,0,0,0,0,0,0,0,0,0,0,0,0,0,
0,0,0,0,0,0,0,0,0,0,0,0,0,0,0,0,
0,0,0,0,0,0,0,0,0,0,0,0,0,0,0,0,
0,0,0,0,0,0,0,0,0,0,0,0,0,0,0,0,
0,0,0,0,0,0,0,0,0,0,0,0,0,0,0,0,
0,0,0,0,0,0,0,0,0,0,0,0,0,0,0,0,
0,0,0,0,0,0,0,0,0,0,0,0,0,0,0,0,
0,0,0,0,0,0,0,0,0,0,0,0,0,0,0,0,
0,0,0,0,0,0,0,0,0,0,0,0,0,0,0,0,
0,0,0,0,0,106,0,0,0,0,0,0,0,0,0,0,
0,0,0,0,0,0,106,0,0,0,0,0,0,0,0,0,
0,0,0,0,0,0,0,0,0,0,0,0,0,0,0,0
</chunk>
   <chunk x="32" y="-240" width="16" height="16">
0,0,0,0,0,0,0,0,0,0,0,0,0,0,0,0,
0,0,0,0,0,0,0,0,0,0,0,0,0,0,0,0,
0,0,0,0,0,0,0,106,0,0,0,0,0,0,0,0,
0,0,0,0,0,0,0,0,106,0,0,0,0,0,0,0,
0,0,0,0,0,0,0,0,0,0,0,0,0,0,0,0,
0,0,0,0,0,0,0,0,0,0,0,0,0,0,0,0,
0,0,0,0,0,0,0,0,0,0,0,0,0,0,0,0,
0,0,0,0,0,0,0,0,0,0,0,0,0,0,0,0,
0,0,0,0,0,0,0,0,0,0,0,0,0,0,0,0,
0,0,0,0,0,0,0,0,0,0,0,0,0,0,0,0,
0,0,0,0,0,0,0,0,0,0,0,0,0,0,0,0,
0,0,0,0,0,0,0,0,0,0,0,0,0,88,89,89,
0,0,0,0,0,0,0,0,0,0,0,0,0,0,0,0,
0,0,0,0,0,0,0,0,0,0,0,0,0,0,0,0,
0,0,0,0,0,0,0,0,0,0,0,0,0,0,0,0,
0,0,0,0,0,0,0,0,0,0,0,0,0,0,88,89
</chunk>
   <chunk x="48" y="-240" width="16" height="16">
0,0,0,0,0,0,0,0,0,0,0,0,0,0,0,0,
0,0,0,0,0,0,0,0,0,0,0,0,0,0,0,0,
0,0,0,0,0,0,0,0,0,0,0,0,0,0,0,0,
0,0,0,0,0,0,0,0,0,0,0,0,0,0,0,0,
0,0,0,0,0,0,0,0,0,0,0,0,0,0,0,0,
0,0,0,0,0,0,0,0,0,0,0,0,0,0,0,0,
0,0,0,0,0,0,0,0,0,0,0,0,0,0,0,0,
0,0,0,0,0,0,0,0,0,0,0,0,0,0,0,0,
0,0,0,0,0,0,0,0,0,0,0,0,0,0,0,0,
0,0,0,0,0,0,0,0,0,0,0,0,0,0,0,0,
0,0,0,0,0,0,0,0,0,0,0,0,0,0,0,0,
90,0,0,0,0,0,0,0,0,0,0,0,0,0,0,0,
0,0,0,0,0,0,0,0,0,0,0,0,0,0,0,0,
0,0,0,0,0,0,0,0,0,0,0,0,0,0,0,0,
0,0,0,0,0,0,0,0,0,0,0,0,0,0,0,0,
89,90,0,0,0,0,0,0,0,0,0,0,0,0,0,0
</chunk>
   <chunk x="32" y="-224" width="16" height="16">
0,0,0,0,0,0,0,0,0,0,0,0,0,0,0,0,
0,0,0,0,0,0,0,0,0,0,0,0,0,0,0,0,
0,0,0,0,0,0,0,88,89,90,0,0,0,0,0,0,
0,0,0,0,0,0,0,0,0,0,0,0,0,0,0,0,
0,0,0,0,0,0,0,0,0,0,0,0,0,0,0,0,
0,0,0,0,0,0,0,0,0,0,0,0,0,0,0,0,
0,0,0,0,0,0,0,0,0,0,0,0,0,0,0,0,
0,0,0,0,0,0,0,0,0,0,0,0,0,0,0,0,
0,0,0,0,0,0,0,0,0,0,0,0,0,0,0,0,
0,0,0,0,0,0,0,0,0,0,0,0,0,0,0,0,
0,0,0,0,0,0,0,0,0,0,0,0,0,0,0,0,
0,0,0,0,0,0,0,0,0,0,0,0,0,0,0,0,
0,0,0,0,0,0,0,0,0,0,0,0,0,0,0,0,
0,0,0,0,0,0,0,0,0,0,0,0,0,0,0,0,
0,0,0,0,0,0,0,0,0,0,0,0,0,0,0,0,
0,0,0,0,0,0,0,0,0,0,0,0,0,0,0,0
</chunk>
   <chunk x="48" y="-224" width="16" height="16">
0,0,0,0,0,0,0,0,0,0,0,0,0,0,0,0,
0,0,0,0,106,0,0,0,0,0,0,0,0,0,0,0,
0,0,0,0,0,88,90,0,0,0,0,0,0,0,0,0,
0,0,0,0,0,0,0,0,0,0,0,0,0,0,0,0,
0,0,0,0,0,0,0,0,0,0,0,0,0,0,0,0,
0,0,0,0,0,0,0,0,0,0,0,0,0,0,0,0,
0,0,0,0,0,0,0,0,0,0,0,0,0,0,0,0,
0,0,0,0,0,0,0,0,0,0,0,0,0,0,0,0,
0,0,0,0,0,0,0,0,0,0,0,0,0,0,0,0,
0,0,0,0,0,0,0,0,0,0,0,0,0,0,0,0,
0,0,0,0,0,0,0,0,0,0,0,0,0,0,0,0,
0,0,0,0,0,0,0,0,0,0,0,0,0,0,0,0,
0,0,0,0,0,0,0,0,0,0,0,0,0,0,0,0,
0,0,0,0,0,106,0,106,0,0,0,0,0,0,0,0,
0,0,0,0,0,0,106,0,0,0,0,0,0,0,0,0,
0,0,0,0,0,0,0,0,0,0,0,0,0,0,0,0
</chunk>
   <chunk x="32" y="-208" width="16" height="16">
0,0,0,0,0,0,0,0,0,0,0,0,0,0,0,0,
0,0,0,0,0,0,0,0,0,0,0,0,0,0,0,0,
0,0,0,0,0,0,0,0,0,0,0,0,0,0,0,0,
0,0,0,0,0,0,89,89,90,0,0,0,0,0,0,0,
0,0,0,0,0,0,0,0,0,0,0,0,0,0,0,0,
0,0,0,0,0,0,0,0,0,0,0,0,0,0,0,0,
0,0,0,0,0,0,0,0,0,0,0,0,0,0,0,0,
0,0,0,0,0,0,0,0,0,0,0,0,0,0,0,0,
0,0,0,0,0,0,0,0,0,0,0,0,0,0,0,0,
0,0,0,0,0,0,0,0,0,0,0,0,0,0,0,0,
0,0,0,0,0,0,0,0,0,0,0,0,0,0,0,0,
0,0,0,0,0,0,0,0,0,0,0,0,0,0,0,0,
0,0,0,0,0,0,0,0,0,0,0,0,0,0,0,106,
0,0,0,0,0,0,0,0,0,0,0,0,0,0,106,0,
0,0,0,0,0,0,0,0,0,0,0,0,0,0,0,0,
0,0,0,0,0,0,0,0,0,0,0,0,0,88,90,0
</chunk>
   <chunk x="48" y="-208" width="16" height="16">
0,0,0,0,0,0,0,0,0,0,0,0,0,0,0,0,
0,0,0,0,0,0,0,0,0,0,0,0,0,0,0,0,
0,0,0,0,0,0,0,0,0,0,0,0,0,0,0,0,
0,0,0,0,0,0,0,0,0,0,0,0,0,0,0,0,
0,0,0,0,0,0,0,0,0,0,0,0,0,0,0,0,
0,0,0,0,0,0,0,0,0,0,0,0,0,0,0,0,
0,0,0,0,0,0,0,0,0,0,0,0,0,0,0,0,
0,0,0,0,0,0,0,0,0,0,0,0,0,0,0,0,
0,0,0,0,0,0,0,0,0,0,0,0,0,0,0,0,
0,0,0,0,0,0,0,0,0,0,0,0,0,0,0,0,
0,106,0,0,106,0,106,0,0,0,0,0,0,0,0,0,
106,0,0,0,0,106,0,0,0,0,0,0,0,0,0,0,
0,0,0,0,0,0,0,0,0,0,0,0,0,0,0,0,
0,0,0,0,0,0,0,0,0,0,0,0,0,0,0,0,
0,0,0,0,0,0,0,0,0,0,0,0,0,0,0,0,
0,0,106,0,0,0,0,0,0,0,0,0,0,0,0,0
</chunk>
   <chunk x="32" y="-192" width="16" height="16">
0,0,0,0,0,0,0,0,0,0,0,0,0,0,0,0,
0,0,0,0,0,0,0,106,0,0,0,0,0,0,0,0,
0,0,0,0,0,0,0,0,106,0,0,0,0,0,0,0,
0,0,0,0,0,0,0,0,0,0,0,0,0,0,0,0,
0,0,0,0,0,0,0,0,0,0,0,0,0,0,0,0,
0,0,0,0,0,0,0,0,0,0,0,0,0,0,0,0,
0,0,0,0,0,0,0,0,0,0,0,0,0,0,0,0,
0,0,0,0,0,0,0,0,0,0,0,0,0,0,0,0,
0,0,0,0,0,0,0,0,0,0,0,0,0,0,0,0,
0,0,0,0,0,0,0,0,0,0,0,0,0,0,0,0,
0,0,0,0,0,0,0,0,0,0,0,0,0,0,0,0,
0,0,0,0,0,0,0,0,0,0,0,0,106,0,0,0,
0,0,0,0,0,0,0,0,0,0,0,0,0,0,0,0,
0,0,0,0,0,0,0,0,0,0,0,0,0,0,0,0,
0,0,0,0,0,0,0,0,0,0,0,0,0,0,0,0,
0,0,0,0,0,0,0,0,0,0,0,0,0,0,0,0
</chunk>
   <chunk x="48" y="-192" width="16" height="16">
0,0,0,0,0,0,0,0,0,0,0,0,0,0,0,0,
0,0,0,0,0,0,0,0,0,0,0,0,0,0,0,0,
0,0,0,0,0,0,0,0,0,0,0,0,0,0,0,0,
0,0,0,0,0,0,0,0,0,0,0,0,0,0,0,0,
0,0,0,0,0,0,0,0,0,0,0,0,0,0,0,0,
0,0,0,0,0,0,0,0,0,0,0,0,0,0,0,0,
0,0,0,0,0,0,0,0,0,0,0,0,0,0,0,0,
0,0,0,0,0,0,0,0,0,0,0,0,0,0,0,0,
0,0,0,0,0,0,0,0,0,0,0,0,0,0,0,0,
0,0,0,0,0,0,0,106,0,0,0,0,0,0,0,0,
0,0,0,0,0,0,106,0,0,0,0,0,0,0,0,0,
0,0,106,0,0,0,0,0,0,0,0,0,0,0,0,0,
0,0,0,0,0,0,0,0,0,0,0,0,0,0,0,0,
0,0,0,0,0,0,0,0,0,0,0,0,0,0,0,0,
0,0,0,0,0,0,0,0,0,0,0,0,0,0,0,0,
0,0,0,0,0,0,0,0,0,0,0,0,0,0,0,0
</chunk>
   <chunk x="32" y="-176" width="16" height="16">
0,0,0,0,0,0,0,0,0,0,0,0,0,0,0,0,
0,0,0,0,0,0,0,0,0,0,0,0,0,0,0,0,
0,0,0,0,0,0,0,0,106,0,0,0,0,0,0,0,
0,0,0,0,0,0,0,0,0,106,0,0,0,0,0,0,
0,0,0,0,0,0,0,0,0,0,0,0,0,0,0,0,
0,0,0,0,0,0,0,0,0,0,0,0,0,0,0,0,
0,0,0,0,0,0,0,0,0,0,0,0,0,0,0,0,
0,0,0,0,0,0,0,0,0,0,0,0,0,0,0,0,
0,0,0,0,0,0,0,0,0,0,0,0,0,0,0,0,
0,0,0,0,0,0,0,0,0,0,0,0,0,0,0,0,
0,0,0,0,0,0,0,0,0,0,0,0,0,0,0,0,
0,0,0,0,0,0,0,0,0,0,0,0,0,0,0,0,
0,0,0,0,0,0,0,0,0,0,0,0,0,0,0,0,
0,0,0,0,0,0,0,0,0,0,0,106,0,0,0,0,
0,0,0,0,0,0,0,0,0,0,0,0,0,0,0,0,
0,0,0,0,0,0,0,0,0,0,0,0,0,0,0,0
</chunk>
   <chunk x="48" y="-176" width="16" height="16">
0,0,0,0,0,0,0,0,0,0,0,0,0,0,0,0,
0,0,0,0,0,0,0,0,0,0,0,0,0,0,0,0,
0,0,0,0,0,0,0,0,0,0,0,0,0,0,0,0,
0,0,0,0,0,0,0,0,0,0,0,0,0,0,0,0,
0,0,0,0,0,0,0,0,0,0,0,0,0,0,0,0,
0,0,0,0,0,0,0,0,0,0,0,0,0,0,0,0,
0,0,0,0,0,0,0,0,0,0,0,0,0,0,0,0,
0,0,0,0,0,0,0,0,0,0,0,0,0,0,0,0,
0,0,0,0,0,0,0,0,0,0,0,0,0,0,0,0,
0,0,0,0,88,89,90,0,0,0,0,0,0,0,0,0,
0,0,0,0,0,0,0,0,0,0,0,0,0,0,0,0,
0,0,0,0,0,0,0,0,0,0,0,0,0,0,0,0,
0,0,0,0,0,0,0,0,0,0,0,0,0,0,0,0,
0,0,0,0,0,0,0,0,0,0,0,0,0,0,0,0,
0,0,0,0,0,0,0,0,0,0,0,0,0,0,0,0,
0,0,0,0,0,0,0,0,0,0,0,0,0,0,0,0
</chunk>
   <chunk x="48" y="-160" width="16" height="16">
0,0,0,0,0,0,0,0,0,0,0,0,0,0,0,0,
0,0,0,0,0,0,0,0,0,0,0,0,0,0,0,0,
0,0,0,0,0,0,0,0,0,0,0,0,0,0,0,0,
0,0,0,0,0,0,0,0,0,0,0,0,0,0,0,0,
0,0,88,90,0,0,0,0,0,0,0,0,0,0,0,0,
0,0,0,0,0,0,0,0,0,0,0,0,0,0,0,0,
0,0,0,0,0,0,0,0,0,0,0,0,0,0,0,0,
0,0,0,0,0,0,0,0,0,0,0,0,0,0,0,0,
0,0,0,0,0,0,0,0,0,0,0,0,0,0,0,0,
0,0,0,0,88,90,0,0,0,0,0,0,0,0,0,0,
0,0,0,0,0,0,0,0,0,0,0,0,0,0,0,0,
0,0,0,0,0,0,0,0,0,0,0,0,0,0,0,0,
0,0,0,0,0,0,0,0,0,0,0,0,0,0,0,0,
0,0,0,0,0,0,0,0,0,0,0,0,0,0,0,0,
0,0,0,0,0,0,0,0,0,0,0,0,0,0,0,0,
0,0,0,0,0,0,0,0,0,0,0,0,0,0,0,0
</chunk>
   <chunk x="32" y="-144" width="16" height="16">
0,0,0,0,0,0,0,0,0,0,0,0,0,0,0,0,
0,0,0,0,0,0,0,0,0,0,0,0,0,0,0,0,
0,0,0,0,0,0,0,0,0,0,0,0,0,0,0,0,
0,0,0,0,0,0,0,0,0,0,0,0,0,0,0,0,
0,0,0,0,0,0,0,0,0,0,0,0,0,0,0,0,
0,0,0,0,0,0,89,89,90,0,0,0,0,0,0,0,
0,0,0,0,0,0,0,0,0,0,0,0,0,0,0,0,
0,0,0,0,0,0,0,0,0,0,0,0,0,0,0,0,
0,0,0,0,0,0,0,0,0,0,0,0,0,0,0,0,
0,0,0,0,0,0,0,0,0,0,0,0,0,0,0,0,
0,0,0,0,0,0,0,0,0,0,0,0,0,0,0,0,
0,0,0,0,0,0,0,0,0,0,0,0,0,0,0,0,
0,0,0,0,0,0,0,0,0,0,0,0,0,0,0,0,
0,0,0,0,0,0,0,0,0,0,0,0,0,0,0,0,
0,0,0,0,0,0,0,0,0,0,0,0,0,0,0,0,
0,0,0,0,0,0,0,0,0,0,0,0,0,0,0,0
</chunk>
   <chunk x="48" y="-144" width="16" height="16">
0,0,0,0,0,0,0,0,0,0,0,0,0,0,0,0,
0,0,0,0,0,0,0,0,0,0,0,0,0,0,0,0,
0,0,0,0,0,0,0,0,0,0,0,0,0,0,0,0,
0,0,0,0,0,0,0,0,0,0,0,0,0,0,0,0,
0,0,0,0,0,106,0,106,0,0,0,0,0,0,0,0,
0,0,0,0,0,0,106,0,0,0,0,0,0,0,0,0,
0,0,0,0,0,0,0,0,0,0,0,0,0,0,0,0,
0,0,0,0,0,0,0,0,0,0,0,0,0,0,0,0,
0,0,0,0,0,0,0,0,0,0,0,0,0,0,0,0,
0,0,0,0,0,0,0,0,0,0,0,0,0,0,0,0,
0,0,0,0,0,0,0,0,0,0,0,0,0,0,0,0,
0,0,0,0,0,0,0,0,0,0,0,0,0,0,0,0,
0,0,0,0,0,0,0,0,0,0,0,0,0,0,0,0,
0,0,0,0,0,0,0,0,0,0,0,0,0,0,0,0,
0,0,0,0,0,0,0,0,0,0,0,0,0,0,0,0,
0,0,0,0,0,88,89,89,0,0,0,0,0,0,0,0
</chunk>
   <chunk x="32" y="-128" width="16" height="16">
0,0,0,0,0,0,0,0,0,0,0,0,0,0,0,0,
0,0,0,0,0,0,0,0,0,0,0,0,0,0,0,0,
0,0,0,0,0,0,0,0,0,0,0,0,0,0,0,0,
0,0,0,0,0,0,0,106,0,106,0,0,0,0,0,0,
0,0,0,0,0,0,0,0,106,0,0,0,0,0,0,0,
0,0,0,0,0,0,0,0,0,0,0,0,0,0,0,0,
0,0,0,0,0,0,0,0,0,0,0,0,0,0,0,0,
0,0,0,0,0,0,0,0,0,0,0,0,0,0,0,0,
0,0,0,0,0,0,0,0,0,0,0,0,0,0,0,0,
0,0,0,0,0,0,0,0,0,0,0,0,0,0,0,0,
0,0,0,0,0,0,0,0,0,0,0,0,0,0,0,0,
0,0,0,0,0,0,0,0,0,0,0,0,0,0,0,0,
0,0,0,0,0,0,0,0,0,0,0,0,0,0,0,0,
0,0,0,0,0,0,0,0,0,0,0,0,0,0,0,0,
0,0,0,0,0,0,0,0,0,0,0,0,0,0,0,0,
0,0,0,0,0,0,0,0,0,0,0,0,0,0,0,0
</chunk>
   <chunk x="48" y="-128" width="16" height="16">
0,0,0,0,0,0,0,0,0,0,0,0,0,0,0,0,
0,0,0,0,0,0,0,0,0,0,0,0,0,0,0,0,
0,0,0,0,0,0,0,0,0,0,0,0,0,0,0,0,
0,0,0,0,0,0,0,0,0,0,0,0,0,0,0,0,
0,0,0,0,0,0,0,0,0,0,0,0,0,0,0,0,
0,0,0,0,0,0,0,0,0,0,0,0,0,0,0,0,
0,0,0,0,0,0,0,0,0,0,0,0,0,0,0,0,
0,0,0,0,0,0,0,0,0,0,0,0,0,0,0,0,
0,0,0,0,0,0,0,0,0,0,0,0,0,0,0,0,
0,0,0,0,0,0,0,0,0,0,0,0,0,0,0,0,
0,0,0,0,0,106,0,106,0,0,0,0,0,0,0,0,
0,0,0,0,0,0,106,0,0,0,0,0,0,0,0,0,
0,0,0,0,0,0,0,0,0,0,0,0,0,0,0,0,
0,0,0,0,0,0,0,0,0,0,0,0,0,0,0,0,
0,0,0,0,0,0,0,0,0,0,0,0,0,0,0,0,
0,0,0,0,0,0,0,0,0,0,0,0,0,0,0,0
</chunk>
   <chunk x="32" y="-112" width="16" height="16">
0,0,0,0,0,0,0,0,0,0,0,0,0,0,0,0,
0,0,0,0,0,0,0,0,0,0,0,0,0,0,0,0,
0,0,0,0,0,0,0,0,0,0,0,0,0,0,0,0,
0,0,0,0,0,0,0,0,0,0,0,0,0,0,0,0,
0,0,0,0,0,0,0,0,0,0,0,0,0,0,0,0,
0,0,0,0,0,0,0,0,0,0,0,0,0,0,0,0,
0,0,0,0,0,0,0,0,0,0,0,0,0,0,0,0,
0,0,0,0,0,0,0,0,0,0,0,0,0,0,0,0,
0,0,0,0,0,0,0,0,0,0,0,0,0,0,0,0,
0,0,0,0,0,0,0,0,0,0,0,0,0,0,0,0,
0,0,0,0,0,0,0,0,0,0,0,0,0,0,0,0,
0,0,0,0,0,0,0,0,0,0,0,0,0,0,0,0,
0,0,0,0,0,0,0,0,0,0,0,0,0,0,0,0,
0,0,0,0,0,0,0,0,0,0,0,0,0,0,0,0,
0,0,0,0,0,0,0,0,0,0,0,0,0,0,0,0,
0,0,0,0,0,0,106,0,106,0,0,0,0,0,0,0
</chunk>
   <chunk x="48" y="-112" width="16" height="16">
0,0,0,0,0,0,0,0,0,0,0,0,0,0,0,0,
0,0,0,0,0,0,0,0,0,0,0,0,0,0,0,0,
0,0,0,0,0,0,0,0,0,0,0,0,0,0,0,0,
0,0,0,0,0,0,0,0,0,0,0,0,0,0,0,0,
0,0,0,0,0,0,0,0,0,0,0,0,0,0,0,0,
0,0,0,0,0,0,0,0,0,0,0,0,0,0,0,0,
0,0,0,0,0,0,0,0,0,0,0,0,0,0,0,0,
0,0,0,0,0,0,0,0,0,0,0,0,0,0,0,0,
0,0,0,0,0,0,0,0,0,0,0,0,0,0,0,0,
0,0,0,0,0,0,0,0,0,0,0,0,0,0,0,0,
0,0,0,0,0,0,0,0,0,0,0,0,0,0,0,0,
0,0,0,0,0,0,0,0,0,0,0,0,0,0,0,0,
0,0,0,0,0,0,0,0,0,0,0,0,0,0,0,0,
0,0,0,0,0,106,0,106,0,0,0,0,0,0,0,0,
0,0,0,0,0,0,106,0,0,0,0,0,0,0,0,0,
0,0,0,0,0,0,0,0,0,0,0,0,0,0,0,0
</chunk>
   <chunk x="32" y="-96" width="16" height="16">
0,0,0,0,0,0,0,106,0,0,0,0,0,0,0,0,
0,0,0,0,0,0,0,0,0,0,0,0,0,0,0,0,
0,0,0,0,0,0,0,0,0,0,0,0,0,0,0,0,
0,0,0,0,0,0,0,0,0,0,0,0,0,0,0,0,
0,0,0,0,0,0,0,0,0,0,0,0,0,0,0,0,
0,0,0,0,0,0,0,0,0,0,0,0,0,0,0,0,
0,0,0,0,0,0,0,0,0,0,0,0,0,0,0,0,
0,0,0,0,0,0,0,0,0,0,0,0,0,0,0,0,
0,0,0,0,0,0,0,0,0,0,0,0,0,0,0,0,
0,0,0,0,0,0,0,0,0,0,0,0,0,0,0,0,
0,0,0,0,0,0,0,0,0,0,0,106,0,0,0,0,
0,0,0,0,0,0,0,0,0,0,0,0,0,0,0,0,
0,0,0,0,0,0,0,0,0,0,0,0,0,0,0,0,
0,0,0,0,0,0,0,0,0,0,0,0,0,0,0,0,
0,0,0,0,0,0,0,0,0,0,0,0,0,0,0,0,
0,0,0,0,0,0,0,0,0,0,0,0,0,0,0,0
</chunk>
   <chunk x="48" y="-96" width="16" height="16">
0,0,0,0,0,0,0,0,0,0,0,0,0,0,0,0,
0,0,0,0,0,0,0,0,0,0,0,0,0,0,0,0,
0,0,0,0,0,0,0,0,0,0,0,0,0,0,0,0,
0,0,0,0,0,0,0,0,0,0,0,0,0,0,0,0,
0,0,0,0,0,0,0,0,0,0,0,0,0,0,0,0,
0,0,0,0,0,0,0,0,0,0,0,0,0,0,0,0,
0,0,0,0,0,0,0,0,0,0,0,0,0,0,0,0,
0,0,0,106,0,0,0,0,0,0,0,0,0,0,0,0,
0,0,0,0,0,0,0,0,0,0,0,0,0,0,0,0,
0,0,0,0,0,0,0,0,0,0,0,0,0,0,0,0,
0,0,0,0,0,0,0,0,0,0,0,0,0,0,0,0,
0,0,0,0,0,0,0,0,0,0,0,0,0,0,0,0,
0,0,0,0,0,0,0,0,0,0,0,0,0,0,0,0,
0,0,0,106,0,0,0,0,0,0,0,0,0,0,0,0,
0,0,0,0,0,0,0,0,0,0,0,0,0,0,0,0,
0,0,0,0,0,0,0,0,0,0,0,0,0,0,0,0
</chunk>
   <chunk x="32" y="-80" width="16" height="16">
0,0,0,0,0,0,0,0,0,0,0,106,0,0,0,0,
0,0,0,0,0,0,0,0,0,0,0,0,0,0,0,0,
0,0,0,0,0,0,0,0,0,0,0,0,0,0,0,0,
0,0,0,0,0,0,0,0,0,0,0,0,0,0,0,0,
0,0,0,0,0,0,0,0,0,0,0,0,0,0,0,0,
0,0,0,0,0,0,0,0,0,0,0,0,0,0,0,0,
0,0,0,0,0,0,0,0,0,0,0,106,0,0,0,0,
0,0,0,0,0,0,0,0,0,0,0,0,0,0,0,0,
0,0,0,0,0,0,0,0,0,0,0,0,0,0,0,0,
0,0,0,0,0,0,0,0,0,0,0,0,0,0,0,0,
0,0,0,0,0,0,0,0,0,0,0,0,0,0,0,0,
0,0,0,0,0,0,0,0,0,0,0,0,0,0,0,0,
0,0,0,0,0,0,0,0,0,0,0,0,0,0,0,0,
0,0,0,0,0,0,0,0,0,0,0,0,0,0,0,0,
0,0,0,0,0,0,0,0,106,0,106,0,0,0,0,0,
0,0,0,0,0,0,0,0,0,106,0,0,0,0,0,0
</chunk>
   <chunk x="48" y="-80" width="16" height="16">
0,0,0,0,0,0,0,0,0,0,0,0,0,0,0,0,
0,0,0,0,0,0,0,0,0,0,0,0,0,0,0,0,
0,0,0,0,0,106,0,0,0,0,0,0,0,0,0,0,
0,0,0,0,0,0,88,90,0,0,0,0,0,0,0,0,
0,0,0,0,0,0,0,0,0,0,0,0,0,0,0,0,
0,0,0,0,0,0,0,0,0,0,0,0,0,0,0,0,
0,0,0,0,0,0,0,0,0,0,0,0,0,0,0,0,
0,0,0,0,0,0,0,0,0,0,0,0,0,0,0,0,
0,0,0,0,0,0,0,0,0,0,0,0,0,0,0,0,
0,0,0,106,0,0,0,0,0,0,0,0,0,0,0,0,
0,0,0,0,0,0,0,0,0,0,0,0,0,0,0,0,
0,0,0,0,0,0,0,0,0,0,0,0,0,0,0,0,
0,0,0,0,0,0,0,0,0,0,0,0,0,0,0,0,
0,0,0,0,0,0,0,0,0,0,0,0,0,0,0,0,
0,0,0,0,0,0,0,0,0,0,0,0,0,0,0,0,
0,0,0,0,0,0,0,0,0,0,0,0,0,0,0,0
</chunk>
   <chunk x="32" y="-64" width="16" height="16">
0,0,0,0,0,0,0,0,0,0,0,0,0,0,0,0,
0,0,0,0,0,0,0,0,0,0,0,0,0,0,0,0,
0,0,0,0,0,0,0,0,0,0,0,0,0,0,0,0,
0,0,0,0,0,0,0,0,0,0,0,0,0,0,0,0,
0,0,0,0,0,0,0,0,0,0,0,0,0,0,0,0,
0,0,0,0,0,0,0,0,0,0,0,0,0,0,0,0,
0,0,0,0,0,0,0,0,0,0,0,0,0,0,0,0,
0,0,0,0,0,0,0,0,0,0,0,0,0,0,0,0,
0,0,0,0,0,0,0,0,0,0,0,0,0,0,0,0,
0,0,0,0,0,0,0,0,0,0,0,0,0,0,0,0,
0,0,0,0,0,0,0,0,0,0,0,0,0,0,0,0,
0,0,0,0,0,0,0,0,0,0,0,0,0,0,0,0,
0,0,0,0,0,0,0,0,0,0,0,0,0,0,0,0,
0,0,0,0,0,0,0,0,0,0,0,0,0,0,0,0,
0,0,0,0,0,0,0,106,0,0,0,0,0,0,0,0,
0,0,0,0,0,0,0,0,88,90,0,0,0,0,0,0
</chunk>
   <chunk x="48" y="-64" width="16" height="16">
0,0,0,0,0,0,0,0,0,0,0,0,0,0,0,0,
0,0,0,0,0,0,0,0,0,0,0,0,0,0,0,0,
0,0,0,0,0,0,0,0,0,0,0,0,0,0,0,0,
0,0,0,0,0,0,0,0,0,0,0,0,0,0,0,0,
0,0,0,0,0,0,0,0,0,0,0,0,0,0,0,0,
0,0,0,0,0,0,0,0,0,0,0,0,0,0,0,0,
0,0,0,0,0,0,0,0,0,0,0,0,0,0,0,0,
0,0,0,0,0,0,0,0,0,0,0,0,0,0,0,0,
0,0,0,0,0,0,0,0,0,0,0,0,0,0,0,0,
0,0,0,0,0,0,0,0,0,0,0,0,0,0,0,0,
0,0,0,0,0,0,0,0,0,0,0,0,0,0,0,0,
0,0,0,0,0,0,0,0,0,0,0,0,0,0,0,0,
0,0,0,0,0,88,89,89,0,0,0,0,0,0,0,0,
0,0,0,0,0,0,0,0,0,0,0,0,0,0,0,0,
0,0,0,0,0,0,0,0,0,0,0,0,0,0,0,0,
0,0,0,0,0,0,0,0,0,0,0,0,0,0,0,0
</chunk>
   <chunk x="48" y="-48" width="16" height="16">
0,0,0,0,0,0,0,0,0,0,0,0,0,0,0,0,
0,0,0,0,0,0,0,0,0,0,0,0,0,0,0,0,
0,0,0,0,0,0,0,0,0,0,0,0,0,0,0,0,
0,0,0,0,0,0,0,0,0,0,0,0,0,0,0,0,
0,0,0,0,0,0,0,0,0,0,0,0,0,0,0,0,
0,0,0,0,0,0,0,0,0,0,0,0,0,0,0,0,
0,0,0,0,0,0,0,0,0,0,0,0,0,0,0,0,
0,0,0,0,0,0,0,0,0,0,0,0,0,0,0,0,
0,0,0,0,0,0,0,0,0,0,0,0,0,0,0,0,
0,0,0,0,0,0,0,0,0,0,0,0,0,0,0,0,
0,0,0,0,88,90,0,0,0,0,0,0,0,0,0,0,
0,0,0,0,0,0,88,90,0,0,0,0,0,0,0,0,
0,0,0,0,0,0,0,0,0,0,0,0,0,0,0,0,
0,0,0,0,0,0,0,0,0,0,0,0,0,0,0,0,
0,0,0,0,0,0,0,0,0,0,0,0,0,0,0,0,
0,0,0,0,0,0,0,0,0,0,0,0,0,0,0,0
</chunk>
   <chunk x="32" y="-32" width="16" height="16">
0,0,0,0,0,0,0,0,0,0,0,0,0,0,0,0,
0,0,0,0,0,0,0,0,0,0,0,0,0,0,0,0,
0,0,0,0,0,0,0,0,0,0,0,0,0,0,0,0,
0,0,0,0,0,0,89,89,90,0,0,0,0,0,0,0,
0,0,0,0,0,0,0,0,0,0,0,0,0,0,0,0,
0,0,0,0,0,0,0,0,0,0,0,0,0,0,0,0,
0,0,0,0,0,0,0,0,0,0,0,0,0,0,0,0,
0,0,0,0,0,0,0,0,0,0,0,0,0,0,0,0,
0,0,0,0,0,0,0,0,0,0,0,0,0,0,0,0,
0,0,0,0,0,0,0,0,0,0,0,0,0,0,0,0,
0,0,0,0,0,0,0,0,0,0,0,0,0,0,0,0,
0,0,0,0,0,0,0,0,0,0,0,0,0,0,0,0,
0,0,0,0,0,0,0,0,0,0,0,0,0,0,0,0,
0,0,0,0,0,0,0,0,0,0,0,0,0,0,0,0,
0,0,0,0,0,0,0,0,0,0,0,0,0,0,0,0,
0,0,0,0,0,0,0,0,0,0,0,0,0,0,0,0
</chunk>
   <chunk x="48" y="-32" width="16" height="16">
0,0,0,0,0,0,0,0,0,0,0,0,0,0,0,0,
0,0,0,0,0,0,0,0,0,0,0,0,0,0,0,0,
0,0,0,0,0,0,0,0,0,0,0,0,0,0,0,0,
0,0,0,0,0,0,0,0,0,0,0,0,0,0,0,0,
0,0,0,0,0,0,0,0,0,0,0,0,0,0,0,0,
0,0,0,0,0,0,0,0,0,0,0,0,0,0,0,0,
0,0,0,0,0,0,0,0,0,0,0,0,0,0,0,0,
0,0,0,0,88,90,0,0,0,0,0,0,0,0,0,0,
0,0,0,0,0,0,88,90,0,0,0,0,0,0,0,0,
0,0,0,0,0,0,0,0,0,0,0,0,0,0,0,0,
0,0,0,0,0,0,0,0,0,0,0,0,0,0,0,0,
0,0,0,0,0,0,0,0,0,0,0,0,0,0,0,0,
0,0,0,0,0,0,0,0,0,0,0,0,0,0,0,0,
0,0,0,0,0,0,0,0,0,0,0,0,0,0,0,0,
0,0,0,0,0,0,0,0,0,0,0,0,0,0,0,0,
0,0,0,0,0,0,0,0,0,0,0,0,0,0,0,0
</chunk>
   <chunk x="48" y="-16" width="16" height="16">
0,0,0,0,0,0,0,0,0,0,0,0,0,0,0,0,
0,0,0,0,0,0,0,0,0,0,0,0,0,0,0,0,
0,0,0,0,0,0,0,0,0,0,0,0,0,0,0,0,
0,0,0,0,0,0,0,0,0,0,0,0,0,0,0,0,
0,0,0,0,0,0,0,0,0,0,0,0,0,0,0,0,
0,0,0,0,0,0,0,0,0,0,0,0,0,0,0,0,
0,0,0,0,0,0,0,0,0,0,0,0,0,0,0,0,
0,0,0,0,0,0,0,0,0,0,0,0,0,0,0,0,
0,0,0,0,0,0,0,0,0,0,0,0,0,0,0,0,
0,0,0,0,0,0,0,0,106,0,0,0,0,0,0,0,
0,0,0,0,0,0,88,90,0,0,0,0,0,0,0,0,
0,0,0,0,0,0,0,0,0,0,0,0,0,0,0,0,
0,0,0,0,0,0,0,0,0,0,0,0,0,0,0,0,
0,0,0,0,0,0,0,0,0,0,0,0,0,0,0,0,
0,0,0,0,0,0,0,0,0,0,0,0,0,0,0,0,
0,0,0,0,0,0,0,0,0,0,0,0,0,0,0,0
</chunk>
   <chunk x="32" y="0" width="16" height="16">
0,0,0,0,0,0,0,0,0,0,0,0,0,0,0,0,
0,0,0,0,0,0,0,0,0,0,0,0,0,0,0,0,
0,0,0,0,0,0,0,0,0,0,0,0,0,0,0,0,
0,0,0,0,0,0,0,89,89,90,0,0,0,0,0,0,
0,0,0,0,0,0,0,0,0,0,0,0,0,0,0,0,
0,0,0,0,0,0,0,0,0,0,0,0,0,0,0,0,
0,0,0,0,0,0,0,0,0,0,0,0,0,0,0,0,
0,0,0,0,0,0,0,0,0,0,0,0,0,0,0,0,
0,0,0,0,0,0,0,0,0,0,0,0,0,0,0,0,
0,0,0,0,0,0,0,0,0,0,0,0,0,0,0,0,
0,0,0,0,0,0,0,0,0,0,0,0,0,0,0,0,
0,0,0,0,0,0,0,0,0,0,0,0,0,0,0,0,
0,0,0,0,0,0,0,0,0,0,0,0,0,0,0,0,
0,0,0,0,0,0,0,0,0,0,0,0,0,0,0,0,
0,0,0,0,0,0,0,0,0,0,0,0,0,0,0,0,
0,0,0,0,0,0,0,0,0,0,0,0,0,0,0,0
</chunk>
   <chunk x="48" y="16" width="16" height="16">
0,0,0,0,0,0,0,0,0,0,0,0,0,0,0,0,
0,0,0,0,0,0,0,0,0,0,0,0,0,0,0,0,
0,0,0,0,0,0,0,0,0,0,0,0,0,0,0,0,
0,0,0,0,0,0,0,0,0,0,0,0,0,0,0,0,
0,0,0,0,0,88,89,90,0,0,0,0,0,0,0,0,
0,0,0,0,0,0,0,0,0,0,0,0,0,0,0,0,
0,0,0,0,0,0,0,0,0,0,0,0,0,0,0,0,
0,0,0,0,0,0,0,0,0,0,0,0,0,0,0,0,
0,0,0,0,0,0,0,0,0,0,0,0,0,0,0,0,
0,0,0,0,0,0,0,0,0,0,0,0,0,0,0,0,
0,0,0,0,0,0,0,0,0,0,0,0,0,0,0,0,
0,0,0,0,0,0,0,0,0,0,0,0,0,0,0,0,
0,0,0,0,0,0,0,0,0,0,0,0,0,0,0,0,
0,0,0,0,0,0,0,0,0,0,0,0,0,0,0,0,
0,0,0,0,0,0,0,0,0,0,0,0,0,0,0,0,
0,0,0,0,0,0,0,0,0,0,0,0,0,0,0,0
</chunk>
  </data>
 </layer>
 <objectgroup id="30" name="ShakyFloor">
  <object id="834" template="ShakyFloor.tx" type="ShakyFloor" x="1472" y="-14144"/>
  <object id="839" template="ShakyFloor.tx" type="ShakyFloor" x="1504" y="-14144"/>
  <object id="840" template="ShakyFloor.tx" type="ShakyFloor" x="1536" y="-14144"/>
  <object id="847" template="ShakyFloor.tx" type="ShakyFloor" x="1472" y="-14400"/>
  <object id="848" template="ShakyFloor.tx" type="ShakyFloor" x="1504" y="-14400"/>
  <object id="849" template="ShakyFloor.tx" type="ShakyFloor" x="1536" y="-14400"/>
  <object id="854" template="ShakyFloor.tx" type="ShakyFloor" x="1440" y="-14176"/>
  <object id="855" template="ShakyFloor.tx" type="ShakyFloor" x="1408" y="-14208"/>
  <object id="856" template="ShakyFloor.tx" type="ShakyFloor" x="1408" y="-14176"/>
  <object id="857" template="ShakyFloor.tx" type="ShakyFloor" x="1376" y="-14208"/>
  <object id="858" template="ShakyFloor.tx" type="ShakyFloor" x="1376" y="-14240"/>
  <object id="859" template="ShakyFloor.tx" type="ShakyFloor" x="1376" y="-14272"/>
  <object id="860" template="ShakyFloor.tx" type="ShakyFloor" x="1376" y="-14304"/>
  <object id="864" template="ShakyFloor.tx" type="ShakyFloor" x="1376" y="-14336"/>
  <object id="865" template="ShakyFloor.tx" type="ShakyFloor" x="1408" y="-14368"/>
  <object id="866" template="ShakyFloor.tx" type="ShakyFloor" x="1408" y="-14336"/>
  <object id="867" template="ShakyFloor.tx" type="ShakyFloor" x="1440" y="-14368"/>
  <object id="880" template="ShakyFloor.tx" type="ShakyFloor" x="1568" y="-14176"/>
  <object id="881" template="ShakyFloor.tx" type="ShakyFloor" x="1568" y="-14368"/>
  <object id="882" template="ShakyFloor.tx" type="ShakyFloor" x="1600" y="-14208"/>
  <object id="883" template="ShakyFloor.tx" type="ShakyFloor" x="1600" y="-14176"/>
  <object id="884" template="ShakyFloor.tx" type="ShakyFloor" x="1600" y="-14368"/>
  <object id="885" template="ShakyFloor.tx" type="ShakyFloor" x="1600" y="-14336"/>
  <object id="886" template="ShakyFloor.tx" type="ShakyFloor" x="1632" y="-14208"/>
  <object id="887" template="ShakyFloor.tx" type="ShakyFloor" x="1632" y="-14240"/>
  <object id="888" template="ShakyFloor.tx" type="ShakyFloor" x="1632" y="-14272"/>
  <object id="889" template="ShakyFloor.tx" type="ShakyFloor" x="1632" y="-14304"/>
  <object id="890" template="ShakyFloor.tx" type="ShakyFloor" x="1632" y="-14336"/>
  <object id="891" template="ShakyFloor.tx" type="ShakyFloor" x="1472" y="-14432"/>
  <object id="892" template="ShakyFloor.tx" type="ShakyFloor" x="1504" y="-14432"/>
  <object id="893" template="ShakyFloor.tx" type="ShakyFloor" x="1536" y="-14432"/>
  <object id="894" template="ShakyFloor.tx" type="ShakyFloor" x="1472" y="-14464"/>
  <object id="895" template="ShakyFloor.tx" type="ShakyFloor" x="1504" y="-14464"/>
  <object id="896" template="ShakyFloor.tx" type="ShakyFloor" x="1536" y="-14464"/>
  <object id="897" template="ShakyFloor.tx" type="ShakyFloor" x="1472" y="-14496"/>
  <object id="898" template="ShakyFloor.tx" type="ShakyFloor" x="1504" y="-14496"/>
  <object id="899" template="ShakyFloor.tx" type="ShakyFloor" x="1536" y="-14496"/>
  <object id="900" template="ShakyFloor.tx" type="ShakyFloor" x="1472" y="-14528"/>
  <object id="901" template="ShakyFloor.tx" type="ShakyFloor" x="1504" y="-14528"/>
  <object id="902" template="ShakyFloor.tx" type="ShakyFloor" x="1536" y="-14528"/>
  <object id="903" template="ShakyFloor.tx" type="ShakyFloor" x="1472" y="-14560"/>
  <object id="904" template="ShakyFloor.tx" type="ShakyFloor" x="1504" y="-14560"/>
  <object id="905" template="ShakyFloor.tx" type="ShakyFloor" x="1536" y="-14560"/>
  <object id="906" template="ShakyFloor.tx" type="ShakyFloor" x="1472" y="-14592"/>
  <object id="907" template="ShakyFloor.tx" type="ShakyFloor" x="1504" y="-14592"/>
  <object id="908" template="ShakyFloor.tx" type="ShakyFloor" x="1536" y="-14592"/>
  <object id="909" template="ShakyFloor.tx" type="ShakyFloor" x="1472" y="-14624"/>
  <object id="910" template="ShakyFloor.tx" type="ShakyFloor" x="1504" y="-14624"/>
  <object id="911" template="ShakyFloor.tx" type="ShakyFloor" x="1536" y="-14624"/>
  <object id="912" template="ShakyFloor.tx" type="ShakyFloor" x="1472" y="-14656"/>
  <object id="913" template="ShakyFloor.tx" type="ShakyFloor" x="1504" y="-14656"/>
  <object id="914" template="ShakyFloor.tx" type="ShakyFloor" x="1536" y="-14656"/>
  <object id="915" template="ShakyFloor.tx" type="ShakyFloor" x="1472" y="-14688"/>
  <object id="916" template="ShakyFloor.tx" type="ShakyFloor" x="1504" y="-14688"/>
  <object id="917" template="ShakyFloor.tx" type="ShakyFloor" x="1536" y="-14688"/>
  <object id="918" template="ShakyFloor.tx" type="ShakyFloor" x="1472" y="-14720"/>
  <object id="919" template="ShakyFloor.tx" type="ShakyFloor" x="1504" y="-14720"/>
  <object id="920" template="ShakyFloor.tx" type="ShakyFloor" x="1536" y="-14720"/>
  <object id="921" template="ShakyFloor.tx" type="ShakyFloor" x="1472" y="-14752"/>
  <object id="922" template="ShakyFloor.tx" type="ShakyFloor" x="1504" y="-14752"/>
  <object id="923" template="ShakyFloor.tx" type="ShakyFloor" x="1536" y="-14752"/>
  <object id="924" template="ShakyFloor.tx" type="ShakyFloor" x="1472" y="-14784"/>
  <object id="925" template="ShakyFloor.tx" type="ShakyFloor" x="1504" y="-14784"/>
  <object id="926" template="ShakyFloor.tx" type="ShakyFloor" x="1536" y="-14784"/>
  <object id="927" template="ShakyFloor.tx" type="ShakyFloor" x="1472" y="-14816"/>
  <object id="928" template="ShakyFloor.tx" type="ShakyFloor" x="1504" y="-14816"/>
  <object id="929" template="ShakyFloor.tx" type="ShakyFloor" x="1536" y="-14816"/>
  <object id="930" template="ShakyFloor.tx" type="ShakyFloor" x="1472" y="-14848"/>
  <object id="931" template="ShakyFloor.tx" type="ShakyFloor" x="1504" y="-14848"/>
  <object id="932" template="ShakyFloor.tx" type="ShakyFloor" x="1536" y="-14848"/>
  <object id="933" template="ShakyFloor.tx" type="ShakyFloor" x="1440" y="-14400"/>
  <object id="934" template="ShakyFloor.tx" type="ShakyFloor" x="1568" y="-14400"/>
  <object id="936" template="ShakyFloor.tx" type="ShakyFloor" x="1440" y="-14144"/>
  <object id="937" template="ShakyFloor.tx" type="ShakyFloor" x="1568" y="-14144"/>
  <object id="938" template="ShakyFloor.tx" type="ShakyFloor" x="1472" y="-14112"/>
  <object id="939" template="ShakyFloor.tx" type="ShakyFloor" x="1504" y="-14112"/>
  <object id="940" template="ShakyFloor.tx" type="ShakyFloor" x="1536" y="-14112"/>
 </objectgroup>
 <layer id="1" name="Floor" width="30" height="20">
  <data encoding="csv">
   <chunk x="32" y="-448" width="16" height="16">
0,0,0,0,0,0,0,0,0,0,0,0,0,0,0,0,
0,0,0,0,0,0,0,0,0,0,0,0,0,0,0,0,
0,0,0,0,0,0,0,0,0,0,0,0,0,0,0,0,
0,0,0,0,0,0,0,0,0,0,0,0,0,0,0,0,
0,0,0,0,0,0,0,0,0,0,0,0,0,0,0,0,
0,0,0,0,0,0,0,0,0,0,0,0,0,0,0,0,
0,0,0,0,0,0,0,0,0,0,0,0,0,114,114,114,
0,0,0,0,0,0,0,0,0,0,0,0,0,114,114,117,
0,0,0,0,0,0,0,0,0,0,0,0,0,114,114,114,
0,0,0,0,0,0,0,0,0,0,0,0,0,114,114,114,
0,0,0,0,0,0,0,0,0,0,0,0,0,114,2147483781,114,
0,0,0,0,0,0,0,0,0,0,0,0,0,114,114,114,
0,0,0,0,0,0,0,0,0,0,0,0,0,114,114,114,
0,0,0,0,0,0,0,0,0,0,0,0,0,114,114,114,
0,0,0,0,0,0,0,0,0,0,0,0,0,114,114,114,
0,0,0,0,0,0,0,0,0,0,0,0,0,114,114,114
</chunk>
   <chunk x="48" y="-448" width="16" height="16">
0,0,0,0,0,0,0,0,0,0,0,0,0,0,0,0,
0,0,0,0,0,0,0,0,0,0,0,0,0,0,0,0,
0,0,0,0,0,0,0,0,0,0,0,0,0,0,0,0,
0,0,0,0,0,0,0,0,0,0,0,0,0,0,0,0,
0,0,0,0,0,0,0,0,0,0,0,0,0,0,0,0,
0,0,0,0,0,0,0,0,0,0,0,0,0,0,0,0,
114,114,0,0,0,0,0,0,0,0,0,0,0,0,0,0,
114,114,0,0,0,0,0,0,0,0,0,0,0,0,0,0,
114,114,0,0,0,0,0,0,0,0,0,0,0,0,0,0,
114,117,0,0,0,0,0,0,0,0,0,0,0,0,0,0,
114,114,0,0,0,0,0,0,0,0,0,0,0,0,0,0,
114,114,0,0,0,0,0,0,0,0,0,0,0,0,0,0,
114,114,0,0,0,0,0,0,0,0,0,0,0,0,0,0,
114,114,0,0,0,0,0,0,0,0,0,0,0,0,0,0,
114,114,0,0,0,0,0,0,0,0,0,0,0,0,0,0,
114,114,0,0,0,0,0,0,0,0,0,0,0,0,0,0
</chunk>
   <chunk x="32" y="-432" width="16" height="16">
0,0,0,0,0,0,0,0,0,0,0,0,0,114,114,114,
0,0,0,0,0,0,0,0,0,0,0,0,0,114,114,114,
0,0,0,0,0,0,0,0,0,0,0,0,0,114,114,114,
0,0,0,0,0,0,0,0,0,0,0,0,0,114,114,114,
0,0,0,0,0,0,0,0,0,0,0,0,0,114,114,114,
0,0,0,0,0,0,0,0,0,0,0,0,0,114,114,114,
0,0,0,0,0,0,0,0,0,0,0,0,0,114,114,114,
0,0,0,0,0,0,0,0,0,0,0,0,0,114,114,114,
0,0,0,0,0,0,0,0,0,0,0,0,0,114,114,114,
0,0,0,0,0,0,0,0,0,0,0,0,0,114,114,114,
0,0,0,0,0,0,0,0,0,0,0,0,0,114,114,114,
0,0,0,0,0,0,0,0,0,0,0,0,0,114,114,114,
0,0,0,0,0,0,0,0,0,0,0,0,0,114,114,114,
0,0,0,0,0,0,0,0,0,0,0,0,0,114,114,114,
0,0,0,0,0,0,0,0,0,0,0,0,0,114,114,114,
0,0,0,0,0,0,0,0,0,0,0,0,0,114,114,114
</chunk>
   <chunk x="48" y="-432" width="16" height="16">
114,114,0,0,0,0,0,0,0,0,0,0,0,0,0,0,
114,114,0,0,0,0,0,0,0,0,0,0,0,0,0,0,
114,114,0,0,0,0,0,0,0,0,0,0,0,0,0,0,
114,114,0,0,0,0,0,0,0,0,0,0,0,0,0,0,
114,114,0,0,0,0,0,0,0,0,0,0,0,0,0,0,
114,114,0,0,0,0,0,0,0,0,0,0,0,0,0,0,
114,114,0,0,0,0,0,0,0,0,0,0,0,0,0,0,
114,114,0,0,0,0,0,0,0,0,0,0,0,0,0,0,
114,114,0,0,0,0,0,0,0,0,0,0,0,0,0,0,
114,114,0,0,0,0,0,0,0,0,0,0,0,0,0,0,
114,114,0,0,0,0,0,0,0,0,0,0,0,0,0,0,
114,114,0,0,0,0,0,0,0,0,0,0,0,0,0,0,
114,114,0,0,0,0,0,0,0,0,0,0,0,0,0,0,
114,114,0,0,0,0,0,0,0,0,0,0,0,0,0,0,
114,114,0,0,0,0,0,0,0,0,0,0,0,0,0,0,
114,114,0,0,0,0,0,0,0,0,0,0,0,0,0,0
</chunk>
   <chunk x="32" y="-416" width="16" height="16">
0,0,0,0,0,0,0,0,0,0,0,0,0,114,114,114,
0,0,0,0,0,0,0,0,0,0,0,0,0,114,114,114,
0,0,0,0,0,0,0,0,0,0,0,0,0,114,114,114,
0,0,0,0,0,0,0,0,0,0,0,0,0,114,114,114,
0,0,0,0,0,0,0,0,0,0,0,0,0,114,114,114,
0,0,0,0,0,0,0,0,0,0,0,0,0,114,114,114,
0,0,0,0,0,0,0,0,0,0,0,0,0,114,114,114,
0,0,0,0,0,0,0,0,0,0,0,0,0,114,114,114,
0,0,0,0,0,0,0,0,0,0,0,0,0,114,114,114,
0,0,0,0,0,0,0,0,0,0,0,0,0,114,114,114,
0,0,0,0,0,0,0,0,0,0,0,0,0,114,114,114,
0,0,0,0,0,0,0,0,0,0,0,0,0,114,114,114,
0,0,0,0,0,0,0,0,0,0,0,0,0,114,114,114,
0,0,0,0,0,0,0,0,0,0,0,0,0,114,114,114,
0,0,0,0,0,0,0,0,0,0,0,0,0,114,114,114,
0,0,0,0,0,0,0,0,0,0,0,0,0,114,114,114
</chunk>
   <chunk x="48" y="-416" width="16" height="16">
114,114,0,0,0,0,0,0,0,0,0,0,0,0,0,0,
114,114,0,0,0,0,0,0,0,0,0,0,0,0,0,0,
114,114,0,0,0,0,0,0,0,0,0,0,0,0,0,0,
114,114,0,0,0,0,0,0,0,0,0,0,0,0,0,0,
114,114,0,0,0,0,0,0,0,0,0,0,0,0,0,0,
114,114,0,0,0,0,0,0,0,0,0,0,0,0,0,0,
114,114,0,0,0,114,114,114,0,0,0,0,0,0,0,0,
114,114,0,0,0,114,114,114,0,0,0,0,0,0,0,0,
114,114,0,0,0,0,0,0,0,0,0,0,0,0,0,0,
114,114,0,0,0,0,0,0,0,0,0,0,0,0,0,0,
114,114,0,0,0,0,0,0,0,0,0,0,0,0,0,0,
114,114,0,0,0,0,0,0,0,0,0,0,0,0,0,0,
114,114,0,0,0,0,0,0,0,0,0,0,0,0,0,0,
114,114,0,0,0,0,0,0,0,0,0,0,0,0,0,0,
114,114,0,0,0,0,0,0,0,0,0,0,0,0,0,0,
114,114,0,0,0,0,0,0,0,0,0,0,0,0,0,0
</chunk>
   <chunk x="32" y="-400" width="16" height="16">
0,0,0,0,0,0,0,0,0,0,0,0,0,114,114,114,
0,0,0,0,0,0,0,0,0,0,0,0,0,114,114,114,
0,0,0,0,0,0,0,0,0,0,0,0,0,114,114,114,
0,0,0,0,0,0,0,0,0,0,0,0,0,114,114,114,
0,0,0,0,0,0,0,0,0,0,0,0,0,114,114,114,
0,0,0,0,0,0,0,0,0,0,0,0,0,114,114,114,
0,0,0,0,0,0,0,0,0,0,0,0,0,114,114,114,
0,0,0,0,0,0,0,0,0,0,0,0,0,114,114,114,
0,0,0,0,0,0,0,0,0,0,0,0,0,114,114,114,
0,0,0,0,0,0,0,0,0,0,0,0,0,114,114,114,
0,0,0,0,0,0,0,0,0,0,0,0,0,114,114,114,
0,0,0,0,0,0,0,0,0,0,0,0,0,114,114,114,
0,0,0,0,0,0,0,0,0,0,0,0,0,114,114,114,
0,0,0,0,0,0,0,0,0,0,0,0,0,114,114,114,
0,0,0,0,0,0,0,0,0,0,0,0,0,114,114,114,
0,0,0,0,0,0,0,0,0,0,0,0,0,114,114,114
</chunk>
   <chunk x="48" y="-400" width="16" height="16">
114,114,0,0,0,0,0,0,0,0,0,0,0,0,0,0,
114,114,0,0,0,0,0,0,0,0,0,0,0,0,0,0,
114,114,0,0,0,0,0,0,0,0,0,0,0,0,0,0,
114,114,0,0,0,0,0,0,0,0,0,0,0,0,0,0,
114,114,0,0,0,0,0,0,0,0,0,0,0,0,0,0,
114,114,0,0,0,0,0,0,0,0,0,0,0,0,0,0,
114,114,0,0,0,0,0,0,0,0,0,0,0,0,0,0,
114,114,0,0,0,0,0,0,0,0,0,0,0,0,0,0,
114,114,0,0,0,0,0,0,0,0,0,0,0,0,0,0,
114,114,0,0,0,0,0,0,0,0,0,0,0,0,0,0,
114,114,0,0,0,0,0,0,0,0,0,0,0,0,0,0,
114,114,0,0,0,0,0,0,0,0,0,0,0,0,0,0,
114,114,0,0,0,0,0,0,0,0,0,0,0,0,0,0,
114,114,0,0,0,0,0,0,0,0,0,0,0,0,0,0,
114,114,0,0,0,0,0,0,0,0,0,0,0,0,0,0,
114,114,0,0,0,0,0,0,0,0,0,0,0,0,0,0
</chunk>
   <chunk x="32" y="-384" width="16" height="16">
0,0,0,0,0,0,0,0,0,0,0,0,0,114,114,114,
0,0,0,0,0,0,0,0,0,0,0,0,0,114,114,114,
0,0,0,0,0,0,0,0,0,0,0,0,0,114,114,114,
0,0,0,0,0,0,0,0,0,0,0,0,0,114,114,114,
0,0,0,0,0,0,0,0,0,0,0,0,0,114,114,114,
0,0,0,0,0,0,0,0,0,0,0,0,0,114,114,114,
0,0,0,0,0,0,0,0,0,0,0,0,0,114,114,114,
0,0,0,0,0,0,0,0,0,0,0,0,0,114,114,114,
0,0,0,0,0,0,0,0,0,0,0,0,0,114,114,114,
0,0,0,0,0,0,0,0,0,0,0,0,0,114,114,114,
0,0,0,0,0,0,0,0,0,0,0,0,0,114,114,114,
0,0,0,0,0,0,0,0,0,0,0,0,0,114,114,114,
0,0,0,0,0,0,0,0,0,0,0,0,0,114,114,114,
0,0,0,0,0,0,0,0,0,0,0,0,0,114,114,114,
0,0,0,0,0,0,0,0,0,0,0,0,0,114,114,114,
0,0,0,0,0,0,0,0,0,0,0,0,0,114,114,114
</chunk>
   <chunk x="48" y="-384" width="16" height="16">
114,114,0,0,0,0,0,0,0,0,0,0,0,0,0,0,
114,114,0,0,0,0,0,0,0,0,0,0,0,0,0,0,
114,114,0,0,0,0,0,0,0,0,0,0,0,0,0,0,
114,114,0,0,0,0,0,0,0,0,0,0,0,0,0,0,
114,114,0,0,0,0,0,0,0,0,0,0,0,0,0,0,
114,114,0,0,0,0,0,0,0,0,0,0,0,0,0,0,
114,114,0,0,0,0,0,0,0,0,0,0,0,0,0,0,
114,114,0,0,0,0,0,0,0,0,0,0,0,0,0,0,
114,114,0,0,0,0,0,0,0,0,0,0,0,0,0,0,
114,114,0,0,0,0,0,0,0,0,0,0,0,0,0,0,
114,114,0,0,0,0,0,0,0,0,0,0,0,0,0,0,
114,114,0,0,0,0,0,0,0,0,0,0,0,0,0,0,
114,114,0,0,0,0,0,0,0,0,0,0,0,0,0,0,
114,114,0,0,0,0,0,0,0,0,0,0,0,0,0,0,
114,114,0,0,0,0,0,0,0,0,0,0,0,0,0,0,
114,114,0,0,0,0,0,0,0,0,0,0,0,0,0,0
</chunk>
   <chunk x="32" y="-368" width="16" height="16">
0,0,0,0,0,0,0,0,0,0,0,0,0,114,114,114,
0,0,0,0,0,0,0,0,0,0,0,0,0,114,114,114,
0,0,0,0,0,0,0,0,0,0,0,0,0,114,114,114,
0,0,0,0,0,0,0,0,0,0,0,0,0,114,114,114,
0,0,0,0,0,0,0,0,0,0,0,0,0,114,114,114,
0,0,0,0,0,0,0,0,0,0,0,0,0,114,114,114,
0,0,0,0,0,0,0,0,0,0,0,0,0,114,114,114,
0,0,0,0,0,0,0,0,0,0,0,0,0,114,114,114,
0,0,0,0,0,0,0,0,0,0,0,0,0,114,114,114,
0,0,0,0,0,0,0,0,0,0,0,0,0,114,114,114,
0,0,0,0,0,0,0,0,0,0,0,0,0,114,114,114,
0,0,0,0,0,0,0,0,0,0,0,0,0,0,0,114,
0,0,0,0,0,0,0,0,0,0,0,0,0,0,0,114,
0,0,0,0,0,0,0,0,0,0,0,0,0,0,0,114,
0,0,0,0,0,0,0,0,0,0,0,0,0,0,0,114,
0,0,0,0,0,0,0,0,0,0,0,0,0,132,133,114
</chunk>
   <chunk x="48" y="-368" width="16" height="16">
114,114,0,0,0,0,0,0,0,0,0,0,0,0,0,0,
114,114,0,0,0,0,0,0,0,0,0,0,0,0,0,0,
114,114,0,0,0,0,0,0,0,0,0,0,0,0,0,0,
114,114,0,0,0,0,0,0,0,0,0,0,0,0,0,0,
114,114,0,0,0,0,0,0,0,0,0,0,0,0,0,0,
114,114,0,0,0,0,0,0,0,0,0,0,0,0,0,0,
114,114,0,0,0,0,0,0,0,0,0,0,0,0,0,0,
114,114,0,0,0,0,0,0,0,0,0,0,0,0,0,0,
114,114,0,0,0,0,0,0,0,0,0,0,0,0,0,0,
114,114,0,0,0,0,0,0,0,0,0,0,0,0,0,0,
114,114,0,0,0,0,0,0,0,0,0,0,0,0,0,0,
0,0,0,0,0,0,0,0,0,0,0,0,0,0,0,0,
0,0,0,0,0,0,0,0,0,0,0,0,0,0,0,0,
0,0,0,0,0,0,0,0,0,0,0,0,0,0,0,0,
0,0,0,0,0,0,0,0,0,0,0,0,0,0,0,0,
114,114,0,0,0,0,0,0,0,0,0,0,0,0,0,0
</chunk>
   <chunk x="32" y="-352" width="16" height="16">
0,0,0,0,0,0,0,0,0,0,0,0,0,114,114,114,
0,0,0,0,0,0,0,0,0,0,0,0,0,114,114,114,
0,0,0,0,0,0,0,0,0,0,0,0,0,114,114,114,
0,0,0,0,0,0,0,0,0,0,0,0,0,114,114,114,
0,0,0,0,0,0,0,0,0,0,0,0,0,114,114,114,
0,0,0,0,0,0,0,0,0,0,0,0,0,114,114,114,
0,0,0,0,0,0,0,0,0,0,0,0,0,117,114,114,
0,0,0,0,0,0,0,0,0,0,0,0,0,114,114,114,
0,0,0,0,0,0,0,0,0,0,0,0,0,114,114,114,
0,0,0,0,0,0,0,0,0,0,0,0,0,114,114,132,
0,0,0,0,0,0,0,114,116,114,0,0,0,114,114,114,
0,0,0,0,0,0,0,114,114,114,0,0,0,114,114,114,
0,0,0,0,0,0,0,0,0,0,0,0,0,114,114,114,
0,0,0,0,0,0,0,0,0,0,0,0,0,114,114,114,
0,0,0,0,0,0,0,0,0,0,0,0,0,114,0,114,
0,0,0,0,0,0,0,0,0,0,0,0,0,117,114,114
</chunk>
   <chunk x="48" y="-352" width="16" height="16">
130,114,0,0,0,0,0,0,0,0,0,0,0,0,0,0,
114,114,0,0,0,0,0,0,0,0,0,0,0,0,0,0,
114,114,0,0,0,114,0,0,0,0,0,0,0,0,0,0,
114,114,0,0,114,114,114,0,0,0,0,0,0,0,0,0,
101,114,0,0,0,114,114,0,0,0,0,0,0,0,0,0,
114,114,0,0,0,0,0,0,0,0,0,0,0,0,0,0,
114,114,0,0,0,0,0,0,0,0,0,0,0,0,0,0,
114,114,0,0,0,0,0,0,0,0,0,0,0,0,0,0,
114,114,0,0,0,0,0,0,0,0,0,0,0,0,0,0,
114,114,0,0,0,0,0,0,0,0,0,0,0,0,0,0,
114,114,0,0,0,0,0,0,0,0,0,0,0,0,0,0,
0,114,0,0,0,0,0,0,0,0,0,0,0,0,0,0,
114,114,0,0,0,0,0,0,0,0,0,0,0,0,0,0,
114,114,114,0,0,0,0,0,0,0,0,0,0,0,0,0,
114,114,0,0,0,0,0,0,0,0,0,0,0,0,0,0,
114,114,0,0,0,0,0,0,0,0,0,0,0,0,0,0
</chunk>
   <chunk x="32" y="-336" width="16" height="16">
0,0,0,0,0,0,0,0,0,0,0,0,0,114,114,114,
0,0,0,0,0,0,0,0,0,0,0,0,0,114,114,114,
0,0,0,0,0,0,0,0,0,0,0,0,0,114,114,114,
0,0,0,0,0,0,0,0,0,0,0,0,0,114,114,114,
0,0,0,0,0,0,0,0,0,0,0,0,0,114,114,114,
0,0,0,0,0,0,0,0,0,0,0,0,0,114,114,114,
0,0,0,0,0,0,0,0,0,0,0,0,0,114,114,114,
0,0,0,0,0,0,0,0,0,0,0,0,0,133,114,114,
0,0,0,0,0,0,0,0,0,0,0,0,0,114,114,114,
0,0,0,0,0,0,0,0,0,0,0,0,0,114,114,114,
0,0,0,0,0,0,0,0,0,0,0,0,0,114,114,114,
0,0,0,0,0,0,0,0,0,0,0,0,0,114,114,117,
0,0,0,0,0,0,0,0,0,0,0,0,0,132,114,0,
0,0,0,0,0,0,0,0,0,0,0,0,0,114,0,114,
0,0,0,0,0,0,0,0,0,0,0,114,0,0,114,114,
0,0,0,0,0,0,0,0,0,0,0,0,0,116,114,114
</chunk>
   <chunk x="48" y="-336" width="16" height="16">
114,114,0,0,0,0,0,0,0,0,0,0,0,0,0,0,
130,133,0,0,0,114,0,0,0,0,0,0,0,0,0,0,
114,132,0,0,114,114,114,0,0,0,0,0,0,0,0,0,
114,114,0,0,0,114,114,0,0,0,0,0,0,0,0,0,
114,114,0,0,0,114,0,0,0,0,0,0,0,0,0,0,
114,114,0,0,0,0,0,0,0,0,0,0,0,0,0,0,
114,114,0,0,0,0,0,0,0,0,0,0,0,0,0,0,
114,114,0,0,0,0,0,0,0,0,0,0,0,0,0,0,
101,114,0,0,0,0,0,0,0,0,0,0,0,0,0,0,
114,114,0,0,0,0,0,0,0,0,0,0,0,0,0,0,
114,0,0,114,0,0,0,0,0,0,0,0,0,0,0,0,
0,114,0,0,0,0,0,0,0,0,0,0,0,0,0,0,
114,114,0,0,0,0,0,0,0,0,0,0,0,0,0,0,
117,114,0,0,0,0,0,0,0,0,0,0,0,0,0,0,
114,114,0,0,0,0,0,0,0,0,0,0,0,0,0,0,
114,114,0,0,0,0,0,0,0,0,0,0,0,0,0,0
</chunk>
   <chunk x="32" y="-320" width="16" height="16">
0,0,0,0,0,0,0,0,0,0,0,0,0,114,114,114,
0,0,0,0,0,0,0,0,0,0,0,0,0,114,114,114,
0,0,0,0,0,0,0,0,0,0,0,0,0,114,114,114,
0,0,0,0,0,0,0,0,0,0,0,0,0,114,114,114,
0,0,0,0,0,0,0,0,0,0,0,0,0,114,114,114,
0,0,0,0,0,0,0,0,0,0,0,0,0,114,132,114,
0,0,0,0,0,0,0,0,0,0,0,0,0,114,114,114,
0,0,0,0,0,0,0,0,0,0,0,114,0,114,114,114,
0,0,0,0,0,0,0,0,0,0,0,0,0,114,114,114,
0,0,0,0,0,0,0,0,0,0,0,0,0,114,114,114,
0,0,0,0,0,0,0,0,0,0,0,0,114,114,114,114,
0,0,0,0,0,0,0,0,0,0,0,0,0,114,114,114,
0,0,0,0,0,0,0,0,0,0,0,0,0,114,114,114,
0,0,0,0,0,0,0,0,0,0,0,0,0,114,114,114,
0,0,0,0,0,0,0,0,0,0,0,0,0,114,114,114,
0,0,0,0,0,0,0,0,0,0,0,0,0,114,114,114
</chunk>
   <chunk x="48" y="-320" width="16" height="16">
114,114,0,0,0,0,0,0,0,0,0,0,0,0,0,0,
114,133,0,0,0,0,0,0,0,0,0,0,0,0,0,0,
114,114,0,0,0,0,0,0,0,0,0,0,0,0,0,0,
114,114,0,0,0,0,0,0,0,0,0,0,0,0,0,0,
114,114,0,114,0,0,0,0,0,0,0,0,0,0,0,0,
114,114,0,0,0,0,0,0,0,0,0,0,0,0,0,0,
114,114,0,0,0,0,0,0,0,0,0,0,0,0,0,0,
114,114,0,114,0,0,0,0,0,0,0,0,0,0,0,0,
114,133,0,0,0,0,0,0,0,0,0,0,0,0,0,0,
130,2147483764,0,0,0,0,0,0,0,0,0,0,0,0,0,0,
114,114,0,114,0,0,0,0,0,0,0,0,0,0,0,0,
114,114,0,0,0,0,0,0,0,0,0,0,0,0,0,0,
114,114,0,0,0,0,0,0,0,0,0,0,0,0,0,0,
114,114,0,0,0,0,0,0,0,0,0,0,0,0,0,0,
114,114,0,0,0,0,0,0,0,0,0,0,0,0,0,0,
114,130,0,0,0,0,0,0,0,0,0,0,0,0,0,0
</chunk>
   <chunk x="32" y="-304" width="16" height="16">
0,0,0,0,0,0,0,0,0,0,0,0,0,114,114,114,
0,0,0,0,0,0,0,114,114,114,0,0,0,114,114,114,
0,0,0,0,0,0,0,114,114,130,0,0,0,114,133,114,
0,0,0,0,0,0,0,0,0,0,0,0,0,114,114,114,
0,0,0,0,0,0,0,0,0,0,0,0,0,114,114,114,
0,0,0,0,0,0,0,0,0,0,0,0,0,114,114,114,
0,0,0,0,0,0,0,0,0,0,0,0,0,114,114,114,
0,0,0,0,0,0,0,0,0,0,0,0,0,114,114,114,
0,0,0,0,0,0,0,0,0,0,0,0,0,114,130,114,
0,0,0,0,0,0,0,0,0,0,0,0,0,114,114,114,
0,0,0,0,0,0,0,0,0,0,0,0,0,114,114,114,
0,0,0,0,0,0,0,0,0,0,0,0,0,114,114,114,
0,0,0,0,0,0,0,0,0,0,0,0,0,114,114,114,
0,0,0,0,0,0,0,0,0,0,0,0,0,114,114,114,
0,0,0,0,0,0,0,0,0,0,0,0,0,114,114,114,
0,0,0,0,0,0,0,0,0,0,0,0,0,114,114,114
</chunk>
   <chunk x="48" y="-304" width="16" height="16">
114,114,114,0,0,0,0,0,0,0,0,0,0,0,0,0,
114,114,0,0,0,0,0,0,0,0,0,0,0,0,0,0,
114,114,0,0,0,0,0,0,0,0,0,0,0,0,0,0,
114,114,0,0,0,0,0,0,0,0,0,0,0,0,0,0,
114,114,0,0,0,0,0,0,0,0,0,0,0,0,0,0,
114,114,0,0,0,0,0,0,0,0,0,0,0,0,0,0,
114,114,0,0,0,0,0,0,0,0,0,0,0,0,0,0,
114,101,0,0,0,0,0,0,0,0,0,0,0,0,0,0,
114,114,0,0,114,114,0,0,0,0,0,0,0,0,0,0,
114,114,0,0,0,114,114,0,0,0,0,0,0,0,0,0,
114,114,0,0,0,114,0,0,0,0,0,0,0,0,0,0,
114,114,0,0,0,0,0,0,0,0,0,0,0,0,0,0,
114,114,0,0,0,0,0,0,0,0,0,0,0,0,0,0,
114,114,0,0,0,0,0,0,0,0,0,0,0,0,0,0,
132,114,0,0,0,0,0,0,0,0,0,0,0,0,0,0,
114,114,0,0,0,0,0,0,0,0,0,0,0,0,0,0
</chunk>
   <chunk x="32" y="-288" width="16" height="16">
0,0,0,0,0,0,0,0,0,0,0,0,0,114,114,114,
0,0,0,0,0,0,0,0,0,0,0,0,0,114,114,114,
0,0,0,0,0,0,0,0,0,0,0,0,0,114,114,114,
0,0,0,0,0,0,0,0,0,0,0,0,0,116,114,114,
0,0,0,0,0,0,0,0,0,0,0,0,0,114,114,114,
0,0,0,0,0,0,0,0,0,0,0,0,0,114,114,114,
0,0,0,0,0,0,0,0,0,0,0,0,0,114,114,114,
0,0,0,0,0,0,0,0,0,0,0,0,0,114,114,114,
0,0,0,0,0,0,0,0,0,0,0,0,0,114,114,114,
0,0,0,0,0,0,0,0,0,0,0,0,0,114,114,114,
0,0,0,0,0,0,0,0,0,0,0,0,0,133,114,114,
0,0,0,0,0,0,0,0,0,0,0,0,0,114,114,114,
0,0,0,0,0,0,0,0,0,0,0,0,0,114,114,114,
0,0,0,0,0,0,0,0,0,0,0,0,0,114,114,114,
0,0,0,0,0,0,0,0,0,0,0,0,0,114,114,117,
0,0,0,0,0,0,0,0,0,0,0,0,0,114,114,114
</chunk>
   <chunk x="48" y="-288" width="16" height="16">
114,114,0,0,0,0,0,0,0,0,0,0,0,0,0,0,
114,114,0,0,0,0,0,0,0,0,0,0,0,0,0,0,
114,114,0,0,0,0,0,0,0,0,0,0,0,0,0,0,
114,114,0,0,0,0,0,0,0,0,0,0,0,0,0,0,
114,114,0,0,0,0,0,0,0,0,0,0,0,0,0,0,
101,114,0,0,0,0,0,0,0,0,0,0,0,0,0,0,
114,114,0,0,0,0,0,0,0,0,0,0,0,0,0,0,
114,114,0,0,0,0,0,0,0,0,0,0,0,0,0,0,
114,130,0,0,0,0,0,0,0,0,0,0,0,0,0,0,
114,114,0,0,0,0,0,0,0,0,0,0,0,0,0,0,
114,114,0,0,0,0,0,0,0,0,0,0,0,0,0,0,
114,114,0,0,0,0,0,0,0,0,0,0,0,0,0,0,
114,114,0,0,0,0,0,0,0,0,0,0,0,0,0,0,
114,114,0,0,0,0,0,0,0,0,0,0,0,0,0,0,
114,114,0,0,0,0,0,0,0,0,0,0,0,0,0,0,
114,114,0,0,114,0,0,0,0,0,0,0,0,0,0,0
</chunk>
   <chunk x="32" y="-272" width="16" height="16">
0,0,0,0,0,0,0,0,0,0,0,0,0,114,114,114,
0,0,0,0,0,0,0,0,0,0,0,0,0,102,114,114,
0,0,0,0,0,0,0,0,0,0,0,0,0,113,0,0,
0,0,0,0,0,0,0,0,0,0,0,0,98,129,114,114,
0,0,0,0,0,0,0,0,0,0,0,0,0,114,114,114,
0,0,0,0,0,0,0,0,0,0,0,0,0,114,114,114,
0,0,0,0,0,0,0,0,0,0,0,0,0,114,130,118,
0,0,0,0,0,0,0,0,0,0,0,0,0,114,114,114,
0,0,0,0,0,0,0,0,0,0,0,0,0,114,114,114,
0,0,0,0,0,0,0,0,0,0,0,0,0,114,133,114,
0,0,0,0,0,0,0,0,0,0,0,0,0,114,114,114,
0,0,0,0,0,0,0,0,0,0,0,0,0,114,114,114,
0,0,0,0,0,0,0,0,0,0,0,0,0,0,114,114,
0,0,0,0,0,0,0,0,0,0,0,0,0,114,117,114,
0,0,0,0,0,0,114,114,118,0,0,0,0,114,114,114,
0,0,0,0,0,0,114,114,114,0,0,0,0,114,114,114
</chunk>
   <chunk x="48" y="-272" width="16" height="16">
114,114,0,0,114,114,0,0,0,0,0,0,0,0,0,0,
114,117,0,0,0,0,0,0,0,0,0,0,0,0,0,0,
0,114,0,0,0,0,0,0,0,0,0,0,0,0,0,0,
130,114,0,0,0,0,0,0,0,0,0,0,0,0,0,0,
114,114,0,0,0,0,0,0,0,0,0,0,0,0,0,0,
114,114,0,0,0,0,0,0,0,0,0,0,0,0,0,0,
114,114,0,0,0,0,0,0,0,0,0,0,0,0,0,0,
116,114,0,0,0,0,0,0,0,0,0,0,0,0,0,0,
114,114,0,0,0,0,0,0,0,0,0,0,0,0,0,0,
114,114,0,0,0,0,0,0,0,0,0,0,0,0,0,0,
114,114,0,0,0,0,0,0,0,0,0,0,0,0,0,0,
114,114,0,0,0,0,0,0,0,0,0,0,0,0,0,0,
114,0,0,0,0,0,0,0,0,0,0,0,0,0,0,0,
114,114,0,0,0,0,0,0,0,0,0,0,0,0,0,0,
114,114,0,0,0,0,114,114,114,0,0,0,0,0,0,0,
114,114,0,0,0,0,117,114,114,0,0,0,0,0,0,0
</chunk>
   <chunk x="32" y="-256" width="16" height="16">
0,0,0,0,0,0,0,0,0,0,0,0,0,114,114,114,
0,0,0,0,0,0,0,0,0,0,0,0,0,0,114,114,
0,0,0,0,0,0,0,0,0,0,0,0,0,114,114,114,
0,0,0,0,0,0,0,0,0,0,0,0,0,114,114,114,
0,0,0,0,0,0,0,0,0,0,0,0,0,114,114,114,
0,0,0,0,0,0,0,0,0,0,0,0,0,132,114,114,
0,0,0,0,0,0,0,0,0,0,0,0,0,114,114,114,
0,0,0,0,0,0,0,0,0,0,0,0,0,114,114,114,
0,0,0,0,0,0,0,0,0,0,0,0,0,114,114,114,
0,0,0,0,0,0,0,0,0,0,0,0,0,114,114,114,
0,0,0,0,0,0,0,0,0,0,0,0,0,114,114,114,
0,0,0,0,0,0,0,0,0,0,0,0,0,114,114,114,
0,0,0,0,0,0,0,0,0,0,0,0,0,114,114,114,
0,0,0,0,0,0,0,0,0,0,0,0,0,134,114,114,
0,0,0,0,0,0,0,0,0,0,0,0,0,114,114,114,
0,0,0,0,0,0,0,0,0,0,0,0,0,114,114,114
</chunk>
   <chunk x="48" y="-256" width="16" height="16">
114,132,0,0,0,0,0,0,0,0,0,0,0,0,0,0,
114,0,0,0,0,0,0,0,0,0,0,0,0,0,0,0,
114,114,0,0,0,0,0,0,0,0,0,0,0,0,0,0,
114,114,0,0,0,0,0,0,0,0,0,0,0,0,0,0,
114,114,0,0,0,0,0,0,0,0,0,0,0,0,0,0,
114,114,0,0,0,0,0,0,0,0,0,0,0,0,0,0,
2147483766,114,0,0,0,0,0,0,0,0,0,0,0,0,0,0,
114,114,0,0,0,0,0,0,0,0,0,0,0,0,0,0,
114,114,0,0,0,0,0,0,0,0,0,0,0,0,0,0,
114,114,0,0,0,0,0,0,0,0,0,0,0,0,0,0,
132,114,0,0,0,0,0,0,0,0,0,0,0,0,0,0,
114,114,0,0,0,0,0,0,0,0,0,0,0,0,0,0,
114,114,0,0,0,114,114,0,0,0,0,0,0,0,0,0,
114,114,0,0,0,0,114,0,0,0,0,0,0,0,0,0,
114,114,0,0,0,0,0,0,0,0,0,0,0,0,0,0,
114,114,0,0,0,0,0,0,0,0,0,0,0,0,0,0
</chunk>
   <chunk x="32" y="-240" width="16" height="16">
0,0,0,0,0,0,0,114,0,0,0,0,0,114,114,114,
0,0,0,0,0,0,0,114,114,0,0,0,0,114,114,114,
0,0,0,0,0,0,0,0,114,0,0,0,0,114,114,114,
0,0,0,0,0,0,0,0,0,0,0,0,0,114,114,114,
0,0,0,0,0,0,0,0,0,0,0,0,0,114,114,114,
0,0,0,0,0,0,0,0,0,0,0,0,0,114,114,114,
0,0,0,0,0,0,0,0,0,0,0,0,0,114,114,114,
0,0,0,0,0,0,0,0,0,0,0,0,0,114,114,114,
0,0,0,0,0,0,0,0,0,0,0,0,0,114,114,114,
0,0,0,0,0,0,0,0,0,0,0,0,0,114,130,114,
0,0,0,0,0,0,0,0,0,0,0,0,0,114,114,114,
0,0,0,0,0,0,0,0,0,0,0,0,0,0,0,0,
0,0,0,0,0,0,0,0,0,0,0,0,0,0,0,0,
0,0,0,0,0,0,0,0,0,0,0,0,0,114,114,114,
0,0,0,0,0,0,0,0,0,0,0,0,0,114,114,134,
0,0,0,0,0,0,0,0,0,0,0,0,0,114,0,0
</chunk>
   <chunk x="48" y="-240" width="16" height="16">
117,114,0,0,0,0,0,0,0,0,0,0,0,0,0,0,
114,114,0,0,0,0,0,0,0,0,0,0,0,0,0,0,
114,114,0,0,0,0,0,0,0,0,0,0,0,0,0,0,
114,116,0,0,0,0,0,0,0,0,0,0,0,0,0,0,
114,114,0,0,0,0,0,0,0,0,0,0,0,0,0,0,
114,114,0,0,0,0,0,0,0,0,0,0,0,0,0,0,
114,114,0,0,0,0,0,0,0,0,0,0,0,0,0,0,
114,114,0,0,0,0,0,0,0,0,0,0,0,0,0,0,
114,114,0,0,0,0,0,0,0,0,0,0,0,0,0,0,
114,114,0,0,0,0,0,0,0,0,0,0,0,0,0,0,
114,114,0,0,0,0,0,0,0,0,0,0,0,0,0,0,
0,114,0,0,0,0,0,0,0,0,0,0,0,0,0,0,
0,114,0,0,0,0,0,0,0,0,0,0,0,0,0,0,
114,114,0,0,0,0,0,0,0,0,0,0,0,0,0,0,
114,114,0,0,0,0,0,0,0,0,0,0,0,0,0,0,
0,0,0,0,114,0,0,0,0,0,0,0,0,0,0,0
</chunk>
   <chunk x="32" y="-224" width="16" height="16">
0,0,0,0,0,0,0,0,114,0,0,0,0,114,0,0,
0,0,0,0,0,0,0,114,114,114,0,0,0,114,114,114,
0,0,0,0,0,0,0,0,0,0,0,0,0,114,133,114,
0,0,0,0,0,0,0,0,0,0,0,0,0,114,114,114,
0,0,0,0,0,0,0,0,0,0,0,0,0,114,114,114,
0,0,0,0,0,0,0,0,0,0,0,0,0,114,114,114,
0,0,0,0,0,0,0,0,0,0,0,0,0,114,114,114,
0,0,0,0,0,0,0,0,0,0,0,0,0,114,114,114,
0,0,0,0,0,0,0,0,0,0,0,0,0,114,114,114,
0,0,0,0,0,0,0,0,0,0,0,0,0,114,114,114,
0,0,0,0,0,0,0,0,0,0,0,0,0,114,114,114,
0,0,0,0,0,0,0,0,0,0,0,0,0,117,114,114,
0,0,0,0,0,0,0,0,0,0,0,0,0,114,2147483780,114,
0,0,0,0,0,0,0,0,0,0,0,0,0,114,114,114,
0,0,0,0,0,0,0,0,0,0,0,0,0,114,114,114,
0,0,0,0,0,0,0,0,0,0,0,0,0,114,114,114
</chunk>
   <chunk x="48" y="-224" width="16" height="16">
0,0,0,0,114,114,0,0,0,0,0,0,0,0,0,0,
114,114,0,0,0,114,114,0,0,0,0,0,0,0,0,0,
114,114,0,0,0,0,0,0,0,0,0,0,0,0,0,0,
114,114,0,0,0,0,0,0,0,0,0,0,0,0,0,0,
114,114,0,0,0,0,0,0,0,0,0,0,0,0,0,0,
114,114,0,0,0,0,0,0,0,0,0,0,0,0,0,0,
114,114,0,0,0,0,0,0,0,0,0,0,0,0,0,0,
101,114,0,0,0,0,0,0,0,0,0,0,0,0,0,0,
114,118,0,0,0,0,0,0,0,0,0,0,0,0,0,0,
114,114,0,0,0,0,0,0,0,0,0,0,0,0,0,0,
114,114,0,0,0,0,0,0,0,0,0,0,0,0,0,0,
114,114,0,0,0,0,114,0,0,0,0,0,0,0,0,0,
114,114,0,0,0,114,114,114,0,0,0,0,0,0,0,0,
114,114,0,0,0,0,114,0,0,0,0,0,0,0,0,0,
114,101,0,0,0,0,0,0,0,0,0,0,0,0,0,0,
114,114,0,0,0,0,0,0,0,0,0,0,0,0,0,0
</chunk>
   <chunk x="32" y="-208" width="16" height="16">
0,0,0,0,0,0,0,0,0,0,0,0,0,114,114,114,
0,0,0,0,0,0,114,114,114,0,0,0,0,114,114,114,
0,0,0,0,0,0,114,114,101,0,0,0,0,114,117,114,
0,0,0,0,0,0,0,0,0,0,0,0,0,114,114,114,
0,0,0,0,0,0,0,0,0,0,0,0,0,114,114,114,
0,0,0,0,0,0,0,0,0,0,0,0,0,114,114,114,
0,0,0,0,0,0,0,0,0,0,0,0,0,114,114,114,
0,0,0,0,0,0,0,0,0,0,0,0,0,114,114,114,
0,0,0,0,0,0,0,0,0,0,0,0,0,114,114,118,
0,0,0,0,0,0,0,0,0,0,0,0,0,114,114,114,
0,0,0,0,0,0,0,0,0,0,0,0,0,114,114,133,
0,0,0,0,0,0,0,0,0,0,0,0,0,114,114,114,
0,0,0,0,0,0,0,0,0,0,0,0,0,114,114,0,
0,0,0,0,0,0,0,0,0,0,0,0,0,114,0,0,
0,0,0,0,0,0,0,0,0,0,0,0,0,114,114,0,
0,0,0,0,0,0,0,0,0,0,0,0,0,0,0,114
</chunk>
   <chunk x="48" y="-208" width="16" height="16">
114,114,0,0,0,0,0,0,0,0,0,0,0,0,0,0,
114,114,0,0,0,0,0,0,0,0,0,0,0,0,0,0,
114,114,0,0,0,0,0,0,0,0,0,0,0,0,0,0,
132,114,0,0,0,0,0,0,0,0,0,0,0,0,0,0,
114,114,0,0,0,0,0,0,0,0,0,0,0,0,0,0,
114,114,0,0,0,0,0,0,0,0,0,0,0,0,0,0,
114,114,0,0,0,0,0,0,0,0,0,0,0,0,0,0,
114,114,0,0,0,0,0,0,0,0,0,0,0,0,0,0,
114,114,0,0,0,114,0,0,0,0,0,0,0,0,0,0,
114,114,0,0,114,114,114,0,0,0,0,0,0,0,0,0,
114,0,0,0,0,114,0,0,0,0,0,0,0,0,0,0,
0,0,0,0,0,0,0,0,0,0,0,0,0,0,0,0,
0,0,0,0,0,0,0,0,0,0,0,0,0,0,0,0,
0,0,0,0,0,0,0,0,0,0,0,0,0,0,0,0,
0,0,114,0,0,0,0,0,0,0,0,0,0,0,0,0,
0,0,0,0,0,0,0,0,0,0,0,0,0,0,0,0
</chunk>
   <chunk x="32" y="-192" width="16" height="16">
0,0,0,0,0,0,0,114,114,0,0,0,0,0,0,114,
0,0,0,0,0,0,0,0,114,0,0,0,0,0,114,114,
0,0,0,0,0,0,0,0,0,0,0,0,0,114,114,114,
0,0,0,0,0,0,0,0,0,0,0,0,0,114,130,114,
0,0,0,0,0,0,0,0,0,0,0,0,0,114,114,114,
0,0,0,0,0,0,0,0,0,0,0,0,0,114,114,114,
0,0,0,0,0,0,0,0,0,0,0,0,114,114,114,114,
0,0,0,0,0,0,0,0,0,0,0,0,114,114,114,114,
0,0,0,0,0,0,0,0,0,0,0,0,114,133,114,114,
0,0,0,0,0,0,0,0,0,0,0,0,114,114,114,114,
0,0,0,0,0,0,0,0,0,0,0,0,114,114,114,114,
0,0,0,0,0,0,0,0,0,0,0,0,0,114,114,114,
0,0,0,0,0,0,0,0,0,0,0,0,0,114,114,114,
0,0,0,0,0,0,0,0,0,0,0,0,0,114,114,134,
0,0,0,0,0,0,0,0,0,0,0,0,0,114,114,118,
0,0,0,0,0,0,0,0,0,0,0,0,0,114,114,114
</chunk>
   <chunk x="48" y="-192" width="16" height="16">
0,0,0,0,0,0,0,0,0,0,0,0,0,0,0,0,
114,0,0,0,0,0,0,0,0,0,0,0,0,0,0,0,
114,114,0,0,0,0,0,0,0,0,0,0,0,0,0,0,
114,114,0,0,0,0,0,0,0,0,0,0,0,0,0,0,
114,114,0,0,0,0,0,0,0,0,0,0,0,0,0,0,
114,114,0,0,0,0,0,0,0,0,0,0,0,0,0,0,
114,114,114,0,0,0,0,0,0,0,0,0,0,0,0,0,
114,114,114,0,0,0,114,0,0,0,0,0,0,0,0,0,
114,114,114,0,0,0,114,114,0,0,0,0,0,0,0,0,
114,132,114,0,0,0,114,0,0,0,0,0,0,0,0,0,
114,118,114,0,0,0,0,0,0,0,0,0,0,0,0,0,
114,114,0,0,0,0,0,0,0,0,0,0,0,0,0,0,
114,114,0,0,0,0,0,0,0,0,0,0,0,0,0,0,
114,114,0,0,0,0,0,0,0,0,0,0,0,0,0,0,
132,114,0,0,0,0,0,0,0,0,0,0,0,0,0,0,
114,114,0,0,0,0,0,0,0,0,0,0,0,0,0,0
</chunk>
   <chunk x="32" y="-176" width="16" height="16">
0,0,0,0,0,0,0,0,114,0,0,0,0,114,114,114,
0,0,0,0,0,0,0,0,114,114,0,0,0,114,114,114,
0,0,0,0,0,0,0,0,0,114,0,0,0,114,114,114,
0,0,0,0,0,0,0,0,0,0,0,0,0,114,114,132,
0,0,0,0,0,0,0,0,0,0,0,0,0,114,114,114,
0,0,0,0,0,0,0,0,0,0,0,0,0,114,114,114,
0,0,0,0,0,0,0,0,0,0,0,0,0,114,114,114,
0,0,0,0,0,0,0,0,0,0,0,0,0,114,114,114,
0,0,0,0,0,0,0,0,0,0,0,0,0,114,114,114,
0,0,0,0,0,0,0,0,0,0,0,0,0,114,114,114,
0,0,0,0,0,0,0,0,0,0,0,0,0,117,114,114,
0,0,0,0,0,0,0,0,0,0,0,0,0,114,114,114,
0,0,0,0,0,0,0,0,0,0,0,114,0,114,114,114,
0,0,0,0,0,0,0,0,0,0,0,0,0,114,114,114,
0,0,0,0,0,0,0,0,0,0,0,0,0,114,114,114,
0,0,0,0,0,0,0,0,0,0,0,0,0,114,114,114
</chunk>
   <chunk x="48" y="-176" width="16" height="16">
114,114,0,0,0,0,0,0,0,0,0,0,0,0,0,0,
114,114,0,0,0,0,0,0,0,0,0,0,0,0,0,0,
114,114,0,0,0,0,0,0,0,0,0,0,0,0,0,0,
114,114,0,0,0,0,0,0,0,0,0,0,0,0,0,0,
114,130,0,0,0,0,0,0,0,0,0,0,0,0,0,0,
114,114,0,0,0,0,0,0,0,0,0,0,0,0,0,0,
114,114,0,0,0,114,0,0,0,0,0,0,0,0,0,0,
114,114,0,0,114,114,114,0,0,0,0,0,0,0,0,0,
114,114,0,0,114,114,114,0,0,0,0,0,0,0,0,0,
114,114,0,0,0,0,0,0,0,0,0,0,0,0,0,0,
114,114,0,0,0,0,0,0,0,0,0,0,0,0,0,0,
114,114,0,0,0,0,0,0,0,0,0,0,0,0,0,0,
134,132,0,0,0,0,0,0,0,0,0,0,0,0,0,0,
114,114,0,0,0,0,0,0,0,0,0,0,0,0,0,0,
114,114,0,0,0,0,0,0,0,0,0,0,0,0,0,0,
114,114,0,0,0,0,0,0,0,0,0,0,0,0,0,0
</chunk>
   <chunk x="32" y="-160" width="16" height="16">
0,0,0,0,0,0,0,0,0,0,0,0,0,114,114,114,
0,0,0,0,0,0,0,0,0,0,0,0,0,114,114,114,
0,0,0,0,0,0,0,0,0,0,0,0,0,116,114,114,
0,0,0,0,0,0,0,0,0,0,0,0,0,114,114,114,
0,0,0,0,0,0,0,0,0,0,0,0,0,114,114,114,
0,0,0,0,0,0,0,0,0,0,0,0,0,114,114,114,
0,0,0,0,0,0,0,0,0,0,0,0,0,114,114,114,
0,0,0,0,0,0,0,0,0,0,0,0,0,114,114,114,
0,0,0,0,0,0,0,0,0,0,0,0,0,114,114,114,
0,0,0,0,0,0,0,0,0,0,0,0,0,114,132,134,
0,0,0,0,0,0,0,0,0,0,0,0,0,114,132,114,
0,0,0,0,0,0,0,0,0,0,0,0,0,114,114,114,
0,0,0,0,0,0,0,0,0,0,0,0,0,114,114,114,
0,0,0,0,0,0,0,0,0,0,0,0,0,114,114,114,
0,0,0,0,0,0,0,0,0,0,0,0,0,114,114,130,
0,0,0,0,0,0,0,0,0,0,0,0,0,114,114,114
</chunk>
   <chunk x="48" y="-160" width="16" height="16">
114,114,0,0,0,0,0,0,0,0,0,0,0,0,0,0,
114,114,0,0,0,0,0,0,0,0,0,0,0,0,0,0,
114,114,108,109,0,0,0,0,0,0,0,0,0,0,0,0,
114,114,114,114,0,0,0,0,0,0,0,0,0,0,0,0,
114,114,0,0,0,0,0,0,0,0,0,0,0,0,0,0,
114,114,0,0,0,0,0,0,0,0,0,0,0,0,0,0,
114,132,0,0,0,0,0,0,0,0,0,0,0,0,0,0,
114,114,0,0,114,0,0,0,0,0,0,0,0,0,0,0,
114,114,0,0,114,114,0,0,0,0,0,0,0,0,0,0,
114,114,0,0,0,0,0,0,0,0,0,0,0,0,0,0,
114,114,0,0,0,0,0,0,0,0,0,0,0,0,0,0,
114,114,0,0,0,0,0,0,0,0,0,0,0,0,0,0,
114,114,0,0,0,0,0,0,0,0,0,0,0,0,0,0,
114,114,0,0,0,0,0,0,0,0,0,0,0,0,0,0,
114,114,0,0,0,0,0,0,0,0,0,0,0,0,0,0,
117,114,0,0,0,0,0,0,0,0,0,0,0,0,0,0
</chunk>
   <chunk x="32" y="-144" width="16" height="16">
0,0,0,0,0,0,0,0,0,0,0,0,0,114,114,114,
0,0,0,0,0,0,0,0,0,0,0,0,0,114,114,114,
0,0,0,0,0,0,0,0,0,0,0,0,0,114,114,114,
0,0,0,0,0,0,114,114,114,0,0,0,0,116,114,114,
0,0,0,0,0,0,114,114,130,0,0,0,0,101,114,114,
0,0,0,0,0,0,0,0,0,0,0,0,0,114,114,114,
0,0,0,0,0,0,0,0,0,0,0,0,0,114,114,114,
0,0,0,0,0,0,0,0,0,0,0,0,0,114,114,114,
0,0,0,0,0,0,0,0,0,0,0,0,0,114,114,114,
0,0,0,0,0,0,0,0,0,0,0,0,0,114,114,114,
0,0,0,0,0,0,0,0,0,0,0,0,0,114,114,114,
0,0,0,0,0,0,0,0,0,0,0,0,0,114,114,114,
0,0,0,0,0,0,0,0,0,0,0,0,0,114,114,2147483780,
0,0,0,0,0,0,0,0,0,0,0,0,0,114,114,114,
0,0,0,0,0,0,0,0,0,0,0,0,0,114,114,114,
0,0,0,0,0,0,0,0,0,0,0,0,0,114,114,114
</chunk>
   <chunk x="48" y="-144" width="16" height="16">
114,114,0,0,0,0,0,0,0,0,0,0,0,0,0,0,
114,114,0,0,0,0,0,0,0,0,0,0,0,0,0,0,
114,114,0,0,0,114,114,0,0,0,0,0,0,0,0,0,
114,114,0,0,0,134,2147483764,114,0,0,0,0,0,0,0,0,
114,114,0,0,0,0,114,0,0,0,0,0,0,0,0,0,
114,114,0,0,0,0,0,0,0,0,0,0,0,0,0,0,
114,114,0,0,0,0,0,0,0,0,0,0,0,0,0,0,
114,114,0,0,0,0,0,0,0,0,0,0,0,0,0,0,
114,114,0,0,0,0,0,0,0,0,0,0,0,0,0,0,
114,118,0,0,0,0,0,0,0,0,0,0,0,0,0,0,
101,117,0,0,0,0,0,0,0,0,0,0,0,0,0,0,
114,114,0,0,0,0,0,0,0,0,0,0,0,0,0,0,
114,114,0,0,0,0,0,0,0,0,0,0,0,0,0,0,
114,132,0,0,0,117,114,114,0,0,0,0,0,0,0,0,
114,101,0,0,0,114,114,114,0,0,0,0,0,0,0,0,
114,114,0,0,0,0,0,0,0,0,0,0,0,0,0,0
</chunk>
   <chunk x="32" y="-128" width="16" height="16">
0,0,0,0,0,0,0,0,0,0,0,0,0,114,133,114,
0,0,0,0,0,0,0,114,114,0,0,0,0,114,114,114,
0,0,0,0,0,0,0,114,134,114,0,0,0,114,114,114,
0,0,0,0,0,0,0,0,114,0,0,0,0,114,114,114,
0,0,0,0,0,0,0,0,0,0,0,0,0,114,114,114,
0,0,0,0,0,0,0,0,0,0,0,0,0,114,114,114,
0,0,0,0,0,0,0,0,0,0,0,0,0,2147483780,114,114,
0,0,0,0,0,0,0,0,0,0,0,0,0,114,114,114,
0,0,0,0,0,0,0,0,0,0,0,0,0,114,114,114,
0,0,0,0,0,0,0,0,0,0,0,0,0,114,114,114,
0,0,0,0,0,0,0,0,0,0,0,0,0,117,130,114,
0,0,0,0,0,0,0,0,0,0,0,0,0,101,114,114,
0,0,0,0,0,0,0,0,0,0,0,0,0,114,114,114,
0,0,0,0,0,0,0,0,0,0,0,0,0,114,114,114,
0,0,0,0,0,0,0,0,0,0,0,0,0,114,114,114,
0,0,0,0,0,0,0,0,0,0,0,0,0,114,114,114
</chunk>
   <chunk x="48" y="-128" width="16" height="16">
114,114,0,0,0,0,0,0,0,0,0,0,0,0,0,0,
114,114,0,0,0,0,0,0,0,0,0,0,0,0,0,0,
114,114,0,0,0,0,0,0,0,0,0,0,0,0,0,0,
132,114,0,0,0,0,0,0,0,0,0,0,0,0,0,0,
114,114,0,0,0,0,0,0,0,0,0,0,0,0,0,0,
114,114,0,0,0,0,0,0,0,0,0,0,0,0,0,0,
114,114,0,0,0,0,0,0,0,0,0,0,0,0,0,0,
114,114,0,0,0,0,0,0,0,0,0,0,0,0,0,0,
114,114,0,0,0,0,114,130,0,0,0,0,0,0,0,0,
114,114,0,0,0,114,2147483780,114,0,0,0,0,0,0,0,0,
114,114,0,0,0,0,114,0,0,0,0,0,0,0,0,0,
114,114,0,0,0,0,0,0,0,0,0,0,0,0,0,0,
114,114,0,0,0,0,0,0,0,0,0,0,0,0,0,0,
114,114,0,0,0,0,0,0,0,0,0,0,0,0,0,0,
114,114,0,0,0,0,0,0,0,0,0,0,0,0,0,0,
114,132,0,0,0,0,0,0,0,0,0,0,0,0,0,0
</chunk>
   <chunk x="32" y="-112" width="16" height="16">
0,0,0,0,0,0,0,0,0,0,0,0,0,114,114,114,
0,0,0,0,0,0,0,0,0,0,0,0,0,114,114,114,
0,0,0,0,0,0,0,0,0,0,0,0,0,114,114,114,
0,0,0,0,0,0,0,0,0,0,0,0,0,114,114,114,
0,0,0,0,0,0,0,0,0,0,0,0,0,114,114,114,
0,0,0,0,0,0,0,0,0,0,0,0,0,114,101,114,
0,0,0,0,0,0,0,0,0,0,0,0,0,114,114,114,
0,0,0,0,0,0,0,0,0,0,0,0,0,114,114,114,
0,0,0,0,0,0,0,0,0,0,0,0,0,114,114,114,
0,0,0,0,0,0,0,0,0,0,0,0,0,114,114,114,
0,0,0,0,0,0,0,0,0,0,0,0,0,114,114,114,
0,0,0,0,0,0,0,0,0,0,0,0,0,114,114,114,
0,0,0,0,0,0,0,0,0,0,0,0,0,114,114,114,
0,0,0,0,0,0,0,114,0,0,0,0,0,114,117,114,
0,0,0,0,0,0,114,114,114,0,0,0,0,114,114,114,
0,0,0,0,0,0,0,114,0,0,0,0,0,114,114,114
</chunk>
   <chunk x="48" y="-112" width="16" height="16">
133,114,0,0,0,0,0,0,0,0,0,0,0,0,0,0,
114,114,0,0,0,0,0,0,0,0,0,0,0,0,0,0,
114,114,0,0,0,0,0,0,0,0,0,0,0,0,0,0,
114,114,0,0,0,0,0,0,0,0,0,0,0,0,0,0,
114,114,0,0,0,0,0,0,0,0,0,0,0,0,0,0,
114,114,0,0,0,0,0,0,0,0,0,0,0,0,0,0,
114,114,0,0,0,0,0,0,0,0,0,0,0,0,0,0,
114,118,0,0,0,0,0,0,0,0,0,0,0,0,0,0,
114,114,0,0,0,0,0,0,0,0,0,0,0,0,0,0,
132,114,0,0,0,0,0,0,0,0,0,0,0,0,0,0,
114,114,0,0,0,114,114,0,0,0,0,0,0,0,0,0,
114,114,0,0,0,114,114,114,0,0,0,0,0,0,0,0,
114,114,0,0,0,114,114,114,0,0,0,0,0,0,0,0,
114,114,0,0,0,0,114,0,0,0,0,0,0,0,0,0,
114,114,0,0,0,0,0,0,0,0,0,0,0,0,0,0,
114,114,0,0,0,0,0,0,0,0,0,0,0,0,0,0
</chunk>
   <chunk x="32" y="-96" width="16" height="16">
0,0,0,0,0,0,0,0,0,0,0,0,0,114,114,114,
0,0,0,0,0,0,0,0,0,0,0,0,0,114,114,114,
0,0,0,0,0,0,0,0,0,0,0,0,0,114,114,114,
0,0,0,0,0,0,0,0,0,0,0,0,0,114,114,114,
0,0,0,0,0,0,0,0,0,0,0,0,0,114,114,114,
0,0,0,0,0,0,0,0,0,0,0,0,0,114,114,114,
0,0,0,0,0,0,0,0,0,0,0,0,0,114,114,114,
0,0,0,0,0,0,0,0,0,0,0,0,0,114,114,114,
0,0,0,0,0,0,0,0,0,0,0,0,0,114,114,114,
0,0,0,0,0,0,0,0,0,0,0,114,0,114,114,114,
0,0,0,0,0,0,0,0,0,0,0,0,0,114,114,114,
0,0,0,0,0,0,0,0,0,0,0,0,0,114,114,114,
0,0,0,0,0,0,0,0,0,0,0,0,0,133,114,114,
0,0,0,0,0,0,0,0,0,0,0,0,0,114,114,114,
0,0,0,0,0,0,0,0,0,0,0,0,0,114,114,114,
0,0,0,0,0,0,0,0,0,0,0,114,0,114,114,114
</chunk>
   <chunk x="48" y="-96" width="16" height="16">
114,114,0,0,0,0,0,0,0,0,0,0,0,0,0,0,
114,114,0,0,0,0,0,0,0,0,0,0,0,0,0,0,
114,114,0,0,0,0,0,0,0,0,0,0,0,0,0,0,
114,114,0,0,0,0,0,0,0,0,0,0,0,0,0,0,
2147483780,114,0,0,0,0,0,0,0,0,0,0,0,0,0,0,
101,130,0,0,0,0,0,0,0,0,0,0,0,0,0,0,
114,114,0,114,0,0,0,0,0,0,0,0,0,0,0,0,
114,114,0,0,0,0,0,0,0,0,0,0,0,0,0,0,
114,114,0,0,0,0,0,0,0,0,0,0,0,0,0,0,
114,114,0,0,0,0,0,0,0,0,0,0,0,0,0,0,
114,114,0,0,0,0,0,0,0,0,0,0,0,0,0,0,
117,114,0,0,0,0,0,0,0,0,0,0,0,0,0,0,
114,114,0,114,0,0,0,0,0,0,0,0,0,0,0,0,
114,114,0,0,0,0,0,0,0,0,0,0,0,0,0,0,
114,114,0,0,0,0,0,0,0,0,0,0,0,0,0,0,
114,114,0,0,0,0,0,0,0,0,0,0,0,0,0,0
</chunk>
   <chunk x="32" y="-80" width="16" height="16">
0,0,0,0,0,0,0,0,0,0,0,0,0,114,114,114,
0,0,0,0,0,0,0,0,0,0,0,0,0,114,114,114,
0,0,0,0,0,0,0,0,0,0,0,0,0,114,114,114,
0,0,0,0,0,0,0,0,0,0,0,0,0,114,132,114,
0,0,0,0,0,0,0,0,0,0,0,114,0,0,114,114,
0,0,0,0,0,0,0,0,0,0,0,114,0,0,114,114,
0,0,0,0,0,0,0,0,0,0,0,0,0,117,114,114,
0,0,0,0,0,0,0,0,0,0,0,0,0,114,114,114,
0,0,0,0,0,0,0,0,0,0,0,0,0,114,114,114,
0,0,0,0,0,0,0,0,0,0,0,0,0,114,114,114,
0,0,0,0,0,0,0,0,0,0,0,0,0,114,114,114,
0,0,0,0,0,0,0,0,0,0,0,0,0,114,114,114,
0,0,0,0,0,0,0,0,114,114,0,0,0,114,114,114,
0,0,0,0,0,0,0,0,114,114,114,0,0,114,2147483780,114,
0,0,0,0,0,0,0,0,0,114,0,0,0,114,114,114,
0,0,0,0,0,0,0,0,0,0,0,0,0,114,114,114
</chunk>
   <chunk x="48" y="-80" width="16" height="16">
114,114,0,0,0,0,114,0,0,0,0,0,0,0,0,0,
133,114,0,0,0,114,114,114,0,0,0,0,0,0,0,0,
114,114,0,0,0,0,114,114,0,0,0,0,0,0,0,0,
114,114,0,0,0,0,0,0,0,0,0,0,0,0,0,0,
114,114,0,0,0,0,0,0,0,0,0,0,0,0,0,0,
114,114,0,0,0,0,0,0,0,0,0,0,0,0,0,0,
114,114,0,0,0,0,0,0,0,0,0,0,0,0,0,0,
132,0,0,114,0,0,0,0,0,0,0,0,0,0,0,0,
101,0,0,114,0,0,0,0,0,0,0,0,0,0,0,0,
114,114,0,0,0,0,0,0,0,0,0,0,0,0,0,0,
114,114,0,0,0,0,0,0,0,0,0,0,0,0,0,0,
114,114,0,0,0,0,0,0,0,0,0,0,0,0,0,0,
114,114,0,0,0,0,0,0,0,0,0,0,0,0,0,0,
101,114,0,0,0,0,0,0,0,0,0,0,0,0,0,0,
114,114,0,0,0,0,0,0,0,0,0,0,0,0,0,0,
114,114,0,0,0,0,0,0,0,0,0,0,0,0,0,0
</chunk>
   <chunk x="32" y="-64" width="16" height="16">
0,0,0,0,0,0,0,0,0,0,0,0,0,114,114,114,
0,0,0,0,0,0,0,0,0,0,0,0,0,114,114,114,
0,0,0,0,0,0,0,0,0,0,0,0,0,114,133,114,
0,0,0,0,0,0,0,0,0,0,0,0,0,114,114,114,
0,0,0,0,0,0,0,0,0,0,0,0,0,114,114,114,
0,0,0,0,0,0,0,0,0,0,0,0,0,114,114,114,
0,0,0,0,0,0,0,0,0,0,0,0,0,114,114,114,
0,0,0,0,0,0,0,0,0,0,0,0,0,114,114,114,
0,0,0,0,0,0,0,0,0,0,0,0,0,114,114,114,
0,0,0,0,0,0,0,0,0,0,0,0,0,114,114,114,
0,0,0,0,0,0,0,0,0,0,0,0,0,114,2147483780,114,
0,0,0,0,0,0,0,0,0,0,0,0,0,114,114,114,
0,0,0,0,0,0,0,114,114,0,0,0,0,114,114,114,
0,0,0,0,0,0,0,114,114,0,0,0,0,114,114,114,
0,0,0,0,0,0,0,0,114,114,0,0,0,114,114,114,
0,0,0,0,0,0,0,0,0,0,0,0,0,114,114,114
</chunk>
   <chunk x="48" y="-64" width="16" height="16">
114,114,0,0,0,0,0,0,0,0,0,0,0,0,0,0,
114,116,0,0,0,0,0,0,0,0,0,0,0,0,0,0,
114,114,0,0,0,0,0,0,0,0,0,0,0,0,0,0,
114,114,0,0,0,0,0,0,0,0,0,0,0,0,0,0,
114,114,0,0,0,0,0,0,0,0,0,0,0,0,0,0,
101,114,0,0,0,0,0,0,0,0,0,0,0,0,0,0,
114,117,0,0,0,0,0,0,0,0,0,0,0,0,0,0,
114,114,0,0,0,0,0,0,0,0,0,0,0,0,0,0,
114,114,0,0,0,0,0,0,0,0,0,0,0,0,0,0,
114,114,0,0,0,0,0,0,0,0,0,0,0,0,0,0,
114,114,0,0,0,114,130,114,0,0,0,0,0,0,0,0,
114,114,0,0,0,114,114,114,0,0,0,0,0,0,0,0,
114,114,0,0,0,0,0,0,0,0,0,0,0,0,0,0,
114,114,0,0,0,0,0,0,0,0,0,0,0,0,0,0,
101,114,0,0,0,0,0,0,0,0,0,0,0,0,0,0,
114,114,0,0,0,0,0,0,0,0,0,0,0,0,0,0
</chunk>
   <chunk x="32" y="-48" width="16" height="16">
0,0,0,0,0,0,0,0,0,0,0,0,0,114,114,114,
0,0,0,0,0,0,0,0,0,0,0,0,0,118,114,114,
0,0,0,0,0,0,0,0,0,0,0,0,0,114,114,114,
0,0,0,0,0,0,0,0,0,0,0,0,0,114,114,132,
0,0,0,0,0,0,0,0,0,0,0,0,0,114,114,114,
0,0,0,0,0,0,0,0,0,0,0,0,0,114,114,114,
0,0,0,0,0,0,0,0,0,0,0,0,0,114,114,114,
0,0,0,0,0,0,0,0,0,0,0,0,0,114,114,114,
0,0,0,0,0,0,0,0,0,0,0,0,0,114,114,114,
0,0,0,0,0,0,0,0,0,0,0,0,0,114,114,114,
0,0,0,0,0,0,0,0,0,0,0,0,0,133,132,114,
0,0,0,0,0,0,0,0,0,0,0,0,0,114,114,114,
0,0,0,0,0,0,0,0,0,0,0,0,0,114,114,114,
0,0,0,0,0,0,0,0,0,0,0,0,0,114,114,114,
0,0,0,0,0,0,0,0,0,0,0,0,0,114,114,114,
0,0,0,0,0,0,0,0,0,0,0,0,0,114,114,114
</chunk>
   <chunk x="48" y="-48" width="16" height="16">
114,114,0,0,0,0,0,0,0,0,0,0,0,0,0,0,
114,114,0,0,0,0,0,0,0,0,0,0,0,0,0,0,
114,114,0,0,0,0,0,0,0,0,0,0,0,0,0,0,
114,114,0,0,0,0,0,0,0,0,0,0,0,0,0,0,
114,114,0,0,0,0,0,0,0,0,0,0,0,0,0,0,
114,101,0,0,0,0,0,0,0,0,0,0,0,0,0,0,
114,114,0,0,0,0,0,0,0,0,0,0,0,0,0,0,
114,114,0,0,0,114,114,0,0,0,0,0,0,0,0,0,
114,114,0,0,0,114,114,114,0,0,0,0,0,0,0,0,
114,114,0,0,114,114,114,114,0,0,0,0,0,0,0,0,
114,114,0,0,0,0,114,114,0,0,0,0,0,0,0,0,
114,114,0,0,0,0,0,0,0,0,0,0,0,0,0,0,
114,114,0,0,0,0,0,0,0,0,0,0,0,0,0,0,
114,114,0,0,0,0,0,0,0,0,0,0,0,0,0,0,
114,114,0,0,0,0,0,0,0,0,0,0,0,0,0,0,
114,114,0,0,0,0,0,0,0,0,0,0,0,0,0,0
</chunk>
   <chunk x="32" y="-32" width="16" height="16">
0,0,0,0,0,0,0,0,0,0,0,0,0,114,114,114,
0,0,0,0,0,0,114,2147483749,114,0,0,0,0,114,114,114,
0,0,0,0,0,0,114,114,114,0,0,0,0,114,114,114,
0,0,0,0,0,0,0,0,0,0,0,0,0,114,114,114,
0,0,0,0,0,0,0,0,0,0,0,0,0,114,114,114,
0,0,0,0,0,0,0,0,0,0,0,0,0,114,132,114,
0,0,0,0,0,0,0,0,0,0,0,0,0,117,114,114,
0,0,0,0,0,0,0,0,0,0,0,0,0,114,114,114,
0,0,0,0,0,0,0,0,0,0,0,0,0,114,114,114,
0,0,0,0,0,0,0,0,0,0,0,0,0,114,114,114,
0,0,0,0,0,0,0,0,0,0,0,0,0,114,114,114,
0,0,0,0,0,0,0,0,0,0,0,0,0,114,114,114,
0,0,0,0,0,0,0,0,0,0,0,0,0,114,114,114,
0,0,0,0,0,0,0,0,0,0,0,0,0,114,114,114,
0,0,0,0,0,0,0,0,0,0,0,0,0,114,114,114,
0,0,0,0,0,0,0,0,0,0,0,0,0,114,114,114
</chunk>
   <chunk x="48" y="-32" width="16" height="16">
114,114,0,0,0,0,0,0,0,0,0,0,0,0,0,0,
133,101,0,0,0,0,0,0,0,0,0,0,0,0,0,0,
114,114,0,0,0,0,0,0,0,0,0,0,0,0,0,0,
114,114,0,0,0,0,0,0,0,0,0,0,0,0,0,0,
114,114,0,0,114,114,114,0,0,0,0,0,0,0,0,0,
114,114,0,0,114,114,114,114,0,0,0,0,0,0,0,0,
114,114,0,0,114,114,114,114,0,0,0,0,0,0,0,0,
114,114,0,0,0,0,114,114,0,0,0,0,0,0,0,0,
114,114,0,0,0,0,0,0,0,0,0,0,0,0,0,0,
114,114,0,0,0,0,0,0,0,0,0,0,0,0,0,0,
114,114,0,0,0,0,0,0,0,0,0,0,0,0,0,0,
114,114,0,0,0,0,0,0,0,0,0,0,0,0,0,0,
114,114,0,0,0,0,0,0,0,0,0,0,0,0,0,0,
114,114,0,0,0,0,0,0,0,0,0,0,0,0,0,0,
114,114,0,0,0,0,0,0,0,0,0,0,0,0,0,0,
114,114,0,0,0,0,0,0,0,0,0,0,0,0,0,0
</chunk>
   <chunk x="32" y="-16" width="16" height="16">
0,0,0,0,0,0,0,0,0,0,0,0,0,114,114,114,
0,0,0,0,0,0,0,0,0,0,0,0,0,114,132,114,
0,0,0,0,0,0,0,0,0,0,0,0,0,114,114,114,
0,0,0,0,0,0,0,0,0,0,0,0,0,114,114,114,
0,0,0,0,0,0,0,0,0,0,0,0,0,114,114,114,
0,0,0,0,0,0,0,0,0,0,0,0,0,114,114,114,
0,0,0,0,0,0,0,0,0,0,0,0,0,2147483780,114,114,
0,0,0,0,0,0,0,0,0,0,0,0,0,114,114,114,
0,0,0,0,0,0,0,0,0,0,0,0,0,114,114,114,
0,0,0,0,0,0,0,0,0,0,0,0,0,114,114,114,
0,0,0,0,0,0,0,0,0,0,0,0,0,114,114,134,
0,0,0,0,0,0,0,0,0,0,0,0,0,114,114,114,
0,0,0,0,0,0,0,0,0,0,0,0,0,114,114,114,
0,0,0,0,0,0,0,0,0,0,0,0,0,114,114,114,
0,0,0,0,0,0,0,0,0,0,0,0,0,114,114,114,
0,0,0,0,0,0,0,0,0,0,0,0,0,114,130,133
</chunk>
   <chunk x="48" y="-16" width="16" height="16">
2147483778,114,0,0,0,0,0,0,0,0,0,0,0,0,0,0,
114,114,0,0,0,0,0,0,0,0,0,0,0,0,0,0,
114,114,0,0,0,0,0,0,0,0,0,0,0,0,0,0,
114,114,0,0,0,0,0,0,0,0,0,0,0,0,0,0,
114,114,0,0,0,0,0,0,0,0,0,0,0,0,0,0,
114,114,0,0,0,0,0,0,0,0,0,0,0,0,0,0,
114,114,0,0,0,0,0,0,0,0,0,0,0,0,0,0,
114,114,0,0,0,0,114,114,114,0,0,0,0,0,0,0,
114,114,0,0,0,0,114,114,114,0,0,0,0,0,0,0,
132,114,0,0,0,0,114,114,0,0,0,0,0,0,0,0,
114,133,0,0,0,0,0,0,0,0,0,0,0,0,0,0,
114,101,0,0,0,0,0,0,0,0,0,0,0,0,0,0,
114,114,0,0,0,0,0,0,0,0,0,0,0,0,0,0,
114,114,0,0,0,0,0,0,0,0,0,0,0,0,0,0,
114,114,0,0,0,0,0,0,0,0,0,0,0,0,0,0,
114,114,0,0,0,0,0,0,0,0,0,0,0,0,0,0
</chunk>
   <chunk x="32" y="0" width="16" height="16">
0,0,0,0,0,0,0,0,0,0,0,0,0,114,114,114,
0,0,0,0,0,0,0,114,114,114,0,0,0,114,114,114,
0,0,0,0,0,0,0,114,114,114,0,0,0,114,114,114,
0,0,0,0,0,0,0,0,0,0,0,0,0,114,114,114,
0,0,0,0,0,0,0,0,0,0,0,0,0,134,114,114,
0,0,0,0,0,0,0,0,0,0,0,0,0,114,114,114,
0,0,0,0,0,0,0,0,0,0,0,0,0,114,114,114,
0,0,0,0,0,0,0,0,0,0,0,0,0,114,114,114,
0,0,0,0,0,0,0,0,0,0,0,0,0,114,114,114,
0,0,0,0,0,0,0,0,0,0,0,0,0,114,114,114,
0,0,0,0,0,0,0,0,0,0,0,0,0,114,114,114,
0,0,0,0,0,0,0,0,0,0,0,0,0,114,114,114,
0,0,0,0,0,0,0,0,0,0,0,0,0,114,114,114,
0,0,0,0,0,0,0,0,0,0,0,0,0,114,2147483749,2147483766,
0,0,0,0,0,0,0,0,0,0,0,0,0,114,114,114,
0,0,0,0,0,0,0,0,0,0,0,0,0,114,114,114
</chunk>
   <chunk x="48" y="0" width="16" height="16">
114,114,0,0,0,0,0,0,0,0,0,0,0,0,0,0,
114,114,0,0,0,0,0,0,0,0,0,0,0,0,0,0,
114,114,0,0,0,0,0,0,0,0,0,0,0,0,0,0,
114,114,0,0,0,0,0,0,0,0,0,0,0,0,0,0,
114,114,0,0,0,0,0,0,0,0,0,0,0,0,0,0,
114,132,0,0,0,0,0,0,0,0,0,0,0,0,0,0,
114,114,0,0,0,0,0,0,0,0,0,0,0,0,0,0,
114,114,0,0,0,0,0,0,0,0,0,0,0,0,0,0,
114,114,0,0,0,0,0,0,0,0,0,0,0,0,0,0,
114,114,0,0,0,0,0,0,0,0,0,0,0,0,0,0,
117,114,0,0,0,0,0,0,0,0,0,0,0,0,0,0,
114,114,0,0,0,0,0,0,0,0,0,0,0,0,0,0,
114,114,0,0,0,0,0,0,0,0,0,0,0,0,0,0,
114,114,0,0,0,0,0,0,0,0,0,0,0,0,0,0,
114,114,0,0,0,0,0,0,0,0,0,0,0,0,0,0,
114,114,0,0,0,0,0,0,0,0,0,0,0,0,0,0
</chunk>
   <chunk x="32" y="16" width="16" height="16">
0,0,0,0,0,0,0,0,0,0,0,0,0,114,114,114,
0,0,0,0,0,0,0,0,0,0,0,0,0,114,114,114,
0,0,0,0,0,0,0,0,0,0,0,0,0,114,114,114,
0,0,0,0,0,0,0,0,0,0,0,0,0,114,114,114,
0,0,0,0,0,0,0,0,0,0,0,0,0,114,114,114,
0,0,0,0,0,0,0,0,0,0,0,0,0,114,133,101,
0,0,0,0,0,0,0,0,0,0,0,0,0,114,114,114,
0,0,0,0,0,0,0,0,0,0,0,0,0,114,114,114,
0,0,0,0,0,0,0,0,0,0,0,0,0,114,114,114,
0,0,0,0,0,0,0,0,0,0,0,0,0,114,114,114,
0,0,0,0,0,0,0,0,0,0,0,0,0,114,114,114,
0,0,0,0,0,0,0,0,0,0,0,0,0,114,114,114,
0,0,0,0,0,0,0,0,0,0,0,0,0,116,114,114,
0,0,0,0,0,0,0,0,0,0,0,0,0,114,114,114,
0,0,0,0,0,0,0,0,0,0,0,0,0,114,114,114,
0,0,0,0,0,0,0,0,0,0,0,0,0,0,0,0
</chunk>
   <chunk x="48" y="16" width="16" height="16">
114,114,0,0,0,0,0,0,0,0,0,0,0,0,0,0,
114,114,0,0,0,0,0,0,0,0,0,0,0,0,0,0,
114,114,0,0,0,114,114,114,0,0,0,0,0,0,0,0,
134,114,0,0,0,114,132,114,0,0,0,0,0,0,0,0,
114,114,0,0,0,0,0,0,0,0,0,0,0,0,0,0,
114,114,0,0,0,0,0,0,0,0,0,0,0,0,0,0,
114,114,0,0,0,0,0,0,0,0,0,0,0,0,0,0,
114,114,0,0,0,0,0,0,0,0,0,0,0,0,0,0,
114,114,0,0,0,0,0,0,0,0,0,0,0,0,0,0,
117,114,0,0,0,0,0,0,0,0,0,0,0,0,0,0,
114,114,0,0,0,0,0,0,0,0,0,0,0,0,0,0,
114,114,0,0,0,0,0,0,0,0,0,0,0,0,0,0,
114,114,0,0,0,0,0,0,0,0,0,0,0,0,0,0,
114,114,0,0,0,0,0,0,0,0,0,0,0,0,0,0,
114,114,0,0,0,0,0,0,0,0,0,0,0,0,0,0,
0,0,0,0,0,0,0,0,0,0,0,0,0,0,0,0
</chunk>
  </data>
 </layer>
 <layer id="35" name="BlackOil" width="30" height="20">
  <data encoding="csv">
   <chunk x="32" y="-448" width="16" height="16">
0,0,0,0,0,0,0,0,0,0,0,0,0,0,0,0,
0,0,0,0,0,0,0,0,0,0,0,0,0,0,0,0,
0,0,0,0,0,0,0,0,0,0,0,0,0,0,0,0,
0,0,0,0,0,0,0,0,0,0,0,0,0,0,0,0,
0,0,0,0,0,0,0,0,0,0,0,0,0,0,0,0,
0,0,0,0,0,0,0,0,0,0,0,0,0,0,0,0,
0,0,0,0,0,0,0,0,0,0,0,0,0,0,0,0,
0,0,0,0,0,0,0,0,0,0,0,0,0,0,0,0,
0,0,0,0,0,0,0,0,0,0,0,0,0,0,0,0,
0,0,0,0,0,0,0,0,0,0,0,0,0,0,0,0,
0,0,0,0,0,0,0,0,0,0,0,0,0,0,0,0,
0,0,0,0,0,0,0,0,0,0,0,0,0,2684355223,2684355216,2684355209,
0,0,0,0,0,0,0,0,0,0,0,0,0,649,650,650,
0,0,0,0,0,0,0,0,0,0,0,0,0,656,650,650,
0,0,0,0,0,0,0,0,0,0,0,0,0,649,650,2147484306,
0,0,0,0,0,0,0,0,0,0,0,0,0,656,654,655
</chunk>
   <chunk x="48" y="-448" width="16" height="16">
0,0,0,0,0,0,0,0,0,0,0,0,0,0,0,0,
0,0,0,0,0,0,0,0,0,0,0,0,0,0,0,0,
0,0,0,0,0,0,0,0,0,0,0,0,0,0,0,0,
0,0,0,0,0,0,0,0,0,0,0,0,0,0,0,0,
0,0,0,0,0,0,0,0,0,0,0,0,0,0,0,0,
0,0,0,0,0,0,0,0,0,0,0,0,0,0,0,0,
0,0,0,0,0,0,0,0,0,0,0,0,0,0,0,0,
0,0,0,0,0,0,0,0,0,0,0,0,0,0,0,0,
0,0,0,0,0,0,0,0,0,0,0,0,0,0,0,0,
0,0,0,0,0,0,0,0,0,0,0,0,0,0,0,0,
0,0,0,0,0,0,0,0,0,0,0,0,0,0,0,0,
2684355216,666,0,0,0,0,0,0,0,0,0,0,0,0,0,0,
650,2147484304,0,0,0,0,0,0,0,0,0,0,0,0,0,0,
650,2147484297,0,0,0,0,0,0,0,0,0,0,0,0,0,0,
650,2147484304,0,0,0,0,0,0,0,0,0,0,0,0,0,0,
658,2147484297,0,0,0,0,0,0,0,0,0,0,0,0,0,0
</chunk>
   <chunk x="32" y="-432" width="16" height="16">
0,0,0,0,0,0,0,0,0,0,0,0,0,649,661,662,
0,0,0,0,0,0,0,0,0,0,0,0,0,656,650,650,
0,0,0,0,0,0,0,0,0,0,0,0,0,649,650,2147484306,
0,0,0,0,0,0,0,0,0,0,0,0,0,656,650,650,
0,0,0,0,0,0,0,0,0,0,0,0,0,649,650,650,
0,0,0,0,0,0,0,0,0,0,0,0,0,656,650,650,
0,0,0,0,0,0,0,0,0,0,0,0,0,649,650,650,
0,0,0,0,0,0,0,0,0,0,0,0,0,656,652,653,
0,0,0,0,0,0,0,0,0,0,0,0,0,649,659,660,
0,0,0,0,0,0,0,0,0,0,0,0,0,656,650,651,
0,0,0,0,0,0,0,0,0,0,0,0,0,649,650,650,
0,0,0,0,0,0,0,0,0,0,0,0,0,656,650,650,
0,0,0,0,0,0,0,0,0,0,0,0,0,649,650,650,
0,0,0,0,0,0,0,0,0,0,0,0,0,656,650,650,
0,0,0,0,0,0,0,0,0,0,0,0,0,649,650,650,
0,0,0,0,0,0,0,0,0,0,0,0,0,656,650,654
</chunk>
   <chunk x="48" y="-432" width="16" height="16">
650,2147484304,0,0,0,0,0,0,0,0,0,0,0,0,0,0,
650,2147484297,0,0,0,0,0,0,0,0,0,0,0,0,0,0,
651,2147484304,0,0,0,0,0,0,0,0,0,0,0,0,0,0,
650,2147484297,0,0,0,0,0,0,0,0,0,0,0,0,0,0,
650,2147484304,0,0,0,0,0,0,0,0,0,0,0,0,0,0,
650,2147484297,0,0,0,0,0,0,0,0,0,0,0,0,0,0,
650,2147484304,0,0,0,0,0,0,0,0,0,0,0,0,0,0,
650,2147484297,0,0,0,0,0,0,0,0,0,0,0,0,0,0,
650,2147484304,0,0,0,0,0,0,0,0,0,0,0,0,0,0,
650,2147484297,0,0,0,0,0,0,0,0,0,0,0,0,0,0,
650,2147484304,0,0,0,0,0,0,0,0,0,0,0,0,0,0,
650,2147484297,0,0,0,0,0,0,0,0,0,0,0,0,0,0,
650,2147484304,0,0,0,0,0,0,0,0,0,0,0,0,0,0,
650,2147484297,0,0,0,0,0,0,0,0,0,0,0,0,0,0,
650,2147484304,0,0,0,0,0,0,0,0,0,0,0,0,0,0,
655,2147484297,0,0,0,0,0,0,0,0,0,0,0,0,0,0
</chunk>
   <chunk x="32" y="-416" width="16" height="16">
0,0,0,0,0,0,0,0,0,0,0,0,0,649,650,661,
0,0,0,0,0,0,0,0,0,0,0,0,0,656,650,650,
0,0,0,0,0,0,0,0,0,0,0,0,0,649,650,650,
0,0,0,0,0,0,0,0,0,0,0,0,0,656,650,650,
0,0,0,0,0,0,0,0,0,0,0,0,0,649,657,658,
0,0,0,0,0,0,0,0,0,0,0,0,0,656,650,650,
0,0,0,0,0,0,0,0,0,0,0,0,0,649,650,650,
0,0,0,0,0,0,0,0,0,0,0,0,0,656,650,650,
0,0,0,0,0,0,0,0,0,0,0,0,0,649,650,650,
0,0,0,0,0,0,0,0,0,0,0,0,0,656,650,650,
0,0,0,0,0,0,0,0,0,0,0,0,0,649,650,652,
0,0,0,0,0,0,0,0,0,0,0,0,0,656,650,659,
0,0,0,0,0,0,0,0,0,0,0,0,0,649,650,650,
0,0,0,0,0,0,0,0,0,0,0,0,0,656,650,650,
0,0,0,0,0,0,0,0,0,0,0,0,0,649,650,650,
0,0,0,0,0,0,0,0,0,0,0,0,0,656,650,650
</chunk>
   <chunk x="48" y="-416" width="16" height="16">
662,2147484304,0,0,0,0,0,0,0,0,0,0,0,0,0,0,
650,2147484297,0,0,0,0,0,0,0,0,0,0,0,0,0,0,
650,2147484304,0,0,0,0,0,0,0,0,0,0,0,0,0,0,
650,2147484297,0,0,0,0,0,0,0,0,0,0,0,0,0,0,
650,2147484304,0,0,0,0,0,0,0,0,0,0,0,0,0,0,
650,2147484297,0,0,0,0,0,0,0,0,0,0,0,0,0,0,
650,2147484304,0,0,0,0,0,0,0,0,0,0,0,0,0,0,
650,2147484297,0,0,0,0,0,0,0,0,0,0,0,0,0,0,
650,2147484304,0,0,0,0,0,0,0,0,0,0,0,0,0,0,
650,2147484297,0,0,0,0,0,0,0,0,0,0,0,0,0,0,
653,2147484304,0,0,0,0,0,0,0,0,0,0,0,0,0,0,
660,2147484297,0,0,0,0,0,0,0,0,0,0,0,0,0,0,
651,2147484304,0,0,0,0,0,0,0,0,0,0,0,0,0,0,
650,2147484297,0,0,0,0,0,0,0,0,0,0,0,0,0,0,
650,2147484304,0,0,0,0,0,0,0,0,0,0,0,0,0,0,
650,2147484297,0,0,0,0,0,0,0,0,0,0,0,0,0,0
</chunk>
   <chunk x="32" y="-400" width="16" height="16">
0,0,0,0,0,0,0,0,0,0,0,0,0,649,650,650,
0,0,0,0,0,0,0,0,0,0,0,0,0,656,650,650,
0,0,0,0,0,0,0,0,0,0,0,0,0,649,2147484303,2147484302,
0,0,0,0,0,0,0,0,0,0,0,0,0,656,2147484310,2147484309,
0,0,0,0,0,0,0,0,0,0,0,0,0,649,651,652,
0,0,0,0,0,0,0,0,0,0,0,0,0,656,650,659,
0,0,0,0,0,0,0,0,0,0,0,0,0,649,650,650,
0,0,0,0,0,0,0,0,0,0,0,0,0,656,650,650,
0,0,0,0,0,0,0,0,0,0,0,0,0,649,650,650,
0,0,0,0,0,0,0,0,0,0,0,0,0,656,650,650,
0,0,0,0,0,0,0,0,0,0,0,0,0,649,650,650,
0,0,0,0,0,0,0,0,0,0,0,0,0,656,650,2147484301,
0,0,0,0,0,0,0,0,0,0,0,0,0,649,650,2147484308,
0,0,0,0,0,0,0,0,0,0,0,0,0,656,650,650,
0,0,0,0,0,0,0,0,0,0,0,0,0,649,650,650,
0,0,0,0,0,0,0,0,0,0,0,0,0,656,650,650
</chunk>
   <chunk x="48" y="-400" width="16" height="16">
650,2147484304,0,0,0,0,0,0,0,0,0,0,0,0,0,0,
650,2147484297,0,0,0,0,0,0,0,0,0,0,0,0,0,0,
650,2147484304,0,0,0,0,0,0,0,0,0,0,0,0,0,0,
658,2147484297,0,0,0,0,0,0,0,0,0,0,0,0,0,0,
653,2147484304,0,0,0,0,0,0,0,0,0,0,0,0,0,0,
660,2147484297,0,0,0,0,0,0,0,0,0,0,0,0,0,0,
650,2147484304,0,0,0,0,0,0,0,0,0,0,0,0,0,0,
650,2147484297,0,0,0,0,0,0,0,0,0,0,0,0,0,0,
650,2147484304,0,0,0,0,0,0,0,0,0,0,0,0,0,0,
650,2147484297,0,0,0,0,0,0,0,0,0,0,0,0,0,0,
650,2147484304,0,0,0,0,0,0,0,0,0,0,0,0,0,0,
2147484300,2147484297,0,0,0,0,0,0,0,0,0,0,0,0,0,0,
2147484307,2147484304,0,0,0,0,0,0,0,0,0,0,0,0,0,0,
650,2147484297,0,0,0,0,0,0,0,0,0,0,0,0,0,0,
650,2147484304,0,0,0,0,0,0,0,0,0,0,0,0,0,0,
650,2147484297,0,0,0,0,0,0,0,0,0,0,0,0,0,0
</chunk>
   <chunk x="32" y="-384" width="16" height="16">
0,0,0,0,0,0,0,0,0,0,0,0,0,649,650,650,
0,0,0,0,0,0,0,0,0,0,0,0,0,656,654,655,
0,0,0,0,0,0,0,0,0,0,0,0,0,649,661,662,
0,0,0,0,0,0,0,0,0,0,0,0,0,656,650,650,
0,0,0,0,0,0,0,0,0,0,0,0,0,649,650,650,
0,0,0,0,0,0,0,0,0,0,0,0,0,656,650,650,
0,0,0,0,0,0,0,0,0,0,0,0,0,649,650,650,
0,0,0,0,0,0,0,0,0,0,0,0,0,656,650,657,
0,0,0,0,0,0,0,0,0,0,0,0,0,649,650,650,
0,0,0,0,0,0,0,0,0,0,0,0,0,656,650,650,
0,0,0,0,0,0,0,0,0,0,0,0,0,649,650,650,
0,0,0,0,0,0,0,0,0,0,0,0,0,656,650,650,
0,0,0,0,0,0,0,0,0,0,0,0,0,649,650,650,
0,0,0,0,0,0,0,0,0,0,0,0,0,656,650,650,
0,0,0,0,0,0,0,0,0,0,0,0,0,649,652,653,
0,0,0,0,0,0,0,0,0,0,0,0,0,656,659,660
</chunk>
   <chunk x="48" y="-384" width="16" height="16">
650,2147484304,0,0,0,0,0,0,0,0,0,0,0,0,0,0,
650,2147484297,0,0,0,0,0,0,0,0,0,0,0,0,0,0,
650,2147484304,0,0,0,0,0,0,0,0,0,0,0,0,0,0,
650,2147484297,0,0,0,0,0,0,0,0,0,0,0,0,0,0,
650,2147484304,0,0,0,0,0,0,0,0,0,0,0,0,0,0,
650,2147484297,0,0,0,0,0,0,0,0,0,0,0,0,0,0,
651,2147484304,0,0,0,0,0,0,0,0,0,0,0,0,0,0,
658,2147484297,0,0,0,0,0,0,0,0,0,0,0,0,0,0,
650,2147484304,0,0,0,0,0,0,0,0,0,0,0,0,0,0,
650,2147484297,0,0,0,0,0,0,0,0,0,0,0,0,0,0,
650,2147484304,0,0,0,0,0,0,0,0,0,0,0,0,0,0,
650,2147484297,0,0,0,0,0,0,0,0,0,0,0,0,0,0,
658,2147484304,0,0,0,0,0,0,0,0,0,0,0,0,0,0,
650,2147484297,0,0,0,0,0,0,0,0,0,0,0,0,0,0,
650,2147484304,0,0,0,0,0,0,0,0,0,0,0,0,0,0,
650,2147484297,0,0,0,0,0,0,0,0,0,0,0,0,0,0
</chunk>
   <chunk x="32" y="-368" width="16" height="16">
0,0,0,0,0,0,0,0,0,0,0,0,0,649,650,650,
0,0,0,0,0,0,0,0,0,0,0,0,0,656,650,650,
0,0,0,0,0,0,0,0,0,0,0,0,0,649,650,650,
0,0,0,0,0,0,0,0,0,0,0,0,0,656,650,650,
0,0,0,0,0,0,0,0,0,0,0,0,0,649,650,2147484306,
0,0,0,0,0,0,0,0,0,0,0,0,0,656,650,650,
0,0,0,0,0,0,0,0,0,0,0,0,0,649,650,650,
0,0,0,0,0,0,0,0,0,0,0,0,0,656,650,650,
0,0,0,0,0,0,0,0,0,0,0,0,0,649,657,658,
0,0,0,0,0,0,0,0,0,0,0,0,0,656,650,650,
0,0,0,0,0,0,0,0,0,0,0,0,0,663,1610613385,1610613392,
0,0,0,0,0,0,0,0,0,0,0,0,0,0,0,0,
0,0,0,0,0,0,0,0,0,0,0,0,0,0,0,0,
0,0,0,0,0,0,0,0,0,0,0,0,0,0,0,0,
0,0,0,0,0,0,0,0,0,0,0,0,0,0,0,0,
0,0,0,0,0,0,0,0,0,0,0,0,0,0,0,0
</chunk>
   <chunk x="48" y="-368" width="16" height="16">
650,2147484304,0,0,0,0,0,0,0,0,0,0,0,0,0,0,
650,2147484297,0,0,0,0,0,0,0,0,0,0,0,0,0,0,
650,2147484304,0,0,0,0,0,0,0,0,0,0,0,0,0,0,
650,2147484297,0,0,0,0,0,0,0,0,0,0,0,0,0,0,
651,2147484304,0,0,0,0,0,0,0,0,0,0,0,0,0,0,
650,2147484297,0,0,0,0,0,0,0,0,0,0,0,0,0,0,
650,2147484304,0,0,0,0,0,0,0,0,0,0,0,0,0,0,
650,2147484297,0,0,0,0,0,0,0,0,0,0,0,0,0,0,
650,2147484304,0,0,0,0,0,0,0,0,0,0,0,0,0,0,
650,2147484297,0,0,0,0,0,0,0,0,0,0,0,0,0,0,
1610613385,2684355226,0,0,0,0,0,0,0,0,0,0,0,0,0,0,
0,0,0,0,0,0,0,0,0,0,0,0,0,0,0,0,
0,0,0,0,0,0,0,0,0,0,0,0,0,0,0,0,
0,0,0,0,0,0,0,0,0,0,0,0,0,0,0,0,
0,0,0,0,0,0,0,0,0,0,0,0,0,0,0,0,
0,0,0,0,0,0,0,0,0,0,0,0,0,0,0,0
</chunk>
  </data>
 </layer>
 <layer id="23" name="FloorDecor" width="30" height="20">
  <data encoding="csv">
   <chunk x="32" y="-368" width="16" height="16">
0,0,0,0,0,0,0,0,0,0,0,0,0,0,0,0,
0,0,0,0,0,0,0,0,0,0,0,0,0,0,0,0,
0,0,0,0,0,0,0,0,0,0,0,0,0,0,0,0,
0,0,0,0,0,0,0,0,0,0,0,0,0,0,0,0,
0,0,0,0,0,0,0,0,0,0,0,0,0,0,0,0,
0,0,0,0,0,0,0,0,0,0,0,0,0,0,0,0,
0,0,0,0,0,0,0,0,0,0,0,0,0,0,0,0,
0,0,0,0,0,0,0,0,0,0,0,0,0,0,0,0,
0,0,0,0,0,0,0,0,0,0,0,0,0,0,0,0,
0,0,0,0,0,0,0,0,0,0,0,0,0,0,0,0,
0,0,0,0,0,0,0,0,0,0,0,0,0,0,0,0,
0,0,0,0,0,0,0,0,0,0,0,0,0,0,0,0,
0,0,0,0,0,0,0,0,0,0,0,0,0,0,0,0,
0,0,0,0,0,0,0,0,0,0,0,0,0,0,0,0,
0,0,0,0,0,0,0,0,0,0,0,0,0,0,0,164,
0,0,0,0,0,0,0,0,0,0,0,0,0,0,0,0
</chunk>
   <chunk x="32" y="-352" width="16" height="16">
0,0,0,0,0,0,0,0,0,0,0,0,0,0,0,0,
0,0,0,0,0,0,0,0,0,0,0,0,0,594,601,601,
0,0,0,0,0,0,0,0,0,0,0,0,0,0,0,0,
0,0,0,0,0,0,0,0,0,0,0,0,0,594,601,601,
0,0,0,0,0,0,0,0,0,0,0,0,0,0,0,0,
0,0,0,0,0,0,0,0,0,0,0,0,0,594,601,601,
0,0,0,0,0,0,0,0,0,0,0,0,0,0,0,0,
0,0,0,0,0,0,0,0,0,0,0,0,0,0,0,0,
0,0,0,0,0,0,0,0,0,0,0,0,0,0,0,0,
0,0,0,0,0,0,0,0,0,0,0,0,0,0,0,0,
0,0,0,0,0,0,0,0,0,0,0,0,0,0,0,0,
0,0,0,0,0,0,0,0,0,0,0,0,0,0,0,0,
0,0,0,0,0,0,0,0,0,0,0,0,0,0,0,0,
0,0,0,0,0,0,0,0,0,0,0,0,0,0,0,0,
0,0,0,0,0,0,0,0,0,0,0,0,0,0,0,0,
0,0,0,0,0,0,0,0,0,0,0,0,0,0,0,0
</chunk>
   <chunk x="48" y="-352" width="16" height="16">
0,0,0,0,0,0,0,0,0,0,0,0,0,0,0,0,
601,593,0,0,0,0,0,0,0,0,0,0,0,0,0,0,
0,0,0,0,0,0,0,0,0,0,0,0,0,0,0,0,
601,593,0,0,0,0,0,0,0,0,0,0,0,0,0,0,
0,0,0,0,0,0,0,0,0,0,0,0,0,0,0,0,
601,593,0,0,0,0,0,0,0,0,0,0,0,0,0,0,
0,0,0,0,0,0,0,0,0,0,0,0,0,0,0,0,
0,0,0,0,0,0,0,0,0,0,0,0,0,0,0,0,
0,0,0,0,0,0,0,0,0,0,0,0,0,0,0,0,
0,0,0,0,0,0,0,0,0,0,0,0,0,0,0,0,
0,0,0,0,0,0,0,0,0,0,0,0,0,0,0,0,
0,0,0,0,0,0,0,0,0,0,0,0,0,0,0,0,
0,0,0,0,0,0,0,0,0,0,0,0,0,0,0,0,
0,0,0,0,0,0,0,0,0,0,0,0,0,0,0,0,
0,0,0,0,0,0,0,0,0,0,0,0,0,0,0,0,
0,0,0,0,0,0,0,0,0,0,0,0,0,0,0,0
</chunk>
   <chunk x="32" y="-336" width="16" height="16">
0,0,0,0,0,0,0,0,0,0,0,0,0,0,0,0,
0,0,0,0,0,0,0,0,0,0,0,0,0,0,0,0,
0,0,0,0,0,0,0,0,0,0,0,0,0,0,0,0,
0,0,0,0,0,0,0,0,0,0,0,0,0,0,0,0,
0,0,0,0,0,0,0,0,0,0,0,0,0,0,0,0,
0,0,0,0,0,0,0,0,0,0,0,0,0,0,673,672,
0,0,0,0,0,0,0,0,0,0,0,0,0,0,683,682,
0,0,0,0,0,0,0,0,0,0,0,0,0,0,0,0,
0,0,0,0,0,0,0,0,0,0,0,0,0,0,0,0,
0,0,0,0,0,0,0,0,0,0,0,0,0,0,0,0,
0,0,0,0,0,0,0,0,0,0,0,0,0,0,0,0,
0,0,0,0,0,0,0,0,0,0,0,0,0,0,0,0,
0,0,0,0,0,0,0,0,0,0,0,0,0,0,0,0,
0,0,0,0,0,0,0,0,0,0,0,0,0,0,0,0,
0,0,0,0,0,0,0,0,0,0,0,0,0,0,0,0,
0,0,0,0,0,0,0,0,0,0,0,0,0,0,0,0
</chunk>
   <chunk x="48" y="-336" width="16" height="16">
0,0,0,0,0,0,0,0,0,0,0,0,0,0,0,0,
0,0,0,0,0,0,0,0,0,0,0,0,0,0,0,0,
0,0,0,0,0,0,0,0,0,0,0,0,0,0,0,0,
0,0,0,0,0,0,0,0,0,0,0,0,0,0,0,0,
0,0,0,0,0,0,0,0,0,0,0,0,0,0,0,0,
674,0,0,0,0,0,0,0,0,0,0,0,0,0,0,0,
684,0,0,0,0,0,0,0,0,0,0,0,0,0,0,0,
0,0,0,0,0,0,0,0,0,0,0,0,0,0,0,0,
0,0,0,0,0,0,0,0,0,0,0,0,0,0,0,0,
0,0,0,0,0,0,0,0,0,0,0,0,0,0,0,0,
0,0,0,0,0,0,0,0,0,0,0,0,0,0,0,0,
0,0,0,0,0,0,0,0,0,0,0,0,0,0,0,0,
0,0,0,0,0,0,0,0,0,0,0,0,0,0,0,0,
0,0,0,0,0,0,0,0,0,0,0,0,0,0,0,0,
0,0,0,0,0,0,0,0,0,0,0,0,0,0,0,0,
0,0,0,0,0,0,0,0,0,0,0,0,0,0,0,0
</chunk>
   <chunk x="32" y="-288" width="16" height="16">
0,0,0,0,0,0,0,0,0,0,0,0,0,180,182,181,
0,0,0,0,0,0,0,0,0,0,0,0,0,0,0,0,
0,0,0,0,0,0,0,0,0,0,0,0,0,0,0,0,
0,0,0,0,0,0,0,0,0,0,0,0,0,0,0,672,
0,0,0,0,0,0,0,0,0,0,0,0,0,0,0,682,
0,0,0,0,0,0,0,0,0,0,0,0,0,0,0,0,
0,0,0,0,0,0,0,0,0,0,0,0,0,0,0,0,
0,0,0,0,0,0,0,0,0,0,0,0,0,0,0,0,
0,0,0,0,0,0,0,0,0,0,0,0,0,0,0,0,
0,0,0,0,0,0,0,0,0,0,0,0,0,0,0,0,
0,0,0,0,0,0,0,0,0,0,0,0,0,0,0,0,
0,0,0,0,0,0,0,0,0,0,0,0,0,0,0,0,
0,0,0,0,0,0,0,0,0,0,0,0,0,0,0,0,
0,0,0,0,0,0,0,0,0,0,0,0,0,0,0,0,
0,0,0,0,0,0,0,0,0,0,0,0,0,0,0,0,
0,0,0,0,0,0,0,0,0,0,0,0,0,0,0,0
</chunk>
   <chunk x="48" y="-288" width="16" height="16">
2147483830,183,0,0,0,0,0,0,0,0,0,0,0,0,0,0,
0,0,0,0,0,0,0,0,0,0,0,0,0,0,0,0,
0,0,0,0,0,0,0,0,0,0,0,0,0,0,0,0,
0,0,0,0,0,0,0,0,0,0,0,0,0,0,0,0,
0,0,0,0,0,0,0,0,0,0,0,0,0,0,0,0,
0,0,0,0,0,0,0,0,0,0,0,0,0,0,0,0,
0,0,0,0,0,0,0,0,0,0,0,0,0,0,0,0,
0,0,0,0,0,0,0,0,0,0,0,0,0,0,0,0,
0,0,0,0,0,0,0,0,0,0,0,0,0,0,0,0,
0,0,0,0,0,0,0,0,0,0,0,0,0,0,0,0,
0,0,0,0,0,0,0,0,0,0,0,0,0,0,0,0,
0,0,0,0,0,0,0,0,0,0,0,0,0,0,0,0,
0,0,0,0,0,0,0,0,0,0,0,0,0,0,0,0,
0,0,0,0,0,0,0,0,0,0,0,0,0,0,0,0,
0,0,0,0,0,0,0,0,0,0,0,0,0,0,0,0,
0,0,0,0,0,0,0,0,0,0,0,0,0,0,0,0
</chunk>
   <chunk x="32" y="-272" width="16" height="16">
0,0,0,0,0,0,0,0,0,0,0,0,0,0,0,0,
0,0,0,0,0,0,0,0,0,0,0,0,0,0,0,0,
0,0,0,0,0,0,0,0,0,0,0,0,0,0,0,0,
0,0,0,0,0,0,0,0,0,0,0,0,0,0,1610613408,1610613418,
0,0,0,0,0,0,0,0,0,0,0,0,0,0,0,0,
0,0,0,0,0,0,0,0,0,0,0,0,0,0,0,0,
0,0,0,0,0,0,0,0,0,0,0,0,0,0,0,0,
0,0,0,0,0,0,0,0,0,0,0,0,0,672,0,0,
0,0,0,0,0,0,0,0,0,0,0,0,0,682,0,0,
0,0,0,0,0,0,0,0,0,0,0,0,0,0,0,0,
0,0,0,0,0,0,0,0,0,0,0,0,0,0,0,0,
0,0,0,0,0,0,0,0,0,0,0,0,0,0,0,0,
0,0,0,0,0,0,0,0,0,0,0,0,0,0,0,0,
0,0,0,0,0,0,0,0,0,0,0,0,0,0,0,0,
0,0,0,0,0,0,0,0,0,0,0,0,0,0,0,0,
0,0,0,0,0,0,0,0,0,0,0,0,0,0,0,0
</chunk>
   <chunk x="32" y="-256" width="16" height="16">
0,0,0,0,0,0,0,0,0,0,0,0,0,0,0,0,
0,0,0,0,0,0,0,0,0,0,0,0,0,0,0,0,
0,0,0,0,0,0,0,0,0,0,0,0,0,0,0,0,
0,0,0,0,0,0,0,0,0,0,0,0,0,0,0,0,
0,0,0,0,0,0,0,0,0,0,0,0,0,0,0,0,
0,0,0,0,0,0,0,0,0,0,0,0,0,0,0,0,
0,0,0,0,0,0,0,0,0,0,0,0,0,0,0,0,
0,0,0,0,0,0,0,0,0,0,0,0,0,0,0,0,
0,0,0,0,0,0,0,0,0,0,0,0,0,0,0,0,
0,0,0,0,0,0,0,0,0,0,0,0,0,0,0,674,
0,0,0,0,0,0,0,0,0,0,0,0,0,0,0,684,
0,0,0,0,0,0,0,0,0,0,0,0,0,0,0,0,
0,0,0,0,0,0,0,0,0,0,0,0,0,0,0,0,
0,0,0,0,0,0,0,0,0,0,0,0,0,0,0,0,
0,0,0,0,0,0,0,0,0,0,0,0,0,0,0,0,
0,0,0,0,0,0,0,0,0,0,0,0,0,0,0,0
</chunk>
   <chunk x="32" y="-240" width="16" height="16">
0,0,0,0,0,0,0,0,0,0,0,0,0,0,0,0,
0,0,0,0,0,0,0,0,0,0,0,0,0,0,0,0,
0,0,0,0,0,0,0,0,0,0,0,0,0,0,0,0,
0,0,0,0,0,0,0,0,0,0,0,0,0,0,672,0,
0,0,0,0,0,0,0,0,0,0,0,0,0,0,682,0,
0,0,0,0,0,0,0,0,0,0,0,0,0,0,0,0,
0,0,0,0,0,0,0,0,0,0,0,0,0,0,0,0,
0,0,0,0,0,0,0,0,0,0,0,0,0,0,0,0,
0,0,0,0,0,0,0,0,0,0,0,0,0,180,182,181,
0,0,0,0,0,0,0,0,0,0,0,0,0,0,0,0,
0,0,0,0,0,0,0,0,0,0,0,0,0,0,0,0,
0,0,0,0,0,0,0,0,0,0,0,0,0,0,0,0,
0,0,0,0,0,0,0,0,0,0,0,0,0,0,0,0,
0,0,0,0,0,0,0,0,0,0,0,0,0,0,0,0,
0,0,0,0,0,0,0,0,0,0,0,0,0,0,0,0,
0,0,0,0,0,0,0,0,0,0,0,0,0,0,0,0
</chunk>
   <chunk x="48" y="-240" width="16" height="16">
0,0,0,0,0,0,0,0,0,0,0,0,0,0,0,0,
0,0,0,0,0,0,0,0,0,0,0,0,0,0,0,0,
0,0,0,0,0,0,0,0,0,0,0,0,0,0,0,0,
0,0,0,0,0,0,0,0,0,0,0,0,0,0,0,0,
0,0,0,0,0,0,0,0,0,0,0,0,0,0,0,0,
0,0,0,0,0,0,0,0,0,0,0,0,0,0,0,0,
0,0,0,0,0,0,0,0,0,0,0,0,0,0,0,0,
0,0,0,0,0,0,0,0,0,0,0,0,0,0,0,0,
2147483830,183,0,0,0,0,0,0,0,0,0,0,0,0,0,0,
0,0,0,0,0,0,0,0,0,0,0,0,0,0,0,0,
0,0,0,0,0,0,0,0,0,0,0,0,0,0,0,0,
0,0,0,0,0,0,0,0,0,0,0,0,0,0,0,0,
0,0,0,0,0,0,0,0,0,0,0,0,0,0,0,0,
0,0,0,0,0,0,0,0,0,0,0,0,0,0,0,0,
0,0,0,0,0,0,0,0,0,0,0,0,0,0,0,0,
0,0,0,0,0,0,0,0,0,0,0,0,0,0,0,0
</chunk>
   <chunk x="32" y="-160" width="16" height="16">
0,0,0,0,0,0,0,0,0,0,0,0,0,0,0,0,
0,0,0,0,0,0,0,0,0,0,0,0,0,0,0,0,
0,0,0,0,0,0,0,0,0,0,0,0,0,0,0,0,
0,0,0,0,0,0,0,0,0,0,0,0,0,0,0,0,
0,0,0,0,0,0,0,0,0,0,0,0,0,180,182,181,
0,0,0,0,0,0,0,0,0,0,0,0,0,0,0,0,
0,0,0,0,0,0,0,0,0,0,0,0,0,0,0,0,
0,0,0,0,0,0,0,0,0,0,0,0,0,0,0,0,
0,0,0,0,0,0,0,0,0,0,0,0,0,0,0,0,
0,0,0,0,0,0,0,0,0,0,0,0,0,0,0,0,
0,0,0,0,0,0,0,0,0,0,0,0,0,0,0,0,
0,0,0,0,0,0,0,0,0,0,0,0,0,0,0,0,
0,0,0,0,0,0,0,0,0,0,0,0,0,0,0,0,
0,0,0,0,0,0,0,0,0,0,0,0,0,0,0,0,
0,0,0,0,0,0,0,0,0,0,0,0,0,0,0,0,
0,0,0,0,0,0,0,0,0,0,0,0,0,0,0,0
</chunk>
   <chunk x="48" y="-160" width="16" height="16">
0,0,0,0,0,0,0,0,0,0,0,0,0,0,0,0,
0,0,0,0,0,0,0,0,0,0,0,0,0,0,0,0,
0,0,0,0,0,0,0,0,0,0,0,0,0,0,0,0,
0,685,688,689,0,0,0,0,0,0,0,0,0,0,0,0,
2147483830,183,0,0,0,0,0,0,0,0,0,0,0,0,0,0,
0,0,0,0,0,0,0,0,0,0,0,0,0,0,0,0,
0,0,0,0,0,0,0,0,0,0,0,0,0,0,0,0,
0,0,0,0,0,0,0,0,0,0,0,0,0,0,0,0,
0,0,0,0,0,0,0,0,0,0,0,0,0,0,0,0,
0,0,0,0,0,0,0,0,0,0,0,0,0,0,0,0,
0,0,0,0,0,0,0,0,0,0,0,0,0,0,0,0,
0,0,0,0,0,0,0,0,0,0,0,0,0,0,0,0,
0,0,0,0,0,0,0,0,0,0,0,0,0,0,0,0,
0,0,0,0,0,0,0,0,0,0,0,0,0,0,0,0,
0,0,0,0,0,0,0,0,0,0,0,0,0,0,0,0,
0,0,0,0,0,0,0,0,0,0,0,0,0,0,0,0
</chunk>
   <chunk x="32" y="-112" width="16" height="16">
0,0,0,0,0,0,0,0,0,0,0,0,0,0,0,0,
0,0,0,0,0,0,0,0,0,0,0,0,0,0,0,0,
0,0,0,0,0,0,0,0,0,0,0,0,0,0,0,0,
0,0,0,0,0,0,0,0,0,0,0,0,0,0,0,0,
0,0,0,0,0,0,0,0,0,0,0,0,0,0,0,0,
0,0,0,0,0,0,0,0,0,0,0,0,0,0,0,0,
0,0,0,0,0,0,0,0,0,0,0,0,0,180,182,181,
0,0,0,0,0,0,0,0,0,0,0,0,0,0,0,0,
0,0,0,0,0,0,0,0,0,0,0,0,0,0,0,0,
0,0,0,0,0,0,0,0,0,0,0,0,0,0,0,0,
0,0,0,0,0,0,0,0,0,0,0,0,0,0,0,0,
0,0,0,0,0,0,0,0,0,0,0,0,0,0,0,0,
0,0,0,0,0,0,0,152,0,0,0,0,0,0,0,0,
0,0,0,0,0,0,153,0,151,0,0,0,0,0,0,0,
0,0,0,0,0,137,0,0,0,135,0,0,0,0,0,0,
0,0,0,0,0,0,121,0,119,0,0,0,0,0,0,0
</chunk>
   <chunk x="48" y="-112" width="16" height="16">
0,0,0,0,0,0,0,0,0,0,0,0,0,0,0,0,
0,0,0,0,0,0,0,0,0,0,0,0,0,0,0,0,
0,0,0,0,0,0,0,0,0,0,0,0,0,0,0,0,
0,0,0,0,0,0,0,0,0,0,0,0,0,0,0,0,
0,0,0,0,0,0,0,0,0,0,0,0,0,0,0,0,
0,0,0,0,0,0,0,0,0,0,0,0,0,0,0,0,
2147483830,183,0,0,0,0,0,0,0,0,0,0,0,0,0,0,
0,0,0,0,0,0,0,0,0,0,0,0,0,0,0,0,
0,0,0,0,0,0,0,0,0,0,0,0,0,0,0,0,
0,0,0,0,0,0,0,0,0,0,0,0,0,0,0,0,
0,0,0,0,0,0,0,0,0,0,0,0,0,0,0,0,
0,0,0,0,0,0,0,0,0,0,0,0,0,0,0,0,
0,0,0,0,0,0,0,0,0,0,0,0,0,0,0,0,
0,0,0,0,0,0,0,0,0,0,0,0,0,0,0,0,
0,0,0,0,0,0,0,0,0,0,0,0,0,0,0,0,
0,0,0,0,0,0,0,0,0,0,0,0,0,0,0,0
</chunk>
   <chunk x="32" y="-96" width="16" height="16">
0,0,0,0,0,0,0,120,0,0,0,0,0,0,0,0,
0,0,0,0,0,0,0,0,0,0,0,0,0,0,0,0,
0,0,0,0,0,0,0,0,0,0,0,0,0,0,0,0,
0,0,0,0,0,0,0,0,0,0,0,0,0,0,0,0,
0,0,0,0,0,0,0,0,0,0,0,0,0,0,0,0,
0,0,0,0,0,0,0,0,0,0,0,0,0,0,0,0,
0,0,0,0,0,0,0,0,0,0,0,0,0,0,0,0,
0,0,0,0,0,0,0,0,0,0,0,0,0,0,0,0,
0,0,0,0,0,0,0,0,0,0,0,0,0,0,0,0,
0,0,0,0,0,0,0,0,0,0,0,0,0,0,0,0,
0,0,0,0,0,0,0,0,0,0,0,0,0,0,0,0,
0,0,0,0,0,0,0,0,0,0,0,0,0,0,2147484325,0,
0,0,0,0,0,0,0,0,0,0,0,0,0,0,2147484335,0,
0,0,0,0,0,0,0,0,0,0,0,0,0,0,0,0,
0,0,0,0,0,0,0,0,0,0,0,0,0,0,0,677,
0,0,0,0,0,0,0,0,0,0,0,0,0,0,0,687
</chunk>
   <chunk x="32" y="-80" width="16" height="16">
0,0,0,0,0,0,0,0,0,0,0,0,0,0,0,0,
0,0,0,0,0,0,0,0,0,0,0,0,0,0,0,0,
0,0,0,0,0,0,0,0,0,0,0,0,0,0,0,0,
0,0,0,0,0,0,0,0,0,0,0,0,0,0,0,0,
0,0,0,0,0,0,0,0,0,0,0,0,0,0,0,0,
0,0,0,0,0,0,0,0,0,0,0,0,0,0,0,0,
0,0,0,0,0,0,0,0,0,0,0,0,0,0,0,0,
0,0,0,0,0,0,0,0,0,0,0,0,0,0,0,0,
0,0,0,0,0,0,0,0,0,0,0,0,0,0,0,0,
0,0,0,0,0,0,0,0,0,0,0,0,0,0,0,0,
0,0,0,0,0,0,0,0,0,0,0,0,0,0,1610613408,1610613418,
0,0,0,0,0,0,0,0,152,152,0,0,0,0,0,0,
0,0,0,0,0,0,0,137,0,0,151,0,0,0,0,0,
0,0,0,0,0,0,0,137,0,0,0,135,0,0,0,0,
0,0,0,0,0,0,0,0,121,0,119,0,0,0,0,0,
0,0,0,0,0,0,0,0,0,120,0,0,0,0,0,0
</chunk>
   <chunk x="32" y="-64" width="16" height="16">
0,0,0,0,0,0,0,0,0,0,0,0,0,0,0,0,
0,0,0,0,0,0,0,0,0,0,0,0,0,0,0,0,
0,0,0,0,0,0,0,0,0,0,0,0,0,0,0,0,
0,0,0,0,0,0,0,0,0,0,0,0,0,0,0,0,
0,0,0,0,0,0,0,0,0,0,0,0,0,0,0,0,
0,0,0,0,0,0,0,0,0,0,0,0,0,0,0,0,
0,0,0,0,0,0,0,0,0,0,0,0,0,0,0,0,
0,0,0,0,0,0,0,0,0,0,0,0,0,0,0,0,
0,0,0,0,0,0,0,0,0,0,0,0,0,2147484324,0,0,
0,0,0,0,0,0,0,0,0,0,0,0,0,2147484334,2147484333,0,
0,0,0,0,0,0,0,0,0,0,0,0,0,0,0,672,
0,0,0,0,0,0,0,0,0,0,0,0,0,0,0,682,
0,0,0,0,0,0,0,0,0,0,0,0,0,0,0,0,
0,0,0,0,0,0,0,0,0,0,0,0,0,0,0,0,
0,0,0,0,0,0,0,0,0,0,0,0,0,0,0,0,
0,0,0,0,0,0,0,0,0,0,0,0,0,0,0,0
</chunk>
   <chunk x="48" y="-64" width="16" height="16">
0,0,0,0,0,0,0,0,0,0,0,0,0,0,0,0,
0,0,0,0,0,0,0,0,0,0,0,0,0,0,0,0,
0,0,0,0,0,0,0,0,0,0,0,0,0,0,0,0,
0,0,0,0,0,0,0,0,0,0,0,0,0,0,0,0,
0,0,0,0,0,0,0,0,0,0,0,0,0,0,0,0,
0,0,0,0,0,0,0,0,0,0,0,0,0,0,0,0,
0,0,0,0,0,0,0,0,0,0,0,0,0,0,0,0,
0,0,0,0,0,0,0,0,0,0,0,0,0,0,0,0,
0,676,0,0,0,0,0,0,0,0,0,0,0,0,0,0,
685,686,0,0,0,0,0,0,0,0,0,0,0,0,0,0,
0,0,0,0,0,0,0,0,0,0,0,0,0,0,0,0,
0,0,0,0,0,0,0,0,0,0,0,0,0,0,0,0,
0,0,0,0,0,0,0,0,0,0,0,0,0,0,0,0,
0,0,0,0,0,0,0,0,0,0,0,0,0,0,0,0,
0,0,0,0,0,0,0,0,0,0,0,0,0,0,0,0,
0,0,0,0,0,0,0,0,0,0,0,0,0,0,0,0
</chunk>
   <chunk x="48" y="-48" width="16" height="16">
0,0,0,0,0,0,0,0,0,0,0,0,0,0,0,0,
0,0,0,0,0,0,0,0,0,0,0,0,0,0,0,0,
0,0,0,0,0,0,0,0,0,0,0,0,0,0,0,0,
0,0,0,0,0,0,0,0,0,0,0,0,0,0,0,0,
0,0,0,0,0,0,0,0,0,0,0,0,0,0,0,0,
0,0,0,0,0,0,0,0,0,0,0,0,0,0,0,0,
0,0,0,0,0,0,0,0,0,0,0,0,0,0,0,0,
0,0,0,0,0,0,0,0,0,0,0,0,0,0,0,0,
0,0,0,0,0,0,0,0,0,0,0,0,0,0,0,0,
0,0,0,0,0,0,0,0,0,0,0,0,0,0,0,0,
0,0,0,0,0,0,0,0,0,0,0,0,0,0,0,0,
0,0,0,0,0,0,0,0,0,0,0,0,0,0,0,0,
0,0,0,0,0,0,0,0,0,0,0,0,0,0,0,0,
0,0,0,0,0,0,0,0,0,0,0,0,0,0,0,0,
672,0,0,0,0,0,0,0,0,0,0,0,0,0,0,0,
682,0,0,0,0,0,0,0,0,0,0,0,0,0,0,0
</chunk>
   <chunk x="32" y="-32" width="16" height="16">
0,0,0,0,0,0,0,0,0,0,0,0,0,0,0,0,
0,0,0,0,0,0,0,0,0,0,0,0,0,0,0,0,
0,0,0,0,0,0,0,0,0,0,0,0,0,0,0,0,
0,0,0,0,0,0,0,0,0,0,0,0,0,0,0,0,
0,0,0,0,0,0,0,0,0,0,0,0,0,0,0,0,
0,0,0,0,0,0,0,0,0,0,0,0,0,0,0,0,
0,0,0,0,0,0,0,0,0,0,0,0,0,0,0,0,
0,0,0,0,0,0,0,0,0,0,0,0,0,0,0,0,
0,0,0,0,0,0,0,0,0,0,0,0,0,0,0,0,
0,0,0,0,0,0,0,0,0,0,0,0,0,0,0,672,
0,0,0,0,0,0,0,0,0,0,0,0,0,0,673,682,
0,0,0,0,0,0,0,0,0,0,0,0,0,0,683,0,
0,0,0,0,0,0,0,0,0,0,0,0,0,180,182,181,
0,0,0,0,0,0,0,0,0,0,0,0,0,0,0,0,
0,0,0,0,0,0,0,0,0,0,0,0,0,0,0,0,
0,0,0,0,0,0,0,0,0,0,0,0,0,0,0,0
</chunk>
   <chunk x="48" y="-32" width="16" height="16">
0,0,0,0,0,0,0,0,0,0,0,0,0,0,0,0,
0,0,0,0,0,0,0,0,0,0,0,0,0,0,0,0,
0,0,0,0,0,0,0,0,0,0,0,0,0,0,0,0,
0,0,0,0,0,0,0,0,0,0,0,0,0,0,0,0,
0,0,0,0,0,0,0,0,0,0,0,0,0,0,0,0,
0,0,0,0,0,0,0,0,0,0,0,0,0,0,0,0,
0,0,0,0,0,0,0,0,0,0,0,0,0,0,0,0,
0,0,0,0,0,0,0,0,0,0,0,0,0,0,0,0,
0,0,0,0,0,0,0,0,0,0,0,0,0,0,0,0,
0,0,0,0,0,0,0,0,0,0,0,0,0,0,0,0,
674,0,0,0,0,0,0,0,0,0,0,0,0,0,0,0,
684,0,0,0,0,0,0,0,0,0,0,0,0,0,0,0,
2147483830,183,0,0,0,0,0,0,0,0,0,0,0,0,0,0,
0,0,0,0,0,0,0,0,0,0,0,0,0,0,0,0,
0,0,0,0,0,0,0,0,0,0,0,0,0,0,0,0,
0,0,0,0,0,0,0,0,0,0,0,0,0,0,0,0
</chunk>
  </data>
 </layer>
 <layer id="14" name="SecretWay1" width="30" height="20">
  <data encoding="csv">
   <chunk x="32" y="-272" width="16" height="16">
0,0,0,0,0,0,0,0,0,0,0,0,0,0,0,0,
0,0,0,0,0,0,0,0,0,0,0,0,0,0,0,0,
0,0,0,0,0,0,0,0,0,0,0,0,0,0,12,0,
0,0,0,0,0,0,0,0,0,0,0,0,0,0,0,0,
0,0,0,0,0,0,0,0,0,0,0,0,0,0,0,0,
0,0,0,0,0,0,0,0,0,0,0,0,0,0,0,0,
0,0,0,0,0,0,0,0,0,0,0,0,0,0,0,0,
0,0,0,0,0,0,0,0,0,0,0,0,0,0,0,0,
0,0,0,0,0,0,0,0,0,0,0,0,0,0,0,0,
0,0,0,0,0,0,0,0,0,0,0,0,0,0,0,0,
0,0,0,0,0,0,0,0,0,0,0,0,0,0,0,0,
0,0,0,0,0,0,0,0,0,0,0,0,0,0,0,0,
0,0,0,0,0,0,0,0,0,0,0,0,0,0,0,0,
0,0,0,0,0,0,0,0,0,0,0,0,0,0,0,0,
0,0,0,0,0,0,0,0,0,0,0,0,0,0,0,0,
0,0,0,0,0,0,0,0,0,0,0,0,0,0,0,0
</chunk>
  </data>
 </layer>
 <layer id="17" name="DitchFloor" width="30" height="20">
  <data encoding="csv">
   <chunk x="32" y="-448" width="16" height="16">
0,0,0,0,0,0,0,0,0,0,0,0,0,0,0,0,
0,0,0,0,0,0,0,0,0,0,0,0,0,0,0,0,
0,0,0,0,0,0,0,0,0,0,0,0,0,0,0,0,
0,0,0,0,0,0,0,0,0,0,0,0,0,0,0,0,
0,0,0,0,0,0,0,0,0,0,0,0,0,0,0,0,
0,0,0,0,0,0,0,0,0,0,0,0,0,152,152,152,
0,0,0,0,0,0,0,0,0,0,0,0,137,0,0,0,
0,0,0,0,0,0,0,0,0,0,0,0,137,0,0,0,
0,0,0,0,0,0,0,0,0,0,0,0,137,0,0,0,
0,0,0,0,0,0,0,0,0,0,0,0,137,0,0,0,
0,0,0,0,0,0,0,0,0,0,0,0,137,0,0,0,
0,0,0,0,0,0,0,0,0,0,0,0,137,0,0,0,
0,0,0,0,0,0,0,0,0,0,0,0,137,0,0,0,
0,0,0,0,0,0,0,0,0,0,0,0,137,0,0,0,
0,0,0,0,0,0,0,0,0,0,0,0,137,0,0,0,
0,0,0,0,0,0,0,0,0,0,0,0,137,0,0,0
</chunk>
   <chunk x="48" y="-448" width="16" height="16">
0,0,0,0,0,0,0,0,0,0,0,0,0,0,0,0,
0,0,0,0,0,0,0,0,0,0,0,0,0,0,0,0,
0,0,0,0,0,0,0,0,0,0,0,0,0,0,0,0,
0,0,0,0,0,0,0,0,0,0,0,0,0,0,0,0,
0,0,0,0,0,0,0,0,0,0,0,0,0,0,0,0,
152,152,0,0,0,0,0,0,0,0,0,0,0,0,0,0,
0,0,135,0,0,0,0,0,0,0,0,0,0,0,0,0,
0,0,135,0,0,0,0,0,0,0,0,0,0,0,0,0,
0,0,135,0,0,0,0,0,0,0,0,0,0,0,0,0,
0,0,135,0,0,0,0,0,0,0,0,0,0,0,0,0,
0,0,135,0,0,0,0,0,0,0,0,0,0,0,0,0,
0,0,135,0,0,0,0,0,0,0,0,0,0,0,0,0,
0,0,135,0,0,0,0,0,0,0,0,0,0,0,0,0,
0,0,135,0,0,0,0,0,0,0,0,0,0,0,0,0,
0,0,135,0,0,0,0,0,0,0,0,0,0,0,0,0,
0,0,135,0,0,0,0,0,0,0,0,0,0,0,0,0
</chunk>
   <chunk x="32" y="-432" width="16" height="16">
0,0,0,0,0,0,0,0,0,0,0,0,137,0,0,0,
0,0,0,0,0,0,0,0,0,0,0,0,137,0,0,0,
0,0,0,0,0,0,0,0,0,0,0,0,137,0,0,0,
0,0,0,0,0,0,0,0,0,0,0,0,137,0,0,0,
0,0,0,0,0,0,0,0,0,0,0,0,137,0,0,0,
0,0,0,0,0,0,0,0,0,0,0,0,137,0,0,0,
0,0,0,0,0,0,0,0,0,0,0,0,137,0,0,0,
0,0,0,0,0,0,0,0,0,0,0,0,137,0,0,0,
0,0,0,0,0,0,0,0,0,0,0,0,137,0,0,0,
0,0,0,0,0,0,0,0,0,0,0,0,137,0,0,0,
0,0,0,0,0,0,0,0,0,0,0,0,137,0,0,0,
0,0,0,0,0,0,0,0,0,0,0,0,137,0,0,0,
0,0,0,0,0,0,0,0,0,0,0,0,137,0,0,0,
0,0,0,0,0,0,0,0,0,0,0,0,137,0,0,0,
0,0,0,0,0,0,0,0,0,0,0,0,137,0,0,0,
0,0,0,0,0,0,0,0,0,0,0,0,137,0,0,0
</chunk>
   <chunk x="48" y="-432" width="16" height="16">
0,0,135,0,0,0,0,0,0,0,0,0,0,0,0,0,
0,0,135,0,0,0,0,0,0,0,0,0,0,0,0,0,
0,0,135,0,0,0,0,0,0,0,0,0,0,0,0,0,
0,0,135,0,0,0,0,0,0,0,0,0,0,0,0,0,
0,0,135,0,0,0,0,0,0,0,0,0,0,0,0,0,
0,0,135,0,0,0,0,0,0,0,0,0,0,0,0,0,
0,0,135,0,0,0,0,0,0,0,0,0,0,0,0,0,
0,0,135,0,0,0,0,0,0,0,0,0,0,0,0,0,
0,0,135,0,0,0,0,0,0,0,0,0,0,0,0,0,
0,0,135,0,0,0,0,0,0,0,0,0,0,0,0,0,
0,0,135,0,0,0,0,0,0,0,0,0,0,0,0,0,
0,0,135,0,0,0,0,0,0,0,0,0,0,0,0,0,
0,0,135,0,0,0,0,0,0,0,0,0,0,0,0,0,
0,0,135,0,0,0,0,0,0,0,0,0,0,0,0,0,
0,0,135,0,0,0,0,0,0,0,0,0,0,0,0,0,
0,0,135,0,0,0,0,0,0,0,0,0,0,0,0,0
</chunk>
   <chunk x="32" y="-416" width="16" height="16">
0,0,0,0,0,0,0,0,0,0,0,0,137,0,0,0,
0,0,0,0,0,0,0,0,0,0,0,0,137,0,0,0,
0,0,0,0,0,0,0,0,0,0,0,0,137,0,0,0,
0,0,0,0,0,0,0,0,0,0,0,0,137,0,0,0,
0,0,0,0,0,0,0,0,0,0,0,0,137,0,0,0,
0,0,0,0,0,0,0,0,0,0,0,0,137,0,0,0,
0,0,0,0,0,0,0,0,0,0,0,0,137,0,0,0,
0,0,0,0,0,0,0,0,0,0,0,0,137,0,0,0,
0,0,0,0,0,0,0,0,0,0,0,0,137,0,0,0,
0,0,0,0,0,0,0,0,0,0,0,0,137,0,0,0,
0,0,0,0,0,0,0,0,0,0,0,0,137,0,0,0,
0,0,0,0,0,0,0,0,0,0,0,0,137,0,0,0,
0,0,0,0,0,0,0,0,0,0,0,0,137,0,0,0,
0,0,0,0,0,0,0,0,0,0,0,0,137,0,0,0,
0,0,0,0,0,0,0,0,0,0,0,0,137,0,0,0,
0,0,0,0,0,0,0,0,0,0,0,0,137,0,0,0
</chunk>
   <chunk x="48" y="-416" width="16" height="16">
0,0,135,0,0,0,0,0,0,0,0,0,0,0,0,0,
0,0,135,0,0,0,0,0,0,0,0,0,0,0,0,0,
0,0,135,0,0,0,0,0,0,0,0,0,0,0,0,0,
0,0,135,0,0,0,0,0,0,0,0,0,0,0,0,0,
0,0,135,0,0,0,0,0,0,0,0,0,0,0,0,0,
0,0,135,0,0,152,152,152,0,0,0,0,0,0,0,0,
0,0,135,0,137,0,0,0,0,0,0,0,0,0,0,0,
0,0,135,0,137,0,0,0,0,0,0,0,0,0,0,0,
0,0,135,0,0,120,120,120,0,0,0,0,0,0,0,0,
0,0,135,0,0,0,0,0,0,0,0,0,0,0,0,0,
0,0,135,0,0,0,0,0,0,0,0,0,0,0,0,0,
0,0,135,0,0,0,0,0,0,0,0,0,0,0,0,0,
0,0,135,0,0,0,0,0,0,0,0,0,0,0,0,0,
0,0,135,0,0,0,0,0,0,0,0,0,0,0,0,0,
0,0,135,0,0,0,0,0,0,0,0,0,0,0,0,0,
0,0,135,0,0,0,0,0,0,0,0,0,0,0,0,0
</chunk>
   <chunk x="32" y="-400" width="16" height="16">
0,0,0,0,0,0,0,0,0,0,0,0,137,0,0,0,
0,0,0,0,0,0,0,0,0,0,0,0,137,0,0,0,
0,0,0,0,0,0,0,0,0,0,0,0,137,0,0,0,
0,0,0,0,0,0,0,0,0,0,0,0,137,0,0,0,
0,0,0,0,0,0,0,0,0,0,0,0,137,0,0,0,
0,0,0,0,0,0,0,0,0,0,0,0,137,0,0,0,
0,0,0,0,0,0,0,0,0,0,0,0,137,0,0,0,
0,0,0,0,0,0,0,0,0,0,0,0,137,0,0,0,
0,0,0,0,0,0,0,0,0,0,0,0,137,0,0,0,
0,0,0,0,0,0,0,0,0,0,0,0,137,0,0,0,
0,0,0,0,0,0,0,0,0,0,0,0,137,0,0,0,
0,0,0,0,0,0,0,0,0,0,0,0,137,0,0,0,
0,0,0,0,0,0,0,0,0,0,0,0,137,0,0,0,
0,0,0,0,0,0,0,0,0,0,0,0,137,0,0,0,
0,0,0,0,0,0,0,0,0,0,0,0,137,0,0,0,
0,0,0,0,0,0,0,0,0,0,0,0,137,0,0,0
</chunk>
   <chunk x="48" y="-400" width="16" height="16">
0,0,135,0,0,0,0,0,0,0,0,0,0,0,0,0,
0,0,135,0,0,0,0,0,0,0,0,0,0,0,0,0,
0,0,135,0,0,0,0,0,0,0,0,0,0,0,0,0,
0,0,135,0,0,0,0,0,0,0,0,0,0,0,0,0,
0,0,135,0,0,0,0,0,0,0,0,0,0,0,0,0,
0,0,135,0,0,0,0,0,0,0,0,0,0,0,0,0,
0,0,135,0,0,0,0,0,0,0,0,0,0,0,0,0,
0,0,135,0,0,0,0,0,0,0,0,0,0,0,0,0,
0,0,135,0,0,0,0,0,0,0,0,0,0,0,0,0,
0,0,135,0,0,0,0,0,0,0,0,0,0,0,0,0,
0,0,135,0,0,0,0,0,0,0,0,0,0,0,0,0,
0,0,135,0,0,0,0,0,0,0,0,0,0,0,0,0,
0,0,135,0,0,0,0,0,0,0,0,0,0,0,0,0,
0,0,135,0,0,0,0,0,0,0,0,0,0,0,0,0,
0,0,135,0,0,0,0,0,0,0,0,0,0,0,0,0,
0,0,135,0,0,0,0,0,0,0,0,0,0,0,0,0
</chunk>
   <chunk x="32" y="-384" width="16" height="16">
0,0,0,0,0,0,0,0,0,0,0,0,137,0,0,0,
0,0,0,0,0,0,0,0,0,0,0,0,137,0,0,0,
0,0,0,0,0,0,0,0,0,0,0,0,137,0,0,0,
0,0,0,0,0,0,0,0,0,0,0,0,137,0,0,0,
0,0,0,0,0,0,0,0,0,0,0,0,137,0,0,0,
0,0,0,0,0,0,0,0,0,0,0,0,137,0,0,0,
0,0,0,0,0,0,0,0,0,0,0,0,137,0,0,0,
0,0,0,0,0,0,0,0,0,0,0,0,137,0,0,0,
0,0,0,0,0,0,0,0,0,0,0,0,137,0,0,0,
0,0,0,0,0,0,0,0,0,0,0,0,137,0,0,0,
0,0,0,0,0,0,0,0,0,0,0,0,137,0,0,0,
0,0,0,0,0,0,0,0,0,0,0,0,137,0,0,0,
0,0,0,0,0,0,0,0,0,0,0,0,137,0,0,0,
0,0,0,0,0,0,0,0,0,0,0,0,137,0,0,0,
0,0,0,0,0,0,0,0,0,0,0,0,137,0,0,0,
0,0,0,0,0,0,0,0,0,0,0,0,137,0,0,0
</chunk>
   <chunk x="48" y="-384" width="16" height="16">
0,0,135,0,0,0,0,0,0,0,0,0,0,0,0,0,
0,0,135,0,0,0,0,0,0,0,0,0,0,0,0,0,
0,0,135,0,0,0,0,0,0,0,0,0,0,0,0,0,
0,0,135,0,0,0,0,0,0,0,0,0,0,0,0,0,
0,0,135,0,0,0,0,0,0,0,0,0,0,0,0,0,
0,0,135,0,0,0,0,0,0,0,0,0,0,0,0,0,
0,0,135,0,0,0,0,0,0,0,0,0,0,0,0,0,
0,0,135,0,0,0,0,0,0,0,0,0,0,0,0,0,
0,0,135,0,0,0,0,0,0,0,0,0,0,0,0,0,
0,0,135,0,0,0,0,0,0,0,0,0,0,0,0,0,
0,0,135,0,0,0,0,0,0,0,0,0,0,0,0,0,
0,0,135,0,0,0,0,0,0,0,0,0,0,0,0,0,
0,0,135,0,0,0,0,0,0,0,0,0,0,0,0,0,
0,0,135,0,0,0,0,0,0,0,0,0,0,0,0,0,
0,0,135,0,0,0,0,0,0,0,0,0,0,0,0,0,
0,0,135,0,0,0,0,0,0,0,0,0,0,0,0,0
</chunk>
   <chunk x="32" y="-368" width="16" height="16">
0,0,0,0,0,0,0,0,0,0,0,0,137,0,0,0,
0,0,0,0,0,0,0,0,0,0,0,0,137,0,0,0,
0,0,0,0,0,0,0,0,0,0,0,0,137,0,0,0,
0,0,0,0,0,0,0,0,0,0,0,0,137,0,0,0,
0,0,0,0,0,0,0,0,0,0,0,0,137,0,0,0,
0,0,0,0,0,0,0,0,0,0,0,0,137,0,0,0,
0,0,0,0,0,0,0,0,0,0,0,0,137,0,0,0,
0,0,0,0,0,0,0,0,0,0,0,0,137,0,0,0,
0,0,0,0,0,0,0,0,0,0,0,0,137,0,0,0,
0,0,0,0,0,0,0,0,0,0,0,0,137,0,0,0,
0,0,0,0,0,0,0,0,0,0,0,0,137,0,0,0,
0,0,0,0,0,0,0,0,0,0,0,0,0,120,121,0,
0,0,0,0,0,0,0,0,0,0,0,0,0,0,137,0,
0,0,0,0,0,0,0,0,0,0,0,0,0,0,137,0,
0,0,0,0,0,0,0,0,0,0,0,0,0,152,153,0,
0,0,0,0,0,0,0,0,0,0,0,0,137,0,0,0
</chunk>
   <chunk x="48" y="-368" width="16" height="16">
0,0,135,0,0,0,0,0,0,0,0,0,0,0,0,0,
0,0,135,0,0,0,0,0,0,0,0,0,0,0,0,0,
0,0,135,0,0,0,0,0,0,0,0,0,0,0,0,0,
0,0,135,0,0,0,0,0,0,0,0,0,0,0,0,0,
0,0,135,0,0,0,0,0,0,0,0,0,0,0,0,0,
0,0,135,0,0,0,0,0,0,0,0,0,0,0,0,0,
0,0,135,0,0,0,0,0,0,0,0,0,0,0,0,0,
0,0,135,0,0,0,0,0,0,0,0,0,0,0,0,0,
0,0,135,0,0,0,0,0,0,0,0,0,0,0,0,0,
0,0,135,0,0,0,0,0,0,0,0,0,0,0,0,0,
0,0,135,0,0,0,0,0,0,0,0,0,0,0,0,0,
119,120,0,0,0,0,0,0,0,0,0,0,0,0,0,0,
135,0,0,0,0,0,0,0,0,0,0,0,0,0,0,0,
135,0,0,0,0,0,0,0,0,0,0,0,0,0,0,0,
151,152,0,0,0,0,0,0,0,0,0,0,0,0,0,0,
0,0,135,0,0,0,0,0,0,0,0,0,0,0,0,0
</chunk>
   <chunk x="32" y="-352" width="16" height="16">
0,0,0,0,0,0,0,0,0,0,0,0,137,0,0,0,
0,0,0,0,0,0,0,0,0,0,0,0,137,0,0,0,
0,0,0,0,0,0,0,0,0,0,0,0,137,0,0,0,
0,0,0,0,0,0,0,0,0,0,0,0,137,0,0,0,
0,0,0,0,0,0,0,0,0,0,0,0,137,0,0,0,
0,0,0,0,0,0,0,0,0,0,0,0,137,0,0,0,
0,0,0,0,0,0,0,0,0,0,0,0,137,0,0,0,
0,0,0,0,0,0,0,0,0,0,0,0,137,0,0,0,
0,0,0,0,0,0,0,0,0,0,0,0,137,0,0,0,
0,0,0,0,0,0,0,152,152,152,0,0,137,0,0,0,
0,0,0,0,0,0,0,0,0,0,135,0,137,0,0,0,
0,0,0,0,0,0,0,0,0,0,135,0,137,0,0,0,
0,0,0,0,0,0,0,120,120,120,0,0,137,0,0,0,
0,0,0,0,0,0,0,0,0,0,0,0,137,0,0,0,
0,0,0,0,0,0,0,0,0,0,0,0,137,0,0,0,
0,0,0,0,0,0,0,0,0,0,0,0,137,0,0,0
</chunk>
   <chunk x="48" y="-352" width="16" height="16">
0,0,135,0,0,0,0,0,0,0,0,0,0,0,0,0,
0,0,135,0,0,152,0,0,0,0,0,0,0,0,0,0,
0,0,135,0,153,0,151,0,0,0,0,0,0,0,0,0,
0,0,135,137,0,0,0,135,0,0,0,0,0,0,0,0,
0,0,135,0,121,0,0,135,0,0,0,0,0,0,0,0,
0,0,135,0,0,120,120,0,0,0,0,0,0,0,0,0,
0,0,135,0,0,0,0,0,0,0,0,0,0,0,0,0,
0,0,135,0,0,0,0,0,0,0,0,0,0,0,0,0,
0,0,135,0,0,0,0,0,0,0,0,0,0,0,0,0,
0,0,135,0,0,0,0,0,0,0,0,0,0,0,0,0,
0,0,135,0,0,0,0,0,0,0,0,0,0,0,0,0,
0,0,135,0,0,0,0,0,0,0,0,0,0,0,0,0,
0,0,151,0,0,0,0,0,0,0,0,0,0,0,0,0,
0,0,0,135,0,0,0,0,0,0,0,0,0,0,0,0,
0,0,119,0,0,0,0,0,0,0,0,0,0,0,0,0,
0,0,135,0,0,0,0,0,0,0,0,0,0,0,0,0
</chunk>
   <chunk x="32" y="-336" width="16" height="16">
0,0,0,0,0,0,0,0,0,0,0,0,137,0,0,0,
0,0,0,0,0,0,0,0,0,0,0,0,137,0,0,0,
0,0,0,0,0,0,0,0,0,0,0,0,137,0,0,0,
0,0,0,0,0,0,0,0,0,0,0,0,137,0,0,0,
0,0,0,0,0,0,0,0,0,0,0,0,137,0,0,0,
0,0,0,0,0,0,0,0,0,0,0,0,137,0,0,0,
0,0,0,0,0,0,0,0,0,0,0,0,137,0,0,0,
0,0,0,0,0,0,0,0,0,0,0,0,137,0,0,0,
0,0,0,0,0,0,0,0,0,0,0,0,137,0,0,0,
0,0,0,0,0,0,0,0,0,0,0,0,137,0,0,0,
0,0,0,0,0,0,0,0,0,0,0,0,137,0,0,0,
0,0,0,0,0,0,0,0,0,0,0,0,137,0,0,0,
0,0,0,0,0,0,0,0,0,0,0,0,137,0,0,0,
0,0,0,0,0,0,0,0,0,0,0,152,137,0,0,0,
0,0,0,0,0,0,0,0,0,0,137,0,145,0,0,0,
0,0,0,0,0,0,0,0,0,0,0,120,137,0,0,0
</chunk>
   <chunk x="48" y="-336" width="16" height="16">
0,0,135,0,0,152,0,0,0,0,0,0,0,0,0,0,
0,0,135,0,153,0,151,0,0,0,0,0,0,0,0,0,
0,0,135,137,0,0,0,135,0,0,0,0,0,0,0,0,
0,0,135,0,121,0,0,135,0,0,0,0,0,0,0,0,
0,0,135,0,137,0,119,0,0,0,0,0,0,0,0,0,
0,0,135,0,0,120,0,0,0,0,0,0,0,0,0,0,
0,0,135,0,0,0,0,0,0,0,0,0,0,0,0,0,
0,0,135,0,0,0,0,0,0,0,0,0,0,0,0,0,
0,0,135,0,0,0,0,0,0,0,0,0,0,0,0,0,
0,0,135,152,0,0,0,0,0,0,0,0,0,0,0,0,
0,0,145,0,135,0,0,0,0,0,0,0,0,0,0,0,
0,0,135,120,0,0,0,0,0,0,0,0,0,0,0,0,
0,0,135,0,0,0,0,0,0,0,0,0,0,0,0,0,
0,0,135,0,0,0,0,0,0,0,0,0,0,0,0,0,
0,0,135,0,0,0,0,0,0,0,0,0,0,0,0,0,
0,0,135,0,0,0,0,0,0,0,0,0,0,0,0,0
</chunk>
   <chunk x="32" y="-320" width="16" height="16">
0,0,0,0,0,0,0,0,0,0,0,0,137,0,0,0,
0,0,0,0,0,0,0,0,0,0,0,0,137,0,0,0,
0,0,0,0,0,0,0,0,0,0,0,0,137,0,0,0,
0,0,0,0,0,0,0,0,0,0,0,0,137,0,0,0,
0,0,0,0,0,0,0,0,0,0,0,0,137,0,0,0,
0,0,0,0,0,0,0,0,0,0,0,0,137,0,0,0,
0,0,0,0,0,0,0,0,0,0,0,152,137,0,0,0,
0,0,0,0,0,0,0,0,0,0,137,0,145,0,0,0,
0,0,0,0,0,0,0,0,0,0,0,120,137,0,0,0,
0,0,0,0,0,0,0,0,0,0,0,0,153,0,0,0,
0,0,0,0,0,0,0,0,0,0,0,137,0,0,0,0,
0,0,0,0,0,0,0,0,0,0,0,0,121,0,0,0,
0,0,0,0,0,0,0,0,0,0,0,0,137,0,0,0,
0,0,0,0,0,0,0,0,0,0,0,0,137,0,0,0,
0,0,0,0,0,0,0,0,0,0,0,0,137,0,0,0,
0,0,0,0,0,0,0,0,0,0,0,0,137,0,0,0
</chunk>
   <chunk x="48" y="-320" width="16" height="16">
0,0,135,0,0,0,0,0,0,0,0,0,0,0,0,0,
0,0,135,0,0,0,0,0,0,0,0,0,0,0,0,0,
0,0,135,0,0,0,0,0,0,0,0,0,0,0,0,0,
0,0,135,152,0,0,0,0,0,0,0,0,0,0,0,0,
0,0,145,0,135,0,0,0,0,0,0,0,0,0,0,0,
0,0,135,120,0,0,0,0,0,0,0,0,0,0,0,0,
0,0,135,152,0,0,0,0,0,0,0,0,0,0,0,0,
0,0,145,0,135,0,0,0,0,0,0,0,0,0,0,0,
0,0,135,120,0,0,0,0,0,0,0,0,0,0,0,0,
0,0,135,152,0,0,0,0,0,0,0,0,0,0,0,0,
0,0,145,0,135,0,0,0,0,0,0,0,0,0,0,0,
0,0,135,120,0,0,0,0,0,0,0,0,0,0,0,0,
0,0,135,0,0,0,0,0,0,0,0,0,0,0,0,0,
0,0,135,0,0,0,0,0,0,0,0,0,0,0,0,0,
0,0,135,0,0,0,0,0,0,0,0,0,0,0,0,0,
0,0,151,0,0,0,0,0,0,0,0,0,0,0,0,0
</chunk>
   <chunk x="32" y="-304" width="16" height="16">
0,0,0,0,0,0,0,152,152,152,0,0,137,0,0,0,
0,0,0,0,0,0,0,0,0,0,135,0,137,0,0,0,
0,0,0,0,0,0,0,0,0,0,135,0,137,0,0,0,
0,0,0,0,0,0,0,120,120,120,0,0,137,0,0,0,
0,0,0,0,0,0,0,0,0,0,0,0,137,0,0,0,
0,0,0,0,0,0,0,0,0,0,0,0,137,0,0,0,
0,0,0,0,0,0,0,0,0,0,0,0,137,0,0,0,
0,0,0,0,0,0,0,0,0,0,0,0,137,0,0,0,
0,0,0,0,0,0,0,0,0,0,0,0,137,0,0,0,
0,0,0,0,0,0,0,0,0,0,0,0,137,0,0,0,
0,0,0,0,0,0,0,0,0,0,0,0,137,0,0,0,
0,0,0,0,0,0,0,0,0,0,0,0,137,0,0,0,
0,0,0,0,0,0,0,0,0,0,0,0,137,0,0,0,
0,0,0,0,0,0,0,0,0,0,0,0,137,0,0,0,
0,0,0,0,0,0,0,0,0,0,0,0,137,0,0,0,
0,0,0,0,0,0,0,0,0,0,0,0,137,0,0,0
</chunk>
   <chunk x="48" y="-304" width="16" height="16">
0,0,0,135,0,0,0,0,0,0,0,0,0,0,0,0,
0,0,119,0,0,0,0,0,0,0,0,0,0,0,0,0,
0,0,135,0,0,0,0,0,0,0,0,0,0,0,0,0,
0,0,135,0,0,0,0,0,0,0,0,0,0,0,0,0,
0,0,135,0,0,0,0,0,0,0,0,0,0,0,0,0,
0,0,135,0,0,0,0,0,0,0,0,0,0,0,0,0,
0,0,135,0,0,0,0,0,0,0,0,0,0,0,0,0,
0,0,135,0,152,152,0,0,0,0,0,0,0,0,0,0,
0,0,135,137,0,0,151,0,0,0,0,0,0,0,0,0,
0,0,135,0,121,0,0,135,0,0,0,0,0,0,0,0,
0,0,135,0,137,0,119,0,0,0,0,0,0,0,0,0,
0,0,135,0,0,120,0,0,0,0,0,0,0,0,0,0,
0,0,135,0,0,0,0,0,0,0,0,0,0,0,0,0,
0,0,135,0,0,0,0,0,0,0,0,0,0,0,0,0,
0,0,135,0,0,0,0,0,0,0,0,0,0,0,0,0,
0,0,135,0,0,0,0,0,0,0,0,0,0,0,0,0
</chunk>
   <chunk x="32" y="-288" width="16" height="16">
0,0,0,0,0,0,0,0,0,0,0,0,137,0,0,0,
0,0,0,0,0,0,0,0,0,0,0,0,137,0,0,0,
0,0,0,0,0,0,0,0,0,0,0,0,137,0,0,0,
0,0,0,0,0,0,0,0,0,0,0,0,137,0,0,0,
0,0,0,0,0,0,0,0,0,0,0,0,137,0,0,0,
0,0,0,0,0,0,0,0,0,0,0,0,137,0,0,0,
0,0,0,0,0,0,0,0,0,0,0,0,137,0,0,0,
0,0,0,0,0,0,0,0,0,0,0,0,137,0,0,0,
0,0,0,0,0,0,0,0,0,0,0,0,137,0,0,0,
0,0,0,0,0,0,0,0,0,0,0,0,137,0,0,0,
0,0,0,0,0,0,0,0,0,0,0,0,137,0,0,0,
0,0,0,0,0,0,0,0,0,0,0,0,137,0,0,0,
0,0,0,0,0,0,0,0,0,0,0,0,137,0,0,0,
0,0,0,0,0,0,0,0,0,0,0,0,137,0,0,0,
0,0,0,0,0,0,0,0,0,0,0,0,137,0,0,0,
0,0,0,0,0,0,0,0,0,0,0,0,137,0,0,0
</chunk>
   <chunk x="48" y="-288" width="16" height="16">
0,0,135,0,0,0,0,0,0,0,0,0,0,0,0,0,
0,0,135,0,0,0,0,0,0,0,0,0,0,0,0,0,
0,0,135,0,0,0,0,0,0,0,0,0,0,0,0,0,
0,0,135,0,0,0,0,0,0,0,0,0,0,0,0,0,
0,0,135,0,0,0,0,0,0,0,0,0,0,0,0,0,
0,0,135,0,0,0,0,0,0,0,0,0,0,0,0,0,
0,0,135,0,0,0,0,0,0,0,0,0,0,0,0,0,
0,0,135,0,0,0,0,0,0,0,0,0,0,0,0,0,
0,0,135,0,0,0,0,0,0,0,0,0,0,0,0,0,
0,0,135,0,0,0,0,0,0,0,0,0,0,0,0,0,
0,0,135,0,0,0,0,0,0,0,0,0,0,0,0,0,
0,0,135,0,0,0,0,0,0,0,0,0,0,0,0,0,
0,0,135,0,0,0,0,0,0,0,0,0,0,0,0,0,
0,0,135,0,0,0,0,0,0,0,0,0,0,0,0,0,
0,0,135,0,152,0,0,0,0,0,0,0,0,0,0,0,
0,0,135,137,0,151,0,0,0,0,0,0,0,0,0,0
</chunk>
   <chunk x="32" y="-272" width="16" height="16">
0,0,0,0,0,0,0,0,0,0,0,0,137,0,0,0,
0,0,0,0,0,0,0,0,0,0,0,0,0,0,0,0,
0,0,0,0,0,0,0,0,0,0,0,0,0,0,148,146,
0,0,0,0,0,0,0,0,0,0,0,0,0,0,0,0,
0,0,0,0,0,0,0,0,0,0,0,0,121,0,0,0,
0,0,0,0,0,0,0,0,0,0,0,0,137,0,0,0,
0,0,0,0,0,0,0,0,0,0,0,0,137,0,0,0,
0,0,0,0,0,0,0,0,0,0,0,0,137,0,0,0,
0,0,0,0,0,0,0,0,0,0,0,0,137,0,0,0,
0,0,0,0,0,0,0,0,0,0,0,0,137,0,0,0,
0,0,0,0,0,0,0,0,0,0,0,0,137,0,0,0,
0,0,0,0,0,0,0,0,0,0,0,0,137,0,0,0,
0,0,0,0,0,0,0,0,0,0,0,0,0,147,0,0,
0,0,0,0,0,0,152,152,152,0,0,0,137,0,0,0,
0,0,0,0,0,0,0,0,0,135,0,0,137,0,0,0,
0,0,0,0,0,0,0,0,0,135,0,0,137,0,0,0
</chunk>
   <chunk x="48" y="-272" width="16" height="16">
0,0,135,137,0,0,135,0,0,0,0,0,0,0,0,0,
0,0,135,0,120,120,0,0,0,0,0,0,0,0,0,0,
147,0,135,0,0,0,0,0,0,0,0,0,0,0,0,0,
0,0,135,0,0,0,0,0,0,0,0,0,0,0,0,0,
0,0,135,0,0,0,0,0,0,0,0,0,0,0,0,0,
0,0,135,0,0,0,0,0,0,0,0,0,0,0,0,0,
0,0,135,0,0,0,0,0,0,0,0,0,0,0,0,0,
0,0,135,0,0,0,0,0,0,0,0,0,0,0,0,0,
0,0,135,0,0,0,0,0,0,0,0,0,0,0,0,0,
0,0,135,0,0,0,0,0,0,0,0,0,0,0,0,0,
0,0,135,0,0,0,0,0,0,0,0,0,0,0,0,0,
0,0,135,0,0,0,0,0,0,0,0,0,0,0,0,0,
0,148,0,0,0,0,0,0,0,0,0,0,0,0,0,0,
0,0,135,0,0,0,152,152,152,0,0,0,0,0,0,0,
0,0,135,0,0,137,0,0,0,0,0,0,0,0,0,0,
0,0,135,0,0,137,0,0,0,0,0,0,0,0,0,0
</chunk>
   <chunk x="32" y="-256" width="16" height="16">
0,0,0,0,0,0,120,120,120,0,0,0,137,0,0,0,
0,0,0,0,0,0,0,0,0,0,0,0,0,147,0,0,
0,0,0,0,0,0,0,0,0,0,0,0,137,0,0,0,
0,0,0,0,0,0,0,0,0,0,0,0,137,0,0,0,
0,0,0,0,0,0,0,0,0,0,0,0,137,0,0,0,
0,0,0,0,0,0,0,0,0,0,0,0,137,0,0,0,
0,0,0,0,0,0,0,0,0,0,0,0,137,0,0,0,
0,0,0,0,0,0,0,0,0,0,0,0,137,0,0,0,
0,0,0,0,0,0,0,0,0,0,0,0,137,0,0,0,
0,0,0,0,0,0,0,0,0,0,0,0,137,0,0,0,
0,0,0,0,0,0,0,0,0,0,0,0,137,0,0,0,
0,0,0,0,0,0,0,0,0,0,0,0,137,0,0,0,
0,0,0,0,0,0,0,0,0,0,0,0,137,0,0,0,
0,0,0,0,0,0,0,0,0,0,0,0,137,0,0,0,
0,0,0,0,0,0,0,0,0,0,0,0,137,0,0,0,
0,0,0,0,0,0,0,152,0,0,0,0,137,0,0,0
</chunk>
   <chunk x="48" y="-256" width="16" height="16">
0,0,135,0,0,0,120,120,120,0,0,0,0,0,0,0,
0,148,0,0,0,0,0,0,0,0,0,0,0,0,0,0,
0,0,135,0,0,0,0,0,0,0,0,0,0,0,0,0,
0,0,135,0,0,0,0,0,0,0,0,0,0,0,0,0,
0,0,135,0,0,0,0,0,0,0,0,0,0,0,0,0,
0,0,135,0,0,0,0,0,0,0,0,0,0,0,0,0,
0,0,135,0,0,0,0,0,0,0,0,0,0,0,0,0,
0,0,135,0,0,0,0,0,0,0,0,0,0,0,0,0,
0,0,135,0,0,0,0,0,0,0,0,0,0,0,0,0,
0,0,135,0,0,0,0,0,0,0,0,0,0,0,0,0,
0,0,135,0,0,0,0,0,0,0,0,0,0,0,0,0,
0,0,135,0,0,152,152,0,0,0,0,0,0,0,0,0,
0,0,135,0,137,0,0,135,0,0,0,0,0,0,0,0,
0,0,135,0,0,121,0,135,0,0,0,0,0,0,0,0,
0,0,135,0,0,0,120,0,0,0,0,0,0,0,0,0,
0,0,135,0,0,0,0,0,0,0,0,0,0,0,0,0
</chunk>
   <chunk x="32" y="-240" width="16" height="16">
0,0,0,0,0,0,137,0,151,0,0,0,137,0,0,0,
0,0,0,0,0,0,137,0,0,135,0,0,137,0,0,0,
0,0,0,0,0,0,0,121,0,135,0,0,137,0,0,0,
0,0,0,0,0,0,0,0,120,0,0,0,137,0,0,0,
0,0,0,0,0,0,0,0,0,0,0,0,137,0,0,0,
0,0,0,0,0,0,0,0,0,0,0,0,137,0,0,0,
0,0,0,0,0,0,0,0,0,0,0,0,137,0,0,0,
0,0,0,0,0,0,0,0,0,0,0,0,137,0,0,0,
0,0,0,0,0,0,0,0,0,0,0,0,137,0,0,0,
0,0,0,0,0,0,0,0,0,0,0,0,137,0,0,0,
0,0,0,0,0,0,0,0,0,0,0,0,137,0,0,0,
0,0,0,0,0,0,0,0,0,0,0,0,0,120,120,120,
0,0,0,0,0,0,0,0,0,0,0,0,0,152,152,152,
0,0,0,0,0,0,0,0,0,0,0,0,137,0,0,0,
0,0,0,0,0,0,0,0,0,0,0,0,137,0,0,0,
0,0,0,0,0,0,0,0,152,0,0,0,137,0,119,120
</chunk>
   <chunk x="48" y="-240" width="16" height="16">
0,0,135,0,0,0,0,0,0,0,0,0,0,0,0,0,
0,0,135,0,0,0,0,0,0,0,0,0,0,0,0,0,
0,0,135,0,0,0,0,0,0,0,0,0,0,0,0,0,
0,0,135,0,0,0,0,0,0,0,0,0,0,0,0,0,
0,0,135,0,0,0,0,0,0,0,0,0,0,0,0,0,
0,0,135,0,0,0,0,0,0,0,0,0,0,0,0,0,
0,0,135,0,0,0,0,0,0,0,0,0,0,0,0,0,
0,0,135,0,0,0,0,0,0,0,0,0,0,0,0,0,
0,0,135,0,0,0,0,0,0,0,0,0,0,0,0,0,
0,0,135,0,0,0,0,0,0,0,0,0,0,0,0,0,
0,0,135,0,0,0,0,0,0,0,0,0,0,0,0,0,
121,0,135,0,0,0,0,0,0,0,0,0,0,0,0,0,
153,0,135,0,0,0,0,0,0,0,0,0,0,0,0,0,
0,0,135,0,0,0,0,0,0,0,0,0,0,0,0,0,
0,0,135,0,152,0,0,0,0,0,0,0,0,0,0,0,
120,120,0,137,0,151,0,0,0,0,0,0,0,0,0,0
</chunk>
   <chunk x="32" y="-224" width="16" height="16">
0,0,0,0,0,0,0,153,0,151,0,0,137,0,151,152,
0,0,0,0,0,0,137,0,0,0,135,0,137,0,0,0,
0,0,0,0,0,0,0,120,120,120,0,0,137,0,0,0,
0,0,0,0,0,0,0,0,0,0,0,0,137,0,0,0,
0,0,0,0,0,0,0,0,0,0,0,0,137,0,0,0,
0,0,0,0,0,0,0,0,0,0,0,0,137,0,0,0,
0,0,0,0,0,0,0,0,0,0,0,0,137,0,0,0,
0,0,0,0,0,0,0,0,0,0,0,0,137,0,0,0,
0,0,0,0,0,0,0,0,0,0,0,0,137,0,0,0,
0,0,0,0,0,0,0,0,0,0,0,0,137,0,0,0,
0,0,0,0,0,0,0,0,0,0,0,0,137,0,0,0,
0,0,0,0,0,0,0,0,0,0,0,0,137,0,0,0,
0,0,0,0,0,0,0,0,0,0,0,0,137,0,0,0,
0,0,0,0,0,0,0,0,0,0,0,0,137,0,0,0,
0,0,0,0,0,0,0,0,0,0,0,0,137,0,0,0,
0,0,0,0,0,0,0,0,0,0,0,0,137,0,0,0
</chunk>
   <chunk x="48" y="-224" width="16" height="16">
152,152,0,137,0,0,151,0,0,0,0,0,0,0,0,0,
0,0,135,0,121,0,0,135,0,0,0,0,0,0,0,0,
0,0,135,0,0,120,120,0,0,0,0,0,0,0,0,0,
0,0,135,0,0,0,0,0,0,0,0,0,0,0,0,0,
0,0,135,0,0,0,0,0,0,0,0,0,0,0,0,0,
0,0,135,0,0,0,0,0,0,0,0,0,0,0,0,0,
0,0,135,0,0,0,0,0,0,0,0,0,0,0,0,0,
0,0,135,0,0,0,0,0,0,0,0,0,0,0,0,0,
0,0,135,0,0,0,0,0,0,0,0,0,0,0,0,0,
0,0,135,0,0,0,0,0,0,0,0,0,0,0,0,0,
0,0,135,0,0,0,152,0,0,0,0,0,0,0,0,0,
0,0,135,0,0,153,0,151,0,0,0,0,0,0,0,0,
0,0,135,0,137,0,0,0,135,0,0,0,0,0,0,0,
0,0,135,0,0,121,0,119,0,0,0,0,0,0,0,0,
0,0,135,0,0,0,120,0,0,0,0,0,0,0,0,0,
0,0,135,0,0,0,0,0,0,0,0,0,0,0,0,0
</chunk>
   <chunk x="32" y="-208" width="16" height="16">
0,0,0,0,0,0,152,152,152,0,0,0,137,0,0,0,
0,0,0,0,0,0,0,0,0,135,0,0,137,0,0,0,
0,0,0,0,0,0,0,0,0,135,0,0,137,0,0,0,
0,0,0,0,0,0,120,120,120,0,0,0,137,0,0,0,
0,0,0,0,0,0,0,0,0,0,0,0,137,0,0,0,
0,0,0,0,0,0,0,0,0,0,0,0,137,0,0,0,
0,0,0,0,0,0,0,0,0,0,0,0,137,0,0,0,
0,0,0,0,0,0,0,0,0,0,0,0,137,0,0,0,
0,0,0,0,0,0,0,0,0,0,0,0,137,0,0,0,
0,0,0,0,0,0,0,0,0,0,0,0,137,0,0,0,
0,0,0,0,0,0,0,0,0,0,0,0,137,0,0,0,
0,0,0,0,0,0,0,0,0,0,0,0,137,0,0,0,
0,0,0,0,0,0,0,0,0,0,0,0,137,0,0,119,
0,0,0,0,0,0,0,0,0,0,0,0,137,0,148,0,
0,0,0,0,0,0,0,0,0,0,0,0,137,0,0,135,
0,0,0,0,0,0,0,152,152,0,0,0,0,120,121,0
</chunk>
   <chunk x="48" y="-208" width="16" height="16">
0,0,135,0,0,0,0,0,0,0,0,0,0,0,0,0,
0,0,135,0,0,0,0,0,0,0,0,0,0,0,0,0,
0,0,135,0,0,0,0,0,0,0,0,0,0,0,0,0,
0,0,135,0,0,0,0,0,0,0,0,0,0,0,0,0,
0,0,135,0,0,0,0,0,0,0,0,0,0,0,0,0,
0,0,135,0,0,0,0,0,0,0,0,0,0,0,0,0,
0,0,135,0,0,0,0,0,0,0,0,0,0,0,0,0,
0,0,135,0,0,152,0,0,0,0,0,0,0,0,0,0,
0,0,135,0,153,0,151,0,0,0,0,0,0,0,0,0,
0,0,135,137,0,0,0,135,0,0,0,0,0,0,0,0,
0,119,0,0,121,0,119,0,0,0,0,0,0,0,0,0,
119,0,0,0,0,120,0,0,0,0,0,0,0,0,0,0,
0,0,0,0,0,0,0,0,0,0,0,0,0,0,0,0,
0,0,152,0,0,0,0,0,0,0,0,0,0,0,0,0,
0,137,0,135,0,0,0,0,0,0,0,0,0,0,0,0,
135,0,120,0,0,0,0,0,0,0,0,0,0,0,0,0
</chunk>
   <chunk x="32" y="-192" width="16" height="16">
0,0,0,0,0,0,137,0,0,135,0,0,0,0,153,0,
0,0,0,0,0,0,0,121,0,135,0,0,0,153,0,0,
0,0,0,0,0,0,0,0,120,0,0,0,137,0,0,0,
0,0,0,0,0,0,0,0,0,0,0,0,137,0,0,0,
0,0,0,0,0,0,0,0,0,0,0,0,137,0,0,0,
0,0,0,0,0,0,0,0,0,0,0,0,153,0,0,0,
0,0,0,0,0,0,0,0,0,0,0,137,0,0,0,0,
0,0,0,0,0,0,0,0,0,0,0,137,0,0,0,0,
0,0,0,0,0,0,0,0,0,0,0,137,0,0,0,0,
0,0,0,0,0,0,0,0,0,0,0,137,0,0,0,0,
0,0,0,0,0,0,0,0,0,0,0,137,0,0,0,0,
0,0,0,0,0,0,0,0,0,0,0,0,121,0,0,0,
0,0,0,0,0,0,0,0,0,0,0,0,137,0,0,0,
0,0,0,0,0,0,0,0,0,0,0,0,137,0,0,0,
0,0,0,0,0,0,0,0,0,0,0,0,137,0,0,0,
0,0,0,0,0,0,0,0,152,0,0,0,137,0,0,0
</chunk>
   <chunk x="48" y="-192" width="16" height="16">
151,0,0,0,0,0,0,0,0,0,0,0,0,0,0,0,
0,151,0,0,0,0,0,0,0,0,0,0,0,0,0,0,
0,0,135,0,0,0,0,0,0,0,0,0,0,0,0,0,
0,0,135,0,0,0,0,0,0,0,0,0,0,0,0,0,
0,0,135,0,0,0,0,0,0,0,0,0,0,0,0,0,
0,0,151,0,0,0,0,0,0,0,0,0,0,0,0,0,
0,0,0,135,0,0,152,0,0,0,0,0,0,0,0,0,
0,0,0,135,0,137,0,151,0,0,0,0,0,0,0,0,
0,0,0,135,0,137,0,0,135,0,0,0,0,0,0,0,
0,0,0,135,0,137,0,119,0,0,0,0,0,0,0,0,
0,0,0,135,0,0,120,0,0,0,0,0,0,0,0,0,
0,0,119,0,0,0,0,0,0,0,0,0,0,0,0,0,
0,0,135,0,0,0,0,0,0,0,0,0,0,0,0,0,
0,0,135,0,0,0,0,0,0,0,0,0,0,0,0,0,
0,0,135,0,0,0,0,0,0,0,0,0,0,0,0,0,
0,0,135,0,0,0,0,0,0,0,0,0,0,0,0,0
</chunk>
   <chunk x="32" y="-176" width="16" height="16">
0,0,0,0,0,0,0,137,0,151,0,0,137,0,0,0,
0,0,0,0,0,0,0,137,0,0,135,0,137,0,0,0,
0,0,0,0,0,0,0,0,121,0,135,0,137,0,0,0,
0,0,0,0,0,0,0,0,0,120,0,0,137,0,0,0,
0,0,0,0,0,0,0,0,0,0,0,0,137,0,0,0,
0,0,0,0,0,0,0,0,0,0,0,0,137,0,0,0,
0,0,0,0,0,0,0,0,0,0,0,0,137,0,0,0,
0,0,0,0,0,0,0,0,0,0,0,0,137,0,0,0,
0,0,0,0,0,0,0,0,0,0,0,0,137,0,0,0,
0,0,0,0,0,0,0,0,0,0,0,0,137,0,0,0,
0,0,0,0,0,0,0,0,0,0,0,0,137,0,0,0,
0,0,0,0,0,0,0,0,0,0,0,152,137,0,0,0,
0,0,0,0,0,0,0,0,0,0,137,0,145,0,0,0,
0,0,0,0,0,0,0,0,0,0,0,120,137,0,0,0,
0,0,0,0,0,0,0,0,0,0,0,0,137,0,0,0,
0,0,0,0,0,0,0,0,0,0,0,0,137,0,0,0
</chunk>
   <chunk x="48" y="-176" width="16" height="16">
0,0,135,0,0,0,0,0,0,0,0,0,0,0,0,0,
0,0,135,0,0,0,0,0,0,0,0,0,0,0,0,0,
0,0,135,0,0,0,0,0,0,0,0,0,0,0,0,0,
0,0,135,0,0,0,0,0,0,0,0,0,0,0,0,0,
0,0,135,0,0,0,0,0,0,0,0,0,0,0,0,0,
0,0,135,0,0,152,0,0,0,0,0,0,0,0,0,0,
0,0,135,0,153,0,151,0,0,0,0,0,0,0,0,0,
0,0,135,137,0,0,0,135,0,0,0,0,0,0,0,0,
0,0,135,137,0,0,0,135,0,0,0,0,0,0,0,0,
0,0,135,0,120,120,120,0,0,0,0,0,0,0,0,0,
0,0,135,0,0,0,0,0,0,0,0,0,0,0,0,0,
0,0,135,0,0,0,0,0,0,0,0,0,0,0,0,0,
0,0,135,0,0,0,0,0,0,0,0,0,0,0,0,0,
0,0,0,0,0,0,0,0,0,0,0,0,0,0,0,0,
0,0,0,0,0,0,0,0,0,0,0,0,0,0,0,0,
0,0,0,0,0,0,0,0,0,0,0,0,0,0,0,0
</chunk>
   <chunk x="32" y="-160" width="16" height="16">
0,0,0,0,0,0,0,0,0,0,0,0,137,0,0,0,
0,0,0,0,0,0,0,0,0,0,0,0,137,0,0,0,
0,0,0,0,0,0,0,0,0,0,0,0,137,0,0,0,
0,0,0,0,0,0,0,0,0,0,0,0,137,0,0,0,
0,0,0,0,0,0,0,0,0,0,0,0,137,0,0,0,
0,0,0,0,0,0,0,0,0,0,0,0,137,0,0,0,
0,0,0,0,0,0,0,0,0,0,0,0,137,0,0,0,
0,0,0,0,0,0,0,0,0,0,0,0,137,0,0,0,
0,0,0,0,0,0,0,0,0,0,0,0,137,0,0,0,
0,0,0,0,0,0,0,0,0,0,0,0,137,0,0,0,
0,0,0,0,0,0,0,0,0,0,0,0,137,0,0,0,
0,0,0,0,0,0,0,0,0,0,0,0,137,0,0,0,
0,0,0,0,0,0,0,0,0,0,0,0,137,0,0,0,
0,0,0,0,0,0,0,0,0,0,0,0,137,0,0,0,
0,0,0,0,0,0,0,0,0,0,0,0,137,0,0,0,
0,0,0,0,0,0,0,0,0,0,0,0,137,0,0,0
</chunk>
   <chunk x="48" y="-160" width="16" height="16">
0,0,0,0,0,0,0,0,0,0,0,0,0,0,0,0,
0,0,0,0,0,0,0,0,0,0,0,0,0,0,0,0,
0,0,0,0,135,0,0,0,0,0,0,0,0,0,0,0,
0,0,0,0,135,0,0,0,0,0,0,0,0,0,0,0,
0,0,119,120,0,0,0,0,0,0,0,0,0,0,0,0,
0,0,135,0,0,0,0,0,0,0,0,0,0,0,0,0,
0,0,135,0,152,0,0,0,0,0,0,0,0,0,0,0,
0,0,135,137,0,151,0,0,0,0,0,0,0,0,0,0,
0,0,135,137,0,0,135,0,0,0,0,0,0,0,0,0,
0,0,135,0,120,120,0,0,0,0,0,0,0,0,0,0,
0,0,135,0,0,0,0,0,0,0,0,0,0,0,0,0,
0,0,135,0,0,0,0,0,0,0,0,0,0,0,0,0,
0,0,135,0,0,0,0,0,0,0,0,0,0,0,0,0,
0,0,135,0,0,0,0,0,0,0,0,0,0,0,0,0,
0,0,135,0,0,0,0,0,0,0,0,0,0,0,0,0,
0,0,135,0,0,0,0,0,0,0,0,0,0,0,0,0
</chunk>
   <chunk x="32" y="-144" width="16" height="16">
0,0,0,0,0,0,0,0,0,0,0,0,137,0,0,0,
0,0,0,0,0,0,0,0,0,0,0,0,137,0,0,0,
0,0,0,0,0,0,152,152,152,0,0,0,137,0,0,0,
0,0,0,0,0,0,0,0,0,135,0,0,137,0,0,0,
0,0,0,0,0,0,0,0,0,135,0,0,137,0,0,0,
0,0,0,0,0,0,120,120,120,0,0,0,137,0,0,0,
0,0,0,0,0,0,0,0,0,0,0,0,137,0,0,0,
0,0,0,0,0,0,0,0,0,0,0,0,137,0,0,0,
0,0,0,0,0,0,0,0,0,0,0,0,137,0,0,0,
0,0,0,0,0,0,0,0,0,0,0,0,137,0,0,0,
0,0,0,0,0,0,0,0,0,0,0,0,137,0,0,0,
0,0,0,0,0,0,0,0,0,0,0,0,137,0,0,0,
0,0,0,0,0,0,0,0,0,0,0,0,137,0,0,0,
0,0,0,0,0,0,0,0,0,0,0,0,137,0,0,0,
0,0,0,0,0,0,0,0,0,0,0,0,137,0,0,0,
0,0,0,0,0,0,0,0,0,0,0,0,137,0,0,0
</chunk>
   <chunk x="48" y="-144" width="16" height="16">
0,0,135,0,0,0,0,0,0,0,0,0,0,0,0,0,
0,0,135,0,0,152,152,0,0,0,0,0,0,0,0,0,
0,0,135,0,137,0,0,151,0,0,0,0,0,0,0,0,
0,0,135,0,137,0,0,0,135,0,0,0,0,0,0,0,
0,0,135,0,0,121,0,119,0,0,0,0,0,0,0,0,
0,0,135,0,0,0,120,0,0,0,0,0,0,0,0,0,
0,0,135,0,0,0,0,0,0,0,0,0,0,0,0,0,
0,0,135,0,0,0,0,0,0,0,0,0,0,0,0,0,
0,0,135,0,0,0,0,0,0,0,0,0,0,0,0,0,
0,0,135,0,0,0,0,0,0,0,0,0,0,0,0,0,
0,0,135,0,0,0,0,0,0,0,0,0,0,0,0,0,
0,0,135,0,0,0,0,0,0,0,0,0,0,0,0,0,
0,0,135,0,0,152,152,152,0,0,0,0,0,0,0,0,
0,0,135,0,137,0,0,0,0,0,0,0,0,0,0,0,
0,0,135,0,137,0,0,0,0,0,0,0,0,0,0,0,
0,0,135,0,0,120,120,120,0,0,0,0,0,0,0,0
</chunk>
   <chunk x="32" y="-128" width="16" height="16">
0,0,0,0,0,0,0,152,152,0,0,0,137,0,0,0,
0,0,0,0,0,0,137,0,0,151,0,0,137,0,0,0,
0,0,0,0,0,0,137,0,0,0,135,0,137,0,0,0,
0,0,0,0,0,0,0,121,0,119,0,0,137,0,0,0,
0,0,0,0,0,0,0,0,120,0,0,0,137,0,0,0,
0,0,0,0,0,0,0,0,0,0,0,0,137,0,0,0,
0,0,0,0,0,0,0,0,0,0,0,0,137,0,0,0,
0,0,0,0,0,0,0,0,0,0,0,0,137,0,0,0,
0,0,0,0,0,0,0,0,0,0,0,0,137,0,0,0,
0,0,0,0,0,0,0,0,0,0,0,0,137,0,0,0,
0,0,0,0,0,0,0,0,0,0,0,0,137,0,0,0,
0,0,0,0,0,0,0,0,0,0,0,0,137,0,0,0,
0,0,0,0,0,0,0,0,0,0,0,0,137,0,0,0,
0,0,0,0,0,0,0,0,0,0,0,0,137,0,0,0,
0,0,0,0,0,0,0,0,0,0,0,0,137,0,0,0,
0,0,0,0,0,0,0,0,0,0,0,0,137,0,0,0
</chunk>
   <chunk x="48" y="-128" width="16" height="16">
0,0,135,0,0,0,0,0,0,0,0,0,0,0,0,0,
0,0,135,0,0,0,0,0,0,0,0,0,0,0,0,0,
0,0,135,0,0,0,0,0,0,0,0,0,0,0,0,0,
0,0,135,0,0,0,0,0,0,0,0,0,0,0,0,0,
0,0,135,0,0,0,0,0,0,0,0,0,0,0,0,0,
0,0,135,0,0,0,0,0,0,0,0,0,0,0,0,0,
0,0,135,0,0,0,0,0,0,0,0,0,0,0,0,0,
0,0,135,0,0,0,152,152,0,0,0,0,0,0,0,0,
0,0,135,0,0,153,0,0,135,0,0,0,0,0,0,0,
0,0,135,0,137,0,0,0,135,0,0,0,0,0,0,0,
0,0,135,0,0,121,0,119,0,0,0,0,0,0,0,0,
0,0,135,0,0,0,120,0,0,0,0,0,0,0,0,0,
0,0,135,0,0,0,0,0,0,0,0,0,0,0,0,0,
0,0,135,0,0,0,0,0,0,0,0,0,0,0,0,0,
0,0,135,0,0,0,0,0,0,0,0,0,0,0,0,0,
0,0,135,0,0,0,0,0,0,0,0,0,0,0,0,0
</chunk>
   <chunk x="32" y="-112" width="16" height="16">
0,0,0,0,0,0,0,0,0,0,0,0,137,0,0,0,
0,0,0,0,0,0,0,0,0,0,0,0,137,0,0,0,
0,0,0,0,0,0,0,0,0,0,0,0,137,0,0,0,
0,0,0,0,0,0,0,0,0,0,0,0,137,0,0,0,
0,0,0,0,0,0,0,0,0,0,0,0,137,0,0,0,
0,0,0,0,0,0,0,0,0,0,0,0,137,0,0,0,
0,0,0,0,0,0,0,0,0,0,0,0,137,0,0,0,
0,0,0,0,0,0,0,0,0,0,0,0,137,0,0,0,
0,0,0,0,0,0,0,0,0,0,0,0,137,0,0,0,
0,0,0,0,0,0,0,0,0,0,0,0,137,0,0,0,
0,0,0,0,0,0,0,0,0,0,0,0,137,0,0,0,
0,0,0,0,0,0,0,0,0,0,0,0,137,0,0,0,
0,0,0,0,0,0,0,0,0,0,0,0,137,0,0,0,
0,0,0,0,0,0,0,0,0,0,0,0,137,0,0,0,
0,0,0,0,0,0,0,0,0,0,0,0,137,0,0,0,
0,0,0,0,0,0,0,0,0,0,0,0,137,0,0,0
</chunk>
   <chunk x="48" y="-112" width="16" height="16">
0,0,135,0,0,0,0,0,0,0,0,0,0,0,0,0,
0,0,135,0,0,0,0,0,0,0,0,0,0,0,0,0,
0,0,135,0,0,0,0,0,0,0,0,0,0,0,0,0,
0,0,135,0,0,0,0,0,0,0,0,0,0,0,0,0,
0,0,135,0,0,0,0,0,0,0,0,0,0,0,0,0,
0,0,135,0,0,0,0,0,0,0,0,0,0,0,0,0,
0,0,135,0,0,0,0,0,0,0,0,0,0,0,0,0,
0,0,135,0,0,0,0,0,0,0,0,0,0,0,0,0,
0,0,135,0,0,0,0,0,0,0,0,0,0,0,0,0,
0,0,135,0,0,152,152,0,0,0,0,0,0,0,0,0,
0,0,135,0,137,0,0,151,0,0,0,0,0,0,0,0,
0,0,135,0,137,0,0,0,135,0,0,0,0,0,0,0,
0,0,135,0,137,0,0,0,135,0,0,0,0,0,0,0,
0,0,135,0,0,121,0,119,0,0,0,0,0,0,0,0,
0,0,135,0,0,0,120,0,0,0,0,0,0,0,0,0,
0,0,135,0,0,0,0,0,0,0,0,0,0,0,0,0
</chunk>
   <chunk x="32" y="-96" width="16" height="16">
0,0,0,0,0,0,0,0,0,0,0,0,137,0,0,0,
0,0,0,0,0,0,0,0,0,0,0,0,137,0,0,0,
0,0,0,0,0,0,0,0,0,0,0,0,137,0,0,0,
0,0,0,0,0,0,0,0,0,0,0,0,137,0,0,0,
0,0,0,0,0,0,0,0,0,0,0,0,137,0,0,0,
0,0,0,0,0,0,0,0,0,0,0,0,137,0,0,0,
0,0,0,0,0,0,0,0,0,0,0,0,137,0,0,0,
0,0,0,0,0,0,0,0,0,0,0,0,137,0,0,0,
0,0,0,0,0,0,0,0,0,0,0,152,137,0,0,0,
0,0,0,0,0,0,0,0,0,0,137,0,145,0,0,0,
0,0,0,0,0,0,0,0,0,0,0,120,137,0,0,0,
0,0,0,0,0,0,0,0,0,0,0,0,137,0,0,0,
0,0,0,0,0,0,0,0,0,0,0,0,137,0,0,0,
0,0,0,0,0,0,0,0,0,0,0,0,137,0,0,0,
0,0,0,0,0,0,0,0,0,0,0,152,137,0,0,0,
0,0,0,0,0,0,0,0,0,0,137,0,145,0,0,0
</chunk>
   <chunk x="48" y="-96" width="16" height="16">
0,0,135,0,0,0,0,0,0,0,0,0,0,0,0,0,
0,0,135,0,0,0,0,0,0,0,0,0,0,0,0,0,
0,0,135,0,0,0,0,0,0,0,0,0,0,0,0,0,
0,0,135,0,0,0,0,0,0,0,0,0,0,0,0,0,
0,0,135,0,0,0,0,0,0,0,0,0,0,0,0,0,
0,0,135,152,0,0,0,0,0,0,0,0,0,0,0,0,
0,0,145,0,135,0,0,0,0,0,0,0,0,0,0,0,
0,0,135,120,0,0,0,0,0,0,0,0,0,0,0,0,
0,0,135,0,0,0,0,0,0,0,0,0,0,0,0,0,
0,0,135,0,0,0,0,0,0,0,0,0,0,0,0,0,
0,0,135,0,0,0,0,0,0,0,0,0,0,0,0,0,
0,0,135,152,0,0,0,0,0,0,0,0,0,0,0,0,
0,0,145,0,135,0,0,0,0,0,0,0,0,0,0,0,
0,0,135,120,0,0,0,0,0,0,0,0,0,0,0,0,
0,0,135,0,0,0,0,0,0,0,0,0,0,0,0,0,
0,0,135,0,0,0,152,0,0,0,0,0,0,0,0,0
</chunk>
   <chunk x="32" y="-80" width="16" height="16">
0,0,0,0,0,0,0,0,0,0,0,120,137,0,0,0,
0,0,0,0,0,0,0,0,0,0,0,0,137,0,0,0,
0,0,0,0,0,0,0,0,0,0,0,0,137,0,0,0,
0,0,0,0,0,0,0,0,0,0,0,152,137,0,0,0,
0,0,0,0,0,0,0,0,0,0,137,0,135,121,0,0,
0,0,0,0,0,0,0,0,0,0,137,0,135,153,0,0,
0,0,0,0,0,0,0,0,0,0,0,120,137,0,0,0,
0,0,0,0,0,0,0,0,0,0,0,0,137,0,0,0,
0,0,0,0,0,0,0,0,0,0,0,0,137,0,0,0,
0,0,0,0,0,0,0,0,0,0,0,0,137,0,0,0,
0,0,0,0,0,0,0,0,0,0,0,0,137,0,0,0,
0,0,0,0,0,0,0,0,0,0,0,0,137,0,0,0,
0,0,0,0,0,0,0,0,0,0,0,0,137,0,0,0,
0,0,0,0,0,0,0,0,0,0,0,0,137,0,0,0,
0,0,0,0,0,0,0,0,0,0,0,0,137,0,0,0,
0,0,0,0,0,0,0,0,0,0,0,0,137,0,0,0
</chunk>
   <chunk x="48" y="-80" width="16" height="16">
0,0,135,0,0,153,0,151,0,0,0,0,0,0,0,0,
0,0,135,0,137,0,0,0,135,0,0,0,0,0,0,0,
0,0,135,0,0,121,0,0,135,0,0,0,0,0,0,0,
0,0,135,0,0,0,120,120,0,0,0,0,0,0,0,0,
0,0,135,0,0,0,0,0,0,0,0,0,0,0,0,0,
0,0,135,0,0,0,0,0,0,0,0,0,0,0,0,0,
0,0,135,152,0,0,0,0,0,0,0,0,0,0,0,0,
0,119,137,0,135,0,0,0,0,0,0,0,0,0,0,0,
0,151,137,0,135,0,0,0,0,0,0,0,0,0,0,0,
0,0,135,120,0,0,0,0,0,0,0,0,0,0,0,0,
0,0,135,0,0,0,0,0,0,0,0,0,0,0,0,0,
0,0,135,0,0,0,0,0,0,0,0,0,0,0,0,0,
0,0,135,0,0,0,0,0,0,0,0,0,0,0,0,0,
0,0,135,0,0,0,0,0,0,0,0,0,0,0,0,0,
0,0,135,0,0,0,0,0,0,0,0,0,0,0,0,0,
0,0,135,0,0,0,0,0,0,0,0,0,0,0,0,0
</chunk>
   <chunk x="32" y="-64" width="16" height="16">
0,0,0,0,0,0,0,0,0,0,0,0,137,0,0,0,
0,0,0,0,0,0,0,0,0,0,0,0,137,0,0,0,
0,0,0,0,0,0,0,0,0,0,0,0,137,0,0,0,
0,0,0,0,0,0,0,0,0,0,0,0,137,0,0,0,
0,0,0,0,0,0,0,0,0,0,0,0,137,0,0,0,
0,0,0,0,0,0,0,0,0,0,0,0,137,0,0,0,
0,0,0,0,0,0,0,0,0,0,0,0,137,0,0,0,
0,0,0,0,0,0,0,0,0,0,0,0,137,0,0,0,
0,0,0,0,0,0,0,0,0,0,0,0,137,0,0,0,
0,0,0,0,0,0,0,0,0,0,0,0,137,0,0,0,
0,0,0,0,0,0,0,0,0,0,0,0,137,0,0,0,
0,0,0,0,0,0,0,152,152,0,0,0,137,0,0,0,
0,0,0,0,0,0,137,0,0,135,0,0,137,0,0,0,
0,0,0,0,0,0,137,0,0,151,0,0,137,0,0,0,
0,0,0,0,0,0,0,121,0,0,135,0,137,0,0,0,
0,0,0,0,0,0,0,0,120,120,0,0,137,0,0,0
</chunk>
   <chunk x="48" y="-64" width="16" height="16">
0,0,135,0,0,0,0,0,0,0,0,0,0,0,0,0,
0,0,135,0,0,0,0,0,0,0,0,0,0,0,0,0,
0,0,135,0,0,0,0,0,0,0,0,0,0,0,0,0,
0,0,135,0,0,0,0,0,0,0,0,0,0,0,0,0,
0,0,135,0,0,0,0,0,0,0,0,0,0,0,0,0,
0,0,135,0,0,0,0,0,0,0,0,0,0,0,0,0,
0,0,135,0,0,0,0,0,0,0,0,0,0,0,0,0,
0,0,135,0,0,0,0,0,0,0,0,0,0,0,0,0,
0,0,135,0,0,0,0,0,0,0,0,0,0,0,0,0,
0,0,135,0,0,152,152,152,0,0,0,0,0,0,0,0,
0,0,135,0,137,0,0,0,0,0,0,0,0,0,0,0,
0,0,135,0,137,0,0,0,0,0,0,0,0,0,0,0,
0,0,135,0,0,120,120,120,0,0,0,0,0,0,0,0,
0,0,135,0,0,0,0,0,0,0,0,0,0,0,0,0,
0,0,135,0,0,0,0,0,0,0,0,0,0,0,0,0,
0,0,135,0,0,0,0,0,0,0,0,0,0,0,0,0
</chunk>
   <chunk x="32" y="-48" width="16" height="16">
0,0,0,0,0,0,0,0,0,0,0,0,137,0,0,0,
0,0,0,0,0,0,0,0,0,0,0,0,137,0,0,0,
0,0,0,0,0,0,0,0,0,0,0,0,137,0,0,0,
0,0,0,0,0,0,0,0,0,0,0,0,137,0,0,0,
0,0,0,0,0,0,0,0,0,0,0,0,137,0,0,0,
0,0,0,0,0,0,0,0,0,0,0,0,137,0,0,0,
0,0,0,0,0,0,0,0,0,0,0,0,137,0,0,0,
0,0,0,0,0,0,0,0,0,0,0,0,137,0,0,0,
0,0,0,0,0,0,0,0,0,0,0,0,137,0,0,0,
0,0,0,0,0,0,0,0,0,0,0,0,137,0,0,0,
0,0,0,0,0,0,0,0,0,0,0,0,137,0,0,0,
0,0,0,0,0,0,0,0,0,0,0,0,137,0,0,0,
0,0,0,0,0,0,0,0,0,0,0,0,137,0,0,0,
0,0,0,0,0,0,0,0,0,0,0,0,137,0,0,0,
0,0,0,0,0,0,0,0,0,0,0,0,137,0,0,0,
0,0,0,0,0,0,0,0,0,0,0,0,137,0,0,0
</chunk>
   <chunk x="48" y="-48" width="16" height="16">
0,0,135,0,0,0,0,0,0,0,0,0,0,0,0,0,
0,0,135,0,0,0,0,0,0,0,0,0,0,0,0,0,
0,0,135,0,0,0,0,0,0,0,0,0,0,0,0,0,
0,0,135,0,0,0,0,0,0,0,0,0,0,0,0,0,
0,0,135,0,0,0,0,0,0,0,0,0,0,0,0,0,
0,0,135,0,0,0,0,0,0,0,0,0,0,0,0,0,
0,0,135,0,0,152,152,0,0,0,0,0,0,0,0,0,
0,0,135,0,137,0,0,151,0,0,0,0,0,0,0,0,
0,0,135,0,153,0,0,0,135,0,0,0,0,0,0,0,
0,0,135,137,0,0,0,0,135,0,0,0,0,0,0,0,
0,0,135,0,120,121,0,0,135,0,0,0,0,0,0,0,
0,0,135,0,0,0,120,120,0,0,0,0,0,0,0,0,
0,0,135,0,0,0,0,0,0,0,0,0,0,0,0,0,
0,0,135,0,0,0,0,0,0,0,0,0,0,0,0,0,
0,0,135,0,0,0,0,0,0,0,0,0,0,0,0,0,
0,0,135,0,0,0,0,0,0,0,0,0,0,0,0,0
</chunk>
   <chunk x="32" y="-32" width="16" height="16">
0,0,0,0,0,0,152,152,152,0,0,0,137,0,0,0,
0,0,0,0,0,0,0,0,0,135,0,0,137,0,0,0,
0,0,0,0,0,0,0,0,0,135,0,0,137,0,0,0,
0,0,0,0,0,0,120,120,120,0,0,0,137,0,0,0,
0,0,0,0,0,0,0,0,0,0,0,0,137,0,0,0,
0,0,0,0,0,0,0,0,0,0,0,0,137,0,0,0,
0,0,0,0,0,0,0,0,0,0,0,0,137,0,0,0,
0,0,0,0,0,0,0,0,0,0,0,0,137,0,0,0,
0,0,0,0,0,0,0,0,0,0,0,0,137,0,0,0,
0,0,0,0,0,0,0,0,0,0,0,0,137,0,0,0,
0,0,0,0,0,0,0,0,0,0,0,0,137,0,0,0,
0,0,0,0,0,0,0,0,0,0,0,0,137,0,0,0,
0,0,0,0,0,0,0,0,0,0,0,0,137,0,0,0,
0,0,0,0,0,0,0,0,0,0,0,0,137,0,0,0,
0,0,0,0,0,0,0,0,0,0,0,0,137,0,0,0,
0,0,0,0,0,0,0,0,0,0,0,0,137,0,0,0
</chunk>
   <chunk x="48" y="-32" width="16" height="16">
0,0,135,0,0,0,0,0,0,0,0,0,0,0,0,0,
0,0,135,0,0,0,0,0,0,0,0,0,0,0,0,0,
0,0,135,0,0,0,0,0,0,0,0,0,0,0,0,0,
0,0,135,0,152,152,152,0,0,0,0,0,0,0,0,0,
0,0,135,137,0,0,0,151,0,0,0,0,0,0,0,0,
0,0,135,137,0,0,0,0,135,0,0,0,0,0,0,0,
0,0,135,137,0,0,0,0,135,0,0,0,0,0,0,0,
0,0,135,0,120,121,0,0,135,0,0,0,0,0,0,0,
0,0,135,0,0,0,120,120,0,0,0,0,0,0,0,0,
0,0,135,0,0,0,0,0,0,0,0,0,0,0,0,0,
0,0,135,0,0,0,0,0,0,0,0,0,0,0,0,0,
0,0,135,0,0,0,0,0,0,0,0,0,0,0,0,0,
0,0,135,0,0,0,0,0,0,0,0,0,0,0,0,0,
0,0,135,0,0,0,0,0,0,0,0,0,0,0,0,0,
0,0,135,0,0,0,0,0,0,0,0,0,0,0,0,0,
0,0,135,0,0,0,0,0,0,0,0,0,0,0,0,0
</chunk>
   <chunk x="32" y="-16" width="16" height="16">
0,0,0,0,0,0,0,0,0,0,0,0,137,0,0,0,
0,0,0,0,0,0,0,0,0,0,0,0,137,0,0,0,
0,0,0,0,0,0,0,0,0,0,0,0,137,0,0,0,
0,0,0,0,0,0,0,0,0,0,0,0,137,0,0,0,
0,0,0,0,0,0,0,0,0,0,0,0,137,0,0,0,
0,0,0,0,0,0,0,0,0,0,0,0,137,0,0,0,
0,0,0,0,0,0,0,0,0,0,0,0,137,0,0,0,
0,0,0,0,0,0,0,0,0,0,0,0,137,0,0,0,
0,0,0,0,0,0,0,0,0,0,0,0,137,0,0,0,
0,0,0,0,0,0,0,0,0,0,0,0,137,0,0,0,
0,0,0,0,0,0,0,0,0,0,0,0,137,0,0,0,
0,0,0,0,0,0,0,0,0,0,0,0,137,0,0,0,
0,0,0,0,0,0,0,0,0,0,0,0,137,0,0,0,
0,0,0,0,0,0,0,0,0,0,0,0,137,0,0,0,
0,0,0,0,0,0,0,0,0,0,0,0,137,0,0,0,
0,0,0,0,0,0,0,0,0,0,0,0,137,0,0,0
</chunk>
   <chunk x="48" y="-16" width="16" height="16">
0,0,135,0,0,0,0,0,0,0,0,0,0,0,0,0,
0,0,135,0,0,0,0,0,0,0,0,0,0,0,0,0,
0,0,135,0,0,0,0,0,0,0,0,0,0,0,0,0,
0,0,135,0,0,0,0,0,0,0,0,0,0,0,0,0,
0,0,135,0,0,0,0,0,0,0,0,0,0,0,0,0,
0,0,135,0,0,0,0,0,0,0,0,0,0,0,0,0,
0,0,135,0,0,0,152,152,152,0,0,0,0,0,0,0,
0,0,135,0,0,137,0,0,0,135,0,0,0,0,0,0,
0,0,135,0,0,137,0,0,0,135,0,0,0,0,0,0,
0,0,135,0,0,137,0,0,119,0,0,0,0,0,0,0,
0,0,135,0,0,0,120,120,0,0,0,0,0,0,0,0,
0,0,135,0,0,0,0,0,0,0,0,0,0,0,0,0,
0,0,135,0,0,0,0,0,0,0,0,0,0,0,0,0,
0,0,135,0,0,0,0,0,0,0,0,0,0,0,0,0,
0,0,135,0,0,0,0,0,0,0,0,0,0,0,0,0,
0,0,135,0,0,0,0,0,0,0,0,0,0,0,0,0
</chunk>
   <chunk x="32" y="0" width="16" height="16">
0,0,0,0,0,0,0,152,152,152,0,0,137,0,0,0,
0,0,0,0,0,0,0,0,0,0,135,0,137,0,0,0,
0,0,0,0,0,0,0,0,0,0,135,0,137,0,0,0,
0,0,0,0,0,0,0,120,120,120,0,0,137,0,0,0,
0,0,0,0,0,0,0,0,0,0,0,0,137,0,0,0,
0,0,0,0,0,0,0,0,0,0,0,0,137,0,0,0,
0,0,0,0,0,0,0,0,0,0,0,0,137,0,0,0,
0,0,0,0,0,0,0,0,0,0,0,0,137,0,0,0,
0,0,0,0,0,0,0,0,0,0,0,0,137,0,0,0,
0,0,0,0,0,0,0,0,0,0,0,0,137,0,0,0,
0,0,0,0,0,0,0,0,0,0,0,0,137,0,0,0,
0,0,0,0,0,0,0,0,0,0,0,0,137,0,0,0,
0,0,0,0,0,0,0,0,0,0,0,0,137,0,0,0,
0,0,0,0,0,0,0,0,0,0,0,0,137,0,0,0,
0,0,0,0,0,0,0,0,0,0,0,0,137,0,0,0,
0,0,0,0,0,0,0,0,0,0,0,0,137,0,0,0
</chunk>
   <chunk x="48" y="0" width="16" height="16">
0,0,135,0,0,0,0,0,0,0,0,0,0,0,0,0,
0,0,135,0,0,0,0,0,0,0,0,0,0,0,0,0,
0,0,135,0,0,0,0,0,0,0,0,0,0,0,0,0,
0,0,135,0,0,0,0,0,0,0,0,0,0,0,0,0,
0,0,135,0,0,0,0,0,0,0,0,0,0,0,0,0,
0,0,135,0,0,0,0,0,0,0,0,0,0,0,0,0,
0,0,135,0,0,0,0,0,0,0,0,0,0,0,0,0,
0,0,135,0,0,0,0,0,0,0,0,0,0,0,0,0,
0,0,135,0,0,0,0,0,0,0,0,0,0,0,0,0,
0,0,135,0,0,0,0,0,0,0,0,0,0,0,0,0,
0,0,135,0,0,0,0,0,0,0,0,0,0,0,0,0,
0,0,135,0,0,0,0,0,0,0,0,0,0,0,0,0,
0,0,135,0,0,0,0,0,0,0,0,0,0,0,0,0,
0,0,135,0,0,0,0,0,0,0,0,0,0,0,0,0,
0,0,135,0,0,0,0,0,0,0,0,0,0,0,0,0,
0,0,135,0,0,0,0,0,0,0,0,0,0,0,0,0
</chunk>
   <chunk x="32" y="16" width="16" height="16">
0,0,0,0,0,0,0,0,0,0,0,0,137,0,0,0,
0,0,0,0,0,0,0,0,0,0,0,0,137,0,0,0,
0,0,0,0,0,0,0,0,0,0,0,0,137,0,0,0,
0,0,0,0,0,0,0,0,0,0,0,0,137,0,0,0,
0,0,0,0,0,0,0,0,0,0,0,0,137,0,0,0,
0,0,0,0,0,0,0,0,0,0,0,0,137,0,0,0,
0,0,0,0,0,0,0,0,0,0,0,0,137,0,0,0,
0,0,0,0,0,0,0,0,0,0,0,0,137,0,0,0,
0,0,0,0,0,0,0,0,0,0,0,0,137,0,0,0,
0,0,0,0,0,0,0,0,0,0,0,0,137,0,0,0,
0,0,0,0,0,0,0,0,0,0,0,0,137,0,0,0,
0,0,0,0,0,0,0,0,0,0,0,0,137,0,0,0,
0,0,0,0,0,0,0,0,0,0,0,0,137,0,0,0,
0,0,0,0,0,0,0,0,0,0,0,0,137,0,0,0,
0,0,0,0,0,0,0,0,0,0,0,0,137,0,0,0,
0,0,0,0,0,0,0,0,0,0,0,0,0,0,0,0
</chunk>
   <chunk x="48" y="16" width="16" height="16">
0,0,135,0,0,0,0,0,0,0,0,0,0,0,0,0,
0,0,135,0,0,152,152,152,0,0,0,0,0,0,0,0,
0,0,135,0,137,0,0,0,0,0,0,0,0,0,0,0,
0,0,135,0,137,0,0,0,0,0,0,0,0,0,0,0,
0,0,135,0,0,120,120,120,0,0,0,0,0,0,0,0,
0,0,135,0,0,0,0,0,0,0,0,0,0,0,0,0,
0,0,135,0,0,0,0,0,0,0,0,0,0,0,0,0,
0,0,135,0,0,0,0,0,0,0,0,0,0,0,0,0,
0,0,135,0,0,0,0,0,0,0,0,0,0,0,0,0,
0,0,135,0,0,0,0,0,0,0,0,0,0,0,0,0,
0,0,135,0,0,0,0,0,0,0,0,0,0,0,0,0,
0,0,135,0,0,0,0,0,0,0,0,0,0,0,0,0,
0,0,135,0,0,0,0,0,0,0,0,0,0,0,0,0,
0,0,135,0,0,0,0,0,0,0,0,0,0,0,0,0,
0,0,135,0,0,0,0,0,0,0,0,0,0,0,0,0,
0,0,0,0,0,0,0,0,0,0,0,0,0,0,0,0
</chunk>
  </data>
 </layer>
 <layer id="6" name="FloorShadow" width="30" height="20">
  <data encoding="csv">
   <chunk x="32" y="-480" width="16" height="16">
0,0,0,0,0,0,0,0,0,0,0,0,0,0,0,0,
0,0,0,0,0,0,0,0,0,0,0,0,0,0,0,0,
0,0,0,0,0,0,0,0,0,0,0,0,0,0,0,0,
0,0,0,0,0,0,0,0,0,0,0,0,0,0,0,0,
0,0,0,0,0,0,0,0,0,0,0,0,0,0,0,0,
0,0,0,0,0,0,0,0,0,0,0,0,0,0,0,0,
0,0,0,0,0,0,0,0,0,0,0,0,0,0,0,0,
0,0,0,0,0,0,0,0,0,0,0,0,0,0,0,0,
0,0,0,0,0,0,0,0,0,0,0,0,0,0,0,0,
0,0,0,0,0,0,0,0,0,0,0,0,0,0,0,0,
0,0,0,0,0,0,0,0,0,0,0,0,0,0,0,0,
0,0,0,0,0,0,0,0,0,0,0,0,0,0,0,0,
0,0,0,0,0,0,0,0,0,0,0,0,0,0,0,0,
0,0,0,0,0,0,0,0,0,0,0,0,0,0,0,0,
0,0,0,0,0,0,0,0,0,0,0,0,0,0,318,318,
0,0,0,0,0,0,0,0,0,0,0,0,0,0,0,0
</chunk>
   <chunk x="48" y="-480" width="16" height="16">
0,0,0,0,0,0,0,0,0,0,0,0,0,0,0,0,
0,0,0,0,0,0,0,0,0,0,0,0,0,0,0,0,
0,0,0,0,0,0,0,0,0,0,0,0,0,0,0,0,
0,0,0,0,0,0,0,0,0,0,0,0,0,0,0,0,
0,0,0,0,0,0,0,0,0,0,0,0,0,0,0,0,
0,0,0,0,0,0,0,0,0,0,0,0,0,0,0,0,
0,0,0,0,0,0,0,0,0,0,0,0,0,0,0,0,
0,0,0,0,0,0,0,0,0,0,0,0,0,0,0,0,
0,0,0,0,0,0,0,0,0,0,0,0,0,0,0,0,
0,0,0,0,0,0,0,0,0,0,0,0,0,0,0,0,
0,0,0,0,0,0,0,0,0,0,0,0,0,0,0,0,
0,0,0,0,0,0,0,0,0,0,0,0,0,0,0,0,
0,0,0,0,0,0,0,0,0,0,0,0,0,0,0,0,
0,0,0,0,0,0,0,0,0,0,0,0,0,0,0,0,
318,0,0,0,0,0,0,0,0,0,0,0,0,0,0,0,
0,0,0,0,0,0,0,0,0,0,0,0,0,0,0,0
</chunk>
   <chunk x="48" y="-416" width="16" height="16">
0,0,0,0,0,0,0,0,0,0,0,0,0,0,0,0,
0,0,0,0,0,0,0,0,0,0,0,0,0,0,0,0,
0,0,0,0,0,0,0,0,0,0,0,0,0,0,0,0,
0,0,0,0,0,0,0,0,0,0,0,0,0,0,0,0,
0,0,0,0,0,0,0,0,0,0,0,0,0,0,0,0,
0,0,0,0,0,0,0,2684354877,0,0,0,0,0,0,0,0,
0,0,0,0,0,0,0,2684354877,0,0,0,0,0,0,0,0,
0,0,0,0,0,0,0,2684354877,0,0,0,0,0,0,0,0,
0,0,0,0,0,0,0,2684354877,0,0,0,0,0,0,0,0,
0,0,0,0,0,0,0,0,0,0,0,0,0,0,0,0,
0,0,0,0,0,0,0,0,0,0,0,0,0,0,0,0,
0,0,0,0,0,0,0,0,0,0,0,0,0,0,0,0,
0,0,0,0,0,0,0,0,0,0,0,0,0,0,0,0,
0,0,0,0,0,0,0,0,0,0,0,0,0,0,0,0,
0,0,0,0,0,0,0,0,0,0,0,0,0,0,0,0,
0,0,0,0,0,0,0,0,0,0,0,0,0,0,0,0
</chunk>
   <chunk x="32" y="-352" width="16" height="16">
0,0,0,0,0,0,0,0,0,0,0,0,0,0,0,0,
0,0,0,0,0,0,0,0,0,0,0,0,0,0,0,0,
0,0,0,0,0,0,0,0,0,0,0,0,0,0,0,0,
0,0,0,0,0,0,0,0,0,0,0,0,0,0,0,0,
0,0,0,0,0,0,0,0,0,0,0,0,0,0,0,0,
0,0,0,0,0,0,0,0,0,0,0,0,0,0,0,0,
0,0,0,0,0,0,0,0,0,0,0,0,0,0,0,0,
0,0,0,0,0,0,0,0,0,0,0,0,0,0,0,0,
0,0,0,0,0,0,0,0,0,0,0,0,0,0,0,0,
0,0,0,0,0,0,0,536871229,0,0,0,0,0,0,0,0,
0,0,0,0,0,0,0,536871229,0,0,0,0,0,0,0,0,
0,0,0,0,0,0,0,536871229,0,0,0,0,0,0,0,0,
0,0,0,0,0,0,0,536871229,0,0,0,0,0,0,0,0,
0,0,0,0,0,0,0,0,0,0,0,0,0,0,0,0,
0,0,0,0,0,0,0,0,0,0,0,0,0,0,0,0,
0,0,0,0,0,0,0,0,0,0,0,0,0,0,0,0
</chunk>
   <chunk x="32" y="-304" width="16" height="16">
0,0,0,0,0,0,0,536871229,0,0,0,0,0,0,0,0,
0,0,0,0,0,0,0,536871229,0,0,0,0,0,0,0,0,
0,0,0,0,0,0,0,536871229,0,0,0,0,0,0,0,0,
0,0,0,0,0,0,0,536871229,0,0,0,0,0,0,0,0,
0,0,0,0,0,0,0,0,0,0,0,0,0,0,0,0,
0,0,0,0,0,0,0,0,0,0,0,0,0,0,0,0,
0,0,0,0,0,0,0,0,0,0,0,0,0,0,0,0,
0,0,0,0,0,0,0,0,0,0,0,0,0,0,0,0,
0,0,0,0,0,0,0,0,0,0,0,0,0,0,0,0,
0,0,0,0,0,0,0,0,0,0,0,0,0,0,0,0,
0,0,0,0,0,0,0,0,0,0,0,0,0,0,0,0,
0,0,0,0,0,0,0,0,0,0,0,0,0,0,0,0,
0,0,0,0,0,0,0,0,0,0,0,0,0,0,0,0,
0,0,0,0,0,0,0,0,0,0,0,0,0,0,0,0,
0,0,0,0,0,0,0,0,0,0,0,0,0,0,0,0,
0,0,0,0,0,0,0,0,0,0,0,0,0,0,0,0
</chunk>
   <chunk x="32" y="-272" width="16" height="16">
0,0,0,0,0,0,0,0,0,0,0,0,0,0,0,0,
0,0,0,0,0,0,0,0,0,0,0,0,0,0,0,0,
0,0,0,0,0,0,0,0,0,0,0,0,0,0,0,0,
0,0,0,0,0,0,0,0,0,0,0,0,1610613052,0,0,0,
0,0,0,0,0,0,0,0,0,0,0,0,1610613052,0,0,0,
0,0,0,0,0,0,0,0,0,0,0,0,0,0,0,0,
0,0,0,0,0,0,0,0,0,0,0,0,0,0,0,0,
0,0,0,0,0,0,0,0,0,0,0,0,0,0,0,0,
0,0,0,0,0,0,0,0,0,0,0,0,0,0,0,0,
0,0,0,0,0,0,0,0,0,0,0,0,0,0,0,0,
0,0,0,0,0,0,0,0,0,0,0,0,0,0,0,0,
0,0,0,0,0,0,0,0,0,0,0,0,0,0,0,0,
0,0,0,0,0,0,0,0,0,0,0,0,0,0,0,0,
0,0,0,0,0,0,536871229,0,0,0,0,0,0,0,0,0,
0,0,0,0,0,0,536871229,0,0,0,0,0,0,0,0,0,
0,0,0,0,0,0,536871229,0,0,0,0,0,0,0,0,0
</chunk>
   <chunk x="48" y="-272" width="16" height="16">
0,0,0,0,0,0,0,0,0,0,0,0,0,0,0,0,
0,0,0,0,0,0,0,0,0,0,0,0,0,0,0,0,
0,0,0,0,0,0,0,0,0,0,0,0,0,0,0,0,
0,0,0,0,0,0,0,0,0,0,0,0,0,0,0,0,
0,0,0,0,0,0,0,0,0,0,0,0,0,0,0,0,
0,0,0,0,0,0,0,0,0,0,0,0,0,0,0,0,
0,0,0,0,0,0,0,0,0,0,0,0,0,0,0,0,
0,0,0,0,0,0,0,0,0,0,0,0,0,0,0,0,
0,0,0,0,0,0,0,0,0,0,0,0,0,0,0,0,
0,0,0,0,0,0,0,0,0,0,0,0,0,0,0,0,
0,0,0,0,0,0,0,0,0,0,0,0,0,0,0,0,
0,0,0,0,0,0,0,0,0,0,0,0,0,0,0,0,
0,0,0,0,0,0,0,0,0,0,0,0,0,0,0,0,
0,0,0,0,0,0,0,0,2684354877,0,0,0,0,0,0,0,
0,0,0,0,0,0,0,0,2684354877,0,0,0,0,0,0,0,
0,0,0,0,0,0,0,0,2684354877,0,0,0,0,0,0,0
</chunk>
   <chunk x="32" y="-256" width="16" height="16">
0,0,0,0,0,0,536871229,0,0,0,0,0,0,0,0,0,
0,0,0,0,0,0,0,0,0,0,0,0,0,0,0,0,
0,0,0,0,0,0,0,0,0,0,0,0,0,0,0,0,
0,0,0,0,0,0,0,0,0,0,0,0,0,0,0,0,
0,0,0,0,0,0,0,0,0,0,0,0,0,0,0,0,
0,0,0,0,0,0,0,0,0,0,0,0,0,0,0,0,
0,0,0,0,0,0,0,0,0,0,0,0,0,0,0,0,
0,0,0,0,0,0,0,0,0,0,0,0,0,0,0,0,
0,0,0,0,0,0,0,0,0,0,0,0,0,0,0,0,
0,0,0,0,0,0,0,0,0,0,0,0,0,0,0,0,
0,0,0,0,0,0,0,0,0,0,0,0,0,0,0,0,
0,0,0,0,0,0,0,0,0,0,0,0,0,0,0,0,
0,0,0,0,0,0,0,0,0,0,0,0,0,0,0,0,
0,0,0,0,0,0,0,0,0,0,0,0,0,0,0,0,
0,0,0,0,0,0,0,0,0,0,0,0,0,0,0,0,
0,0,0,0,0,0,0,0,0,0,0,0,0,0,0,0
</chunk>
   <chunk x="48" y="-256" width="16" height="16">
0,0,0,0,0,0,0,0,2684354877,0,0,0,0,0,0,0,
0,0,0,0,0,0,0,0,0,0,0,0,0,0,0,0,
0,0,0,0,0,0,0,0,0,0,0,0,0,0,0,0,
0,0,0,0,0,0,0,0,0,0,0,0,0,0,0,0,
0,0,0,0,0,0,0,0,0,0,0,0,0,0,0,0,
0,0,0,0,0,0,0,0,0,0,0,0,0,0,0,0,
0,0,0,0,0,0,0,0,0,0,0,0,0,0,0,0,
0,0,0,0,0,0,0,0,0,0,0,0,0,0,0,0,
0,0,0,0,0,0,0,0,0,0,0,0,0,0,0,0,
0,0,0,0,0,0,0,0,0,0,0,0,0,0,0,0,
0,0,0,0,0,0,0,0,0,0,0,0,0,0,0,0,
0,0,0,0,0,0,0,0,0,0,0,0,0,0,0,0,
0,0,0,0,0,0,0,0,0,0,0,0,0,0,0,0,
0,0,0,0,0,0,0,0,0,0,0,0,0,0,0,0,
0,0,0,0,0,0,0,0,0,0,0,0,0,0,0,0,
0,0,0,0,0,0,0,0,0,0,0,0,0,0,0,0
</chunk>
   <chunk x="32" y="-208" width="16" height="16">
0,0,0,0,0,0,536871229,0,0,0,0,0,0,0,0,0,
0,0,0,0,0,0,536871229,0,0,0,0,0,0,0,0,0,
0,0,0,0,0,0,536871229,0,0,0,0,0,0,0,0,0,
0,0,0,0,0,0,536871229,0,0,0,0,0,0,0,0,0,
0,0,0,0,0,0,0,0,0,0,0,0,0,0,0,0,
0,0,0,0,0,0,0,0,0,0,0,0,0,0,0,0,
0,0,0,0,0,0,0,0,0,0,0,0,0,0,0,0,
0,0,0,0,0,0,0,0,0,0,0,0,0,0,0,0,
0,0,0,0,0,0,0,0,0,0,0,0,0,0,0,0,
0,0,0,0,0,0,0,0,0,0,0,0,0,0,0,0,
0,0,0,0,0,0,0,0,0,0,0,0,0,0,0,0,
0,0,0,0,0,0,0,0,0,0,0,0,0,0,0,0,
0,0,0,0,0,0,0,0,0,0,0,0,0,0,0,0,
0,0,0,0,0,0,0,0,0,0,0,0,0,0,0,0,
0,0,0,0,0,0,0,0,0,0,0,0,0,0,0,0,
0,0,0,0,0,0,0,0,0,0,0,0,0,0,0,0
</chunk>
   <chunk x="32" y="-144" width="16" height="16">
0,0,0,0,0,0,0,0,0,0,0,0,0,0,0,0,
0,0,0,0,0,0,0,0,0,0,0,0,0,0,0,0,
0,0,0,0,0,0,536871229,0,0,0,0,0,0,0,0,0,
0,0,0,0,0,0,536871229,0,0,0,0,0,0,0,0,0,
0,0,0,0,0,0,536871229,0,0,0,0,0,0,0,0,0,
0,0,0,0,0,0,536871229,0,0,0,0,0,0,0,0,0,
0,0,0,0,0,0,0,0,0,0,0,0,0,0,0,0,
0,0,0,0,0,0,0,0,0,0,0,0,0,0,0,0,
0,0,0,0,0,0,0,0,0,0,0,0,0,0,0,0,
0,0,0,0,0,0,0,0,0,0,0,0,0,0,0,0,
0,0,0,0,0,0,0,0,0,0,0,0,0,0,0,0,
0,0,0,0,0,0,0,0,0,0,0,0,0,0,0,0,
0,0,0,0,0,0,0,0,0,0,0,0,0,0,0,0,
0,0,0,0,0,0,0,0,0,0,0,0,0,0,0,0,
0,0,0,0,0,0,0,0,0,0,0,0,0,0,0,0,
0,0,0,0,0,0,0,0,0,0,0,0,0,0,0,0
</chunk>
   <chunk x="48" y="-144" width="16" height="16">
0,0,0,0,0,0,0,0,0,0,0,0,0,0,0,0,
0,0,0,0,0,0,0,0,0,0,0,0,0,0,0,0,
0,0,0,0,0,0,0,0,0,0,0,0,0,0,0,0,
0,0,0,0,0,0,0,0,0,0,0,0,0,0,0,0,
0,0,0,0,0,0,0,0,0,0,0,0,0,0,0,0,
0,0,0,0,0,0,0,0,0,0,0,0,0,0,0,0,
0,0,0,0,0,0,0,0,0,0,0,0,0,0,0,0,
0,0,0,0,0,0,0,0,0,0,0,0,0,0,0,0,
0,0,0,0,0,0,0,0,0,0,0,0,0,0,0,0,
0,0,0,0,0,0,0,0,0,0,0,0,0,0,0,0,
0,0,0,0,0,0,0,0,0,0,0,0,0,0,0,0,
0,0,0,0,0,0,0,0,0,0,0,0,0,0,0,0,
0,0,0,0,0,0,0,2684354877,0,0,0,0,0,0,0,0,
0,0,0,0,0,0,0,2684354877,0,0,0,0,0,0,0,0,
0,0,0,0,0,0,0,2684354877,0,0,0,0,0,0,0,0,
0,0,0,0,0,0,0,2684354877,0,0,0,0,0,0,0,0
</chunk>
   <chunk x="48" y="-64" width="16" height="16">
0,0,0,0,0,0,0,0,0,0,0,0,0,0,0,0,
0,0,0,0,0,0,0,0,0,0,0,0,0,0,0,0,
0,0,0,0,0,0,0,0,0,0,0,0,0,0,0,0,
0,0,0,0,0,0,0,0,0,0,0,0,0,0,0,0,
0,0,0,0,0,0,0,0,0,0,0,0,0,0,0,0,
0,0,0,0,0,0,0,0,0,0,0,0,0,0,0,0,
0,0,0,0,0,0,0,0,0,0,0,0,0,0,0,0,
0,0,0,0,0,0,0,0,0,0,0,0,0,0,0,0,
0,0,0,0,0,0,0,0,0,0,0,0,0,0,0,0,
0,0,0,0,0,0,0,2684354877,0,0,0,0,0,0,0,0,
0,0,0,0,0,0,0,2684354877,0,0,0,0,0,0,0,0,
0,0,0,0,0,0,0,2684354877,0,0,0,0,0,0,0,0,
0,0,0,0,0,0,0,2684354877,0,0,0,0,0,0,0,0,
0,0,0,0,0,0,0,0,0,0,0,0,0,0,0,0,
0,0,0,0,0,0,0,0,0,0,0,0,0,0,0,0,
0,0,0,0,0,0,0,0,0,0,0,0,0,0,0,0
</chunk>
   <chunk x="32" y="-32" width="16" height="16">
0,0,0,0,0,0,536871229,0,0,0,0,0,0,0,0,0,
0,0,0,0,0,0,536871229,0,0,0,0,0,0,0,0,0,
0,0,0,0,0,0,536871229,0,0,0,0,0,0,0,0,0,
0,0,0,0,0,0,536871229,0,0,0,0,0,0,0,0,0,
0,0,0,0,0,0,0,0,0,0,0,0,0,0,0,0,
0,0,0,0,0,0,0,0,0,0,0,0,0,0,0,0,
0,0,0,0,0,0,0,0,0,0,0,0,0,0,0,0,
0,0,0,0,0,0,0,0,0,0,0,0,0,0,0,0,
0,0,0,0,0,0,0,0,0,0,0,0,0,0,0,0,
0,0,0,0,0,0,0,0,0,0,0,0,0,0,0,0,
0,0,0,0,0,0,0,0,0,0,0,0,0,0,0,0,
0,0,0,0,0,0,0,0,0,0,0,0,0,0,0,0,
0,0,0,0,0,0,0,0,0,0,0,0,0,0,0,0,
0,0,0,0,0,0,0,0,0,0,0,0,0,0,0,0,
0,0,0,0,0,0,0,0,0,0,0,0,0,0,0,0,
0,0,0,0,0,0,0,0,0,0,0,0,0,0,0,0
</chunk>
   <chunk x="32" y="0" width="16" height="16">
0,0,0,0,0,0,0,536871229,0,0,0,0,0,0,0,0,
0,0,0,0,0,0,0,536871229,0,0,0,0,0,0,0,0,
0,0,0,0,0,0,0,536871229,0,0,0,0,0,0,0,0,
0,0,0,0,0,0,0,536871229,0,0,0,0,0,0,0,0,
0,0,0,0,0,0,0,0,0,0,0,0,0,0,0,0,
0,0,0,0,0,0,0,0,0,0,0,0,0,0,0,0,
0,0,0,0,0,0,0,0,0,0,0,0,0,0,0,0,
0,0,0,0,0,0,0,0,0,0,0,0,0,0,0,0,
0,0,0,0,0,0,0,0,0,0,0,0,0,0,0,0,
0,0,0,0,0,0,0,0,0,0,0,0,0,0,0,0,
0,0,0,0,0,0,0,0,0,0,0,0,0,0,0,0,
0,0,0,0,0,0,0,0,0,0,0,0,0,0,0,0,
0,0,0,0,0,0,0,0,0,0,0,0,0,0,0,0,
0,0,0,0,0,0,0,0,0,0,0,0,0,0,0,0,
0,0,0,0,0,0,0,0,0,0,0,0,0,0,0,0,
0,0,0,0,0,0,0,0,0,0,0,0,0,0,0,0
</chunk>
   <chunk x="48" y="16" width="16" height="16">
0,0,0,0,0,0,0,0,0,0,0,0,0,0,0,0,
0,0,0,0,0,0,0,2684354877,0,0,0,0,0,0,0,0,
0,0,0,0,0,0,0,2684354877,0,0,0,0,0,0,0,0,
0,0,0,0,0,0,0,2684354877,0,0,0,0,0,0,0,0,
0,0,0,0,0,0,0,2684354877,0,0,0,0,0,0,0,0,
0,0,0,0,0,0,0,0,0,0,0,0,0,0,0,0,
0,0,0,0,0,0,0,0,0,0,0,0,0,0,0,0,
0,0,0,0,0,0,0,0,0,0,0,0,0,0,0,0,
0,0,0,0,0,0,0,0,0,0,0,0,0,0,0,0,
0,0,0,0,0,0,0,0,0,0,0,0,0,0,0,0,
0,0,0,0,0,0,0,0,0,0,0,0,0,0,0,0,
0,0,0,0,0,0,0,0,0,0,0,0,0,0,0,0,
0,0,0,0,0,0,0,0,0,0,0,0,0,0,0,0,
0,0,0,0,0,0,0,0,0,0,0,0,0,0,0,0,
0,0,0,0,0,0,0,0,0,0,0,0,0,0,0,0,
0,0,0,0,0,0,0,0,0,0,0,0,0,0,0,0
</chunk>
  </data>
 </layer>
 <layer id="2" name="Wall" width="30" height="20">
  <data encoding="csv">
   <chunk x="32" y="-272" width="16" height="16">
0,0,0,0,0,0,0,0,0,0,0,0,49,0,0,0,
0,0,0,0,0,0,0,0,0,0,0,0,49,0,0,0,
0,0,0,0,0,0,0,0,0,0,0,0,81,0,0,0,
0,0,0,0,0,0,0,0,0,0,0,0,0,0,0,0,
0,0,0,0,0,0,0,0,0,0,0,0,0,0,0,0,
0,0,0,0,0,0,0,0,0,0,0,0,0,0,0,0,
0,0,0,0,0,0,0,0,0,0,0,0,0,0,0,0,
0,0,0,0,0,0,0,0,0,0,0,0,0,0,0,0,
0,0,0,0,0,0,0,0,0,0,0,0,0,0,0,0,
0,0,0,0,0,0,0,0,0,0,0,0,0,0,0,0,
0,0,0,0,0,0,0,0,0,0,0,0,0,0,0,0,
0,0,0,0,0,0,0,0,0,0,0,0,0,0,0,0,
0,0,0,0,0,0,0,0,0,0,0,0,0,0,0,0,
0,0,0,0,0,0,0,0,0,0,0,0,0,0,0,0,
0,0,0,0,0,0,0,0,0,0,0,0,0,0,0,0,
0,0,0,0,0,0,0,0,0,0,0,0,0,0,0,0
</chunk>
   <chunk x="48" y="-176" width="16" height="16">
0,0,0,0,0,0,0,0,0,0,0,0,0,0,0,0,
0,0,0,0,0,0,0,0,0,0,0,0,0,0,0,0,
0,0,0,0,0,0,0,0,0,0,0,0,0,0,0,0,
0,0,0,0,0,0,0,0,0,0,0,0,0,0,0,0,
0,0,0,0,0,0,0,0,0,0,0,0,0,0,0,0,
0,0,0,0,0,0,0,0,0,0,0,0,0,0,0,0,
0,0,0,0,0,0,0,0,0,0,0,0,0,0,0,0,
0,0,0,0,0,0,0,0,0,0,0,0,0,0,0,0,
0,0,0,0,0,0,0,0,0,0,0,0,0,0,0,0,
0,0,0,0,0,0,0,0,0,0,0,0,0,0,0,0,
0,0,0,0,0,0,0,0,0,0,0,0,0,0,0,0,
0,0,0,0,0,0,0,0,0,0,0,0,0,0,0,0,
0,0,0,0,0,0,0,0,0,0,0,0,0,0,0,0,
0,0,0,0,0,0,0,0,0,0,0,0,0,0,0,0,
0,0,0,0,0,0,0,0,0,0,0,0,0,0,0,0,
0,0,49,49,49,0,0,0,0,0,0,0,0,0,0,0
</chunk>
   <chunk x="48" y="-160" width="16" height="16">
0,0,49,49,49,0,0,0,0,0,0,0,0,0,0,0,
0,0,81,81,81,0,0,0,0,0,0,0,0,0,0,0,
0,0,0,0,0,0,0,0,0,0,0,0,0,0,0,0,
0,0,0,0,0,0,0,0,0,0,0,0,0,0,0,0,
0,0,0,0,0,0,0,0,0,0,0,0,0,0,0,0,
0,0,0,0,0,0,0,0,0,0,0,0,0,0,0,0,
0,0,0,0,0,0,0,0,0,0,0,0,0,0,0,0,
0,0,0,0,0,0,0,0,0,0,0,0,0,0,0,0,
0,0,0,0,0,0,0,0,0,0,0,0,0,0,0,0,
0,0,0,0,0,0,0,0,0,0,0,0,0,0,0,0,
0,0,0,0,0,0,0,0,0,0,0,0,0,0,0,0,
0,0,0,0,0,0,0,0,0,0,0,0,0,0,0,0,
0,0,0,0,0,0,0,0,0,0,0,0,0,0,0,0,
0,0,0,0,0,0,0,0,0,0,0,0,0,0,0,0,
0,0,0,0,0,0,0,0,0,0,0,0,0,0,0,0,
0,0,0,0,0,0,0,0,0,0,0,0,0,0,0,0
</chunk>
  </data>
 </layer>
 <layer id="7" name="WallShadow" width="30" height="20">
  <data encoding="csv">
   <chunk x="48" y="-176" width="16" height="16">
0,0,0,0,0,0,0,0,0,0,0,0,0,0,0,0,
0,0,0,0,0,0,0,0,0,0,0,0,0,0,0,0,
0,0,0,0,0,0,0,0,0,0,0,0,0,0,0,0,
0,0,0,0,0,0,0,0,0,0,0,0,0,0,0,0,
0,0,0,0,0,0,0,0,0,0,0,0,0,0,0,0,
0,0,0,0,0,0,0,0,0,0,0,0,0,0,0,0,
0,0,0,0,0,0,0,0,0,0,0,0,0,0,0,0,
0,0,0,0,0,0,0,0,0,0,0,0,0,0,0,0,
0,0,0,0,0,0,0,0,0,0,0,0,0,0,0,0,
0,0,0,0,0,0,0,0,0,0,0,0,0,0,0,0,
0,0,0,0,0,0,0,0,0,0,0,0,0,0,0,0,
0,0,0,0,0,0,0,0,0,0,0,0,0,0,0,0,
0,0,0,0,0,0,0,0,0,0,0,0,0,0,0,0,
0,0,0,0,0,0,0,0,0,0,0,0,0,0,0,0,
0,0,0,0,0,0,0,0,0,0,0,0,0,0,0,0,
0,0,0,0,2684354877,0,0,0,0,0,0,0,0,0,0,0
</chunk>
   <chunk x="48" y="-160" width="16" height="16">
0,0,0,0,2684354877,0,0,0,0,0,0,0,0,0,0,0,
0,0,0,0,2684354877,0,0,0,0,0,0,0,0,0,0,0,
0,0,0,0,2684354877,0,0,0,0,0,0,0,0,0,0,0,
0,0,0,0,0,0,0,0,0,0,0,0,0,0,0,0,
0,0,0,0,0,0,0,0,0,0,0,0,0,0,0,0,
0,0,0,0,0,0,0,0,0,0,0,0,0,0,0,0,
0,0,0,0,0,0,0,0,0,0,0,0,0,0,0,0,
0,0,0,0,0,0,0,0,0,0,0,0,0,0,0,0,
0,0,0,0,0,0,0,0,0,0,0,0,0,0,0,0,
0,0,0,0,0,0,0,0,0,0,0,0,0,0,0,0,
0,0,0,0,0,0,0,0,0,0,0,0,0,0,0,0,
0,0,0,0,0,0,0,0,0,0,0,0,0,0,0,0,
0,0,0,0,0,0,0,0,0,0,0,0,0,0,0,0,
0,0,0,0,0,0,0,0,0,0,0,0,0,0,0,0,
0,0,0,0,0,0,0,0,0,0,0,0,0,0,0,0,
0,0,0,0,0,0,0,0,0,0,0,0,0,0,0,0
</chunk>
  </data>
 </layer>
 <layer id="12" name="Spikes" width="30" height="20">
  <properties>
   <property name="damageable" type="bool" value="false"/>
  </properties>
  <data encoding="csv">
   <chunk x="32" y="-352" width="16" height="16">
0,0,0,0,0,0,0,0,0,0,0,0,0,0,0,0,
0,0,0,0,0,0,0,0,0,0,0,0,0,0,0,0,
0,0,0,0,0,0,0,0,0,0,0,0,0,0,0,0,
0,0,0,0,0,0,0,0,0,0,0,0,0,0,0,0,
0,0,0,0,0,0,0,0,0,0,0,0,0,0,0,0,
0,0,0,0,0,0,0,0,0,0,0,0,0,0,0,0,
0,0,0,0,0,0,0,0,0,0,0,0,0,0,0,0,
0,0,0,0,0,0,0,0,0,0,0,0,0,0,0,0,
0,0,0,0,0,0,0,0,0,0,0,0,0,0,257,257,
0,0,0,0,0,0,0,0,0,0,0,0,0,0,0,0,
0,0,0,0,0,0,0,0,0,0,0,0,0,0,0,0,
0,0,0,0,0,0,0,0,0,0,0,0,0,0,0,257,
0,0,0,0,0,0,0,0,0,0,0,0,0,0,0,0,
0,0,0,0,0,0,0,0,0,0,0,0,0,0,0,0,
0,0,0,0,0,0,0,0,0,0,0,0,0,257,0,0,
0,0,0,0,0,0,0,0,0,0,0,0,0,0,0,0
</chunk>
   <chunk x="48" y="-352" width="16" height="16">
0,0,0,0,0,0,0,0,0,0,0,0,0,0,0,0,
0,0,0,0,0,0,0,0,0,0,0,0,0,0,0,0,
0,0,0,0,0,0,0,0,0,0,0,0,0,0,0,0,
0,0,0,0,0,0,0,0,0,0,0,0,0,0,0,0,
0,0,0,0,0,0,0,0,0,0,0,0,0,0,0,0,
0,0,0,0,0,0,0,0,0,0,0,0,0,0,0,0,
0,0,0,0,0,0,0,0,0,0,0,0,0,0,0,0,
0,0,0,0,0,0,0,0,0,0,0,0,0,0,0,0,
0,257,0,0,0,0,0,0,0,0,0,0,0,0,0,0,
0,0,0,0,0,0,0,0,0,0,0,0,0,0,0,0,
0,0,0,0,0,0,0,0,0,0,0,0,0,0,0,0,
0,0,0,0,0,0,0,0,0,0,0,0,0,0,0,0,
0,0,0,0,0,0,0,0,0,0,0,0,0,0,0,0,
0,0,0,0,0,0,0,0,0,0,0,0,0,0,0,0,
0,257,0,0,0,0,0,0,0,0,0,0,0,0,0,0,
0,0,0,0,0,0,0,0,0,0,0,0,0,0,0,0
</chunk>
   <chunk x="32" y="-320" width="16" height="16">
0,0,0,0,0,0,0,0,0,0,0,0,0,0,0,0,
0,0,0,0,0,0,0,0,0,0,0,0,0,0,0,0,
0,0,0,0,0,0,0,0,0,0,0,0,0,0,0,0,
0,0,0,0,0,0,0,0,0,0,0,0,0,0,0,0,
0,0,0,0,0,0,0,0,0,0,0,0,0,0,0,0,
0,0,0,0,0,0,0,0,0,0,0,0,0,0,0,0,
0,0,0,0,0,0,0,0,0,0,0,0,0,0,0,0,
0,0,0,0,0,0,0,0,0,0,0,0,0,0,0,0,
0,0,0,0,0,0,0,0,0,0,0,0,0,0,0,0,
0,0,0,0,0,0,0,0,0,0,0,0,0,0,0,0,
0,0,0,0,0,0,0,0,0,0,0,0,0,0,0,0,
0,0,0,0,0,0,0,0,0,0,0,0,0,0,0,0,
0,0,0,0,0,0,0,0,0,0,0,0,0,0,0,0,
0,0,0,0,0,0,0,0,0,0,0,0,0,0,0,0,
0,0,0,0,0,0,0,0,0,0,0,0,0,257,0,0,
0,0,0,0,0,0,0,0,0,0,0,0,0,257,257,0
</chunk>
   <chunk x="48" y="-320" width="16" height="16">
0,0,0,0,0,0,0,0,0,0,0,0,0,0,0,0,
0,0,0,0,0,0,0,0,0,0,0,0,0,0,0,0,
0,0,0,0,0,0,0,0,0,0,0,0,0,0,0,0,
0,0,0,0,0,0,0,0,0,0,0,0,0,0,0,0,
0,0,0,0,0,0,0,0,0,0,0,0,0,0,0,0,
0,0,0,0,0,0,0,0,0,0,0,0,0,0,0,0,
0,0,0,0,0,0,0,0,0,0,0,0,0,0,0,0,
0,0,0,0,0,0,0,0,0,0,0,0,0,0,0,0,
0,0,0,0,0,0,0,0,0,0,0,0,0,0,0,0,
0,0,0,0,0,0,0,0,0,0,0,0,0,0,0,0,
0,0,0,0,0,0,0,0,0,0,0,0,0,0,0,0,
0,0,0,0,0,0,0,0,0,0,0,0,0,0,0,0,
0,0,0,0,0,0,0,0,0,0,0,0,0,0,0,0,
257,257,0,0,0,0,0,0,0,0,0,0,0,0,0,0,
0,257,0,0,0,0,0,0,0,0,0,0,0,0,0,0,
0,0,0,0,0,0,0,0,0,0,0,0,0,0,0,0
</chunk>
   <chunk x="32" y="-304" width="16" height="16">
0,0,0,0,0,0,0,0,0,0,0,0,0,257,257,257,
0,0,0,0,0,0,0,0,0,0,0,0,0,257,257,0,
0,0,0,0,0,0,0,0,0,0,0,0,0,257,0,0,
0,0,0,0,0,0,0,0,0,0,0,0,0,0,0,0,
0,0,0,0,0,0,0,0,0,0,0,0,0,0,0,257,
0,0,0,0,0,0,0,0,0,0,0,0,0,0,0,0,
0,0,0,0,0,0,0,0,0,0,0,0,0,257,0,0,
0,0,0,0,0,0,0,0,0,0,0,0,0,0,0,0,
0,0,0,0,0,0,0,0,0,0,0,0,0,0,0,0,
0,0,0,0,0,0,0,0,0,0,0,0,0,0,0,0,
0,0,0,0,0,0,0,0,0,0,0,0,0,0,265,257,
0,0,0,0,0,0,0,0,0,0,0,0,0,0,0,0,
0,0,0,0,0,0,0,0,0,0,0,0,0,0,0,0,
0,0,0,0,0,0,0,0,0,0,0,0,0,277,2147483929,0,
0,0,0,0,0,0,0,0,0,0,0,0,0,0,0,0,
0,0,0,0,0,0,0,0,0,0,0,0,0,0,0,0
</chunk>
   <chunk x="48" y="-304" width="16" height="16">
0,0,0,0,0,0,0,0,0,0,0,0,0,0,0,0,
0,0,0,0,0,0,0,0,0,0,0,0,0,0,0,0,
0,257,0,0,0,0,0,0,0,0,0,0,0,0,0,0,
257,257,0,0,0,0,0,0,0,0,0,0,0,0,0,0,
257,257,0,0,0,0,0,0,0,0,0,0,0,0,0,0,
257,257,0,0,0,0,0,0,0,0,0,0,0,0,0,0,
257,257,0,0,0,0,0,0,0,0,0,0,0,0,0,0,
0,0,0,0,0,0,0,0,0,0,0,0,0,0,0,0,
0,0,0,0,0,0,0,0,0,0,0,0,0,0,0,0,
0,0,0,0,0,0,0,0,0,0,0,0,0,0,0,0,
2147483913,0,0,0,0,0,0,0,0,0,0,0,0,0,0,0,
0,0,0,0,0,0,0,0,0,0,0,0,0,0,0,0,
0,0,0,0,0,0,0,0,0,0,0,0,0,0,0,0,
281,277,0,0,0,0,0,0,0,0,0,0,0,0,0,0,
0,0,0,0,0,0,0,0,0,0,0,0,0,0,0,0,
0,0,0,0,0,0,0,0,0,0,0,0,0,0,0,0
</chunk>
   <chunk x="32" y="-224" width="16" height="16">
0,0,0,0,0,0,0,0,0,0,0,0,0,0,0,0,
0,0,0,0,0,0,0,0,0,0,0,0,0,0,0,0,
0,0,0,0,0,0,0,0,0,0,0,0,0,0,0,0,
0,0,0,0,0,0,0,0,0,0,0,0,0,0,0,0,
0,0,0,0,0,0,0,0,0,0,0,0,0,0,0,0,
0,0,0,0,0,0,0,0,0,0,0,0,0,0,0,0,
0,0,0,0,0,0,0,0,0,0,0,0,0,0,0,0,
0,0,0,0,0,0,0,0,0,0,0,0,0,0,0,0,
0,0,0,0,0,0,0,0,0,0,0,0,0,0,0,0,
0,0,0,0,0,0,0,0,0,0,0,0,0,0,0,0,
0,0,0,0,0,0,0,0,0,0,0,0,0,0,0,0,
0,0,0,0,0,0,0,0,0,0,0,0,0,0,0,0,
0,0,0,0,0,0,0,0,0,0,0,0,0,0,0,0,
0,0,0,0,0,0,0,0,0,0,0,0,0,0,0,0,
0,0,0,0,0,0,0,0,0,0,0,0,0,2147483913,0,0,
0,0,0,0,0,0,0,0,0,0,0,0,0,0,0,0
</chunk>
   <chunk x="48" y="-224" width="16" height="16">
0,0,0,0,0,0,0,0,0,0,0,0,0,0,0,0,
0,0,0,0,0,0,0,0,0,0,0,0,0,0,0,0,
0,0,0,0,0,0,0,0,0,0,0,0,0,0,0,0,
0,0,0,0,0,0,0,0,0,0,0,0,0,0,0,0,
0,0,0,0,0,0,0,0,0,0,0,0,0,0,0,0,
0,0,0,0,0,0,0,0,0,0,0,0,0,0,0,0,
0,0,0,0,0,0,0,0,0,0,0,0,0,0,0,0,
0,0,0,0,0,0,0,0,0,0,0,0,0,0,0,0,
0,0,0,0,0,0,0,0,0,0,0,0,0,0,0,0,
0,0,0,0,0,0,0,0,0,0,0,0,0,0,0,0,
0,0,0,0,0,0,0,0,0,0,0,0,0,0,0,0,
0,265,0,0,0,0,0,0,0,0,0,0,0,0,0,0,
0,0,0,0,0,0,0,0,0,0,0,0,0,0,0,0,
0,0,0,0,0,0,0,0,0,0,0,0,0,0,0,0,
0,0,0,0,0,0,0,0,0,0,0,0,0,0,0,0,
0,0,0,0,0,0,0,0,0,0,0,0,0,0,0,0
</chunk>
   <chunk x="48" y="-208" width="16" height="16">
0,0,0,0,0,0,0,0,0,0,0,0,0,0,0,0,
0,0,0,0,0,0,0,0,0,0,0,0,0,0,0,0,
0,0,0,0,0,0,0,0,0,0,0,0,0,0,0,0,
0,0,0,0,0,0,0,0,0,0,0,0,0,0,0,0,
257,0,0,0,0,0,0,0,0,0,0,0,0,0,0,0,
0,0,0,0,0,0,0,0,0,0,0,0,0,0,0,0,
0,0,0,0,0,0,0,0,0,0,0,0,0,0,0,0,
0,0,0,0,0,0,0,0,0,0,0,0,0,0,0,0,
0,0,0,0,0,0,0,0,0,0,0,0,0,0,0,0,
0,0,0,0,0,0,0,0,0,0,0,0,0,0,0,0,
0,0,0,0,0,0,0,0,0,0,0,0,0,0,0,0,
0,0,0,0,0,0,0,0,0,0,0,0,0,0,0,0,
0,0,0,0,0,0,0,0,0,0,0,0,0,0,0,0,
0,0,0,0,0,0,0,0,0,0,0,0,0,0,0,0,
0,0,0,0,0,0,0,0,0,0,0,0,0,0,0,0,
0,0,0,0,0,0,0,0,0,0,0,0,0,0,0,0
</chunk>
   <chunk x="32" y="-192" width="16" height="16">
0,0,0,0,0,0,0,0,0,0,0,0,0,0,0,0,
0,0,0,0,0,0,0,0,0,0,0,0,0,0,0,0,
0,0,0,0,0,0,0,0,0,0,0,0,0,0,0,0,
0,0,0,0,0,0,0,0,0,0,0,0,0,0,0,0,
0,0,0,0,0,0,0,0,0,0,0,0,0,0,0,0,
0,0,0,0,0,0,0,0,0,0,0,0,0,257,257,0,
0,0,0,0,0,0,0,0,0,0,0,0,257,257,0,0,
0,0,0,0,0,0,0,0,0,0,0,0,257,0,0,0,
0,0,0,0,0,0,0,0,0,0,0,0,0,0,0,257,
0,0,0,0,0,0,0,0,0,0,0,0,257,0,0,0,
0,0,0,0,0,0,0,0,0,0,0,0,257,257,0,0,
0,0,0,0,0,0,0,0,0,0,0,0,0,257,257,0,
0,0,0,0,0,0,0,0,0,0,0,0,0,0,0,0,
0,0,0,0,0,0,0,0,0,0,0,0,0,0,0,0,
0,0,0,0,0,0,0,0,0,0,0,0,0,0,0,0,
0,0,0,0,0,0,0,0,0,0,0,0,0,0,0,0
</chunk>
   <chunk x="48" y="-192" width="16" height="16">
0,0,0,0,0,0,0,0,0,0,0,0,0,0,0,0,
0,0,0,0,0,0,0,0,0,0,0,0,0,0,0,0,
0,0,0,0,0,0,0,0,0,0,0,0,0,0,0,0,
0,0,0,0,0,0,0,0,0,0,0,0,0,0,0,0,
0,0,0,0,0,0,0,0,0,0,0,0,0,0,0,0,
0,257,0,0,0,0,0,0,0,0,0,0,0,0,0,0,
0,0,257,0,0,0,0,0,0,0,0,0,0,0,0,0,
0,0,257,0,0,0,0,0,0,0,0,0,0,0,0,0,
257,257,257,0,0,0,0,0,0,0,0,0,0,0,0,0,
0,0,257,0,0,0,0,0,0,0,0,0,0,0,0,0,
0,0,257,0,0,0,0,0,0,0,0,0,0,0,0,0,
0,257,0,0,0,0,0,0,0,0,0,0,0,0,0,0,
0,0,0,0,0,0,0,0,0,0,0,0,0,0,0,0,
0,0,0,0,0,0,0,0,0,0,0,0,0,0,0,0,
0,0,0,0,0,0,0,0,0,0,0,0,0,0,0,0,
0,0,0,0,0,0,0,0,0,0,0,0,0,0,0,0
</chunk>
   <chunk x="32" y="-176" width="16" height="16">
0,0,0,0,0,0,0,0,0,0,0,0,0,0,0,0,
0,0,0,0,0,0,0,0,0,0,0,0,0,0,0,0,
0,0,0,0,0,0,0,0,0,0,0,0,0,0,0,0,
0,0,0,0,0,0,0,0,0,0,0,0,0,0,0,0,
0,0,0,0,0,0,0,0,0,0,0,0,0,0,0,0,
0,0,0,0,0,0,0,0,0,0,0,0,0,0,0,0,
0,0,0,0,0,0,0,0,0,0,0,0,0,0,0,0,
0,0,0,0,0,0,0,0,0,0,0,0,0,0,0,0,
0,0,0,0,0,0,0,0,0,0,0,0,0,0,0,0,
0,0,0,0,0,0,0,0,0,0,0,0,0,0,0,0,
0,0,0,0,0,0,0,0,0,0,0,0,0,0,0,0,
0,0,0,0,0,0,0,0,0,0,0,0,0,0,0,0,
0,0,0,0,0,0,0,0,0,0,0,0,0,0,0,0,
0,0,0,0,0,0,0,0,0,0,0,0,0,0,0,0,
0,0,0,0,0,0,0,0,0,0,0,0,0,0,257,257,
0,0,0,0,0,0,0,0,0,0,0,0,0,0,0,0
</chunk>
   <chunk x="48" y="-176" width="16" height="16">
0,0,0,0,0,0,0,0,0,0,0,0,0,0,0,0,
0,0,0,0,0,0,0,0,0,0,0,0,0,0,0,0,
0,0,0,0,0,0,0,0,0,0,0,0,0,0,0,0,
0,0,0,0,0,0,0,0,0,0,0,0,0,0,0,0,
0,0,0,0,0,0,0,0,0,0,0,0,0,0,0,0,
0,0,0,0,0,0,0,0,0,0,0,0,0,0,0,0,
0,0,0,0,0,0,0,0,0,0,0,0,0,0,0,0,
0,0,0,0,0,0,0,0,0,0,0,0,0,0,0,0,
0,0,0,0,0,0,0,0,0,0,0,0,0,0,0,0,
0,0,0,0,0,0,0,0,0,0,0,0,0,0,0,0,
0,0,0,0,0,0,0,0,0,0,0,0,0,0,0,0,
0,0,0,0,0,0,0,0,0,0,0,0,0,0,0,0,
0,0,0,0,0,0,0,0,0,0,0,0,0,0,0,0,
0,0,0,0,0,0,0,0,0,0,0,0,0,0,0,0,
257,0,0,0,0,0,0,0,0,0,0,0,0,0,0,0,
0,0,0,0,0,0,0,0,0,0,0,0,0,0,0,0
</chunk>
   <chunk x="32" y="-160" width="16" height="16">
0,0,0,0,0,0,0,0,0,0,0,0,0,0,0,0,
0,0,0,0,0,0,0,0,0,0,0,0,0,0,0,0,
0,0,0,0,0,0,0,0,0,0,0,0,0,0,0,0,
0,0,0,0,0,0,0,0,0,0,0,0,0,0,0,0,
0,0,0,0,0,0,0,0,0,0,0,0,0,0,0,0,
0,0,0,0,0,0,0,0,0,0,0,0,0,0,0,0,
0,0,0,0,0,0,0,0,0,0,0,0,0,0,0,0,
0,0,0,0,0,0,0,0,0,0,0,0,0,0,0,0,
0,0,0,0,0,0,0,0,0,0,0,0,0,0,0,0,
0,0,0,0,0,0,0,0,0,0,0,0,0,257,0,0,
0,0,0,0,0,0,0,0,0,0,0,0,0,0,0,0,
0,0,0,0,0,0,0,0,0,0,0,0,0,0,0,0,
0,0,0,0,0,0,0,0,0,0,0,0,0,0,0,0,
0,0,0,0,0,0,0,0,0,0,0,0,0,0,0,257,
0,0,0,0,0,0,0,0,0,0,0,0,0,0,0,0,
0,0,0,0,0,0,0,0,0,0,0,0,0,0,0,0
</chunk>
   <chunk x="32" y="-144" width="16" height="16">
0,0,0,0,0,0,0,0,0,0,0,0,0,0,0,0,
0,0,0,0,0,0,0,0,0,0,0,0,0,0,0,0,
0,0,0,0,0,0,0,0,0,0,0,0,0,0,0,0,
0,0,0,0,0,0,0,0,0,0,0,0,0,0,0,0,
0,0,0,0,0,0,0,0,0,0,0,0,0,0,0,0,
0,0,0,0,0,0,0,0,0,0,0,0,0,0,0,0,
0,0,0,0,0,0,0,0,0,0,0,0,0,0,0,0,
0,0,0,0,0,0,0,0,0,0,0,0,0,0,0,0,
0,0,0,0,0,0,0,0,0,0,0,0,0,0,257,0,
0,0,0,0,0,0,0,0,0,0,0,0,0,0,0,0,
0,0,0,0,0,0,0,0,0,0,0,0,0,0,0,0,
0,0,0,0,0,0,0,0,0,0,0,0,0,0,0,0,
0,0,0,0,0,0,0,0,0,0,0,0,0,0,0,0,
0,0,0,0,0,0,0,0,0,0,0,0,0,0,0,0,
0,0,0,0,0,0,0,0,0,0,0,0,0,0,0,0,
0,0,0,0,0,0,0,0,0,0,0,0,0,0,0,0
</chunk>
   <chunk x="48" y="-144" width="16" height="16">
0,0,0,0,0,0,0,0,0,0,0,0,0,0,0,0,
0,257,0,0,0,0,0,0,0,0,0,0,0,0,0,0,
0,0,0,0,0,0,0,0,0,0,0,0,0,0,0,0,
0,0,0,0,0,0,0,0,0,0,0,0,0,0,0,0,
0,0,0,0,0,0,0,0,0,0,0,0,0,0,0,0,
0,0,0,0,0,0,0,0,0,0,0,0,0,0,0,0,
0,0,0,0,0,0,0,0,0,0,0,0,0,0,0,0,
0,0,0,0,0,0,0,0,0,0,0,0,0,0,0,0,
0,0,0,0,0,0,0,0,0,0,0,0,0,0,0,0,
0,0,0,0,0,0,0,0,0,0,0,0,0,0,0,0,
0,0,0,0,0,0,0,0,0,0,0,0,0,0,0,0,
0,0,0,0,0,0,0,0,0,0,0,0,0,0,0,0,
0,0,0,0,0,0,0,0,0,0,0,0,0,0,0,0,
257,0,0,0,0,0,0,0,0,0,0,0,0,0,0,0,
0,0,0,0,0,0,0,0,0,0,0,0,0,0,0,0,
0,0,0,0,0,0,0,0,0,0,0,0,0,0,0,0
</chunk>
   <chunk x="32" y="-128" width="16" height="16">
0,0,0,0,0,0,0,0,0,0,0,0,0,0,0,0,
0,0,0,0,0,0,0,0,0,0,0,0,0,257,0,0,
0,0,0,0,0,0,0,0,0,0,0,0,0,0,0,0,
0,0,0,0,0,0,0,0,0,0,0,0,0,0,0,0,
0,0,0,0,0,0,0,0,0,0,0,0,0,0,0,0,
0,0,0,0,0,0,0,0,0,0,0,0,0,0,0,0,
0,0,0,0,0,0,0,0,0,0,0,0,0,0,0,0,
0,0,0,0,0,0,0,0,0,0,0,0,0,0,0,0,
0,0,0,0,0,0,0,0,0,0,0,0,0,0,0,0,
0,0,0,0,0,0,0,0,0,0,0,0,0,0,257,0,
0,0,0,0,0,0,0,0,0,0,0,0,0,0,0,0,
0,0,0,0,0,0,0,0,0,0,0,0,0,0,0,0,
0,0,0,0,0,0,0,0,0,0,0,0,0,0,0,0,
0,0,0,0,0,0,0,0,0,0,0,0,0,0,0,0,
0,0,0,0,0,0,0,0,0,0,0,0,0,0,0,0,
0,0,0,0,0,0,0,0,0,0,0,0,0,0,0,0
</chunk>
   <chunk x="48" y="-128" width="16" height="16">
0,0,0,0,0,0,0,0,0,0,0,0,0,0,0,0,
0,0,0,0,0,0,0,0,0,0,0,0,0,0,0,0,
0,0,0,0,0,0,0,0,0,0,0,0,0,0,0,0,
0,0,0,0,0,0,0,0,0,0,0,0,0,0,0,0,
0,0,0,0,0,0,0,0,0,0,0,0,0,0,0,0,
0,0,0,0,0,0,0,0,0,0,0,0,0,0,0,0,
0,257,0,0,0,0,0,0,0,0,0,0,0,0,0,0,
0,0,0,0,0,0,0,0,0,0,0,0,0,0,0,0,
0,0,0,0,0,0,0,0,0,0,0,0,0,0,0,0,
0,0,0,0,0,0,0,0,0,0,0,0,0,0,0,0,
0,0,0,0,0,0,0,0,0,0,0,0,0,0,0,0,
0,0,0,0,0,0,0,0,0,0,0,0,0,0,0,0,
0,0,0,0,0,0,0,0,0,0,0,0,0,0,0,0,
0,0,0,0,0,0,0,0,0,0,0,0,0,0,0,0,
257,0,0,0,0,0,0,0,0,0,0,0,0,0,0,0,
0,0,0,0,0,0,0,0,0,0,0,0,0,0,0,0
</chunk>
   <chunk x="32" y="-112" width="16" height="16">
0,0,0,0,0,0,0,0,0,0,0,0,0,257,0,0,
0,0,0,0,0,0,0,0,0,0,0,0,0,0,0,0,
0,0,0,0,0,0,0,0,0,0,0,0,0,0,0,0,
0,0,0,0,0,0,0,0,0,0,0,0,0,0,0,0,
0,0,0,0,0,0,0,0,0,0,0,0,0,0,0,0,
0,0,0,0,0,0,0,0,0,0,0,0,0,0,0,0,
0,0,0,0,0,0,0,0,0,0,0,0,0,0,0,0,
0,0,0,0,0,0,0,0,0,0,0,0,0,0,0,0,
0,0,0,0,0,0,0,0,0,0,0,0,0,0,0,0,
0,0,0,0,0,0,0,0,0,0,0,0,0,0,0,0,
0,0,0,0,0,0,0,0,0,0,0,0,0,0,0,257,
0,0,0,0,0,0,0,0,0,0,0,0,0,0,0,0,
0,0,0,0,0,0,0,0,0,0,0,0,0,0,0,0,
0,0,0,0,0,0,0,0,0,0,0,0,0,0,0,0,
0,0,0,0,0,0,0,0,0,0,0,0,0,0,0,0,
0,0,0,0,0,0,0,0,0,0,0,0,0,0,0,0
</chunk>
   <chunk x="48" y="-112" width="16" height="16">
0,0,0,0,0,0,0,0,0,0,0,0,0,0,0,0,
0,0,0,0,0,0,0,0,0,0,0,0,0,0,0,0,
0,0,0,0,0,0,0,0,0,0,0,0,0,0,0,0,
0,0,0,0,0,0,0,0,0,0,0,0,0,0,0,0,
257,0,0,0,0,0,0,0,0,0,0,0,0,0,0,0,
0,0,0,0,0,0,0,0,0,0,0,0,0,0,0,0,
0,0,0,0,0,0,0,0,0,0,0,0,0,0,0,0,
0,0,0,0,0,0,0,0,0,0,0,0,0,0,0,0,
0,0,0,0,0,0,0,0,0,0,0,0,0,0,0,0,
0,0,0,0,0,0,0,0,0,0,0,0,0,0,0,0,
0,0,0,0,0,0,0,0,0,0,0,0,0,0,0,0,
0,0,0,0,0,0,0,0,0,0,0,0,0,0,0,0,
0,0,0,0,0,0,0,0,0,0,0,0,0,0,0,0,
0,0,0,0,0,0,0,0,0,0,0,0,0,0,0,0,
0,0,0,0,0,0,0,0,0,0,0,0,0,0,0,0,
0,0,0,0,0,0,0,0,0,0,0,0,0,0,0,0
</chunk>
   <chunk x="32" y="-80" width="16" height="16">
0,0,0,0,0,0,0,0,0,0,0,0,0,0,0,0,
0,0,0,0,0,0,0,0,0,0,0,0,0,0,0,0,
0,0,0,0,0,0,0,0,0,0,0,0,0,0,0,0,
0,0,0,0,0,0,0,0,0,0,0,0,0,0,0,0,
0,0,0,0,0,0,0,0,0,0,0,0,0,0,0,0,
0,0,0,0,0,0,0,0,0,0,0,0,0,0,0,0,
0,0,0,0,0,0,0,0,0,0,0,0,0,0,0,0,
0,0,0,0,0,0,0,0,0,0,0,0,0,0,0,0,
0,0,0,0,0,0,0,0,0,0,0,0,0,0,0,0,
0,0,0,0,0,0,0,0,0,0,0,0,0,0,0,0,
0,0,0,0,0,0,0,0,0,0,0,0,0,0,0,0,
0,0,0,0,0,0,0,0,0,0,0,0,0,0,257,257,
0,0,0,0,0,0,0,0,0,0,0,0,0,257,257,2147483929,
0,0,0,0,0,0,0,0,0,0,0,0,0,257,2147483929,0,
0,0,0,0,0,0,0,0,0,0,0,0,0,2147483917,0,0,
0,0,0,0,0,0,0,0,0,0,0,0,0,2147483917,0,265
</chunk>
   <chunk x="48" y="-80" width="16" height="16">
0,0,0,0,0,0,0,0,0,0,0,0,0,0,0,0,
0,0,0,0,0,0,0,0,0,0,0,0,0,0,0,0,
0,0,0,0,0,0,0,0,0,0,0,0,0,0,0,0,
0,0,0,0,0,0,0,0,0,0,0,0,0,0,0,0,
0,0,0,0,0,0,0,0,0,0,0,0,0,0,0,0,
0,0,0,0,0,0,0,0,0,0,0,0,0,0,0,0,
0,0,0,0,0,0,0,0,0,0,0,0,0,0,0,0,
0,0,0,0,0,0,0,0,0,0,0,0,0,0,0,0,
0,0,0,0,0,0,0,0,0,0,0,0,0,0,0,0,
0,0,0,0,0,0,0,0,0,0,0,0,0,0,0,0,
0,0,0,0,0,0,0,0,0,0,0,0,0,0,0,0,
2147483929,0,0,0,0,0,0,0,0,0,0,0,0,0,0,0,
0,0,0,0,0,0,0,0,0,0,0,0,0,0,0,0,
0,265,0,0,0,0,0,0,0,0,0,0,0,0,0,0,
265,257,0,0,0,0,0,0,0,0,0,0,0,0,0,0,
257,257,0,0,0,0,0,0,0,0,0,0,0,0,0,0
</chunk>
   <chunk x="32" y="-64" width="16" height="16">
0,0,0,0,0,0,0,0,0,0,0,0,0,2147483917,0,269,
0,0,0,0,0,0,0,0,0,0,0,0,0,0,0,0,
0,0,0,0,0,0,0,0,0,0,0,0,0,0,0,0,
0,0,0,0,0,0,0,0,0,0,0,0,0,0,0,0,
0,0,0,0,0,0,0,0,0,0,0,0,0,0,0,0,
0,0,0,0,0,0,0,0,0,0,0,0,0,0,0,0,
0,0,0,0,0,0,0,0,0,0,0,0,0,0,0,0,
0,0,0,0,0,0,0,0,0,0,0,0,0,0,0,0,
0,0,0,0,0,0,0,0,0,0,0,0,0,0,0,0,
0,0,0,0,0,0,0,0,0,0,0,0,0,0,0,0,
0,0,0,0,0,0,0,0,0,0,0,0,0,0,0,0,
0,0,0,0,0,0,0,0,0,0,0,0,0,0,0,0,
0,0,0,0,0,0,0,0,0,0,0,0,0,0,0,0,
0,0,0,0,0,0,0,0,0,0,0,0,0,0,0,0,
0,0,0,0,0,0,0,0,0,0,0,0,0,0,0,0,
0,0,0,0,0,0,0,0,0,0,0,0,0,0,257,0
</chunk>
   <chunk x="48" y="-64" width="16" height="16">
257,257,0,0,0,0,0,0,0,0,0,0,0,0,0,0,
0,0,0,0,0,0,0,0,0,0,0,0,0,0,0,0,
0,0,0,0,0,0,0,0,0,0,0,0,0,0,0,0,
0,0,0,0,0,0,0,0,0,0,0,0,0,0,0,0,
0,0,0,0,0,0,0,0,0,0,0,0,0,0,0,0,
0,0,0,0,0,0,0,0,0,0,0,0,0,0,0,0,
0,0,0,0,0,0,0,0,0,0,0,0,0,0,0,0,
0,0,0,0,0,0,0,0,0,0,0,0,0,0,0,0,
0,0,0,0,0,0,0,0,0,0,0,0,0,0,0,0,
0,0,0,0,0,0,0,0,0,0,0,0,0,0,0,0,
0,0,0,0,0,0,0,0,0,0,0,0,0,0,0,0,
0,0,0,0,0,0,0,0,0,0,0,0,0,0,0,0,
0,0,0,0,0,0,0,0,0,0,0,0,0,0,0,0,
0,0,0,0,0,0,0,0,0,0,0,0,0,0,0,0,
0,0,0,0,0,0,0,0,0,0,0,0,0,0,0,0,
0,0,0,0,0,0,0,0,0,0,0,0,0,0,0,0
</chunk>
   <chunk x="32" y="-48" width="16" height="16">
0,0,0,0,0,0,0,0,0,0,0,0,0,257,0,0,
0,0,0,0,0,0,0,0,0,0,0,0,0,0,0,0,
0,0,0,0,0,0,0,0,0,0,0,0,0,0,0,257,
0,0,0,0,0,0,0,0,0,0,0,0,0,0,0,0,
0,0,0,0,0,0,0,0,0,0,0,0,0,0,0,0,
0,0,0,0,0,0,0,0,0,0,0,0,0,0,0,0,
0,0,0,0,0,0,0,0,0,0,0,0,0,0,257,0,
0,0,0,0,0,0,0,0,0,0,0,0,0,0,0,0,
0,0,0,0,0,0,0,0,0,0,0,0,0,257,0,0,
0,0,0,0,0,0,0,0,0,0,0,0,0,0,0,0,
0,0,0,0,0,0,0,0,0,0,0,0,0,0,0,0,
0,0,0,0,0,0,0,0,0,0,0,0,0,0,0,0,
0,0,0,0,0,0,0,0,0,0,0,0,0,257,257,2147483917,
0,0,0,0,0,0,0,0,0,0,0,0,0,257,257,2147483917,
0,0,0,0,0,0,0,0,0,0,0,0,0,257,257,2147483917,
0,0,0,0,0,0,0,0,0,0,0,0,0,257,257,2147483917
</chunk>
   <chunk x="48" y="-48" width="16" height="16">
0,257,0,0,0,0,0,0,0,0,0,0,0,0,0,0,
0,0,0,0,0,0,0,0,0,0,0,0,0,0,0,0,
0,0,0,0,0,0,0,0,0,0,0,0,0,0,0,0,
0,0,0,0,0,0,0,0,0,0,0,0,0,0,0,0,
257,0,0,0,0,0,0,0,0,0,0,0,0,0,0,0,
0,0,0,0,0,0,0,0,0,0,0,0,0,0,0,0,
0,257,0,0,0,0,0,0,0,0,0,0,0,0,0,0,
0,0,0,0,0,0,0,0,0,0,0,0,0,0,0,0,
0,0,0,0,0,0,0,0,0,0,0,0,0,0,0,0,
257,0,0,0,0,0,0,0,0,0,0,0,0,0,0,0,
0,0,0,0,0,0,0,0,0,0,0,0,0,0,0,0,
0,0,0,0,0,0,0,0,0,0,0,0,0,0,0,0,
0,269,0,0,0,0,0,0,0,0,0,0,0,0,0,0,
0,269,0,0,0,0,0,0,0,0,0,0,0,0,0,0,
0,269,0,0,0,0,0,0,0,0,0,0,0,0,0,0,
0,269,0,0,0,0,0,0,0,0,0,0,0,0,0,0
</chunk>
   <chunk x="32" y="-32" width="16" height="16">
0,0,0,0,0,0,0,0,0,0,0,0,0,257,257,2147483917,
0,0,0,0,0,0,0,0,0,0,0,0,0,0,0,0,
0,0,0,0,0,0,0,0,0,0,0,0,0,257,0,0,
0,0,0,0,0,0,0,0,0,0,0,0,0,0,0,0,
0,0,0,0,0,0,0,0,0,0,0,0,0,0,0,0,
0,0,0,0,0,0,0,0,0,0,0,0,0,0,0,257,
0,0,0,0,0,0,0,0,0,0,0,0,0,0,0,0,
0,0,0,0,0,0,0,0,0,0,0,0,0,0,0,0,
0,0,0,0,0,0,0,0,0,0,0,0,0,0,257,0,
0,0,0,0,0,0,0,0,0,0,0,0,0,0,0,0,
0,0,0,0,0,0,0,0,0,0,0,0,0,0,0,0,
0,0,0,0,0,0,0,0,0,0,0,0,0,0,0,0,
0,0,0,0,0,0,0,0,0,0,0,0,0,0,0,0,
0,0,0,0,0,0,0,0,0,0,0,0,0,0,0,0,
0,0,0,0,0,0,0,0,0,0,0,0,0,0,0,0,
0,0,0,0,0,0,0,0,0,0,0,0,0,0,0,0
</chunk>
   <chunk x="48" y="-32" width="16" height="16">
0,269,0,0,0,0,0,0,0,0,0,0,0,0,0,0,
0,0,0,0,0,0,0,0,0,0,0,0,0,0,0,0,
0,0,0,0,0,0,0,0,0,0,0,0,0,0,0,0,
0,257,0,0,0,0,0,0,0,0,0,0,0,0,0,0,
0,0,0,0,0,0,0,0,0,0,0,0,0,0,0,0,
0,0,0,0,0,0,0,0,0,0,0,0,0,0,0,0,
0,0,0,0,0,0,0,0,0,0,0,0,0,0,0,0,
0,0,0,0,0,0,0,0,0,0,0,0,0,0,0,0,
0,0,0,0,0,0,0,0,0,0,0,0,0,0,0,0,
0,257,0,0,0,0,0,0,0,0,0,0,0,0,0,0,
0,0,0,0,0,0,0,0,0,0,0,0,0,0,0,0,
0,0,0,0,0,0,0,0,0,0,0,0,0,0,0,0,
0,0,0,0,0,0,0,0,0,0,0,0,0,0,0,0,
0,0,0,0,0,0,0,0,0,0,0,0,0,0,0,0,
0,0,0,0,0,0,0,0,0,0,0,0,0,0,0,0,
0,0,0,0,0,0,0,0,0,0,0,0,0,0,0,0
</chunk>
  </data>
 </layer>
 <layer id="13" name="MovingSpikes" width="30" height="20">
  <data encoding="csv">
   <chunk x="32" y="-352" width="16" height="16">
0,0,0,0,0,0,0,0,0,0,0,0,0,0,0,0,
0,0,0,0,0,0,0,0,0,0,0,0,0,0,0,0,
0,0,0,0,0,0,0,0,0,0,0,0,0,0,0,0,
0,0,0,0,0,0,0,0,0,0,0,0,0,0,0,0,
0,0,0,0,0,0,0,0,0,0,0,0,0,0,0,0,
0,0,0,0,0,0,0,0,0,0,0,0,0,0,0,0,
0,0,0,0,0,0,0,0,0,0,0,0,0,0,0,0,
0,0,0,0,0,0,0,0,0,0,0,0,0,0,0,0,
0,0,0,0,0,0,0,0,0,0,0,0,0,258,0,0,
0,0,0,0,0,0,0,0,0,0,0,0,0,0,0,0,
0,0,0,0,0,0,0,0,0,0,0,0,0,0,0,0,
0,0,0,0,0,0,0,0,0,0,0,0,0,258,0,0,
0,0,0,0,0,0,0,0,0,0,0,0,0,0,0,0,
0,0,0,0,0,0,0,0,0,0,0,0,0,0,0,0,
0,0,0,0,0,0,0,0,0,0,0,0,0,0,0,258,
0,0,0,0,0,0,0,0,0,0,0,0,0,0,0,0
</chunk>
   <chunk x="48" y="-352" width="16" height="16">
0,0,0,0,0,0,0,0,0,0,0,0,0,0,0,0,
0,0,0,0,0,0,0,0,0,0,0,0,0,0,0,0,
0,0,0,0,0,0,0,0,0,0,0,0,0,0,0,0,
0,0,0,0,0,0,0,0,0,0,0,0,0,0,0,0,
0,0,0,0,0,0,0,0,0,0,0,0,0,0,0,0,
0,0,0,0,0,0,0,0,0,0,0,0,0,0,0,0,
0,0,0,0,0,0,0,0,0,0,0,0,0,0,0,0,
0,0,0,0,0,0,0,0,0,0,0,0,0,0,0,0,
0,0,0,0,0,0,0,0,0,0,0,0,0,0,0,0,
0,0,0,0,0,0,0,0,0,0,0,0,0,0,0,0,
0,0,0,0,0,0,0,0,0,0,0,0,0,0,0,0,
0,258,0,0,0,0,0,0,0,0,0,0,0,0,0,0,
0,0,0,0,0,0,0,0,0,0,0,0,0,0,0,0,
0,0,0,0,0,0,0,0,0,0,0,0,0,0,0,0,
258,0,0,0,0,0,0,0,0,0,0,0,0,0,0,0,
0,0,0,0,0,0,0,0,0,0,0,0,0,0,0,0
</chunk>
   <chunk x="32" y="-320" width="16" height="16">
0,0,0,0,0,0,0,0,0,0,0,0,0,0,0,0,
0,0,0,0,0,0,0,0,0,0,0,0,0,0,0,0,
0,0,0,0,0,0,0,0,0,0,0,0,0,0,0,0,
0,0,0,0,0,0,0,0,0,0,0,0,0,0,0,0,
0,0,0,0,0,0,0,0,0,0,0,0,0,258,0,0,
0,0,0,0,0,0,0,0,0,0,0,0,0,0,0,0,
0,0,0,0,0,0,0,0,0,0,0,0,0,0,0,0,
0,0,0,0,0,0,0,0,0,0,0,0,0,258,0,0,
0,0,0,0,0,0,0,0,0,0,0,0,0,0,0,0,
0,0,0,0,0,0,0,0,0,0,0,0,0,0,0,0,
0,0,0,0,0,0,0,0,0,0,0,0,0,258,0,0,
0,0,0,0,0,0,0,0,0,0,0,0,0,0,0,0,
0,0,0,0,0,0,0,0,0,0,0,0,0,0,0,0,
0,0,0,0,0,0,0,0,0,0,0,0,0,0,0,0,
0,0,0,0,0,0,0,0,0,0,0,0,0,0,0,258,
0,0,0,0,0,0,0,0,0,0,0,0,0,0,0,0
</chunk>
   <chunk x="32" y="-304" width="16" height="16">
0,0,0,0,0,0,0,0,0,0,0,0,0,0,0,0,
0,0,0,0,0,0,0,0,0,0,0,0,0,0,0,0,
0,0,0,0,0,0,0,0,0,0,0,0,0,0,0,258,
0,0,0,0,0,0,0,0,0,0,0,0,0,0,0,0,
0,0,0,0,0,0,0,0,0,0,0,0,0,0,0,0,
0,0,0,0,0,0,0,0,0,0,0,0,0,0,0,0,
0,0,0,0,0,0,0,0,0,0,0,0,0,0,0,0,
0,0,0,0,0,0,0,0,0,0,0,0,0,0,0,0,
0,0,0,0,0,0,0,0,0,0,0,0,0,0,0,0,
0,0,0,0,0,0,0,0,0,0,0,0,0,0,0,0,
0,0,0,0,0,0,0,0,0,0,0,0,0,0,0,0,
0,0,0,0,0,0,0,0,0,0,0,0,0,258,258,258,
0,0,0,0,0,0,0,0,0,0,0,0,0,258,258,258,
0,0,0,0,0,0,0,0,0,0,0,0,0,0,0,0,
0,0,0,0,0,0,0,0,0,0,0,0,0,0,0,0,
0,0,0,0,0,0,0,0,0,0,0,0,0,0,0,0
</chunk>
   <chunk x="48" y="-304" width="16" height="16">
0,0,0,0,0,0,0,0,0,0,0,0,0,0,0,0,
0,0,0,0,0,0,0,0,0,0,0,0,0,0,0,0,
0,0,0,0,0,0,0,0,0,0,0,0,0,0,0,0,
0,0,0,0,0,0,0,0,0,0,0,0,0,0,0,0,
0,0,0,0,0,0,0,0,0,0,0,0,0,0,0,0,
0,0,0,0,0,0,0,0,0,0,0,0,0,0,0,0,
0,0,0,0,0,0,0,0,0,0,0,0,0,0,0,0,
0,0,0,0,0,0,0,0,0,0,0,0,0,0,0,0,
0,0,0,0,0,0,0,0,0,0,0,0,0,0,0,0,
0,0,0,0,0,0,0,0,0,0,0,0,0,0,0,0,
0,0,0,0,0,0,0,0,0,0,0,0,0,0,0,0,
258,258,0,0,0,0,0,0,0,0,0,0,0,0,0,0,
258,258,0,0,0,0,0,0,0,0,0,0,0,0,0,0,
0,0,0,0,0,0,0,0,0,0,0,0,0,0,0,0,
0,0,0,0,0,0,0,0,0,0,0,0,0,0,0,0,
0,0,0,0,0,0,0,0,0,0,0,0,0,0,0,0
</chunk>
   <chunk x="32" y="-208" width="16" height="16">
0,0,0,0,0,0,0,0,0,0,0,0,0,0,0,0,
0,0,0,0,0,0,0,0,0,0,0,0,0,0,0,0,
0,0,0,0,0,0,0,0,0,0,0,0,0,0,0,0,
0,0,0,0,0,0,0,0,0,0,0,0,0,0,0,0,
0,0,0,0,0,0,0,0,0,0,0,0,0,0,0,0,
0,0,0,0,0,0,0,0,0,0,0,0,0,258,0,258,
0,0,0,0,0,0,0,0,0,0,0,0,0,0,258,0,
0,0,0,0,0,0,0,0,0,0,0,0,0,258,0,0,
0,0,0,0,0,0,0,0,0,0,0,0,0,0,258,0,
0,0,0,0,0,0,0,0,0,0,0,0,0,0,0,0,
0,0,0,0,0,0,0,0,0,0,0,0,0,0,0,0,
0,0,0,0,0,0,0,0,0,0,0,0,0,0,0,0,
0,0,0,0,0,0,0,0,0,0,0,0,0,0,0,0,
0,0,0,0,0,0,0,0,0,0,0,0,0,0,0,0,
0,0,0,0,0,0,0,0,0,0,0,0,0,0,0,0,
0,0,0,0,0,0,0,0,0,0,0,0,0,0,0,0
</chunk>
   <chunk x="32" y="-192" width="16" height="16">
0,0,0,0,0,0,0,0,0,0,0,0,0,0,0,0,
0,0,0,0,0,0,0,0,0,0,0,0,0,0,0,0,
0,0,0,0,0,0,0,0,0,0,0,0,0,0,0,0,
0,0,0,0,0,0,0,0,0,0,0,0,0,0,0,0,
0,0,0,0,0,0,0,0,0,0,0,0,0,0,0,0,
0,0,0,0,0,0,0,0,0,0,0,0,0,0,0,258,
0,0,0,0,0,0,0,0,0,0,0,0,0,0,0,0,
0,0,0,0,0,0,0,0,0,0,0,0,0,0,0,0,
0,0,0,0,0,0,0,0,0,0,0,0,0,0,0,0,
0,0,0,0,0,0,0,0,0,0,0,0,0,0,0,0,
0,0,0,0,0,0,0,0,0,0,0,0,0,0,0,0,
0,0,0,0,0,0,0,0,0,0,0,0,0,0,0,0,
0,0,0,0,0,0,0,0,0,0,0,0,0,0,0,0,
0,0,0,0,0,0,0,0,0,0,0,0,0,0,0,0,
0,0,0,0,0,0,0,0,0,0,0,0,0,0,0,0,
0,0,0,0,0,0,0,0,0,0,0,0,0,0,0,0
</chunk>
   <chunk x="48" y="-192" width="16" height="16">
0,0,0,0,0,0,0,0,0,0,0,0,0,0,0,0,
0,0,0,0,0,0,0,0,0,0,0,0,0,0,0,0,
0,0,0,0,0,0,0,0,0,0,0,0,0,0,0,0,
0,0,0,0,0,0,0,0,0,0,0,0,0,0,0,0,
0,0,0,0,0,0,0,0,0,0,0,0,0,0,0,0,
258,0,0,0,0,0,0,0,0,0,0,0,0,0,0,0,
0,0,0,0,0,0,0,0,0,0,0,0,0,0,0,0,
0,0,0,0,0,0,0,0,0,0,0,0,0,0,0,0,
0,0,0,0,0,0,0,0,0,0,0,0,0,0,0,0,
0,0,0,0,0,0,0,0,0,0,0,0,0,0,0,0,
0,0,0,0,0,0,0,0,0,0,0,0,0,0,0,0,
0,0,0,0,0,0,0,0,0,0,0,0,0,0,0,0,
0,0,0,0,0,0,0,0,0,0,0,0,0,0,0,0,
0,0,0,0,0,0,0,0,0,0,0,0,0,0,0,0,
0,0,0,0,0,0,0,0,0,0,0,0,0,0,0,0,
0,0,0,0,0,0,0,0,0,0,0,0,0,0,0,0
</chunk>
   <chunk x="32" y="-176" width="16" height="16">
0,0,0,0,0,0,0,0,0,0,0,0,0,0,0,0,
0,0,0,0,0,0,0,0,0,0,0,0,0,0,258,0,
0,0,0,0,0,0,0,0,0,0,0,0,0,258,0,0,
0,0,0,0,0,0,0,0,0,0,0,0,0,0,0,0,
0,0,0,0,0,0,0,0,0,0,0,0,0,0,0,258,
0,0,0,0,0,0,0,0,0,0,0,0,0,0,258,0,
0,0,0,0,0,0,0,0,0,0,0,0,0,258,0,0,
0,0,0,0,0,0,0,0,0,0,0,0,0,0,0,0,
0,0,0,0,0,0,0,0,0,0,0,0,0,0,0,258,
0,0,0,0,0,0,0,0,0,0,0,0,0,0,0,0,
0,0,0,0,0,0,0,0,0,0,0,0,0,0,0,0,
0,0,0,0,0,0,0,0,0,0,0,0,0,0,0,0,
0,0,0,0,0,0,0,0,0,0,0,0,0,0,0,0,
0,0,0,0,0,0,0,0,0,0,0,0,0,0,0,0,
0,0,0,0,0,0,0,0,0,0,0,0,0,0,0,0,
0,0,0,0,0,0,0,0,0,0,0,0,0,0,0,0
</chunk>
   <chunk x="48" y="-176" width="16" height="16">
0,0,0,0,0,0,0,0,0,0,0,0,0,0,0,0,
0,0,0,0,0,0,0,0,0,0,0,0,0,0,0,0,
0,258,0,0,0,0,0,0,0,0,0,0,0,0,0,0,
258,0,0,0,0,0,0,0,0,0,0,0,0,0,0,0,
0,0,0,0,0,0,0,0,0,0,0,0,0,0,0,0,
0,0,0,0,0,0,0,0,0,0,0,0,0,0,0,0,
0,258,0,0,0,0,0,0,0,0,0,0,0,0,0,0,
258,0,0,0,0,0,0,0,0,0,0,0,0,0,0,0,
0,0,0,0,0,0,0,0,0,0,0,0,0,0,0,0,
0,0,0,0,0,0,0,0,0,0,0,0,0,0,0,0,
0,0,0,0,0,0,0,0,0,0,0,0,0,0,0,0,
0,0,0,0,0,0,0,0,0,0,0,0,0,0,0,0,
0,0,0,0,0,0,0,0,0,0,0,0,0,0,0,0,
0,0,0,0,0,0,0,0,0,0,0,0,0,0,0,0,
0,0,0,0,0,0,0,0,0,0,0,0,0,0,0,0,
0,0,0,0,0,0,0,0,0,0,0,0,0,0,0,0
</chunk>
   <chunk x="32" y="-64" width="16" height="16">
0,0,0,0,0,0,0,0,0,0,0,0,0,0,0,0,
0,0,0,0,0,0,0,0,0,0,0,0,0,0,0,0,
0,0,0,0,0,0,0,0,0,0,0,0,0,0,0,0,
0,0,0,0,0,0,0,0,0,0,0,0,0,0,0,0,
0,0,0,0,0,0,0,0,0,0,0,0,0,0,258,258,
0,0,0,0,0,0,0,0,0,0,0,0,0,0,0,0,
0,0,0,0,0,0,0,0,0,0,0,0,0,0,0,0,
0,0,0,0,0,0,0,0,0,0,0,0,0,0,0,0,
0,0,0,0,0,0,0,0,0,0,0,0,0,0,0,0,
0,0,0,0,0,0,0,0,0,0,0,0,0,0,0,0,
0,0,0,0,0,0,0,0,0,0,0,0,0,0,0,0,
0,0,0,0,0,0,0,0,0,0,0,0,0,0,0,0,
0,0,0,0,0,0,0,0,0,0,0,0,0,0,0,0,
0,0,0,0,0,0,0,0,0,0,0,0,0,0,0,0,
0,0,0,0,0,0,0,0,0,0,0,0,0,0,0,0,
0,0,0,0,0,0,0,0,0,0,0,0,0,0,0,0
</chunk>
   <chunk x="48" y="-64" width="16" height="16">
0,0,0,0,0,0,0,0,0,0,0,0,0,0,0,0,
0,0,0,0,0,0,0,0,0,0,0,0,0,0,0,0,
0,0,0,0,0,0,0,0,0,0,0,0,0,0,0,0,
0,0,0,0,0,0,0,0,0,0,0,0,0,0,0,0,
258,0,0,0,0,0,0,0,0,0,0,0,0,0,0,0,
0,0,0,0,0,0,0,0,0,0,0,0,0,0,0,0,
0,0,0,0,0,0,0,0,0,0,0,0,0,0,0,0,
0,0,0,0,0,0,0,0,0,0,0,0,0,0,0,0,
0,0,0,0,0,0,0,0,0,0,0,0,0,0,0,0,
0,0,0,0,0,0,0,0,0,0,0,0,0,0,0,0,
0,0,0,0,0,0,0,0,0,0,0,0,0,0,0,0,
0,0,0,0,0,0,0,0,0,0,0,0,0,0,0,0,
0,0,0,0,0,0,0,0,0,0,0,0,0,0,0,0,
0,0,0,0,0,0,0,0,0,0,0,0,0,0,0,0,
0,0,0,0,0,0,0,0,0,0,0,0,0,0,0,0,
0,0,0,0,0,0,0,0,0,0,0,0,0,0,0,0
</chunk>
  </data>
 </layer>
 <objectgroup id="10" name="ObjectsFloor"/>
 <objectgroup id="9" name="Objects">
  <object id="468" template="SpikyLog.tx" x="1568" y="-1600"/>
  <object id="469" template="SpikyLog.tx" x="1440" y="-1664"/>
  <object id="470" template="SpikyLog.tx" x="1504" y="-1760"/>
  <object id="471" template="SpikyLog.tx" x="1472" y="-1760"/>
  <object id="472" template="SpikyLog.tx" x="1536" y="-1760"/>
  <object id="473" template="SpikyLog.tx" x="1568" y="-1888"/>
  <object id="479" template="SpikyLog.tx" type="SpikyLog" x="1440" y="-1888"/>
  <object id="480" template="WoodenBarrelCheeseClosed.tx" x="1504" y="-1728"/>
  <object id="483" template="WoodenBarrel.tx" x="1504" y="-1792"/>
  <object id="491" template="WoodenBarrelCheeseClosed.tx" x="1440" y="-2208"/>
  <object id="492" template="CrossbowChargedLeft.tx" x="1568" y="-2272"/>
  <object id="493" template="CrossbowChargedLeft.tx" x="1568" y="-2304"/>
  <object id="494" template="CrossbowChargedRight.tx" x="1376" y="-2368"/>
  <object id="495" template="CrossbowChargedRight.tx" x="1376" y="-2400"/>
  <object id="496" template="WoodenBarrel.tx" x="1568" y="-2432"/>
  <object id="508" template="WoodenBarrelClosed.tx" x="1440" y="-2176"/>
  <object id="513" template="WoodenBarrelSpikes.tx" x="1440" y="-2560"/>
  <object id="514" template="WoodenBarrelSpikes.tx" gid="2147483996" x="1536" y="-2656" rotation="0"/>
  <object id="515" template="WoodenBarrelSpikes.tx" x="1472" y="-2752"/>
  <object id="516" template="WoodenBarrelSpikes.tx" gid="2147483996" x="1568" y="-2848" rotation="0"/>
  <object id="517" template="SpikyLog.tx" x="1568" y="-2688"/>
  <object id="518" template="SpikyLog.tx" x="1440" y="-2816"/>
  <object id="524" template="CrossbowChargedRight.tx" x="1376" y="-2560"/>
  <object id="529" template="CrossbowChargedLeft.tx" x="1568" y="-2656"/>
  <object id="533" template="CrossbowChargedRight.tx" x="1376" y="-2752"/>
  <object id="535" template="CrossbowChargedLeft.tx" x="1568" y="-2848"/>
  <object id="536" template="SpikyLog.tx" x="1504" y="-2912"/>
  <object id="538" template="WoodenBarrel.tx" x="1440" y="-3040"/>
  <object id="539" template="WoodenBarrel.tx" x="1568" y="-3040"/>
  <object id="540" template="Stone1.tx" x="1472" y="-3104"/>
  <object id="544" template="Stone1.tx" gid="2147484038" x="1568" y="-3104" rotation="0"/>
  <object id="545" template="Stone2.tx" x="1536" y="-3104"/>
  <object id="546" template="Stone3.tx" x="1440" y="-3104"/>
  <object id="551" template="CrossbowChargedDown.tx" x="1440" y="-3200"/>
  <object id="552" template="CrossbowChargedDown.tx" x="1504" y="-3200"/>
  <object id="566" template="CrossbowChargedRight.tx" x="1376" y="-5216"/>
  <object id="567" template="WoodenBarrelCheeseClosed.tx" x="1440" y="-5152"/>
  <object id="568" template="WoodenBarrelCheeseClosed.tx" x="1408" y="-5856"/>
  <object id="577" template="Vase2.tx" x="1504" y="-6176"/>
  <object id="579" template="CrossbowChargedLeft.tx" x="1536" y="-6176"/>
  <object id="580" template="WoodPin1.tx" x="1536" y="-6368"/>
  <object id="585" template="WoodPin1.tx" gid="2147484053" x="1504" y="-6400" rotation="0"/>
  <object id="586" template="WoodenBarrelCheeseClosed.tx" x="1568" y="-6496"/>
  <object id="587" template="WoodPin2.tx" gid="2147484054" x="1504" y="-6496" rotation="0"/>
  <object id="588" template="WoodenBarrelPoison.tx" x="1536" y="-6624"/>
  <object id="589" template="WoodenBarrelPoison.tx" x="1472" y="-6784"/>
  <object id="591" template="WoodenBarrelPoison.tx" x="1568" y="-6912"/>
  <object id="592" template="WoodenBarrelPoison.tx" x="1440" y="-6912"/>
  <object id="593" template="WoodenBarrelPoison.tx" x="1504" y="-7008"/>
  <object id="594" template="WoodenBarrelSpikes.tx" x="1568" y="-3680"/>
  <object id="595" template="WoodenBarrelSpikes.tx" x="1440" y="-4128"/>
  <object id="596" template="WoodenBarrelSpikes.tx" x="1568" y="-4832"/>
  <object id="597" template="WoodPin2.tx" x="1536" y="-6400"/>
  <object id="627" template="WoodPin2.tx" x="1440" y="-7520"/>
  <object id="630" template="WoodPin2.tx" x="1536" y="-7616"/>
  <object id="631" template="WoodPin2.tx" x="1504" y="-7744"/>
  <object id="633" template="WoodPin2.tx" x="1472" y="-7776"/>
  <object id="636" template="WoodPin2.tx" x="1536" y="-7456"/>
  <object id="637" template="WoodPin2.tx" x="1568" y="-7840"/>
  <object id="643" template="WoodPin2.tx" x="1440" y="-7968"/>
  <object id="659" template="WoodPin2.tx" x="1472" y="-8448"/>
  <object id="660" template="WoodPin2.tx" x="1440" y="-8352"/>
  <object id="674" template="WoodPin2.tx" gid="2147484054" x="1568" y="-8672" rotation="0"/>
  <object id="679" template="WoodPin2.tx" gid="2147484054" x="1440" y="-8608" rotation="0"/>
  <object id="686" template="WoodPin2.tx" x="1472" y="-8768"/>
  <object id="688" template="WoodPin2.tx" x="1472" y="-8832"/>
  <object id="689" template="WoodPin2.tx" x="1472" y="-8896"/>
  <object id="701" type="NecromancerStatue" gid="583" x="1472" y="-8192" width="96" height="128"/>
  <object id="702" template="WoodPin2.tx" x="1536" y="-7872"/>
  <object id="704" template="WoodPin2.tx" gid="2147484054" x="1504" y="-7488" rotation="0"/>
  <object id="705" template="WoodPin2.tx" gid="2147484054" x="1536" y="-7712" rotation="0"/>
  <object id="709" template="WoodPin2.tx" x="1440" y="-7680"/>
  <object id="711" template="WoodPin2.tx" x="1440" y="-7840"/>
  <object id="712" template="WoodPin2.tx" gid="2147484054" x="1440" y="-7872" rotation="0"/>
  <object id="714" template="WoodPin2.tx" x="1504" y="-8000"/>
  <object id="715" template="WoodPin2.tx" gid="2147484054" x="1472" y="-8064" rotation="0"/>
  <object id="724" template="WoodPin2.tx" gid="2147484054" x="1541" y="-8335.5" rotation="0"/>
  <object id="728" template="LeverDungeonOFF.tx" x="1408" y="-8640"/>
  <object id="729" template="WoodPin2.tx" x="1504" y="-8672"/>
  <object id="731" template="WoodPin2.tx" gid="2147484054" x="1536" y="-8736" rotation="0"/>
  <object id="733" template="WoodPin2.tx" x="1568" y="-8832"/>
  <object id="734" template="WoodPin2.tx" x="1504" y="-8832"/>
  <object id="736" template="WoodPin2.tx" gid="2147484054" x="1568" y="-8960" rotation="0"/>
  <object id="737" template="WoodPin2.tx" x="1504" y="-8960"/>
  <object id="738" type="SwingingBall" gid="575" x="1472" y="-9088" width="96" height="96"/>
  <object id="739" template="WoodenBarrelCheeseClosed.tx" x="1504" y="-9120"/>
  <object id="740" template="WoodenBarrelCheeseClosed.tx" x="1600" y="-9696"/>
  <object id="742" template="CrossbowChargedLeft.tx" x="1568" y="-9888"/>
  <object id="744" template="CrossbowChargedLeft.tx" x="1568" y="-9984"/>
  <object id="746" template="CrossbowChargedLeft.tx" x="1568" y="-10080"/>
  <object id="751" template="WoodenBarrelSpikes.tx" x="1408" y="-9888"/>
  <object id="752" template="WoodenBarrelSpikes.tx" x="1376" y="-9984"/>
  <object id="753" template="WoodenBarrelSpikes.tx" x="1504" y="-10080"/>
  <object id="759" template="WoodenBarrelCheeseClosed.tx" x="1536" y="-10208"/>
  <object id="769" template="CrossbowChargedLeft.tx" x="1568" y="-10400"/>
  <object id="771" template="CrossbowChargedRight.tx" x="1376" y="-10272"/>
  <object id="774" gid="585" x="1504" y="-10592" width="32" height="64"/>
  <object id="777" template="SpikyLog.tx" x="1536" y="-10976"/>
  <object id="778" template="SpikyLog.tx" x="1472" y="-10880"/>
  <object id="805" template="WoodenBarrelCheeseClosed.tx" x="1600" y="-10816"/>
  <object id="810" type="CircularsawRat" gid="597" x="1504" y="-11072" width="32" height="32"/>
  <object id="811" type="CircularsawRat" gid="597" x="1472" y="-11136" width="32" height="32"/>
  <object id="812" type="CircularsawRat" gid="597" x="1440" y="-11200" width="32" height="32"/>
  <object id="814" template="WoodPin1.tx" gid="405" x="1440" y="-13952" rotation="0"/>
  <object id="817" template="WoodPin1.tx" gid="2147484053" x="1504" y="-13952" rotation="0"/>
  <object id="852" gid="604" x="1439.5" y="-14251.5" width="160" height="160"/>
  <object id="943" template="WoodenBarrelCheeseClosed.tx" x="1504" y="-9120"/>
  <object id="944" template="WoodPin2.tx" x="1472" y="-13952"/>
  <object id="945" template="WoodPin2.tx" gid="2147484054" x="1568" y="-13952" rotation="0"/>
  <object id="947" template="WoodenStool.tx" x="1536" y="-13952"/>
  <object id="948" template="WoodPin1.tx" x="1504" y="-7456"/>
  <object id="949" template="WoodenBarrelHay.tx" x="1472" y="-8544"/>
  <object id="950" template="WoodenBarrelGold.tx" x="1568" y="-8480"/>
  <object id="951" template="WoodenBarrelClosed.tx" x="1536" y="-7584"/>
  <object id="952" template="WoodenBarrelArrows.tx" type="WoodenBarrelArrows" x="1504" y="-8416"/>
  <object id="953" template="WoodenBarrel.tx" x="1568" y="-7584"/>
  <object id="954" template="Mannequin1.tx" x="1440" y="-8768"/>
  <object id="955" template="Mannequin2.tx" x="1504" y="-7718"/>
  <object id="956" template="HayBundle.tx" x="1536" y="-8480"/>
  <object id="957" template="WoodenBarrelClosed.tx" x="1536" y="-7552"/>
  <object id="958" template="WoodPin1.tx" x="1472" y="-7744"/>
  <object id="959" template="WoodenBarrelClosed.tx" x="1504" y="-7776"/>
  <object id="960" template="WoodenBarrel.tx" x="1440" y="-8544"/>
  <object id="961" template="WoodPin1.tx" gid="405" x="1504" y="-7584" rotation="0"/>
  <object id="962" template="WoodPin1.tx" gid="405" x="1440" y="-7552" rotation="0"/>
  <object id="963" template="WoodenBarrelClosed.tx" x="1440" y="-7648"/>
  <object id="964" template="WoodPin1.tx" gid="2147484053" x="1472" y="-7648" rotation="0"/>
  <object id="965" template="WoodPin1.tx" gid="2147484053" x="1504" y="-7808" rotation="0"/>
  <object id="966" template="WoodPin1.tx" x="1568" y="-7872"/>
  <object id="967" template="WoodPin1.tx" x="1472" y="-7872"/>
  <object id="968" template="WoodenBarrelArrows.tx" x="1536" y="-8000"/>
  <object id="969" template="WoodenBarrelClosed.tx" x="1568" y="-8064"/>
  <object id="970" template="WoodenBarrelGold.tx" x="1568" y="-8032"/>
  <object id="971" template="WoodenBarrelClosed.tx" x="1536" y="-8032"/>
  <object id="972" template="WoodenBarrelClosed.tx" x="1440" y="-8064"/>
  <object id="973" template="WoodenBarrel.tx" x="1440" y="-8032"/>
  <object id="974" template="WoodenBarrel.tx" x="1504" y="-7968"/>
  <object id="975" template="WoodPin1.tx" x="1504" y="-7936"/>
  <object id="976" template="WoodenBarrelHay.tx" x="1568" y="-8576"/>
  <object id="977" template="WoodenBarrelHay.tx" x="1568" y="-8544"/>
  <object id="978" template="HayBundle.tx" x="1568" y="-8512"/>
  <object id="979" template="HayBundle.tx" x="1568" y="-8608"/>
  <object id="980" template="HayBundle.tx" type="HayBundle" x="1504" y="-8544"/>
  <object id="982" template="WoodenBarrelClosed.tx" x="1536" y="-8384"/>
  <object id="983" template="WoodenBarrelClosed.tx" x="1504" y="-8448"/>
  <object id="984" template="WoodPin1.tx" x="1504" y="-8384"/>
  <object id="987" template="WoodenBarrelHay.tx" x="1536" y="-8448"/>
  <object id="988" template="WoodenBarrelClosed.tx" x="1504" y="-8768"/>
  <object id="989" template="WoodenBarrelClosed.tx" x="1536" y="-8832"/>
  <object id="990" template="WoodenBarrel.tx" x="1504" y="-8896"/>
  <object id="991" template="WoodenBarrelArrows.tx" x="1440" y="-8704"/>
  <object id="992" template="WoodenBarrel.tx" x="1440" y="-8736"/>
  <object id="993" template="WoodPin1.tx" x="1536" y="-8672"/>
  <object id="994" template="WoodPin1.tx" x="1440" y="-8672"/>
  <object id="998" template="WoodPin1.tx" x="1536" y="-8768"/>
  <object id="999" template="WoodPin1.tx" x="1536" y="-8960"/>
  <object id="1000" template="Mannequin1.tx" gid="2147484219" x="1536" y="-8896" rotation="0"/>
  <object id="1111" type="PuppetOnPole1" gid="2147484146" x="1632" y="192" width="64" height="96">
   <properties>
    <property name="Durability" type="int" value="2"/>
   </properties>
  </object>
  <object id="1112" type="PuppetOnPole2" gid="499" x="1312" y="-160" width="64" height="96">
   <properties>
    <property name="Durability" type="int" value="2"/>
   </properties>
  </object>
  <object id="1113" type="PuppetOnPole3" gid="2147484148" x="1664" y="-512" width="64" height="96">
   <properties>
    <property name="Durability" type="int" value="2"/>
   </properties>
  </object>
  <object id="1114" type="PuppetOnPole1" gid="498" x="1312" y="320" width="64" height="96">
   <properties>
    <property name="Durability" type="int" value="2"/>
   </properties>
  </object>
  <object id="1115" type="PuppetOnPole2" gid="2147484147" x="1312" y="-512" width="64" height="96">
   <properties>
    <property name="Durability" type="int" value="2"/>
   </properties>
  </object>
  <object id="1116" type="PuppetOnPole1" gid="2147484146" x="1664" y="-992" width="64" height="96">
   <properties>
    <property name="Durability" type="int" value="2"/>
   </properties>
  </object>
  <object id="1117" type="PuppetOnPole3" gid="500" x="1312" y="-1344" width="64" height="96">
   <properties>
    <property name="Durability" type="int" value="2"/>
   </properties>
  </object>
  <object id="1118" type="PuppetOnPole2" gid="2147484147" x="1664" y="-1888" width="64" height="96">
   <properties>
    <property name="Durability" type="int" value="2"/>
   </properties>
  </object>
  <object id="1119" type="PuppetOnPole1" gid="498" x="1312" y="-3264" width="64" height="96">
   <properties>
    <property name="Durability" type="int" value="2"/>
   </properties>
  </object>
  <object id="1120" type="PuppetOnPole1" gid="2147484146" x="1664" y="-2944" width="64" height="96">
   <properties>
    <property name="Durability" type="int" value="2"/>
   </properties>
  </object>
  <object id="1122" type="PuppetOnPole2" gid="2147484147" x="1312" y="-2656" width="64" height="96">
   <properties>
    <property name="Durability" type="int" value="2"/>
   </properties>
  </object>
  <object id="1123" type="PuppetOnPole1" gid="2147484146" x="1664" y="-5198" width="64" height="96">
   <properties>
    <property name="Durability" type="int" value="2"/>
   </properties>
  </object>
  <object id="1124" type="PuppetOnPole3" gid="500" x="1280" y="-5888" width="64" height="96">
   <properties>
    <property name="Durability" type="int" value="2"/>
   </properties>
  </object>
  <object id="1125" type="PuppetOnPole2" gid="2147484147" x="1664" y="-5600" width="64" height="96">
   <properties>
    <property name="Durability" type="int" value="2"/>
   </properties>
  </object>
  <object id="1126" type="PuppetOnPole1" gid="2147484146" x="1664" y="-6496" width="64" height="96">
   <properties>
    <property name="Durability" type="int" value="2"/>
   </properties>
  </object>
  <object id="1127" type="PuppetOnPole2" gid="2147484147" x="1280" y="-6336" width="64" height="96">
   <properties>
    <property name="Durability" type="int" value="2"/>
   </properties>
  </object>
  <object id="1128" type="PuppetOnPole3" gid="2147484148" x="1312" y="-6784" width="64" height="96">
   <properties>
    <property name="Durability" type="int" value="2"/>
   </properties>
  </object>
  <object id="1129" type="PuppetOnPole2" gid="499" x="1664" y="-6976" width="64" height="96">
   <properties>
    <property name="Durability" type="int" value="2"/>
   </properties>
  </object>
  <object id="1130" type="PuppetOnPole1" gid="498" x="1312" y="-9376" width="64" height="96">
   <properties>
    <property name="Durability" type="int" value="2"/>
   </properties>
  </object>
  <object id="1131" type="PuppetOnPole3" gid="2147484148" x="1696" y="-9632" width="64" height="96">
   <properties>
    <property name="Durability" type="int" value="2"/>
   </properties>
  </object>
  <object id="1132" type="PuppetOnPole2" gid="499" x="1280" y="-10016" width="64" height="96">
   <properties>
    <property name="Durability" type="int" value="2"/>
   </properties>
  </object>
  <object id="1133" type="PuppetOnPole3" gid="2147484148" x="1696" y="-10240" width="64" height="96">
   <properties>
    <property name="Durability" type="int" value="2"/>
   </properties>
  </object>
  <object id="1134" type="PuppetOnPole1" gid="498" x="1312" y="-10496" width="64" height="96">
   <properties>
    <property name="Durability" type="int" value="2"/>
   </properties>
  </object>
  <object id="1135" type="PuppetOnPole3" gid="500" x="1280" y="-11104" width="64" height="96">
   <properties>
    <property name="Durability" type="int" value="2"/>
   </properties>
  </object>
  <object id="1136" type="PuppetOnPole1" gid="2147484146" x="1696" y="-10880" width="64" height="96">
   <properties>
    <property name="Durability" type="int" value="2"/>
   </properties>
  </object>
  <object id="1143" template="Candle1Fire.tx" x="1570" y="-616"/>
  <object id="1147" template="Candle2Fire.tx" x="1435" y="-614"/>
  <object id="1148" template="Candle2Fire.tx" x="1664" y="-864"/>
  <object id="1149" template="Candle2Fire.tx" gid="2147484156" x="1280" y="-928" rotation="0"/>
  <object id="1150" template="Candle1Fire.tx" gid="2147484150" x="1696" y="-800" rotation="0"/>
  <object id="1151" template="Candle2Fire.tx" x="1438" y="-1151"/>
  <object id="1152" template="Candle2Fire.tx" x="1696" y="-1280"/>
  <object id="1153" template="Candle1Fire.tx" gid="2147484150" x="1728" y="-1184" rotation="0"/>
  <object id="1154" template="Candle1Fire.tx" gid="2147484150" x="1312" y="-1568" rotation="0"/>
  <object id="1157" template="Candle2Fire.tx" x="1568" y="-1952"/>
  <object id="1158" template="Candle2Fire.tx" x="1568" y="-2240"/>
  <object id="1159" template="Candle1Fire.tx" gid="2147484150" x="1440" y="-2496" rotation="0"/>
  <object id="1161" template="Candle1Fire.tx" gid="2147484150" x="1504" y="-2976" rotation="0"/>
  <object id="1165" template="Candle1Fire.tx" gid="2147484150" x="1568" y="-3488" rotation="0"/>
  <object id="1166" template="Candle2Fire.tx" x="1440" y="-3808"/>
  <object id="1167" template="Candle1Fire.tx" gid="2147484150" x="1568" y="-4032" rotation="0"/>
  <object id="1168" template="Candle2Fire.tx" x="1440" y="-4384"/>
  <object id="1169" template="Candle1Fire.tx" gid="2147484150" x="1568" y="-4704" rotation="0"/>
  <object id="1171" template="Candle1Fire.tx" gid="2147484150" x="1568" y="-5344" rotation="0"/>
  <object id="1173" template="Candle1Fire.tx" gid="2147484150" x="1312" y="-2080" rotation="0"/>
  <object id="1175" template="Candle1Fire.tx" gid="2147484150" x="1280" y="-3104" rotation="0"/>
  <object id="1176" template="Candle1Fire.tx" gid="2147484150" x="1696" y="-3232" rotation="0"/>
  <object id="1180" template="Candle1Fire.tx" gid="2147484150" x="1312" y="-5568" rotation="0"/>
  <object id="1181" template="Candle2Fire.tx" x="1568" y="-5888"/>
  <object id="1182" template="Candle1Fire.tx" gid="2147484150" x="1504" y="-6272" rotation="0"/>
  <object id="1184" template="Candle2.tx" x="1568" y="-6656"/>
  <object id="1185" template="Candle1.tx" x="1472" y="-6848"/>
  <object id="1186" template="Candle2.tx" x="1568" y="-7040"/>
  <object id="1187" template="Candle2Fire.tx" x="1696" y="-6752"/>
  <object id="1189" template="Candle1Fire.tx" x="1312" y="-7104"/>
  <object id="1190" template="Candle1Fire.tx" x="1664" y="-7168"/>
  <object id="1191" template="Candle1Fire.tx" x="1280" y="-7584"/>
  <object id="1192" template="Candle1Fire.tx" gid="2147484150" x="1696" y="-7776" rotation="0"/>
  <object id="1193" template="Candle2Fire.tx" x="1664" y="-8672"/>
  <object id="1194" template="Candle2Fire.tx" x="1664" y="-9440"/>
  <object id="1195" template="Candle1Fire.tx" x="1438" y="-9262"/>
  <object id="1196" template="Candle1Fire.tx" x="1568" y="-9824"/>
  <object id="1197" template="Candle2Fire.tx" x="1440" y="-10176"/>
  <object id="1198" template="Candle1Fire.tx" x="1568" y="-10592"/>
  <object id="1199" template="Candle2Fire.tx" x="1440" y="-10592"/>
  <object id="1200" template="Candle1Fire.tx" x="1440" y="-10624"/>
  <object id="1201" template="Candle2Fire.tx" x="1440" y="-10560"/>
  <object id="1202" template="Candle2Fire.tx" x="1568" y="-10624"/>
  <object id="1203" template="Candle2Fire.tx" gid="2147484156" x="1568" y="-10560" rotation="0"/>
  <object id="1204" template="Candle2Fire.tx" x="1440" y="-10496"/>
  <object id="1205" template="Candle2Fire.tx" gid="2147484156" x="1568" y="-10496" rotation="0"/>
  <object id="1206" template="Candle2Fire.tx" gid="2147484156" x="1440" y="-10688" rotation="0"/>
  <object id="1207" template="Candle1Fire.tx" x="1568" y="-10688"/>
  <object id="1210" template="Candle1Fire.tx" x="1664" y="-11136"/>
  <object id="1215" template="Candle1.tx" x="1568" y="896"/>
  <object id="1216" template="Candle1.tx" gid="2147484152" x="1440" y="672" rotation="0"/>
  <object id="1217" template="Candle2.tx" x="1504" y="384"/>
  <object id="1218" template="Candle1.tx" x="1568" y="128"/>
  <object id="1219" template="Candle1.tx" x="1440" y="-128"/>
  <object id="1220" template="Candle1.tx" x="1312" y="96"/>
  <object id="1221" template="TorchFire.tx" x="1568" y="-11328"/>
  <object id="1222" template="TorchFire.tx" x="1440" y="-11328"/>
  <object id="1223" template="TorchFire.tx" x="1632" y="-11616"/>
  <object id="1224" template="TorchFire.tx" x="1376" y="-11616"/>
  <object id="1225" template="TorchFire.tx" x="1632" y="-12032"/>
  <object id="1226" template="TorchFire.tx" x="1376" y="-12032"/>
  <object id="1229" template="TorchFire.tx" x="1632" y="-12448"/>
  <object id="1230" template="TorchFire.tx" x="1376" y="-12448"/>
  <object id="1233" template="TorchFire.tx" x="1632" y="-12864"/>
  <object id="1234" template="TorchFire.tx" x="1376" y="-12864"/>
  <object id="1235" template="TorchFire.tx" x="1632" y="-13280"/>
  <object id="1236" template="TorchFire.tx" x="1376" y="-13280"/>
  <object id="1239" template="TorchFire.tx" x="1632" y="-13696"/>
  <object id="1240" template="TorchFire.tx" x="1376" y="-13696"/>
  <object id="1241" template="TorchFire.tx" x="1632" y="-14112"/>
  <object id="1242" template="TorchFire.tx" x="1376" y="-14112"/>
  <object id="1243" template="TorchFire.tx" x="1376" y="-14464"/>
  <object id="1244" template="TorchFire.tx" x="1632" y="-14464"/>
  <object id="1245" template="Cage1.tx" type="Cage1" x="1728" y="-224"/>
  <object id="1246" template="Cage2.tx" type="Cage2" x="1728" y="-192"/>
  <object id="1249" template="Cage3.tx" type="Cage3" x="1792" y="-256"/>
  <object id="1250" template="Cage3.tx" type="Cage3" x="1792" y="-224"/>
  <object id="1251" template="Cage1.tx" type="Cage1" x="1696" y="-832"/>
  <object id="1252" template="Cage3.tx" type="Cage3" x="1664" y="-800"/>
  <object id="1253" template="Cage2.tx" type="Cage2" x="1728" y="-800"/>
  <object id="1255" template="Cage2.tx" x="1248" y="-1600"/>
  <object id="1257" template="Cage3.tx" x="1280" y="-1568"/>
  <object id="1258" template="Cage3.tx" x="1248" y="-1632"/>
  <object id="1259" template="Cage3.tx" x="1280" y="-1632"/>
  <object id="1272" template="Cage2.tx" x="1279" y="-2122"/>
  <object id="1273" template="Cage1.tx" x="1728" y="-2464"/>
  <object id="1274" template="Cage3.tx" x="1696" y="-2496"/>
  <object id="1275" template="Cage1.tx" x="1728" y="-3168"/>
  <object id="1289" template="Cage1.tx" x="1664" y="-5344"/>
  <object id="1290" template="Cage3.tx" x="1696" y="-5408"/>
  <object id="1291" template="Cage3.tx" x="1312" y="-5536"/>
  <object id="1292" template="Cage2.tx" x="1248" y="-6112"/>
  <object id="1293" template="Cage3.tx" x="1696" y="-6336"/>
  <object id="1294" template="Cage2.tx" x="1728" y="-6752"/>
  <object id="1295" template="Cage3.tx" x="1728" y="-6784"/>
  <object id="1296" template="Cage2.tx" x="1696" y="-7104"/>
  <object id="1297" template="Cage2.tx" x="1664" y="-7136"/>
  <object id="1299" template="Cage3.tx" x="1280" y="-7136"/>
  <object id="1302" template="Cage2.tx" x="1696" y="-9408"/>
  <object id="1303" template="Cage3.tx" x="1696" y="-9440"/>
  <object id="1304" template="Cage1.tx" x="1696" y="-10624"/>
  <object id="1305" template="Cage3.tx" x="1696" y="-10688"/>
  <object id="1306" template="Cage3.tx" x="1664" y="-10656"/>
  <object id="1307" template="Cage1.tx" x="1696" y="-11104"/>
  <object id="1308" template="Cage3.tx" x="1696" y="-11168"/>
  <object id="1309" template="ChainsOnFloor2.tx" type="ChainsOnFloor2" x="1728" y="-753"/>
  <object id="1311" template="ChainsOnFloor1.tx" x="1328" y="-2097"/>
  <object id="1312" template="ChainsOnFloor2.tx" x="1745" y="-1247" rotation="90"/>
  <object id="1313" template="ChainsOnFloor1.tx" x="1711" y="-3121"/>
  <object id="1314" template="ChainsOnFloor2.tx" x="1742" y="-3170" rotation="-90"/>
  <object id="1315" template="ChainsOnFloor2.tx" x="1295" y="-3104" rotation="-90"/>
  <object id="1316" template="ChainsOnFloor1.tx" gid="1073742442" x="1230" y="-3062" rotation="0"/>
  <object id="1324" template="ChainsOnFloor2.tx" x="1772" y="-5343" rotation="-90"/>
  <object id="1325" template="ChainsOnFloor2.tx" gid="3221226091" x="1334" y="-5560" rotation="-90"/>
  <object id="1326" template="ChainsOnFloor2.tx" x="1734" y="-5841"/>
  <object id="1327" template="ChainsOnFloor2.tx" x="1708" y="-5906" rotation="90"/>
  <object id="1328" template="ChainsOnFloor1.tx" gid="2147484266" x="1264" y="-6065" rotation="0"/>
  <object id="1329" template="ChainsOnFloor1.tx" gid="2147484266" x="1648" y="-6319" rotation="0"/>
  <object id="1330" template="ChainsOnFloor1.tx" gid="1073742442" x="1680" y="-6288" rotation="0"/>
  <object id="1331" template="ChainsOnFloor2.tx" x="1250" y="-7090"/>
  <object id="1333" template="ChainsOnFloor1.tx" gid="618" x="1711" y="-6704" rotation="0"/>
  <object id="1336" template="ChainsOnFloor1.tx" gid="2147484266" x="1681" y="-10578" rotation="0"/>
  <object id="1338" type="DummyBloodsucker" gid="620" x="1440" y="-3584" width="32" height="64">
   <properties>
    <property name="Durability" type="int" value="2"/>
   </properties>
  </object>
  <object id="1341" type="DummyBloodsucker" gid="620" x="1504" y="-3872" width="32" height="64">
   <properties>
    <property name="Durability" type="int" value="2"/>
   </properties>
  </object>
  <object id="1342" type="DummyBloodsucker" gid="2147484268" x="1536" y="-4416" width="32" height="64">
   <properties>
    <property name="Durability" type="int" value="2"/>
   </properties>
  </object>
  <object id="1343" type="DummyBloodsucker" gid="620" x="1440" y="-4576" width="32" height="64">
   <properties>
    <property name="Durability" type="int" value="2"/>
   </properties>
  </object>
  <object id="1344" template="Vase1.tx" x="1664" y="-8704"/>
  <object id="1345" template="Vase3.tx" x="1696" y="-8672"/>
  <object id="1346" template="Vase1.tx" x="1728" y="-7776"/>
  <object id="1347" template="Vase2.tx" x="1728" y="-7744"/>
  <object id="1348" template="Vase3.tx" x="1248" y="-7648"/>
  <object id="1349" template="Vase1.tx" x="1248" y="-7616"/>
  <object id="1350" template="Vase2.tx" x="1280" y="-7616"/>
  <object id="1354" template="Stalagmite1.tx" x="1696" y="-3776"/>
  <object id="1355" template="Stalagmite1.tx" x="1728" y="-3808"/>
  <object id="1356" template="Stalagmite1.tx" x="1248" y="-4032"/>
  <object id="1357" template="Stalagmite2.tx" x="1728" y="-3744"/>
  <object id="1358" template="Stalagmite2.tx" x="1312" y="-4000"/>
  <object id="1359" template="Stalagmite2.tx" x="1696" y="-4512"/>
  <object id="1360" template="Stalagmite2.tx" x="1728" y="-4448"/>
  <object id="1361" template="StalagmiteGiant.tx" x="1696" y="-4480"/>
  <object id="1362" template="Stalagmite1.tx" x="1696" y="-4832"/>
  <object id="1363" template="Stalagmite2.tx" x="1664" y="-4832"/>
  <object id="1364" template="StalagmiteGiant.tx" x="1265" y="-3972"/>
  <object id="1366" template="StalagmiteGiant.tx" x="1728" y="-3776"/>
  <object id="1368" template="Stalagmite2.tx" x="1280" y="-4032"/>
  <object id="1369" template="Stalagmite2.tx" x="1248" y="-4000"/>
  <object id="1370" template="Stalagmite1.tx" x="1760" y="-4480"/>
  <object id="1371" template="Stalagmite1.tx" x="1728" y="-4512"/>
  <object id="1372" template="Stalagmite1.tx" x="1664" y="-4864"/>
  <object id="1373" template="Stalagmite1.tx" x="1632" y="-3584"/>
  <object id="1374" template="Stalagmite1.tx" x="1344" y="-3872"/>
  <object id="1375" template="Stalagmite1.tx" x="1632" y="-4576"/>
  <object id="1376" template="Stalagmite2.tx" x="1344" y="-4224"/>
  <object id="1377" template="Stalagmite2.tx" x="1632" y="-3968"/>
  <object id="1380" template="Stalagmite2.tx" x="1376" y="-3584"/>
  <object id="1381" template="StalagmiteGiant.tx" x="1344" y="-4736"/>
  <object id="1390" type="Cheese" gid="624" x="1504" y="-4960" width="32" height="32">
   <properties>
    <property name="Durability" type="int" value="1"/>
   </properties>
  </object>
  <object id="1407" template="LeverDungeonOFF.tx" x="1632" y="-5088"/>
  <object id="1415" type="BarrelSkis" gid="670" x="1504" y="-11424" width="32" height="64">
   <properties>
    <property name="Durability" type="int" value="4"/>
   </properties>
  </object>
  <object id="1416" gid="671" x="1683" y="-13059" width="96" height="96"/>
  <object id="1417" type="GiantGuillotineWallLeft" gid="643" x="1408" y="-4960" width="32" height="32"/>
  <object id="1420" type="GiantGuillotineWallRight" gid="643" x="1600" y="-4960" width="32" height="32"/>
  <object id="1432" template="Cage1.tx" x="1696" y="-1216"/>
  <object id="1433" template="Cage3.tx" x="1760" y="-1248"/>
  <object id="1434" template="Cage3.tx" x="1664" y="-1216"/>
  <object id="1447" type="MovingTowerUp" gid="412" x="1568" y="-2304" width="32" height="64"/>
  <object id="1448" type="MovingTowerUp" gid="412" x="1568" y="-2272" width="32" height="64"/>
  <object id="1449" type="MovingTowerUp" gid="412" x="1440" y="-2368" width="32" height="64"/>
  <object id="1450" type="MovingTowerUp" gid="412" x="1440" y="-2400" width="32" height="64"/>
  <object id="1451" type="MovingTowerUp" gid="412" x="1504" y="-6176" width="32" height="64"/>
  <object id="1452" type="MovingTowerUp" gid="412" x="1440" y="-10272" width="32" height="64"/>
  <object id="1453" type="MovingTowerUp" gid="412" x="1472" y="-10304" width="32" height="64"/>
  <object id="1454" type="MovingTowerUp" gid="412" x="1504" y="-10336" width="32" height="64"/>
  <object id="1455" type="MovingTowerUp" gid="412" x="1536" y="-10368" width="32" height="64"/>
  <object id="1456" type="MovingTowerUp" gid="412" x="1568" y="-10400" width="32" height="64"/>
  <object id="1457" type="MovingTowerUp" gid="412" x="1472" y="-10784" width="32" height="64"/>
  <object id="1458" type="MovingTowerUp" gid="412" x="1536" y="-10880" width="32" height="64"/>
 </objectgroup>
 <objectgroup id="11" name="CageOnOtherCages">
  <object id="1264" template="Cage3.tx" x="1264" y="-1641"/>
 </objectgroup>
 <objectgroup id="36" name="GuillotineBlade">
  <object id="1424" type="GuillotineBlade" gid="641" x="1504" y="-5056" width="32" height="32"/>
 </objectgroup>
 <layer id="3" name="Roof" width="30" height="20">
  <data encoding="csv">
   <chunk x="32" y="-288" width="16" height="16">
0,0,0,0,0,0,0,0,0,0,0,0,0,0,0,0,
0,0,0,0,0,0,0,0,0,0,0,0,0,0,0,0,
0,0,0,0,0,0,0,0,0,0,0,0,0,0,0,0,
0,0,0,0,0,0,0,0,0,0,0,0,0,0,0,0,
0,0,0,0,0,0,0,0,0,0,0,0,0,0,0,0,
0,0,0,0,0,0,0,0,0,0,0,0,0,0,0,0,
0,0,0,0,0,0,0,0,0,0,0,0,0,0,0,0,
0,0,0,0,0,0,0,0,0,0,0,0,0,0,0,0,
0,0,0,0,0,0,0,0,0,0,0,0,0,0,0,0,
0,0,0,0,0,0,0,0,0,0,0,0,0,0,0,0,
0,0,0,0,0,0,0,0,0,0,0,0,0,0,0,0,
0,0,0,0,0,0,0,0,0,0,0,0,0,0,0,0,
0,0,0,0,0,0,0,0,0,0,0,0,0,0,0,0,
0,0,0,0,0,0,0,0,0,0,0,0,0,0,0,0,
0,0,0,0,0,0,0,0,0,0,0,0,17,0,0,0,
0,0,0,0,0,0,0,0,0,0,0,1,21,0,0,0
</chunk>
   <chunk x="32" y="-272" width="16" height="16">
0,0,0,0,0,0,0,0,0,0,0,17,0,0,0,0,
0,0,0,0,0,0,0,0,0,0,0,17,0,0,0,0,
0,0,0,0,0,0,0,0,0,0,0,308,0,0,0,0,
0,0,0,0,0,0,0,0,0,0,0,308,0,0,0,0,
0,0,0,0,0,0,0,0,0,0,0,0,0,0,0,0,
0,0,0,0,0,0,0,0,0,0,0,0,0,0,0,0,
0,0,0,0,0,0,0,0,0,0,0,0,0,0,0,0,
0,0,0,0,0,0,0,0,0,0,0,0,0,0,0,0,
0,0,0,0,0,0,0,0,0,0,0,0,0,0,0,0,
0,0,0,0,0,0,0,0,0,0,0,0,0,0,0,0,
0,0,0,0,0,0,0,0,0,0,0,0,0,0,0,0,
0,0,0,0,0,0,0,0,0,0,0,0,0,0,0,0,
0,0,0,0,0,0,0,0,0,0,0,0,0,0,0,0,
0,0,0,0,0,0,0,0,0,0,0,0,0,0,0,0,
0,0,0,0,0,0,0,0,0,0,0,0,0,0,0,0,
0,0,0,0,0,0,0,0,0,0,0,0,0,0,0,0
</chunk>
   <chunk x="48" y="-176" width="16" height="16">
0,0,0,0,0,0,0,0,0,0,0,0,0,0,0,0,
0,0,0,0,0,0,0,0,0,0,0,0,0,0,0,0,
0,0,0,0,0,0,0,0,0,0,0,0,0,0,0,0,
0,0,0,0,0,0,0,0,0,0,0,0,0,0,0,0,
0,0,0,0,0,0,0,0,0,0,0,0,0,0,0,0,
0,0,0,0,0,0,0,0,0,0,0,0,0,0,0,0,
0,0,0,0,0,0,0,0,0,0,0,0,0,0,0,0,
0,0,0,0,0,0,0,0,0,0,0,0,0,0,0,0,
0,0,0,0,0,0,0,0,0,0,0,0,0,0,0,0,
0,0,0,0,0,0,0,0,0,0,0,0,0,0,0,0,
0,0,0,0,0,0,0,0,0,0,0,0,0,0,0,0,
0,0,0,0,0,0,0,0,0,0,0,0,0,0,0,0,
0,0,308,0,0,0,0,0,0,0,0,0,0,0,0,0,
0,0,19,0,0,0,0,0,0,0,0,0,0,0,0,0,
0,0,20,2,2,0,0,0,0,0,0,0,0,0,0,0,
0,0,0,0,0,0,0,0,0,0,0,0,0,0,0,0
</chunk>
   <chunk x="32" y="-160" width="16" height="16">
0,0,0,0,0,0,0,0,0,0,0,0,0,628,628,628,
0,0,0,0,0,0,0,0,0,0,0,0,0,635,635,635,
0,0,0,0,0,0,0,0,0,0,0,0,0,0,0,0,
0,0,0,0,0,0,0,0,0,0,0,0,0,0,0,0,
0,0,0,0,0,0,0,0,0,0,0,0,0,0,0,0,
0,0,0,0,0,0,0,0,0,0,0,0,0,0,0,0,
0,0,0,0,0,0,0,0,0,0,0,0,0,0,0,0,
0,0,0,0,0,0,0,0,0,0,0,0,0,0,0,0,
0,0,0,0,0,0,0,0,0,0,0,0,0,0,0,0,
0,0,0,0,0,0,0,0,0,0,0,0,0,0,0,0,
0,0,0,0,0,0,0,0,0,0,0,0,0,0,0,0,
0,0,0,0,0,0,0,0,0,0,0,0,0,0,0,0,
0,0,0,0,0,0,0,0,0,0,0,0,0,0,0,0,
0,0,0,0,0,0,0,0,0,0,0,0,0,0,0,0,
0,0,0,0,0,0,0,0,0,0,0,0,0,0,0,0,
0,0,0,0,0,0,0,0,0,0,0,0,0,0,0,0
</chunk>
   <chunk x="48" y="-160" width="16" height="16">
628,628,0,0,0,0,0,0,0,0,0,0,0,0,0,0,
635,635,0,0,0,0,0,0,0,0,0,0,0,0,0,0,
0,0,0,0,0,0,0,0,0,0,0,0,0,0,0,0,
0,0,0,0,0,0,0,0,0,0,0,0,0,0,0,0,
0,0,0,0,0,0,0,0,0,0,0,0,0,0,0,0,
0,0,0,0,0,0,0,0,0,0,0,0,0,0,0,0,
0,0,0,0,0,0,0,0,0,0,0,0,0,0,0,0,
0,0,0,0,0,0,0,0,0,0,0,0,0,0,0,0,
0,0,0,0,0,0,0,0,0,0,0,0,0,0,0,0,
0,0,0,0,0,0,0,0,0,0,0,0,0,0,0,0,
0,0,0,0,0,0,0,0,0,0,0,0,0,0,0,0,
0,0,0,0,0,0,0,0,0,0,0,0,0,0,0,0,
0,0,0,0,0,0,0,0,0,0,0,0,0,0,0,0,
0,0,0,0,0,0,0,0,0,0,0,0,0,0,0,0,
0,0,0,0,0,0,0,0,0,0,0,0,0,0,0,0,
0,0,0,0,0,0,0,0,0,0,0,0,0,0,0,0
</chunk>
  </data>
 </layer>
 <layer id="34" name="GuillotineRopes" width="30" height="20">
  <data encoding="csv"/>
 </layer>
 <layer id="4" name="RoofShadow" width="30" height="20">
  <data encoding="csv">
   <chunk x="32" y="-288" width="16" height="16">
0,0,0,0,0,0,0,0,0,0,0,0,0,0,0,0,
0,0,0,0,0,0,0,0,0,0,0,0,0,0,0,0,
0,0,0,0,0,0,0,0,0,0,0,0,0,0,0,0,
0,0,0,0,0,0,0,0,0,0,0,0,0,0,0,0,
0,0,0,0,0,0,0,0,0,0,0,0,0,0,0,0,
0,0,0,0,0,0,0,0,0,0,0,0,0,0,0,0,
0,0,0,0,0,0,0,0,0,0,0,0,0,0,0,0,
0,0,0,0,0,0,0,0,0,0,0,0,0,0,0,0,
0,0,0,0,0,0,0,0,0,0,0,0,0,0,0,0,
0,0,0,0,0,0,0,0,0,0,0,0,0,0,0,0,
0,0,0,0,0,0,0,0,0,0,0,0,0,0,0,0,
0,0,0,0,0,0,0,0,0,0,0,0,0,0,0,0,
0,0,0,0,0,0,0,0,0,0,0,0,0,0,0,0,
0,0,0,0,0,0,0,0,0,0,0,0,0,0,0,0,
0,0,0,0,0,0,0,0,0,0,0,0,317,0,0,0,
0,0,0,0,0,0,0,0,0,0,0,0,0,0,0,0
</chunk>
   <chunk x="32" y="-272" width="16" height="16">
0,0,0,0,0,0,0,0,0,0,0,0,0,0,0,0,
0,0,0,0,0,0,0,0,0,0,0,1073742141,0,0,0,0,
0,0,0,0,0,0,0,0,0,0,0,0,0,0,0,0,
0,0,0,0,0,0,0,0,0,0,0,0,0,0,0,0,
0,0,0,0,0,0,0,0,0,0,0,0,0,0,0,0,
0,0,0,0,0,0,0,0,0,0,0,0,0,0,0,0,
0,0,0,0,0,0,0,0,0,0,0,0,0,0,0,0,
0,0,0,0,0,0,0,0,0,0,0,0,0,0,0,0,
0,0,0,0,0,0,0,0,0,0,0,0,0,0,0,0,
0,0,0,0,0,0,0,0,0,0,0,0,0,0,0,0,
0,0,0,0,0,0,0,0,0,0,0,0,0,0,0,0,
0,0,0,0,0,0,0,0,0,0,0,0,0,0,0,0,
0,0,0,0,0,0,0,0,0,0,0,0,0,0,0,0,
0,0,0,0,0,0,0,0,0,0,0,0,0,0,0,0,
0,0,0,0,0,0,0,0,0,0,0,0,0,0,0,0,
0,0,0,0,0,0,0,0,0,0,0,0,0,0,0,0
</chunk>
   <chunk x="48" y="-176" width="16" height="16">
0,0,0,0,0,0,0,0,0,0,0,0,0,0,0,0,
0,0,0,0,0,0,0,0,0,0,0,0,0,0,0,0,
0,0,0,0,0,0,0,0,0,0,0,0,0,0,0,0,
0,0,0,0,0,0,0,0,0,0,0,0,0,0,0,0,
0,0,0,0,0,0,0,0,0,0,0,0,0,0,0,0,
0,0,0,0,0,0,0,0,0,0,0,0,0,0,0,0,
0,0,0,0,0,0,0,0,0,0,0,0,0,0,0,0,
0,0,0,0,0,0,0,0,0,0,0,0,0,0,0,0,
0,0,0,0,0,0,0,0,0,0,0,0,0,0,0,0,
0,0,0,0,0,0,0,0,0,0,0,0,0,0,0,0,
0,0,0,0,0,0,0,0,0,0,0,0,0,0,0,0,
0,0,0,0,0,0,0,0,0,0,0,0,0,0,0,0,
0,0,0,0,0,0,0,0,0,0,0,0,0,0,0,0,
0,0,317,0,0,0,0,0,0,0,0,0,0,0,0,0,
0,0,0,0,2684354877,0,0,0,0,0,0,0,0,0,0,0,
0,0,0,0,0,0,0,0,0,0,0,0,0,0,0,0
</chunk>
   <chunk x="32" y="16" width="16" height="16">
0,0,0,0,0,0,0,0,0,0,0,0,0,0,0,0,
0,0,0,0,0,0,0,0,0,0,0,0,0,0,0,0,
0,0,0,0,0,0,0,0,0,0,0,0,0,0,0,0,
0,0,0,0,0,0,0,0,0,0,0,0,0,0,0,0,
0,0,0,0,0,0,0,0,0,0,0,0,0,0,0,0,
0,0,0,0,0,0,0,0,0,0,0,0,0,0,0,0,
0,0,0,0,0,0,0,0,0,0,0,0,0,0,0,0,
0,0,0,0,0,0,0,0,0,0,0,0,0,0,0,0,
0,0,0,0,0,0,0,0,0,0,0,0,0,0,0,0,
0,0,0,0,0,0,0,0,0,0,0,0,0,0,0,0,
0,0,0,0,0,0,0,0,0,0,0,0,0,0,0,0,
0,0,0,0,0,0,0,0,0,0,0,0,0,0,0,0,
0,0,0,0,0,0,0,0,0,0,0,0,0,0,0,0,
0,0,0,0,0,0,0,0,0,0,0,0,0,0,0,0,
0,0,0,0,0,0,0,0,0,0,0,0,1073742142,1073742142,1073742142,1073742142,
0,0,0,0,0,0,0,0,0,0,0,0,308,308,308,308
</chunk>
   <chunk x="48" y="16" width="16" height="16">
0,0,0,0,0,0,0,0,0,0,0,0,0,0,0,0,
0,0,0,0,0,0,0,0,0,0,0,0,0,0,0,0,
0,0,0,0,0,0,0,0,0,0,0,0,0,0,0,0,
0,0,0,0,0,0,0,0,0,0,0,0,0,0,0,0,
0,0,0,0,0,0,0,0,0,0,0,0,0,0,0,0,
0,0,0,0,0,0,0,0,0,0,0,0,0,0,0,0,
0,0,0,0,0,0,0,0,0,0,0,0,0,0,0,0,
0,0,0,0,0,0,0,0,0,0,0,0,0,0,0,0,
0,0,0,0,0,0,0,0,0,0,0,0,0,0,0,0,
0,0,0,0,0,0,0,0,0,0,0,0,0,0,0,0,
0,0,0,0,0,0,0,0,0,0,0,0,0,0,0,0,
0,0,0,0,0,0,0,0,0,0,0,0,0,0,0,0,
0,0,0,0,0,0,0,0,0,0,0,0,0,0,0,0,
0,0,0,0,0,0,0,0,0,0,0,0,0,0,0,0,
1073742142,1073742142,1073742142,0,0,0,0,0,0,0,0,0,0,0,0,0,
308,308,308,0,0,0,0,0,0,0,0,0,0,0,0,0
</chunk>
   <chunk x="32" y="32" width="16" height="16">
0,0,0,0,0,0,0,0,0,0,0,0,308,308,308,308,
0,0,0,0,0,0,0,0,0,0,0,0,308,308,308,308,
0,0,0,0,0,0,0,0,0,0,0,0,308,308,308,308,
0,0,0,0,0,0,0,0,0,0,0,0,0,0,0,0,
0,0,0,0,0,0,0,0,0,0,0,0,0,0,0,0,
0,0,0,0,0,0,0,0,0,0,0,0,0,0,0,0,
0,0,0,0,0,0,0,0,0,0,0,0,0,0,0,0,
0,0,0,0,0,0,0,0,0,0,0,0,0,0,0,0,
0,0,0,0,0,0,0,0,0,0,0,0,0,0,0,0,
0,0,0,0,0,0,0,0,0,0,0,0,0,0,0,0,
0,0,0,0,0,0,0,0,0,0,0,0,0,0,0,0,
0,0,0,0,0,0,0,0,0,0,0,0,0,0,0,0,
0,0,0,0,0,0,0,0,0,0,0,0,0,0,0,0,
0,0,0,0,0,0,0,0,0,0,0,0,0,0,0,0,
0,0,0,0,0,0,0,0,0,0,0,0,0,0,0,0,
0,0,0,0,0,0,0,0,0,0,0,0,0,0,0,0
</chunk>
   <chunk x="48" y="32" width="16" height="16">
308,308,308,0,0,0,0,0,0,0,0,0,0,0,0,0,
308,308,308,0,0,0,0,0,0,0,0,0,0,0,0,0,
308,308,308,0,0,0,0,0,0,0,0,0,0,0,0,0,
0,0,0,0,0,0,0,0,0,0,0,0,0,0,0,0,
0,0,0,0,0,0,0,0,0,0,0,0,0,0,0,0,
0,0,0,0,0,0,0,0,0,0,0,0,0,0,0,0,
0,0,0,0,0,0,0,0,0,0,0,0,0,0,0,0,
0,0,0,0,0,0,0,0,0,0,0,0,0,0,0,0,
0,0,0,0,0,0,0,0,0,0,0,0,0,0,0,0,
0,0,0,0,0,0,0,0,0,0,0,0,0,0,0,0,
0,0,0,0,0,0,0,0,0,0,0,0,0,0,0,0,
0,0,0,0,0,0,0,0,0,0,0,0,0,0,0,0,
0,0,0,0,0,0,0,0,0,0,0,0,0,0,0,0,
0,0,0,0,0,0,0,0,0,0,0,0,0,0,0,0,
0,0,0,0,0,0,0,0,0,0,0,0,0,0,0,0,
0,0,0,0,0,0,0,0,0,0,0,0,0,0,0,0
</chunk>
  </data>
 </layer>
 <layer id="27" name="BARRIER_GROUND" width="30" height="20" opacity="0">
  <data encoding="csv">
   <chunk x="32" y="-480" width="16" height="16">
0,0,0,0,0,0,0,0,0,0,0,0,0,0,0,0,
0,0,0,0,0,0,0,0,0,0,0,0,0,0,0,0,
0,0,0,0,0,0,0,0,0,0,0,0,0,0,0,0,
0,0,0,0,0,0,0,0,0,0,0,0,0,0,0,0,
0,0,0,0,0,0,0,0,0,0,0,0,0,0,0,0,
0,0,0,0,0,0,0,0,0,0,0,0,0,0,0,0,
0,0,0,0,0,0,0,0,0,0,0,0,0,0,0,0,
0,0,0,0,0,0,0,0,0,0,0,0,0,0,0,0,
0,0,0,0,0,0,0,0,0,0,0,0,0,0,0,0,
0,0,0,0,0,0,0,0,0,0,0,0,0,0,0,0,
0,0,0,0,0,0,0,0,0,0,0,0,0,0,0,0,
0,0,0,0,0,0,0,0,0,0,0,0,0,0,0,0,
0,0,0,0,0,0,0,0,0,0,0,0,0,0,0,0,
0,0,0,0,0,0,0,0,0,0,0,0,0,0,557,557,
0,0,0,0,0,0,0,0,0,0,0,0,0,557,0,0,
0,0,0,0,0,0,0,0,0,0,0,0,0,557,0,0
</chunk>
   <chunk x="48" y="-480" width="16" height="16">
0,0,0,0,0,0,0,0,0,0,0,0,0,0,0,0,
0,0,0,0,0,0,0,0,0,0,0,0,0,0,0,0,
0,0,0,0,0,0,0,0,0,0,0,0,0,0,0,0,
0,0,0,0,0,0,0,0,0,0,0,0,0,0,0,0,
0,0,0,0,0,0,0,0,0,0,0,0,0,0,0,0,
0,0,0,0,0,0,0,0,0,0,0,0,0,0,0,0,
0,0,0,0,0,0,0,0,0,0,0,0,0,0,0,0,
0,0,0,0,0,0,0,0,0,0,0,0,0,0,0,0,
0,0,0,0,0,0,0,0,0,0,0,0,0,0,0,0,
0,0,0,0,0,0,0,0,0,0,0,0,0,0,0,0,
0,0,0,0,0,0,0,0,0,0,0,0,0,0,0,0,
0,0,0,0,0,0,0,0,0,0,0,0,0,0,0,0,
0,0,0,0,0,0,0,0,0,0,0,0,0,0,0,0,
557,0,0,0,0,0,0,0,0,0,0,0,0,0,0,0,
0,557,0,0,0,0,0,0,0,0,0,0,0,0,0,0,
0,557,0,0,0,0,0,0,0,0,0,0,0,0,0,0
</chunk>
   <chunk x="32" y="-464" width="16" height="16">
0,0,0,0,0,0,0,0,0,0,0,0,0,557,0,0,
0,0,0,0,0,0,0,0,0,0,0,0,0,557,0,0,
0,0,0,0,0,0,0,0,0,0,0,0,0,557,0,0,
0,0,0,0,0,0,0,0,0,0,0,0,0,557,0,0,
0,0,0,0,0,0,0,0,0,0,0,0,0,557,0,0,
0,0,0,0,0,0,0,0,0,0,0,0,0,557,0,0,
0,0,0,0,0,0,0,0,0,0,0,0,0,557,0,0,
0,0,0,0,0,0,0,0,0,0,0,0,0,557,0,0,
0,0,0,0,0,0,0,0,0,0,0,0,0,557,0,0,
0,0,0,0,0,0,0,0,0,0,0,0,0,557,0,0,
0,0,0,0,0,0,0,0,0,0,0,0,0,557,0,0,
0,0,0,0,0,0,0,0,0,0,0,0,0,557,0,0,
0,0,0,0,0,0,0,0,0,0,0,0,557,0,0,0,
0,0,0,0,0,0,0,0,0,0,0,557,0,0,557,557,
0,0,0,0,0,0,0,0,0,0,557,0,0,557,0,0,
0,0,0,0,0,0,0,0,0,0,557,0,557,0,0,0
</chunk>
   <chunk x="48" y="-464" width="16" height="16">
0,557,0,0,0,0,0,0,0,0,0,0,0,0,0,0,
0,557,0,0,0,0,0,0,0,0,0,0,0,0,0,0,
0,557,0,0,0,0,0,0,0,0,0,0,0,0,0,0,
0,557,0,0,0,0,0,0,0,0,0,0,0,0,0,0,
0,557,0,0,0,0,0,0,0,0,0,0,0,0,0,0,
0,557,0,0,0,0,0,0,0,0,0,0,0,0,0,0,
0,557,0,0,0,0,0,0,0,0,0,0,0,0,0,0,
0,557,0,0,0,0,0,0,0,0,0,0,0,0,0,0,
0,557,0,0,0,0,0,0,0,0,0,0,0,0,0,0,
0,557,0,0,0,0,0,0,0,0,0,0,0,0,0,0,
0,557,0,0,0,0,0,0,0,0,0,0,0,0,0,0,
0,557,0,0,0,0,0,0,0,0,0,0,0,0,0,0,
0,0,557,0,0,0,0,0,0,0,0,0,0,0,0,0,
557,0,0,557,0,0,0,0,0,0,0,0,0,0,0,0,
0,557,0,0,557,0,0,0,0,0,0,0,0,0,0,0,
0,0,557,0,557,0,0,0,0,0,0,0,0,0,0,0
</chunk>
   <chunk x="32" y="-448" width="16" height="16">
0,0,0,0,0,0,0,0,0,0,557,0,557,0,0,0,
0,0,0,0,0,0,0,0,0,0,557,0,557,0,0,0,
0,0,0,0,0,0,0,0,0,0,557,0,0,557,0,0,
0,0,0,0,0,0,0,0,0,0,0,557,0,0,557,557,
0,0,0,0,0,0,0,0,0,0,0,0,557,0,0,0,
0,0,0,0,0,0,0,0,0,0,0,0,0,557,0,0,
0,0,0,0,0,0,0,0,0,0,0,0,557,0,0,0,
0,0,0,0,0,0,0,0,0,0,0,0,557,0,0,0,
0,0,0,0,0,0,0,0,0,0,0,0,557,0,0,0,
0,0,0,0,0,0,0,0,0,0,0,0,557,0,0,0,
0,0,0,0,0,0,0,0,0,0,0,0,557,0,0,0,
0,0,0,0,0,0,0,0,0,0,0,0,557,0,0,0,
0,0,0,0,0,0,0,0,0,0,0,0,557,0,0,0,
0,0,0,0,0,0,0,0,0,0,0,0,557,0,0,0,
0,0,0,0,0,0,0,0,0,0,0,0,557,0,0,0,
0,0,0,0,0,0,0,0,0,0,0,0,557,0,0,0
</chunk>
   <chunk x="48" y="-448" width="16" height="16">
0,0,557,0,557,0,0,0,0,0,0,0,0,0,0,0,
0,0,557,0,557,0,0,0,0,0,0,0,0,0,0,0,
0,557,0,0,557,0,0,0,0,0,0,0,0,0,0,0,
557,0,0,557,0,0,0,0,0,0,0,0,0,0,0,0,
0,0,557,0,0,0,0,0,0,0,0,0,0,0,0,0,
0,557,0,0,0,0,0,0,0,0,0,0,0,0,0,0,
0,0,557,0,0,0,0,0,0,0,0,0,0,0,0,0,
0,0,557,0,0,0,0,0,0,0,0,0,0,0,0,0,
0,0,557,0,0,0,0,0,0,0,0,0,0,0,0,0,
0,0,557,0,0,0,0,0,0,0,0,0,0,0,0,0,
0,0,557,0,0,0,0,0,0,0,0,0,0,0,0,0,
0,0,557,0,0,0,0,0,0,0,0,0,0,0,0,0,
0,0,557,0,0,0,0,0,0,0,0,0,0,0,0,0,
0,0,557,0,0,0,0,0,0,0,0,0,0,0,0,0,
0,0,557,0,0,0,0,0,0,0,0,0,0,0,0,0,
0,0,557,0,0,0,0,0,0,0,0,0,0,0,0,0
</chunk>
   <chunk x="32" y="-432" width="16" height="16">
0,0,0,0,0,0,0,0,0,0,0,0,557,0,0,0,
0,0,0,0,0,0,0,0,0,0,0,0,557,0,0,0,
0,0,0,0,0,0,0,0,0,0,0,0,557,0,0,0,
0,0,0,0,0,0,0,0,0,0,0,0,557,0,0,0,
0,0,0,0,0,0,0,0,0,0,0,0,557,0,0,0,
0,0,0,0,0,0,0,0,0,0,0,0,557,0,0,0,
0,0,0,0,0,0,0,0,0,0,0,0,557,0,0,0,
0,0,0,0,0,0,0,0,0,0,0,0,557,0,0,0,
0,0,0,0,0,0,0,0,0,0,0,0,557,0,0,0,
0,0,0,0,0,0,0,0,0,0,0,0,557,0,0,0,
0,0,0,0,0,0,0,0,0,0,0,0,557,0,0,0,
0,0,0,0,0,0,0,0,0,0,0,0,557,0,0,0,
0,0,0,0,0,0,0,0,0,0,0,0,557,0,0,0,
0,0,0,0,0,0,0,0,0,0,0,0,557,0,0,0,
0,0,0,0,0,0,0,0,0,0,0,0,557,0,0,0,
0,0,0,0,0,0,0,0,0,0,0,0,557,0,0,0
</chunk>
   <chunk x="48" y="-432" width="16" height="16">
0,0,557,0,0,0,0,0,0,0,0,0,0,0,0,0,
0,0,557,0,0,0,0,0,0,0,0,0,0,0,0,0,
0,0,557,0,0,0,0,0,0,0,0,0,0,0,0,0,
0,0,557,0,0,0,0,0,0,0,0,0,0,0,0,0,
0,0,557,0,0,0,0,0,0,0,0,0,0,0,0,0,
0,0,557,0,0,0,0,0,0,0,0,0,0,0,0,0,
0,0,557,0,0,0,0,0,0,0,0,0,0,0,0,0,
0,0,557,0,0,0,0,0,0,0,0,0,0,0,0,0,
0,0,557,0,0,0,0,0,0,0,0,0,0,0,0,0,
0,0,557,0,0,0,0,0,0,0,0,0,0,0,0,0,
0,0,557,0,0,0,0,0,0,0,0,0,0,0,0,0,
0,0,557,0,0,0,0,0,0,0,0,0,0,0,0,0,
0,0,557,0,0,0,0,0,0,0,0,0,0,0,0,0,
0,0,557,0,0,0,0,0,0,0,0,0,0,0,0,0,
0,0,557,0,0,0,0,0,0,0,0,0,0,0,0,0,
0,0,557,0,0,0,0,0,0,0,0,0,0,0,0,0
</chunk>
   <chunk x="32" y="-416" width="16" height="16">
0,0,0,0,0,0,0,0,0,0,0,0,557,0,0,0,
0,0,0,0,0,0,0,0,0,0,0,0,557,0,0,0,
0,0,0,0,0,0,0,0,0,0,0,0,557,0,0,0,
0,0,0,0,0,0,0,0,0,0,0,0,557,0,0,0,
0,0,0,0,0,0,0,0,0,0,0,0,557,0,0,0,
0,0,0,0,0,0,0,0,0,0,0,0,557,0,0,0,
0,0,0,0,0,0,0,0,0,0,0,0,557,0,0,0,
0,0,0,0,0,0,0,0,0,0,0,0,557,0,0,0,
0,0,0,0,0,0,0,0,0,0,0,0,557,0,0,0,
0,0,0,0,0,0,0,0,0,0,0,0,557,0,0,0,
0,0,0,0,0,0,0,0,0,0,0,0,557,0,0,0,
0,0,0,0,0,0,0,0,0,0,0,0,557,0,0,0,
0,0,0,0,0,0,0,0,0,0,0,0,557,0,0,0,
0,0,0,0,0,0,0,0,0,0,0,0,557,0,0,0,
0,0,0,0,0,0,0,0,0,0,0,0,557,0,0,0,
0,0,0,0,0,0,0,0,0,0,0,0,557,0,0,0
</chunk>
   <chunk x="48" y="-416" width="16" height="16">
0,0,557,0,0,0,0,0,0,0,0,0,0,0,0,0,
0,0,557,0,0,0,0,0,0,0,0,0,0,0,0,0,
0,0,557,0,0,0,0,0,0,0,0,0,0,0,0,0,
0,0,557,0,0,0,0,0,0,0,0,0,0,0,0,0,
0,0,557,0,0,0,0,0,0,0,0,0,0,0,0,0,
0,0,557,0,557,557,557,557,557,0,0,0,0,0,0,0,
0,0,557,0,557,0,0,0,557,0,0,0,0,0,0,0,
0,0,557,0,557,0,0,0,557,0,0,0,0,0,0,0,
0,0,557,0,557,557,557,557,557,0,0,0,0,0,0,0,
0,0,557,0,0,0,0,0,0,0,0,0,0,0,0,0,
0,0,557,0,0,0,0,0,0,0,0,0,0,0,0,0,
0,0,557,0,0,0,0,0,0,0,0,0,0,0,0,0,
0,0,557,0,0,0,0,0,0,0,0,0,0,0,0,0,
0,0,557,0,0,0,0,0,0,0,0,0,0,0,0,0,
0,0,557,0,0,0,0,0,0,0,0,0,0,0,0,0,
0,0,557,0,0,0,0,0,0,0,0,0,0,0,0,0
</chunk>
   <chunk x="32" y="-400" width="16" height="16">
0,0,0,0,0,0,0,0,0,0,0,0,557,0,0,0,
0,0,0,0,0,0,0,0,0,0,0,0,557,0,0,0,
0,0,0,0,0,0,0,0,0,0,0,0,557,0,0,0,
0,0,0,0,0,0,0,0,0,0,0,0,557,0,0,0,
0,0,0,0,0,0,0,0,0,0,0,0,557,0,0,0,
0,0,0,0,0,0,0,0,0,0,0,0,557,0,0,0,
0,0,0,0,0,0,0,0,0,0,0,0,557,0,0,0,
0,0,0,0,0,0,0,0,0,0,0,0,557,0,0,0,
0,0,0,0,0,0,0,0,0,0,0,0,557,0,0,0,
0,0,0,0,0,0,0,0,0,0,0,0,557,0,0,0,
0,0,0,0,0,0,0,0,0,0,0,0,557,0,0,0,
0,0,0,0,0,0,0,0,0,0,0,0,557,0,0,0,
0,0,0,0,0,0,0,0,0,0,0,0,557,0,0,0,
0,0,0,0,0,0,0,0,0,0,0,0,557,0,0,0,
0,0,0,0,0,0,0,0,0,0,0,0,557,0,0,0,
0,0,0,0,0,0,0,0,0,0,0,0,557,0,0,0
</chunk>
   <chunk x="48" y="-400" width="16" height="16">
0,0,557,0,0,0,0,0,0,0,0,0,0,0,0,0,
0,0,557,0,0,0,0,0,0,0,0,0,0,0,0,0,
0,0,557,0,0,0,0,0,0,0,0,0,0,0,0,0,
0,0,557,0,0,0,0,0,0,0,0,0,0,0,0,0,
0,0,557,0,0,0,0,0,0,0,0,0,0,0,0,0,
0,0,557,0,0,0,0,0,0,0,0,0,0,0,0,0,
0,0,557,0,0,0,0,0,0,0,0,0,0,0,0,0,
0,0,557,0,0,0,0,0,0,0,0,0,0,0,0,0,
0,0,557,0,0,0,0,0,0,0,0,0,0,0,0,0,
0,0,557,0,0,0,0,0,0,0,0,0,0,0,0,0,
0,0,557,0,0,0,0,0,0,0,0,0,0,0,0,0,
0,0,557,0,0,0,0,0,0,0,0,0,0,0,0,0,
0,0,557,0,0,0,0,0,0,0,0,0,0,0,0,0,
0,0,557,0,0,0,0,0,0,0,0,0,0,0,0,0,
0,0,557,0,0,0,0,0,0,0,0,0,0,0,0,0,
0,0,557,0,0,0,0,0,0,0,0,0,0,0,0,0
</chunk>
   <chunk x="32" y="-384" width="16" height="16">
0,0,0,0,0,0,0,0,0,0,0,0,557,0,0,0,
0,0,0,0,0,0,0,0,0,0,0,0,557,0,0,0,
0,0,0,0,0,0,0,0,0,0,0,0,557,0,0,0,
0,0,0,0,0,0,0,0,0,0,0,0,557,0,0,0,
0,0,0,0,0,0,0,0,0,0,0,0,557,0,0,0,
0,0,0,0,0,0,0,0,0,0,0,0,557,0,0,0,
0,0,0,0,0,0,0,0,0,0,0,0,557,0,0,0,
0,0,0,0,0,0,0,0,0,0,0,0,557,0,0,0,
0,0,0,0,0,0,0,0,0,0,0,0,557,0,0,0,
0,0,0,0,0,0,0,0,0,0,0,0,557,0,0,0,
0,0,0,0,0,0,0,0,0,0,0,0,557,0,0,0,
0,0,0,0,0,0,0,0,0,0,0,0,557,0,0,0,
0,0,0,0,0,0,0,0,0,0,0,0,557,0,0,0,
0,0,0,0,0,0,0,0,0,0,0,0,557,0,0,0,
0,0,0,0,0,0,0,0,0,0,0,0,557,0,0,0,
0,0,0,0,0,0,0,0,0,0,0,0,557,0,0,0
</chunk>
   <chunk x="48" y="-384" width="16" height="16">
0,0,557,0,0,0,0,0,0,0,0,0,0,0,0,0,
0,0,557,0,0,0,0,0,0,0,0,0,0,0,0,0,
0,0,557,0,0,0,0,0,0,0,0,0,0,0,0,0,
0,0,557,0,0,0,0,0,0,0,0,0,0,0,0,0,
0,0,557,0,0,0,0,0,0,0,0,0,0,0,0,0,
0,0,557,0,0,0,0,0,0,0,0,0,0,0,0,0,
0,0,557,0,0,0,0,0,0,0,0,0,0,0,0,0,
0,0,557,0,0,0,0,0,0,0,0,0,0,0,0,0,
0,0,557,0,0,0,0,0,0,0,0,0,0,0,0,0,
0,0,557,0,0,0,0,0,0,0,0,0,0,0,0,0,
0,0,557,0,0,0,0,0,0,0,0,0,0,0,0,0,
0,0,557,0,0,0,0,0,0,0,0,0,0,0,0,0,
0,0,557,0,0,0,0,0,0,0,0,0,0,0,0,0,
0,0,557,0,0,0,0,0,0,0,0,0,0,0,0,0,
0,0,557,0,0,0,0,0,0,0,0,0,0,0,0,0,
0,0,557,0,0,0,0,0,0,0,0,0,0,0,0,0
</chunk>
   <chunk x="32" y="-368" width="16" height="16">
0,0,0,0,0,0,0,0,0,0,0,0,557,0,0,0,
0,0,0,0,0,0,0,0,0,0,0,0,557,0,0,0,
0,0,0,0,0,0,0,0,0,0,0,0,557,0,0,0,
0,0,0,0,0,0,0,0,0,0,0,0,557,0,0,0,
0,0,0,0,0,0,0,0,0,0,0,0,557,0,0,0,
0,0,0,0,0,0,0,0,0,0,0,0,557,0,0,0,
0,0,0,0,0,0,0,0,0,0,0,0,557,0,0,0,
0,0,0,0,0,0,0,0,0,0,0,0,557,0,0,0,
0,0,0,0,0,0,0,0,0,0,0,0,557,0,0,0,
0,0,0,0,0,0,0,0,0,0,0,0,557,0,0,0,
0,0,0,0,0,0,0,0,0,0,0,0,557,0,0,0,
0,0,0,0,0,0,0,0,0,0,0,0,557,557,557,0,
0,0,0,0,0,0,0,0,0,0,0,0,0,0,557,0,
0,0,0,0,0,0,0,0,0,0,0,0,0,0,557,0,
0,0,0,0,0,0,0,0,0,0,0,0,557,557,557,0,
0,0,0,0,0,0,0,0,0,0,0,0,557,0,0,0
</chunk>
   <chunk x="48" y="-368" width="16" height="16">
0,0,557,0,0,0,0,0,0,0,0,0,0,0,0,0,
0,0,557,0,0,0,0,0,0,0,0,0,0,0,0,0,
0,0,557,0,0,0,0,0,0,0,0,0,0,0,0,0,
0,0,557,0,0,0,0,0,0,0,0,0,0,0,0,0,
0,0,557,0,0,0,0,0,0,0,0,0,0,0,0,0,
0,0,557,0,0,0,0,0,0,0,0,0,0,0,0,0,
0,0,557,0,0,0,0,0,0,0,0,0,0,0,0,0,
0,0,557,0,0,0,0,0,0,0,0,0,0,0,0,0,
0,0,557,0,0,0,0,0,0,0,0,0,0,0,0,0,
0,0,557,0,0,0,0,0,0,0,0,0,0,0,0,0,
0,0,557,0,0,0,0,0,0,0,0,0,0,0,0,0,
557,557,557,0,0,0,0,0,0,0,0,0,0,0,0,0,
557,0,0,0,0,0,0,0,0,0,0,0,0,0,0,0,
557,0,0,0,0,0,0,0,0,0,0,0,0,0,0,0,
557,557,557,0,0,0,0,0,0,0,0,0,0,0,0,0,
0,0,557,0,0,0,0,0,0,0,0,0,0,0,0,0
</chunk>
   <chunk x="32" y="-352" width="16" height="16">
0,0,0,0,0,0,0,0,0,0,0,0,557,0,0,0,
0,0,0,0,0,0,0,0,0,0,0,0,557,0,0,0,
0,0,0,0,0,0,0,0,0,0,0,0,557,0,0,0,
0,0,0,0,0,0,0,0,0,0,0,0,557,0,0,0,
0,0,0,0,0,0,0,0,0,0,0,0,557,0,0,0,
0,0,0,0,0,0,0,0,0,0,0,0,557,0,0,0,
0,0,0,0,0,0,0,0,0,0,0,0,557,0,0,0,
0,0,0,0,0,0,0,0,0,0,0,0,557,0,0,0,
0,0,0,0,0,0,0,0,0,0,0,0,557,0,0,0,
0,0,0,0,0,0,557,557,557,557,557,0,557,0,0,0,
0,0,0,0,0,0,557,0,0,0,557,0,557,0,0,0,
0,0,0,0,0,0,557,0,0,0,557,0,557,0,0,0,
0,0,0,0,0,0,557,557,557,557,557,0,557,0,0,0,
0,0,0,0,0,0,0,0,0,0,0,0,557,0,0,0,
0,0,0,0,0,0,0,0,0,0,0,0,557,0,0,0,
0,0,0,0,0,0,0,0,0,0,0,0,557,0,0,0
</chunk>
   <chunk x="48" y="-352" width="16" height="16">
0,0,557,0,0,0,0,0,0,0,0,0,0,0,0,0,
0,0,557,0,557,557,557,0,0,0,0,0,0,0,0,0,
0,0,557,557,557,0,557,557,0,0,0,0,0,0,0,0,
0,0,557,557,0,0,0,557,0,0,0,0,0,0,0,0,
0,0,557,557,557,0,0,557,0,0,0,0,0,0,0,0,
0,0,557,0,557,557,557,557,0,0,0,0,0,0,0,0,
0,0,557,0,0,0,0,0,0,0,0,0,0,0,0,0,
0,0,557,0,0,0,0,0,0,0,0,0,0,0,0,0,
0,0,557,0,0,0,0,0,0,0,0,0,0,0,0,0,
0,0,557,0,0,0,0,0,0,0,0,0,0,0,0,0,
0,0,557,0,0,0,0,0,0,0,0,0,0,0,0,0,
0,0,557,0,0,0,0,0,0,0,0,0,0,0,0,0,
0,0,557,557,0,0,0,0,0,0,0,0,0,0,0,0,
0,0,0,557,0,0,0,0,0,0,0,0,0,0,0,0,
0,0,557,557,0,0,0,0,0,0,0,0,0,0,0,0,
0,0,557,0,0,0,0,0,0,0,0,0,0,0,0,0
</chunk>
   <chunk x="32" y="-336" width="16" height="16">
0,0,0,0,0,0,0,0,0,0,0,0,557,0,0,0,
0,0,0,0,0,0,0,0,0,0,0,0,557,0,0,0,
0,0,0,0,0,0,0,0,0,0,0,0,557,0,0,0,
0,0,0,0,0,0,0,0,0,0,0,0,557,0,0,0,
0,0,0,0,0,0,0,0,0,0,0,0,557,0,0,0,
0,0,0,0,0,0,0,0,0,0,0,0,557,0,0,0,
0,0,0,0,0,0,0,0,0,0,0,0,557,0,0,0,
0,0,0,0,0,0,0,0,0,0,0,0,557,0,0,0,
0,0,0,0,0,0,0,0,0,0,0,0,557,0,0,0,
0,0,0,0,0,0,0,0,0,0,0,0,557,0,0,0,
0,0,0,0,0,0,0,0,0,0,0,0,557,0,0,0,
0,0,0,0,0,0,0,0,0,0,0,0,557,0,0,0,
0,0,0,0,0,0,0,0,0,0,0,0,557,0,0,0,
0,0,0,0,0,0,0,0,0,0,557,557,557,0,0,0,
0,0,0,0,0,0,0,0,0,0,557,0,557,0,0,0,
0,0,0,0,0,0,0,0,0,0,557,557,557,0,0,0
</chunk>
   <chunk x="48" y="-336" width="16" height="16">
0,0,557,0,557,557,557,0,0,0,0,0,0,0,0,0,
0,0,557,557,557,0,557,557,0,0,0,0,0,0,0,0,
0,0,557,557,0,0,0,557,0,0,0,0,0,0,0,0,
0,0,557,557,557,0,0,557,0,0,0,0,0,0,0,0,
0,0,557,0,557,0,557,557,0,0,0,0,0,0,0,0,
0,0,557,0,557,557,557,0,0,0,0,0,0,0,0,0,
0,0,557,0,0,0,0,0,0,0,0,0,0,0,0,0,
0,0,557,0,0,0,0,0,0,0,0,0,0,0,0,0,
0,0,557,0,0,0,0,0,0,0,0,0,0,0,0,0,
0,0,557,557,557,0,0,0,0,0,0,0,0,0,0,0,
0,0,557,0,557,0,0,0,0,0,0,0,0,0,0,0,
0,0,557,557,557,0,0,0,0,0,0,0,0,0,0,0,
0,0,557,0,0,0,0,0,0,0,0,0,0,0,0,0,
0,0,557,0,0,0,0,0,0,0,0,0,0,0,0,0,
0,0,557,0,0,0,0,0,0,0,0,0,0,0,0,0,
0,0,557,0,0,0,0,0,0,0,0,0,0,0,0,0
</chunk>
   <chunk x="32" y="-320" width="16" height="16">
0,0,0,0,0,0,0,0,0,0,0,0,557,0,0,0,
0,0,0,0,0,0,0,0,0,0,0,0,557,0,0,0,
0,0,0,0,0,0,0,0,0,0,0,0,557,0,0,0,
0,0,0,0,0,0,0,0,0,0,0,0,557,0,0,0,
0,0,0,0,0,0,0,0,0,0,0,0,557,0,0,0,
0,0,0,0,0,0,0,0,0,0,0,0,557,0,0,0,
0,0,0,0,0,0,0,0,0,0,557,557,557,0,0,0,
0,0,0,0,0,0,0,0,0,0,557,0,557,0,0,0,
0,0,0,0,0,0,0,0,0,0,557,557,557,0,0,0,
0,0,0,0,0,0,0,0,0,0,0,557,557,0,0,0,
0,0,0,0,0,0,0,0,0,0,0,557,0,0,0,0,
0,0,0,0,0,0,0,0,0,0,0,557,557,0,0,0,
0,0,0,0,0,0,0,0,0,0,0,0,557,0,0,0,
0,0,0,0,0,0,0,0,0,0,0,0,557,0,0,0,
0,0,0,0,0,0,0,0,0,0,0,0,557,0,0,0,
0,0,0,0,0,0,0,0,0,0,0,0,557,0,0,0
</chunk>
   <chunk x="48" y="-320" width="16" height="16">
0,0,557,0,0,0,0,0,0,0,0,0,0,0,0,0,
0,0,557,0,0,0,0,0,0,0,0,0,0,0,0,0,
0,0,557,0,0,0,0,0,0,0,0,0,0,0,0,0,
0,0,557,557,557,0,0,0,0,0,0,0,0,0,0,0,
0,0,557,0,557,0,0,0,0,0,0,0,0,0,0,0,
0,0,557,557,557,0,0,0,0,0,0,0,0,0,0,0,
0,0,557,557,557,0,0,0,0,0,0,0,0,0,0,0,
0,0,557,0,557,0,0,0,0,0,0,0,0,0,0,0,
0,0,557,557,557,0,0,0,0,0,0,0,0,0,0,0,
0,0,557,557,557,0,0,0,0,0,0,0,0,0,0,0,
0,0,557,0,557,0,0,0,0,0,0,0,0,0,0,0,
0,0,557,557,557,0,0,0,0,0,0,0,0,0,0,0,
0,0,557,0,0,0,0,0,0,0,0,0,0,0,0,0,
0,0,557,0,0,0,0,0,0,0,0,0,0,0,0,0,
0,0,557,0,0,0,0,0,0,0,0,0,0,0,0,0,
0,0,557,557,0,0,0,0,0,0,0,0,0,0,0,0
</chunk>
   <chunk x="32" y="-304" width="16" height="16">
0,0,0,0,0,0,557,557,557,557,557,0,557,0,0,0,
0,0,0,0,0,0,557,0,0,0,557,0,557,0,0,0,
0,0,0,0,0,0,557,0,0,0,557,0,557,0,0,0,
0,0,0,0,0,0,557,557,557,557,557,0,557,0,0,0,
0,0,0,0,0,0,0,0,0,0,0,0,557,0,0,0,
0,0,0,0,0,0,0,0,0,0,0,0,557,0,0,0,
0,0,0,0,0,0,0,0,0,0,0,0,557,0,0,0,
0,0,0,0,0,0,0,0,0,0,0,0,557,0,0,0,
0,0,0,0,0,0,0,0,0,0,0,0,557,0,0,0,
0,0,0,0,0,0,0,0,0,0,0,0,557,0,0,0,
0,0,0,0,0,0,0,0,0,0,0,0,557,0,0,0,
0,0,0,0,0,0,0,0,0,0,0,0,557,0,0,0,
0,0,0,0,0,0,0,0,0,0,0,0,557,0,0,0,
0,0,0,0,0,0,0,0,0,0,0,0,557,0,0,0,
0,0,0,0,0,0,0,0,0,0,0,0,557,0,0,0,
0,0,0,0,0,0,0,0,0,0,0,0,557,0,0,0
</chunk>
   <chunk x="48" y="-304" width="16" height="16">
0,0,0,557,0,0,0,0,0,0,0,0,0,0,0,0,
0,0,557,557,0,0,0,0,0,0,0,0,0,0,0,0,
0,0,557,0,0,0,0,0,0,0,0,0,0,0,0,0,
0,0,557,0,0,0,0,0,0,0,0,0,0,0,0,0,
0,0,557,0,0,0,0,0,0,0,0,0,0,0,0,0,
0,0,557,0,0,0,0,0,0,0,0,0,0,0,0,0,
0,0,557,0,0,0,0,0,0,0,0,0,0,0,0,0,
0,0,557,557,557,557,557,0,0,0,0,0,0,0,0,0,
0,0,557,557,0,0,557,557,0,0,0,0,0,0,0,0,
0,0,557,557,557,0,0,557,0,0,0,0,0,0,0,0,
0,0,557,0,557,0,557,557,0,0,0,0,0,0,0,0,
0,0,557,0,557,557,557,0,0,0,0,0,0,0,0,0,
0,0,557,0,0,0,0,0,0,0,0,0,0,0,0,0,
0,0,557,0,0,0,0,0,0,0,0,0,0,0,0,0,
0,0,557,0,0,0,0,0,0,0,0,0,0,0,0,0,
0,0,557,0,0,0,0,0,0,0,0,0,0,0,0,0
</chunk>
   <chunk x="32" y="-288" width="16" height="16">
0,0,0,0,0,0,0,0,0,0,0,0,557,0,0,0,
0,0,0,0,0,0,0,0,0,0,0,0,557,0,0,0,
0,0,0,0,0,0,0,0,0,0,0,0,557,0,0,0,
0,0,0,0,0,0,0,0,0,0,0,0,557,0,0,0,
0,0,0,0,0,0,0,0,0,0,0,0,557,0,0,0,
0,0,0,0,0,0,0,0,0,0,0,0,557,0,0,0,
0,0,0,0,0,0,0,0,0,0,0,0,557,0,0,0,
0,0,0,0,0,0,0,0,0,0,0,0,557,0,0,0,
0,0,0,0,0,0,0,0,0,0,0,0,557,0,0,0,
0,0,0,0,0,0,0,0,0,0,0,0,557,0,0,0,
0,0,0,0,0,0,0,0,0,0,0,0,557,0,0,0,
0,0,0,0,0,0,0,0,0,0,0,0,557,0,0,0,
0,0,0,0,0,0,0,0,0,0,0,0,557,0,0,0,
0,0,0,0,0,0,0,0,0,0,0,0,557,0,0,0,
0,0,0,0,0,0,0,0,0,0,0,0,557,0,0,0,
0,0,0,0,0,0,0,0,0,0,0,557,557,0,0,0
</chunk>
   <chunk x="48" y="-288" width="16" height="16">
0,0,557,0,0,0,0,0,0,0,0,0,0,0,0,0,
0,0,557,0,0,0,0,0,0,0,0,0,0,0,0,0,
0,0,557,0,0,0,0,0,0,0,0,0,0,0,0,0,
0,0,557,0,0,0,0,0,0,0,0,0,0,0,0,0,
0,0,557,0,0,0,0,0,0,0,0,0,0,0,0,0,
0,0,557,0,0,0,0,0,0,0,0,0,0,0,0,0,
0,0,557,0,0,0,0,0,0,0,0,0,0,0,0,0,
0,0,557,0,0,0,0,0,0,0,0,0,0,0,0,0,
0,0,557,0,0,0,0,0,0,0,0,0,0,0,0,0,
0,0,557,0,0,0,0,0,0,0,0,0,0,0,0,0,
0,0,557,0,0,0,0,0,0,0,0,0,0,0,0,0,
0,0,557,0,0,0,0,0,0,0,0,0,0,0,0,0,
0,0,557,0,0,0,0,0,0,0,0,0,0,0,0,0,
0,0,557,0,0,0,0,0,0,0,0,0,0,0,0,0,
0,0,557,557,557,557,0,0,0,0,0,0,0,0,0,0,
0,0,557,557,0,557,557,0,0,0,0,0,0,0,0,0
</chunk>
   <chunk x="32" y="-272" width="16" height="16">
0,0,0,0,0,0,0,0,0,0,0,557,557,0,0,0,
0,0,0,0,0,0,0,0,0,0,0,557,557,0,0,0,
0,0,0,0,0,0,0,0,0,0,0,557,557,0,0,557,
0,0,0,0,0,0,0,0,0,0,0,557,0,0,0,0,
0,0,0,0,0,0,0,0,0,0,0,557,557,0,0,0,
0,0,0,0,0,0,0,0,0,0,0,0,557,0,0,0,
0,0,0,0,0,0,0,0,0,0,0,0,557,0,0,0,
0,0,0,0,0,0,0,0,0,0,0,0,557,0,0,0,
0,0,0,0,0,0,0,0,0,0,0,0,557,0,0,0,
0,0,0,0,0,0,0,0,0,0,0,0,557,0,0,0,
0,0,0,0,0,0,0,0,0,0,0,0,557,0,0,0,
0,0,0,0,0,0,0,0,0,0,0,0,557,0,0,0,
0,0,0,0,0,0,0,0,0,0,0,0,557,557,0,0,
0,0,0,0,0,557,557,557,557,557,0,0,557,0,0,0,
0,0,0,0,0,557,0,0,0,557,0,0,557,0,0,0,
0,0,0,0,0,557,0,0,0,557,0,0,557,0,0,0
</chunk>
   <chunk x="48" y="-272" width="16" height="16">
0,0,557,557,0,0,557,0,0,0,0,0,0,0,0,0,
0,0,557,557,557,557,557,0,0,0,0,0,0,0,0,0,
557,0,557,0,0,0,0,0,0,0,0,0,0,0,0,0,
0,0,557,0,0,0,0,0,0,0,0,0,0,0,0,0,
0,0,557,0,0,0,0,0,0,0,0,0,0,0,0,0,
0,0,557,0,0,0,0,0,0,0,0,0,0,0,0,0,
0,0,557,0,0,0,0,0,0,0,0,0,0,0,0,0,
0,0,557,0,0,0,0,0,0,0,0,0,0,0,0,0,
0,0,557,0,0,0,0,0,0,0,0,0,0,0,0,0,
0,0,557,0,0,0,0,0,0,0,0,0,0,0,0,0,
0,0,557,0,0,0,0,0,0,0,0,0,0,0,0,0,
0,0,557,0,0,0,0,0,0,0,0,0,0,0,0,0,
0,557,557,0,0,0,0,0,0,0,0,0,0,0,0,0,
0,0,557,0,0,557,557,557,557,557,0,0,0,0,0,0,
0,0,557,0,0,557,0,0,0,557,0,0,0,0,0,0,
0,0,557,0,0,557,0,0,0,557,0,0,0,0,0,0
</chunk>
   <chunk x="32" y="-256" width="16" height="16">
0,0,0,0,0,557,557,557,557,557,0,0,557,0,0,0,
0,0,0,0,0,0,0,0,0,0,0,0,557,557,0,0,
0,0,0,0,0,0,0,0,0,0,0,0,557,0,0,0,
0,0,0,0,0,0,0,0,0,0,0,0,557,0,0,0,
0,0,0,0,0,0,0,0,0,0,0,0,557,0,0,0,
0,0,0,0,0,0,0,0,0,0,0,0,557,0,0,0,
0,0,0,0,0,0,0,0,0,0,0,0,557,0,0,0,
0,0,0,0,0,0,0,0,0,0,0,0,557,0,0,0,
0,0,0,0,0,0,0,0,0,0,0,0,557,0,0,0,
0,0,0,0,0,0,0,0,0,0,0,0,557,0,0,0,
0,0,0,0,0,0,0,0,0,0,0,0,557,0,0,0,
0,0,0,0,0,0,0,0,0,0,0,0,557,0,0,0,
0,0,0,0,0,0,0,0,0,0,0,0,557,0,0,0,
0,0,0,0,0,0,0,0,0,0,0,0,557,0,0,0,
0,0,0,0,0,0,0,0,0,0,0,0,557,0,0,0,
0,0,0,0,0,0,557,557,557,0,0,0,557,0,0,0
</chunk>
   <chunk x="48" y="-256" width="16" height="16">
0,0,557,0,0,557,557,557,557,557,0,0,0,0,0,0,
0,557,557,0,0,0,0,0,0,0,0,0,0,0,0,0,
0,0,557,0,0,0,0,0,0,0,0,0,0,0,0,0,
0,0,557,0,0,0,0,0,0,0,0,0,0,0,0,0,
0,0,557,0,0,0,0,0,0,0,0,0,0,0,0,0,
0,0,557,0,0,0,0,0,0,0,0,0,0,0,0,0,
0,0,557,0,0,0,0,0,0,0,0,0,0,0,0,0,
0,0,557,0,0,0,0,0,0,0,0,0,0,0,0,0,
0,0,557,0,0,0,0,0,0,0,0,0,0,0,0,0,
0,0,557,0,0,0,0,0,0,0,0,0,0,0,0,0,
0,0,557,0,0,0,0,0,0,0,0,0,0,0,0,0,
0,0,557,0,557,557,557,557,0,0,0,0,0,0,0,0,
0,0,557,0,557,0,0,557,0,0,0,0,0,0,0,0,
0,0,557,0,557,557,0,557,0,0,0,0,0,0,0,0,
0,0,557,0,0,557,557,557,0,0,0,0,0,0,0,0,
0,0,557,0,0,0,0,0,0,0,0,0,0,0,0,0
</chunk>
   <chunk x="32" y="-240" width="16" height="16">
0,0,0,0,0,0,557,0,557,557,0,0,557,0,0,0,
0,0,0,0,0,0,557,0,0,557,0,0,557,0,0,0,
0,0,0,0,0,0,557,557,0,557,0,0,557,0,0,0,
0,0,0,0,0,0,0,557,557,557,0,0,557,0,0,0,
0,0,0,0,0,0,0,0,0,0,0,0,557,0,0,0,
0,0,0,0,0,0,0,0,0,0,0,0,557,0,0,0,
0,0,0,0,0,0,0,0,0,0,0,0,557,0,0,0,
0,0,0,0,0,0,0,0,0,0,0,0,557,0,0,0,
0,0,0,0,0,0,0,0,0,0,0,0,557,0,0,0,
0,0,0,0,0,0,0,0,0,0,0,0,557,0,0,0,
0,0,0,0,0,0,0,0,0,0,0,0,557,0,0,0,
0,0,0,0,0,0,0,0,0,0,0,0,557,557,557,557,
0,0,0,0,0,0,0,0,0,0,0,0,557,557,557,557,
0,0,0,0,0,0,0,0,0,0,0,0,557,0,0,0,
0,0,0,0,0,0,0,0,0,0,0,0,557,0,0,0,
0,0,0,0,0,0,0,557,557,557,0,0,557,0,557,557
</chunk>
   <chunk x="48" y="-240" width="16" height="16">
0,0,557,0,0,0,0,0,0,0,0,0,0,0,0,0,
0,0,557,0,0,0,0,0,0,0,0,0,0,0,0,0,
0,0,557,0,0,0,0,0,0,0,0,0,0,0,0,0,
0,0,557,0,0,0,0,0,0,0,0,0,0,0,0,0,
0,0,557,0,0,0,0,0,0,0,0,0,0,0,0,0,
0,0,557,0,0,0,0,0,0,0,0,0,0,0,0,0,
0,0,557,0,0,0,0,0,0,0,0,0,0,0,0,0,
0,0,557,0,0,0,0,0,0,0,0,0,0,0,0,0,
0,0,557,0,0,0,0,0,0,0,0,0,0,0,0,0,
0,0,557,0,0,0,0,0,0,0,0,0,0,0,0,0,
0,0,557,0,0,0,0,0,0,0,0,0,0,0,0,0,
557,0,557,0,0,0,0,0,0,0,0,0,0,0,0,0,
557,0,557,0,0,0,0,0,0,0,0,0,0,0,0,0,
0,0,557,0,0,0,0,0,0,0,0,0,0,0,0,0,
0,0,557,557,557,557,0,0,0,0,0,0,0,0,0,0,
557,557,557,557,0,557,557,0,0,0,0,0,0,0,0,0
</chunk>
   <chunk x="32" y="-224" width="16" height="16">
0,0,0,0,0,0,557,557,0,557,557,0,557,0,557,557,
0,0,0,0,0,0,557,0,0,0,557,0,557,0,0,0,
0,0,0,0,0,0,557,557,557,557,557,0,557,0,0,0,
0,0,0,0,0,0,0,0,0,0,0,0,557,0,0,0,
0,0,0,0,0,0,0,0,0,0,0,0,557,0,0,0,
0,0,0,0,0,0,0,0,0,0,0,0,557,0,0,0,
0,0,0,0,0,0,0,0,0,0,0,0,557,0,0,0,
0,0,0,0,0,0,0,0,0,0,0,0,557,0,0,0,
0,0,0,0,0,0,0,0,0,0,0,0,557,0,0,0,
0,0,0,0,0,0,0,0,0,0,0,0,557,0,0,0,
0,0,0,0,0,0,0,0,0,0,0,0,557,0,0,0,
0,0,0,0,0,0,0,0,0,0,0,0,557,0,0,0,
0,0,0,0,0,0,0,0,0,0,0,0,557,0,0,0,
0,0,0,0,0,0,0,0,0,0,0,0,557,0,0,0,
0,0,0,0,0,0,0,0,0,0,0,0,557,0,0,0,
0,0,0,0,0,0,0,0,0,0,0,0,557,0,0,0
</chunk>
   <chunk x="48" y="-224" width="16" height="16">
557,557,557,557,0,0,557,557,0,0,0,0,0,0,0,0,
0,0,557,557,557,0,0,557,0,0,0,0,0,0,0,0,
0,0,557,0,557,557,557,557,0,0,0,0,0,0,0,0,
0,0,557,0,0,0,0,0,0,0,0,0,0,0,0,0,
0,0,557,0,0,0,0,0,0,0,0,0,0,0,0,0,
0,0,557,0,0,0,0,0,0,0,0,0,0,0,0,0,
0,0,557,0,0,0,0,0,0,0,0,0,0,0,0,0,
0,0,557,0,0,0,0,0,0,0,0,0,0,0,0,0,
0,0,557,0,0,0,0,0,0,0,0,0,0,0,0,0,
0,0,557,0,0,0,0,0,0,0,0,0,0,0,0,0,
0,0,557,0,0,557,557,557,0,0,0,0,0,0,0,0,
0,0,557,0,557,557,0,557,557,0,0,0,0,0,0,0,
0,0,557,0,557,0,0,0,557,0,0,0,0,0,0,0,
0,0,557,0,557,557,0,557,557,0,0,0,0,0,0,0,
0,0,557,0,0,557,557,557,0,0,0,0,0,0,0,0,
0,0,557,0,0,0,0,0,0,0,0,0,0,0,0,0
</chunk>
   <chunk x="32" y="-208" width="16" height="16">
0,0,0,0,0,557,557,557,557,557,0,0,557,0,0,0,
0,0,0,0,0,557,0,0,0,557,0,0,557,0,0,0,
0,0,0,0,0,557,0,0,0,557,0,0,557,0,0,0,
0,0,0,0,0,557,557,557,557,557,0,0,557,0,0,0,
0,0,0,0,0,0,0,0,0,0,0,0,557,0,0,0,
0,0,0,0,0,0,0,0,0,0,0,0,557,0,0,0,
0,0,0,0,0,0,0,0,0,0,0,0,557,0,0,0,
0,0,0,0,0,0,0,0,0,0,0,0,557,0,0,0,
0,0,0,0,0,0,0,0,0,0,0,0,557,0,0,0,
0,0,0,0,0,0,0,0,0,0,0,0,557,0,0,0,
0,0,0,0,0,0,0,0,0,0,0,0,557,0,0,0,
0,0,0,0,0,0,0,0,0,0,0,0,557,0,0,0,
0,0,0,0,0,0,0,0,0,0,0,0,557,0,0,557,
0,0,0,0,0,0,0,0,0,0,0,0,557,0,557,557,
0,0,0,0,0,0,0,0,0,0,0,0,557,0,0,0,
0,0,0,0,0,0,557,557,557,557,0,0,557,557,557,0
</chunk>
   <chunk x="48" y="-208" width="16" height="16">
0,0,557,0,0,0,0,0,0,0,0,0,0,0,0,0,
0,0,557,0,0,0,0,0,0,0,0,0,0,0,0,0,
0,0,557,0,0,0,0,0,0,0,0,0,0,0,0,0,
0,0,557,0,0,0,0,0,0,0,0,0,0,0,0,0,
0,0,557,0,0,0,0,0,0,0,0,0,0,0,0,0,
0,0,557,0,0,0,0,0,0,0,0,0,0,0,0,0,
0,0,557,0,0,0,0,0,0,0,0,0,0,0,0,0,
0,0,557,0,557,557,557,0,0,0,0,0,0,0,0,0,
0,0,557,557,557,0,557,557,0,0,0,0,0,0,0,0,
0,0,557,557,0,0,0,557,0,0,0,0,0,0,0,0,
0,557,557,557,557,0,557,557,0,0,0,0,0,0,0,0,
557,557,0,0,557,557,557,0,0,0,0,0,0,0,0,0,
557,0,0,0,0,0,0,0,0,0,0,0,0,0,0,0,
557,557,557,557,0,0,0,0,0,0,0,0,0,0,0,0,
557,557,0,557,0,0,0,0,0,0,0,0,0,0,0,0,
557,557,557,557,0,0,0,0,0,0,0,0,0,0,0,0
</chunk>
   <chunk x="32" y="-192" width="16" height="16">
0,0,0,0,0,0,557,0,0,557,0,0,0,557,557,0,
0,0,0,0,0,0,557,557,0,557,0,0,557,557,0,0,
0,0,0,0,0,0,0,557,557,557,0,0,557,0,0,0,
0,0,0,0,0,0,0,0,0,0,0,0,557,0,0,0,
0,0,0,0,0,0,0,0,0,0,0,0,557,0,0,0,
0,0,0,0,0,0,0,0,0,0,0,557,557,0,0,0,
0,0,0,0,0,0,0,0,0,0,0,557,0,0,0,0,
0,0,0,0,0,0,0,0,0,0,0,557,0,0,0,0,
0,0,0,0,0,0,0,0,0,0,0,557,0,0,0,0,
0,0,0,0,0,0,0,0,0,0,0,557,0,0,0,0,
0,0,0,0,0,0,0,0,0,0,0,557,0,0,0,0,
0,0,0,0,0,0,0,0,0,0,0,557,557,0,0,0,
0,0,0,0,0,0,0,0,0,0,0,0,557,0,0,0,
0,0,0,0,0,0,0,0,0,0,0,0,557,0,0,0,
0,0,0,0,0,0,0,0,0,0,0,0,557,0,0,0,
0,0,0,0,0,0,0,557,557,557,0,0,557,0,0,0
</chunk>
   <chunk x="48" y="-192" width="16" height="16">
557,557,0,0,0,0,0,0,0,0,0,0,0,0,0,0,
0,557,557,0,0,0,0,0,0,0,0,0,0,0,0,0,
0,0,557,0,0,0,0,0,0,0,0,0,0,0,0,0,
0,0,557,0,0,0,0,0,0,0,0,0,0,0,0,0,
0,0,557,0,0,0,0,0,0,0,0,0,0,0,0,0,
0,0,557,557,0,0,0,0,0,0,0,0,0,0,0,0,
0,0,0,557,0,557,557,557,0,0,0,0,0,0,0,0,
0,0,0,557,0,557,0,557,557,0,0,0,0,0,0,0,
0,0,0,557,0,557,0,0,557,0,0,0,0,0,0,0,
0,0,0,557,0,557,0,557,557,0,0,0,0,0,0,0,
0,0,0,557,0,557,557,557,0,0,0,0,0,0,0,0,
0,0,557,557,0,0,0,0,0,0,0,0,0,0,0,0,
0,0,557,0,0,0,0,0,0,0,0,0,0,0,0,0,
0,0,557,0,0,0,0,0,0,0,0,0,0,0,0,0,
0,0,557,0,0,0,0,0,0,0,0,0,0,0,0,0,
0,0,557,0,0,0,0,0,0,0,0,0,0,0,0,0
</chunk>
   <chunk x="32" y="-176" width="16" height="16">
0,0,0,0,0,0,0,557,0,557,557,0,557,0,0,0,
0,0,0,0,0,0,0,557,0,0,557,0,557,0,0,0,
0,0,0,0,0,0,0,557,557,0,557,0,557,0,0,0,
0,0,0,0,0,0,0,0,557,557,557,0,557,0,0,0,
0,0,0,0,0,0,0,0,0,0,0,0,557,0,0,0,
0,0,0,0,0,0,0,0,0,0,0,0,557,0,0,0,
0,0,0,0,0,0,0,0,0,0,0,0,557,0,0,0,
0,0,0,0,0,0,0,0,0,0,0,0,557,0,0,0,
0,0,0,0,0,0,0,0,0,0,0,0,557,0,0,0,
0,0,0,0,0,0,0,0,0,0,0,0,557,0,0,0,
0,0,0,0,0,0,0,0,0,0,0,0,557,0,0,0,
0,0,0,0,0,0,0,0,0,0,557,557,557,0,0,0,
0,0,0,0,0,0,0,0,0,0,557,0,557,0,0,0,
0,0,0,0,0,0,0,0,0,0,557,557,557,0,0,0,
0,0,0,0,0,0,0,0,0,0,0,0,557,0,0,0,
0,0,0,0,0,0,0,0,0,0,0,0,557,0,0,0
</chunk>
   <chunk x="48" y="-176" width="16" height="16">
0,0,557,0,0,0,0,0,0,0,0,0,0,0,0,0,
0,0,557,0,0,0,0,0,0,0,0,0,0,0,0,0,
0,0,557,0,0,0,0,0,0,0,0,0,0,0,0,0,
0,0,557,0,0,0,0,0,0,0,0,0,0,0,0,0,
0,0,557,0,0,0,0,0,0,0,0,0,0,0,0,0,
0,0,557,0,557,557,557,0,0,0,0,0,0,0,0,0,
0,0,557,557,557,0,557,557,0,0,0,0,0,0,0,0,
0,0,557,557,0,0,0,557,0,0,0,0,0,0,0,0,
0,0,557,557,0,0,0,557,0,0,0,0,0,0,0,0,
0,0,557,557,557,557,557,557,0,0,0,0,0,0,0,0,
0,0,557,0,0,0,0,0,0,0,0,0,0,0,0,0,
0,0,557,0,0,0,0,0,0,0,0,0,0,0,0,0,
0,0,557,0,0,0,0,0,0,0,0,0,0,0,0,0,
0,0,557,0,0,0,0,0,0,0,0,0,0,0,0,0,
0,0,557,557,557,0,0,0,0,0,0,0,0,0,0,0,
0,0,557,0,557,0,0,0,0,0,0,0,0,0,0,0
</chunk>
   <chunk x="32" y="-160" width="16" height="16">
0,0,0,0,0,0,0,0,0,0,0,0,557,0,0,0,
0,0,0,0,0,0,0,0,0,0,0,0,557,0,0,0,
0,0,0,0,0,0,0,0,0,0,0,0,557,0,0,0,
0,0,0,0,0,0,0,0,0,0,0,0,557,0,0,0,
0,0,0,0,0,0,0,0,0,0,0,0,557,0,0,0,
0,0,0,0,0,0,0,0,0,0,0,0,557,0,0,0,
0,0,0,0,0,0,0,0,0,0,0,0,557,0,0,0,
0,0,0,0,0,0,0,0,0,0,0,0,557,0,0,0,
0,0,0,0,0,0,0,0,0,0,0,0,557,0,0,0,
0,0,0,0,0,0,0,0,0,0,0,0,557,0,0,0,
0,0,0,0,0,0,0,0,0,0,0,0,557,0,0,0,
0,0,0,0,0,0,0,0,0,0,0,0,557,0,0,0,
0,0,0,0,0,0,0,0,0,0,0,0,557,0,0,0,
0,0,0,0,0,0,0,0,0,0,0,0,557,0,0,0,
0,0,0,0,0,0,0,0,0,0,0,0,557,0,0,0,
0,0,0,0,0,0,0,0,0,0,0,0,557,0,0,0
</chunk>
   <chunk x="48" y="-160" width="16" height="16">
0,0,557,0,557,0,0,0,0,0,0,0,0,0,0,0,
0,0,557,557,557,0,0,0,0,0,0,0,0,0,0,0,
0,0,0,0,557,0,0,0,0,0,0,0,0,0,0,0,
0,0,0,0,557,0,0,0,0,0,0,0,0,0,0,0,
0,0,557,557,557,0,0,0,0,0,0,0,0,0,0,0,
0,0,557,0,0,0,0,0,0,0,0,0,0,0,0,0,
0,0,557,557,557,557,0,0,0,0,0,0,0,0,0,0,
0,0,557,557,0,557,557,0,0,0,0,0,0,0,0,0,
0,0,557,557,0,0,557,0,0,0,0,0,0,0,0,0,
0,0,557,557,557,557,557,0,0,0,0,0,0,0,0,0,
0,0,557,0,0,0,0,0,0,0,0,0,0,0,0,0,
0,0,557,0,0,0,0,0,0,0,0,0,0,0,0,0,
0,0,557,0,0,0,0,0,0,0,0,0,0,0,0,0,
0,0,557,0,0,0,0,0,0,0,0,0,0,0,0,0,
0,0,557,0,0,0,0,0,0,0,0,0,0,0,0,0,
0,0,557,0,0,0,0,0,0,0,0,0,0,0,0,0
</chunk>
   <chunk x="32" y="-144" width="16" height="16">
0,0,0,0,0,0,0,0,0,0,0,0,557,0,0,0,
0,0,0,0,0,0,0,0,0,0,0,0,557,0,0,0,
0,0,0,0,0,557,557,557,557,557,0,0,557,0,0,0,
0,0,0,0,0,557,0,0,0,557,0,0,557,0,0,0,
0,0,0,0,0,557,0,0,0,557,0,0,557,0,0,0,
0,0,0,0,0,557,557,557,557,557,0,0,557,0,0,0,
0,0,0,0,0,0,0,0,0,0,0,0,557,0,0,0,
0,0,0,0,0,0,0,0,0,0,0,0,557,0,0,0,
0,0,0,0,0,0,0,0,0,0,0,0,557,0,0,0,
0,0,0,0,0,0,0,0,0,0,0,0,557,0,0,0,
0,0,0,0,0,0,0,0,0,0,0,0,557,0,0,0,
0,0,0,0,0,0,0,0,0,0,0,0,557,0,0,0,
0,0,0,0,0,0,0,0,0,0,0,0,557,0,0,0,
0,0,0,0,0,0,0,0,0,0,0,0,557,0,0,0,
0,0,0,0,0,0,0,0,0,0,0,0,557,0,0,0,
0,0,0,0,0,0,0,0,0,0,0,0,557,0,0,0
</chunk>
   <chunk x="48" y="-144" width="16" height="16">
0,0,557,0,0,0,0,0,0,0,0,0,0,0,0,0,
0,0,557,0,557,557,557,557,0,0,0,0,0,0,0,0,
0,0,557,0,557,0,0,557,557,0,0,0,0,0,0,0,
0,0,557,0,557,0,0,0,557,0,0,0,0,0,0,0,
0,0,557,0,557,557,0,557,557,0,0,0,0,0,0,0,
0,0,557,0,0,557,557,557,0,0,0,0,0,0,0,0,
0,0,557,0,0,0,0,0,0,0,0,0,0,0,0,0,
0,0,557,0,0,0,0,0,0,0,0,0,0,0,0,0,
0,0,557,0,0,0,0,0,0,0,0,0,0,0,0,0,
0,0,557,0,0,0,0,0,0,0,0,0,0,0,0,0,
0,0,557,0,0,0,0,0,0,0,0,0,0,0,0,0,
0,0,557,0,0,0,0,0,0,0,0,0,0,0,0,0,
0,0,557,0,557,557,557,557,557,0,0,0,0,0,0,0,
0,0,557,0,557,0,0,0,557,0,0,0,0,0,0,0,
0,0,557,0,557,0,0,0,557,0,0,0,0,0,0,0,
0,0,557,0,557,557,557,557,557,0,0,0,0,0,0,0
</chunk>
   <chunk x="32" y="-128" width="16" height="16">
0,0,0,0,0,0,557,557,557,557,0,0,557,0,0,0,
0,0,0,0,0,0,557,0,0,557,557,0,557,0,0,0,
0,0,0,0,0,0,557,0,0,0,557,0,557,0,0,0,
0,0,0,0,0,0,557,557,0,557,557,0,557,0,0,0,
0,0,0,0,0,0,0,557,557,557,0,0,557,0,0,0,
0,0,0,0,0,0,0,0,0,0,0,0,557,0,0,0,
0,0,0,0,0,0,0,0,0,0,0,0,557,0,0,0,
0,0,0,0,0,0,0,0,0,0,0,0,557,0,0,0,
0,0,0,0,0,0,0,0,0,0,0,0,557,0,0,0,
0,0,0,0,0,0,0,0,0,0,0,0,557,0,0,0,
0,0,0,0,0,0,0,0,0,0,0,0,557,0,0,0,
0,0,0,0,0,0,0,0,0,0,0,0,557,0,0,0,
0,0,0,0,0,0,0,0,0,0,0,0,557,0,0,0,
0,0,0,0,0,0,0,0,0,0,0,0,557,0,0,0,
0,0,0,0,0,0,0,0,0,0,0,0,557,0,0,0,
0,0,0,0,0,0,0,0,0,0,0,0,557,0,0,0
</chunk>
   <chunk x="48" y="-128" width="16" height="16">
0,0,557,0,0,0,0,0,0,0,0,0,0,0,0,0,
0,0,557,0,0,0,0,0,0,0,0,0,0,0,0,0,
0,0,557,0,0,0,0,0,0,0,0,0,0,0,0,0,
0,0,557,0,0,0,0,0,0,0,0,0,0,0,0,0,
0,0,557,0,0,0,0,0,0,0,0,0,0,0,0,0,
0,0,557,0,0,0,0,0,0,0,0,0,0,0,0,0,
0,0,557,0,0,0,0,0,0,0,0,0,0,0,0,0,
0,0,557,0,0,557,557,557,557,0,0,0,0,0,0,0,
0,0,557,0,557,557,0,0,557,0,0,0,0,0,0,0,
0,0,557,0,557,0,0,0,557,0,0,0,0,0,0,0,
0,0,557,0,557,557,0,557,557,0,0,0,0,0,0,0,
0,0,557,0,0,557,557,557,0,0,0,0,0,0,0,0,
0,0,557,0,0,0,0,0,0,0,0,0,0,0,0,0,
0,0,557,0,0,0,0,0,0,0,0,0,0,0,0,0,
0,0,557,0,0,0,0,0,0,0,0,0,0,0,0,0,
0,0,557,0,0,0,0,0,0,0,0,0,0,0,0,0
</chunk>
   <chunk x="32" y="-112" width="16" height="16">
0,0,0,0,0,0,0,0,0,0,0,0,557,0,0,0,
0,0,0,0,0,0,0,0,0,0,0,0,557,0,0,0,
0,0,0,0,0,0,0,0,0,0,0,0,557,0,0,0,
0,0,0,0,0,0,0,0,0,0,0,0,557,0,0,0,
0,0,0,0,0,0,0,0,0,0,0,0,557,0,0,0,
0,0,0,0,0,0,0,0,0,0,0,0,557,0,0,0,
0,0,0,0,0,0,0,0,0,0,0,0,557,0,0,0,
0,0,0,0,0,0,0,0,0,0,0,0,557,0,0,0,
0,0,0,0,0,0,0,0,0,0,0,0,557,0,0,0,
0,0,0,0,0,0,0,0,0,0,0,0,557,0,0,0,
0,0,0,0,0,0,0,0,0,0,0,0,557,0,0,0,
0,0,0,0,0,0,0,0,0,0,0,0,557,0,0,0,
0,0,0,0,0,0,557,557,557,0,0,0,557,0,0,0,
0,0,0,0,0,557,557,0,557,557,0,0,557,0,0,0,
0,0,0,0,0,557,0,0,0,557,0,0,557,0,0,0,
0,0,0,0,0,557,557,0,557,557,0,0,557,0,0,0
</chunk>
   <chunk x="48" y="-112" width="16" height="16">
0,0,557,0,0,0,0,0,0,0,0,0,0,0,0,0,
0,0,557,0,0,0,0,0,0,0,0,0,0,0,0,0,
0,0,557,0,0,0,0,0,0,0,0,0,0,0,0,0,
0,0,557,0,0,0,0,0,0,0,0,0,0,0,0,0,
0,0,557,0,0,0,0,0,0,0,0,0,0,0,0,0,
0,0,557,0,0,0,0,0,0,0,0,0,0,0,0,0,
0,0,557,0,0,0,0,0,0,0,0,0,0,0,0,0,
0,0,557,0,0,0,0,0,0,0,0,0,0,0,0,0,
0,0,557,0,0,0,0,0,0,0,0,0,0,0,0,0,
0,0,557,0,557,557,557,557,0,0,0,0,0,0,0,0,
0,0,557,0,557,0,0,557,557,0,0,0,0,0,0,0,
0,0,557,0,557,0,0,0,557,0,0,0,0,0,0,0,
0,0,557,0,557,0,0,0,557,0,0,0,0,0,0,0,
0,0,557,0,557,557,0,557,557,0,0,0,0,0,0,0,
0,0,557,0,0,557,557,557,0,0,0,0,0,0,0,0,
0,0,557,0,0,0,0,0,0,0,0,0,0,0,0,0
</chunk>
   <chunk x="32" y="-96" width="16" height="16">
0,0,0,0,0,0,557,557,557,0,0,0,557,0,0,0,
0,0,0,0,0,0,0,0,0,0,0,0,557,0,0,0,
0,0,0,0,0,0,0,0,0,0,0,0,557,0,0,0,
0,0,0,0,0,0,0,0,0,0,0,0,557,0,0,0,
0,0,0,0,0,0,0,0,0,0,0,0,557,0,0,0,
0,0,0,0,0,0,0,0,0,0,0,0,557,0,0,0,
0,0,0,0,0,0,0,0,0,0,0,0,557,0,0,0,
0,0,0,0,0,0,0,0,0,0,0,0,557,0,0,0,
0,0,0,0,0,0,0,0,0,0,557,557,557,0,0,0,
0,0,0,0,0,0,0,0,0,0,557,0,557,0,0,0,
0,0,0,0,0,0,0,0,0,0,557,557,557,0,0,0,
0,0,0,0,0,0,0,0,0,0,0,0,557,0,0,0,
0,0,0,0,0,0,0,0,0,0,0,0,557,0,0,0,
0,0,0,0,0,0,0,0,0,0,0,0,557,0,0,0,
0,0,0,0,0,0,0,0,0,0,557,557,557,0,0,0,
0,0,0,0,0,0,0,0,0,0,557,0,557,0,0,0
</chunk>
   <chunk x="48" y="-96" width="16" height="16">
0,0,557,0,0,0,0,0,0,0,0,0,0,0,0,0,
0,0,557,0,0,0,0,0,0,0,0,0,0,0,0,0,
0,0,557,0,0,0,0,0,0,0,0,0,0,0,0,0,
0,0,557,0,0,0,0,0,0,0,0,0,0,0,0,0,
0,0,557,0,0,0,0,0,0,0,0,0,0,0,0,0,
0,0,557,557,557,0,0,0,0,0,0,0,0,0,0,0,
0,0,557,0,557,0,0,0,0,0,0,0,0,0,0,0,
0,0,557,557,557,0,0,0,0,0,0,0,0,0,0,0,
0,0,557,0,0,0,0,0,0,0,0,0,0,0,0,0,
0,0,557,0,0,0,0,0,0,0,0,0,0,0,0,0,
0,0,557,0,0,0,0,0,0,0,0,0,0,0,0,0,
0,0,557,557,557,0,0,0,0,0,0,0,0,0,0,0,
0,0,557,0,557,0,0,0,0,0,0,0,0,0,0,0,
0,0,557,557,557,0,0,0,0,0,0,0,0,0,0,0,
0,0,557,0,0,0,0,0,0,0,0,0,0,0,0,0,
0,0,557,0,0,557,557,557,0,0,0,0,0,0,0,0
</chunk>
   <chunk x="32" y="-80" width="16" height="16">
0,0,0,0,0,0,0,0,0,0,557,557,557,0,0,0,
0,0,0,0,0,0,0,0,0,0,0,0,557,0,0,0,
0,0,0,0,0,0,0,0,0,0,0,0,557,0,0,0,
0,0,0,0,0,0,0,0,0,0,557,557,557,0,0,0,
0,0,0,0,0,0,0,0,0,0,557,0,557,0,0,0,
0,0,0,0,0,0,0,0,0,0,557,0,557,0,0,0,
0,0,0,0,0,0,0,0,0,0,557,557,557,0,0,0,
0,0,0,0,0,0,0,0,0,0,0,0,557,0,0,0,
0,0,0,0,0,0,0,0,0,0,0,0,557,0,0,0,
0,0,0,0,0,0,0,0,0,0,0,0,557,0,0,0,
0,0,0,0,0,0,0,0,0,0,0,0,557,0,0,0,
0,0,0,0,0,0,0,557,557,557,557,0,557,0,0,0,
0,0,0,0,0,0,0,557,0,0,557,557,557,0,0,0,
0,0,0,0,0,0,0,557,0,0,0,557,557,0,0,0,
0,0,0,0,0,0,0,557,557,0,557,557,557,0,0,0,
0,0,0,0,0,0,0,0,557,557,557,0,557,0,0,0
</chunk>
   <chunk x="48" y="-80" width="16" height="16">
0,0,557,0,557,557,0,557,557,0,0,0,0,0,0,0,
0,0,557,0,557,0,0,0,557,0,0,0,0,0,0,0,
0,0,557,0,557,557,0,0,557,0,0,0,0,0,0,0,
0,0,557,0,0,557,557,557,557,0,0,0,0,0,0,0,
0,0,557,0,0,0,0,0,0,0,0,0,0,0,0,0,
0,0,557,0,0,0,0,0,0,0,0,0,0,0,0,0,
0,0,557,557,557,0,0,0,0,0,0,0,0,0,0,0,
0,0,557,0,557,0,0,0,0,0,0,0,0,0,0,0,
0,0,557,0,557,0,0,0,0,0,0,0,0,0,0,0,
0,0,557,557,557,0,0,0,0,0,0,0,0,0,0,0,
0,0,557,0,0,0,0,0,0,0,0,0,0,0,0,0,
0,0,557,0,0,0,0,0,0,0,0,0,0,0,0,0,
0,0,557,0,0,0,0,0,0,0,0,0,0,0,0,0,
0,0,557,0,0,0,0,0,0,0,0,0,0,0,0,0,
0,0,557,0,0,0,0,0,0,0,0,0,0,0,0,0,
0,0,557,0,0,0,0,0,0,0,0,0,0,0,0,0
</chunk>
   <chunk x="32" y="-64" width="16" height="16">
0,0,0,0,0,0,0,0,0,0,0,0,557,0,0,0,
0,0,0,0,0,0,0,0,0,0,0,0,557,0,0,0,
0,0,0,0,0,0,0,0,0,0,0,0,557,0,0,0,
0,0,0,0,0,0,0,0,0,0,0,0,557,0,0,0,
0,0,0,0,0,0,0,0,0,0,0,0,557,0,0,0,
0,0,0,0,0,0,0,0,0,0,0,0,557,0,0,0,
0,0,0,0,0,0,0,0,0,0,0,0,557,0,0,0,
0,0,0,0,0,0,0,0,0,0,0,0,557,0,0,0,
0,0,0,0,0,0,0,0,0,0,0,0,557,0,0,0,
0,0,0,0,0,0,0,0,0,0,0,0,557,0,0,0,
0,0,0,0,0,0,0,0,0,0,0,0,557,0,0,0,
0,0,0,0,0,0,557,557,557,557,0,0,557,0,0,0,
0,0,0,0,0,0,557,0,0,557,0,0,557,0,0,0,
0,0,0,0,0,0,557,0,0,557,557,0,557,0,0,0,
0,0,0,0,0,0,557,557,0,0,557,0,557,0,0,0,
0,0,0,0,0,0,0,557,557,557,557,0,557,0,0,0
</chunk>
   <chunk x="48" y="-64" width="16" height="16">
0,0,557,0,0,0,0,0,0,0,0,0,0,0,0,0,
0,0,557,0,0,0,0,0,0,0,0,0,0,0,0,0,
0,0,557,0,0,0,0,0,0,0,0,0,0,0,0,0,
0,0,557,0,0,0,0,0,0,0,0,0,0,0,0,0,
0,0,557,0,0,0,0,0,0,0,0,0,0,0,0,0,
0,0,557,0,0,0,0,0,0,0,0,0,0,0,0,0,
0,0,557,0,0,0,0,0,0,0,0,0,0,0,0,0,
0,0,557,0,0,0,0,0,0,0,0,0,0,0,0,0,
0,0,557,0,0,0,0,0,0,0,0,0,0,0,0,0,
0,0,557,0,557,557,557,557,557,0,0,0,0,0,0,0,
0,0,557,0,557,0,0,0,557,0,0,0,0,0,0,0,
0,0,557,0,557,0,0,0,557,0,0,0,0,0,0,0,
0,0,557,0,557,557,557,557,557,0,0,0,0,0,0,0,
0,0,557,0,0,0,0,0,0,0,0,0,0,0,0,0,
0,0,557,0,0,0,0,0,0,0,0,0,0,0,0,0,
0,0,557,0,0,0,0,0,0,0,0,0,0,0,0,0
</chunk>
   <chunk x="32" y="-48" width="16" height="16">
0,0,0,0,0,0,0,0,0,0,0,0,557,0,0,0,
0,0,0,0,0,0,0,0,0,0,0,0,557,0,0,0,
0,0,0,0,0,0,0,0,0,0,0,0,557,0,0,0,
0,0,0,0,0,0,0,0,0,0,0,0,557,0,0,0,
0,0,0,0,0,0,0,0,0,0,0,0,557,0,0,0,
0,0,0,0,0,0,0,0,0,0,0,0,557,0,0,0,
0,0,0,0,0,0,0,0,0,0,0,0,557,0,0,0,
0,0,0,0,0,0,0,0,0,0,0,0,557,0,0,0,
0,0,0,0,0,0,0,0,0,0,0,0,557,0,0,0,
0,0,0,0,0,0,0,0,0,0,0,0,557,0,0,0,
0,0,0,0,0,0,0,0,0,0,0,0,557,0,0,0,
0,0,0,0,0,0,0,0,0,0,0,0,557,0,0,0,
0,0,0,0,0,0,0,0,0,0,0,0,557,0,0,0,
0,0,0,0,0,0,0,0,0,0,0,0,557,0,0,0,
0,0,0,0,0,0,0,0,0,0,0,0,557,0,0,0,
0,0,0,0,0,0,0,0,0,0,0,0,557,0,0,0
</chunk>
   <chunk x="48" y="-48" width="16" height="16">
0,0,557,0,0,0,0,0,0,0,0,0,0,0,0,0,
0,0,557,0,0,0,0,0,0,0,0,0,0,0,0,0,
0,0,557,0,0,0,0,0,0,0,0,0,0,0,0,0,
0,0,557,0,0,0,0,0,0,0,0,0,0,0,0,0,
0,0,557,0,0,0,0,0,0,0,0,0,0,0,0,0,
0,0,557,0,0,0,0,0,0,0,0,0,0,0,0,0,
0,0,557,0,557,557,557,557,0,0,0,0,0,0,0,0,
0,0,557,0,557,0,0,557,557,0,0,0,0,0,0,0,
0,0,557,557,557,0,0,0,557,0,0,0,0,0,0,0,
0,0,557,557,0,0,0,0,557,0,0,0,0,0,0,0,
0,0,557,557,557,557,0,0,557,0,0,0,0,0,0,0,
0,0,557,0,0,557,557,557,557,0,0,0,0,0,0,0,
0,0,557,0,0,0,0,0,0,0,0,0,0,0,0,0,
0,0,557,0,0,0,0,0,0,0,0,0,0,0,0,0,
0,0,557,0,0,0,0,0,0,0,0,0,0,0,0,0,
0,0,557,0,0,0,0,0,0,0,0,0,0,0,0,0
</chunk>
   <chunk x="32" y="-32" width="16" height="16">
0,0,0,0,0,557,557,557,557,557,0,0,557,0,0,0,
0,0,0,0,0,557,0,0,0,557,0,0,557,0,0,0,
0,0,0,0,0,557,0,0,0,557,0,0,557,0,0,0,
0,0,0,0,0,557,557,557,557,557,0,0,557,0,0,0,
0,0,0,0,0,0,0,0,0,0,0,0,557,0,0,0,
0,0,0,0,0,0,0,0,0,0,0,0,557,0,0,0,
0,0,0,0,0,0,0,0,0,0,0,0,557,0,0,0,
0,0,0,0,0,0,0,0,0,0,0,0,557,0,0,0,
0,0,0,0,0,0,0,0,0,0,0,0,557,0,0,0,
0,0,0,0,0,0,0,0,0,0,0,0,557,0,0,0,
0,0,0,0,0,0,0,0,0,0,0,0,557,0,0,0,
0,0,0,0,0,0,0,0,0,0,0,0,557,0,0,0,
0,0,0,0,0,0,0,0,0,0,0,0,557,0,0,0,
0,0,0,0,0,0,0,0,0,0,0,0,557,0,0,0,
0,0,0,0,0,0,0,0,0,0,0,0,557,0,0,0,
0,0,0,0,0,0,0,0,0,0,0,0,557,0,0,0
</chunk>
   <chunk x="48" y="-32" width="16" height="16">
0,0,557,0,0,0,0,0,0,0,0,0,0,0,0,0,
0,0,557,0,0,0,0,0,0,0,0,0,0,0,0,0,
0,0,557,0,0,0,0,0,0,0,0,0,0,0,0,0,
0,0,557,557,557,557,557,557,0,0,0,0,0,0,0,0,
0,0,557,557,0,0,0,557,557,0,0,0,0,0,0,0,
0,0,557,557,0,0,0,0,557,0,0,0,0,0,0,0,
0,0,557,557,0,0,0,0,557,0,0,0,0,0,0,0,
0,0,557,557,557,557,0,0,557,0,0,0,0,0,0,0,
0,0,557,0,0,557,557,557,557,0,0,0,0,0,0,0,
0,0,557,0,0,0,0,0,0,0,0,0,0,0,0,0,
0,0,557,0,0,0,0,0,0,0,0,0,0,0,0,0,
0,0,557,0,0,0,0,0,0,0,0,0,0,0,0,0,
0,0,557,0,0,0,0,0,0,0,0,0,0,0,0,0,
0,0,557,0,0,0,0,0,0,0,0,0,0,0,0,0,
0,0,557,0,0,0,0,0,0,0,0,0,0,0,0,0,
0,0,557,0,0,0,0,0,0,0,0,0,0,0,0,0
</chunk>
   <chunk x="32" y="-16" width="16" height="16">
0,0,0,0,0,0,0,0,0,0,0,0,557,0,0,0,
0,0,0,0,0,0,0,0,0,0,0,0,557,0,0,0,
0,0,0,0,0,0,0,0,0,0,0,0,557,0,0,0,
0,0,0,0,0,0,0,0,0,0,0,0,557,0,0,0,
0,0,0,0,0,0,0,0,0,0,0,0,557,0,0,0,
0,0,0,0,0,0,0,0,0,0,0,0,557,0,0,0,
0,0,0,0,0,0,0,0,0,0,0,0,557,0,0,0,
0,0,0,0,0,0,0,0,0,0,0,0,557,0,0,0,
0,0,0,0,0,0,0,0,0,0,0,0,557,0,0,0,
0,0,0,0,0,0,0,0,0,0,0,0,557,0,0,0,
0,0,0,0,0,0,0,0,0,0,0,0,557,0,0,0,
0,0,0,0,0,0,0,0,0,0,0,0,557,0,0,0,
0,0,0,0,0,0,0,0,0,0,0,0,557,0,0,0,
0,0,0,0,0,0,0,0,0,0,0,0,557,0,0,0,
0,0,0,0,0,0,0,0,0,0,0,0,557,0,0,0,
0,0,0,0,0,0,0,0,0,0,0,0,557,0,0,0
</chunk>
   <chunk x="48" y="-16" width="16" height="16">
0,0,557,0,0,0,0,0,0,0,0,0,0,0,0,0,
0,0,557,0,0,0,0,0,0,0,0,0,0,0,0,0,
0,0,557,0,0,0,0,0,0,0,0,0,0,0,0,0,
0,0,557,0,0,0,0,0,0,0,0,0,0,0,0,0,
0,0,557,0,0,0,0,0,0,0,0,0,0,0,0,0,
0,0,557,0,0,0,0,0,0,0,0,0,0,0,0,0,
0,0,557,0,0,557,557,557,557,557,0,0,0,0,0,0,
0,0,557,0,0,557,0,0,0,557,0,0,0,0,0,0,
0,0,557,0,0,557,0,0,0,557,0,0,0,0,0,0,
0,0,557,0,0,557,0,0,557,557,0,0,0,0,0,0,
0,0,557,0,0,557,557,557,557,0,0,0,0,0,0,0,
0,0,557,0,0,0,0,0,0,0,0,0,0,0,0,0,
0,0,557,0,0,0,0,0,0,0,0,0,0,0,0,0,
0,0,557,0,0,0,0,0,0,0,0,0,0,0,0,0,
0,0,557,0,0,0,0,0,0,0,0,0,0,0,0,0,
0,0,557,0,0,0,0,0,0,0,0,0,0,0,0,0
</chunk>
   <chunk x="32" y="0" width="16" height="16">
0,0,0,0,0,0,557,557,557,557,557,0,557,0,0,0,
0,0,0,0,0,0,557,0,0,0,557,0,557,0,0,0,
0,0,0,0,0,0,557,0,0,0,557,0,557,0,0,0,
0,0,0,0,0,0,557,557,557,557,557,0,557,0,0,0,
0,0,0,0,0,0,0,0,0,0,0,0,557,0,0,0,
0,0,0,0,0,0,0,0,0,0,0,0,557,0,0,0,
0,0,0,0,0,0,0,0,0,0,0,0,557,0,0,0,
0,0,0,0,0,0,0,0,0,0,0,0,557,0,0,0,
0,0,0,0,0,0,0,0,0,0,0,0,557,0,0,0,
0,0,0,0,0,0,0,0,0,0,0,0,557,0,0,0,
0,0,0,0,0,0,0,0,0,0,0,0,557,0,0,0,
0,0,0,0,0,0,0,0,0,0,0,0,557,0,0,0,
0,0,0,0,0,0,0,0,0,0,0,0,557,0,0,0,
0,0,0,0,0,0,0,0,0,0,0,0,557,0,0,0,
0,0,0,0,0,0,0,0,0,0,0,0,557,0,0,0,
0,0,0,0,0,0,0,0,0,0,0,0,557,0,0,0
</chunk>
   <chunk x="48" y="0" width="16" height="16">
0,0,557,0,0,0,0,0,0,0,0,0,0,0,0,0,
0,0,557,0,0,0,0,0,0,0,0,0,0,0,0,0,
0,0,557,0,0,0,0,0,0,0,0,0,0,0,0,0,
0,0,557,0,0,0,0,0,0,0,0,0,0,0,0,0,
0,0,557,0,0,0,0,0,0,0,0,0,0,0,0,0,
0,0,557,0,0,0,0,0,0,0,0,0,0,0,0,0,
0,0,557,0,0,0,0,0,0,0,0,0,0,0,0,0,
0,0,557,0,0,0,0,0,0,0,0,0,0,0,0,0,
0,0,557,0,0,0,0,0,0,0,0,0,0,0,0,0,
0,0,557,0,0,0,0,0,0,0,0,0,0,0,0,0,
0,0,557,0,0,0,0,0,0,0,0,0,0,0,0,0,
0,0,557,0,0,0,0,0,0,0,0,0,0,0,0,0,
0,0,557,0,0,0,0,0,0,0,0,0,0,0,0,0,
0,0,557,0,0,0,0,0,0,0,0,0,0,0,0,0,
0,0,557,0,0,0,0,0,0,0,0,0,0,0,0,0,
0,0,557,0,0,0,0,0,0,0,0,0,0,0,0,0
</chunk>
   <chunk x="32" y="16" width="16" height="16">
0,0,0,0,0,0,0,0,0,0,0,0,557,0,0,0,
0,0,0,0,0,0,0,0,0,0,0,0,557,0,0,0,
0,0,0,0,0,0,0,0,0,0,0,0,557,0,0,0,
0,0,0,0,0,0,0,0,0,0,0,0,557,0,0,0,
0,0,0,0,0,0,0,0,0,0,0,0,557,0,0,0,
0,0,0,0,0,0,0,0,0,0,0,0,557,0,0,0,
0,0,0,0,0,0,0,0,0,0,0,0,557,0,0,0,
0,0,0,0,0,0,0,0,0,0,0,0,557,0,0,0,
0,0,0,0,0,0,0,0,0,0,0,0,557,0,0,0,
0,0,0,0,0,0,0,0,0,0,0,0,557,0,0,0,
0,0,0,0,0,0,0,0,0,0,0,0,557,0,0,0,
0,0,0,0,0,0,0,0,0,0,0,0,557,0,0,0,
0,0,0,0,0,0,0,0,0,0,0,0,557,0,0,0,
0,0,0,0,0,0,0,0,0,0,0,0,557,0,0,0,
0,0,0,0,0,0,0,0,0,0,0,0,557,0,0,0,
0,0,0,0,0,0,0,0,0,0,0,0,557,0,0,0
</chunk>
   <chunk x="48" y="16" width="16" height="16">
0,0,557,0,0,0,0,0,0,0,0,0,0,0,0,0,
0,0,557,0,557,557,557,557,557,0,0,0,0,0,0,0,
0,0,557,0,557,0,0,0,557,0,0,0,0,0,0,0,
0,0,557,0,557,0,0,0,557,0,0,0,0,0,0,0,
0,0,557,0,557,557,557,557,557,0,0,0,0,0,0,0,
0,0,557,0,0,0,0,0,0,0,0,0,0,0,0,0,
0,0,557,0,0,0,0,0,0,0,0,0,0,0,0,0,
0,0,557,0,0,0,0,0,0,0,0,0,0,0,0,0,
0,0,557,0,0,0,0,0,0,0,0,0,0,0,0,0,
0,0,557,0,0,0,0,0,0,0,0,0,0,0,0,0,
0,0,557,0,0,0,0,0,0,0,0,0,0,0,0,0,
0,0,557,0,0,0,0,0,0,0,0,0,0,0,0,0,
0,0,557,0,0,0,0,0,0,0,0,0,0,0,0,0,
0,0,557,0,0,0,0,0,0,0,0,0,0,0,0,0,
0,0,557,0,0,0,0,0,0,0,0,0,0,0,0,0,
0,0,557,0,0,0,0,0,0,0,0,0,0,0,0,0
</chunk>
   <chunk x="32" y="32" width="16" height="16">
0,0,0,0,0,0,0,0,0,0,0,0,557,0,0,0,
0,0,0,0,0,0,0,0,0,0,0,0,557,0,0,0,
0,0,0,0,0,0,0,0,0,0,0,0,557,0,0,0,
0,0,0,0,0,0,0,0,0,0,0,0,0,557,557,557,
0,0,0,0,0,0,0,0,0,0,0,0,0,0,0,0,
0,0,0,0,0,0,0,0,0,0,0,0,0,0,0,0,
0,0,0,0,0,0,0,0,0,0,0,0,0,0,0,0,
0,0,0,0,0,0,0,0,0,0,0,0,0,0,0,0,
0,0,0,0,0,0,0,0,0,0,0,0,0,0,0,0,
0,0,0,0,0,0,0,0,0,0,0,0,0,0,0,0,
0,0,0,0,0,0,0,0,0,0,0,0,0,0,0,0,
0,0,0,0,0,0,0,0,0,0,0,0,0,0,0,0,
0,0,0,0,0,0,0,0,0,0,0,0,0,0,0,0,
0,0,0,0,0,0,0,0,0,0,0,0,0,0,0,0,
0,0,0,0,0,0,0,0,0,0,0,0,0,0,0,0,
0,0,0,0,0,0,0,0,0,0,0,0,0,0,0,0
</chunk>
   <chunk x="48" y="32" width="16" height="16">
0,0,557,0,0,0,0,0,0,0,0,0,0,0,0,0,
0,0,557,0,0,0,0,0,0,0,0,0,0,0,0,0,
0,0,557,0,0,0,0,0,0,0,0,0,0,0,0,0,
557,557,0,0,0,0,0,0,0,0,0,0,0,0,0,0,
0,0,0,0,0,0,0,0,0,0,0,0,0,0,0,0,
0,0,0,0,0,0,0,0,0,0,0,0,0,0,0,0,
0,0,0,0,0,0,0,0,0,0,0,0,0,0,0,0,
0,0,0,0,0,0,0,0,0,0,0,0,0,0,0,0,
0,0,0,0,0,0,0,0,0,0,0,0,0,0,0,0,
0,0,0,0,0,0,0,0,0,0,0,0,0,0,0,0,
0,0,0,0,0,0,0,0,0,0,0,0,0,0,0,0,
0,0,0,0,0,0,0,0,0,0,0,0,0,0,0,0,
0,0,0,0,0,0,0,0,0,0,0,0,0,0,0,0,
0,0,0,0,0,0,0,0,0,0,0,0,0,0,0,0,
0,0,0,0,0,0,0,0,0,0,0,0,0,0,0,0,
0,0,0,0,0,0,0,0,0,0,0,0,0,0,0,0
</chunk>
  </data>
 </layer>
 <layer id="37" name="BARRIER_GROUND_SecretWay1" width="30" height="20" opacity="0">
  <data encoding="csv">
   <chunk x="32" y="-272" width="16" height="16">
0,0,0,0,0,0,0,0,0,0,0,0,0,0,0,0,
0,0,0,0,0,0,0,0,0,0,0,0,0,0,0,0,
0,0,0,0,0,0,0,0,0,0,0,0,0,0,557,0,
0,0,0,0,0,0,0,0,0,0,0,0,0,0,0,0,
0,0,0,0,0,0,0,0,0,0,0,0,0,0,0,0,
0,0,0,0,0,0,0,0,0,0,0,0,0,0,0,0,
0,0,0,0,0,0,0,0,0,0,0,0,0,0,0,0,
0,0,0,0,0,0,0,0,0,0,0,0,0,0,0,0,
0,0,0,0,0,0,0,0,0,0,0,0,0,0,0,0,
0,0,0,0,0,0,0,0,0,0,0,0,0,0,0,0,
0,0,0,0,0,0,0,0,0,0,0,0,0,0,0,0,
0,0,0,0,0,0,0,0,0,0,0,0,0,0,0,0,
0,0,0,0,0,0,0,0,0,0,0,0,0,0,0,0,
0,0,0,0,0,0,0,0,0,0,0,0,0,0,0,0,
0,0,0,0,0,0,0,0,0,0,0,0,0,0,0,0,
0,0,0,0,0,0,0,0,0,0,0,0,0,0,0,0
</chunk>
  </data>
 </layer>
 <layer id="28" name="BARRIER_AIR" width="30" height="20" opacity="0">
  <data encoding="csv">
   <chunk x="32" y="-480" width="16" height="16">
0,0,0,0,0,0,0,0,0,0,0,0,0,0,0,0,
0,0,0,0,0,0,0,0,0,0,0,0,0,0,0,0,
0,0,0,0,0,0,0,0,0,0,0,0,0,0,0,0,
0,0,0,0,0,0,0,0,0,0,0,0,0,0,0,0,
0,0,0,0,0,0,0,0,0,0,0,0,0,0,0,0,
0,0,0,0,0,0,0,0,0,0,0,0,0,0,0,0,
0,0,0,0,0,0,0,0,0,0,0,0,0,0,0,0,
0,0,0,0,0,0,0,0,0,0,0,0,0,0,0,0,
0,0,0,0,0,0,0,0,0,0,0,0,0,0,0,0,
0,0,0,0,0,0,0,0,0,0,0,0,0,0,0,0,
0,0,0,0,0,0,0,0,0,0,0,0,0,0,0,0,
0,0,0,0,0,0,0,0,0,0,0,0,0,0,0,0,
0,0,0,0,0,0,0,0,0,0,0,0,0,0,0,0,
0,0,0,558,558,558,558,558,558,558,558,558,558,558,558,558,
0,0,0,558,0,0,0,0,0,0,0,0,0,0,0,0,
0,0,0,558,0,0,0,0,0,0,0,0,0,0,0,0
</chunk>
   <chunk x="48" y="-480" width="16" height="16">
0,0,0,0,0,0,0,0,0,0,0,0,0,0,0,0,
0,0,0,0,0,0,0,0,0,0,0,0,0,0,0,0,
0,0,0,0,0,0,0,0,0,0,0,0,0,0,0,0,
0,0,0,0,0,0,0,0,0,0,0,0,0,0,0,0,
0,0,0,0,0,0,0,0,0,0,0,0,0,0,0,0,
0,0,0,0,0,0,0,0,0,0,0,0,0,0,0,0,
0,0,0,0,0,0,0,0,0,0,0,0,0,0,0,0,
0,0,0,0,0,0,0,0,0,0,0,0,0,0,0,0,
0,0,0,0,0,0,0,0,0,0,0,0,0,0,0,0,
0,0,0,0,0,0,0,0,0,0,0,0,0,0,0,0,
0,0,0,0,0,0,0,0,0,0,0,0,0,0,0,0,
0,0,0,0,0,0,0,0,0,0,0,0,0,0,0,0,
0,0,0,0,0,0,0,0,0,0,0,0,0,0,0,0,
558,558,558,558,558,558,558,558,558,558,558,0,0,0,0,0,
0,0,0,0,0,0,0,0,0,0,558,0,0,0,0,0,
0,0,0,0,0,0,0,0,0,0,558,0,0,0,0,0
</chunk>
   <chunk x="32" y="-464" width="16" height="16">
0,0,0,558,0,0,0,0,0,0,0,0,0,0,0,0,
0,0,0,558,0,0,0,0,0,0,0,0,0,0,0,0,
0,0,0,558,0,0,0,0,0,0,0,0,0,0,0,0,
0,0,0,558,0,0,0,0,0,0,0,0,0,0,0,0,
0,0,0,558,0,0,0,0,0,0,0,0,0,0,0,0,
0,0,0,558,0,0,0,0,0,0,0,0,0,0,0,0,
0,0,0,558,0,0,0,0,0,0,0,0,0,0,0,0,
0,0,0,558,0,0,0,0,0,0,0,0,0,0,0,0,
0,0,0,558,0,0,0,0,0,0,0,0,0,0,0,0,
0,0,0,558,0,0,0,0,0,0,0,0,0,0,0,0,
0,0,0,558,0,0,0,0,0,0,0,0,0,0,0,0,
0,0,0,558,0,0,0,0,0,0,0,0,0,0,0,0,
0,0,0,558,0,0,0,0,0,0,0,0,0,0,0,0,
0,0,0,558,0,0,0,0,0,0,0,0,0,0,0,0,
0,0,0,558,0,0,0,0,0,0,0,0,0,0,0,0,
0,0,0,558,0,0,0,0,0,0,0,0,0,0,0,0
</chunk>
   <chunk x="48" y="-464" width="16" height="16">
0,0,0,0,0,0,0,0,0,0,558,0,0,0,0,0,
0,0,0,0,0,0,0,0,0,0,558,0,0,0,0,0,
0,0,0,0,0,0,0,0,0,0,558,0,0,0,0,0,
0,0,0,0,0,0,0,0,0,0,558,0,0,0,0,0,
0,0,0,0,0,0,0,0,0,0,558,0,0,0,0,0,
0,0,0,0,0,0,0,0,0,0,558,0,0,0,0,0,
0,0,0,0,0,0,0,0,0,0,558,0,0,0,0,0,
0,0,0,0,0,0,0,0,0,0,558,0,0,0,0,0,
0,0,0,0,0,0,0,0,0,0,558,0,0,0,0,0,
0,0,0,0,0,0,0,0,0,0,558,0,0,0,0,0,
0,0,0,0,0,0,0,0,0,0,558,0,0,0,0,0,
0,0,0,0,0,0,0,0,0,0,558,0,0,0,0,0,
0,0,0,0,0,0,0,0,0,0,558,0,0,0,0,0,
0,0,0,0,0,0,0,0,0,0,558,0,0,0,0,0,
0,0,0,0,0,0,0,0,0,0,558,0,0,0,0,0,
0,0,0,0,0,0,0,0,0,0,558,0,0,0,0,0
</chunk>
   <chunk x="32" y="-448" width="16" height="16">
0,0,0,558,0,0,0,0,0,0,0,0,0,0,0,0,
0,0,0,558,0,0,0,0,0,0,0,0,0,0,0,0,
0,0,0,558,0,0,0,0,0,0,0,0,0,0,0,0,
0,0,0,558,0,0,0,0,0,0,0,0,0,0,0,0,
0,0,0,558,0,0,0,0,0,0,0,0,0,0,0,0,
0,0,0,558,0,0,0,0,0,0,0,0,0,0,0,0,
0,0,0,558,0,0,0,0,0,0,0,0,0,0,0,0,
0,0,0,558,0,0,0,0,0,0,0,0,0,0,0,0,
0,0,0,558,0,0,0,0,0,0,0,0,0,0,0,0,
0,0,0,558,0,0,0,0,0,0,0,0,0,0,0,0,
0,0,0,558,0,0,0,0,0,0,0,0,0,0,0,0,
0,0,0,558,0,0,0,0,0,0,0,0,0,0,0,0,
0,0,0,558,0,0,0,0,0,0,0,0,0,0,0,0,
0,0,0,558,0,0,0,0,0,0,0,0,0,0,0,0,
0,0,0,558,0,0,0,0,0,0,0,0,0,0,0,0,
0,0,0,558,0,0,0,0,0,0,0,0,0,0,0,0
</chunk>
   <chunk x="48" y="-448" width="16" height="16">
0,0,0,0,0,0,0,0,0,0,558,0,0,0,0,0,
0,0,0,0,0,0,0,0,0,0,558,0,0,0,0,0,
0,0,0,0,0,0,0,0,0,0,558,0,0,0,0,0,
0,0,0,0,0,0,0,0,0,0,558,0,0,0,0,0,
0,0,0,0,0,0,0,0,0,0,558,0,0,0,0,0,
0,0,0,0,0,0,0,0,0,0,558,0,0,0,0,0,
0,0,0,0,0,0,0,0,0,0,558,0,0,0,0,0,
0,0,0,0,0,0,0,0,0,0,558,0,0,0,0,0,
0,0,0,0,0,0,0,0,0,0,558,0,0,0,0,0,
0,0,0,0,0,0,0,0,0,0,558,0,0,0,0,0,
0,0,0,0,0,0,0,0,0,0,558,0,0,0,0,0,
0,0,0,0,0,0,0,0,0,0,558,0,0,0,0,0,
0,0,0,0,0,0,0,0,0,0,558,0,0,0,0,0,
0,0,0,0,0,0,0,0,0,0,558,0,0,0,0,0,
0,0,0,0,0,0,0,0,0,0,558,0,0,0,0,0,
0,0,0,0,0,0,0,0,0,0,558,0,0,0,0,0
</chunk>
   <chunk x="32" y="-432" width="16" height="16">
0,0,0,558,0,0,0,0,0,0,0,0,0,0,0,0,
0,0,0,558,0,0,0,0,0,0,0,0,0,0,0,0,
0,0,0,558,0,0,0,0,0,0,0,0,0,0,0,0,
0,0,0,558,0,0,0,0,0,0,0,0,0,0,0,0,
0,0,0,558,0,0,0,0,0,0,0,0,0,0,0,0,
0,0,0,558,0,0,0,0,0,0,0,0,0,0,0,0,
0,0,0,558,0,0,0,0,0,0,0,0,0,0,0,0,
0,0,0,558,0,0,0,0,0,0,0,0,0,0,0,0,
0,0,0,558,0,0,0,0,0,0,0,0,0,0,0,0,
0,0,0,558,0,0,0,0,0,0,0,0,0,0,0,0,
0,0,0,558,0,0,0,0,0,0,0,0,0,0,0,0,
0,0,0,558,0,0,0,0,0,0,0,0,0,0,0,0,
0,0,0,558,0,0,0,0,0,0,0,0,0,0,0,0,
0,0,0,558,0,0,0,0,0,0,0,0,0,0,0,0,
0,0,0,558,0,0,0,0,0,0,0,0,0,0,0,0,
0,0,0,558,0,0,0,0,0,0,0,0,0,0,0,0
</chunk>
   <chunk x="48" y="-432" width="16" height="16">
0,0,0,0,0,0,0,0,0,0,558,0,0,0,0,0,
0,0,0,0,0,0,0,0,0,0,558,0,0,0,0,0,
0,0,0,0,0,0,0,0,0,0,558,0,0,0,0,0,
0,0,0,0,0,0,0,0,0,0,558,0,0,0,0,0,
0,0,0,0,0,0,0,0,0,0,558,0,0,0,0,0,
0,0,0,0,0,0,0,0,0,0,558,0,0,0,0,0,
0,0,0,0,0,0,0,0,0,0,558,0,0,0,0,0,
0,0,0,0,0,0,0,0,0,0,558,0,0,0,0,0,
0,0,0,0,0,0,0,0,0,0,558,0,0,0,0,0,
0,0,0,0,0,0,0,0,0,0,558,0,0,0,0,0,
0,0,0,0,0,0,0,0,0,0,558,0,0,0,0,0,
0,0,0,0,0,0,0,0,0,0,558,0,0,0,0,0,
0,0,0,0,0,0,0,0,0,0,558,0,0,0,0,0,
0,0,0,0,0,0,0,0,0,0,558,0,0,0,0,0,
0,0,0,0,0,0,0,0,0,0,558,0,0,0,0,0,
0,0,0,0,0,0,0,0,0,0,558,0,0,0,0,0
</chunk>
   <chunk x="32" y="-416" width="16" height="16">
0,0,0,558,0,0,0,0,0,0,0,0,0,0,0,0,
0,0,0,558,0,0,0,0,0,0,0,0,0,0,0,0,
0,0,0,558,0,0,0,0,0,0,0,0,0,0,0,0,
0,0,0,558,0,0,0,0,0,0,0,0,0,0,0,0,
0,0,0,558,0,0,0,0,0,0,0,0,0,0,0,0,
0,0,0,558,0,0,0,0,0,0,0,0,0,0,0,0,
0,0,0,558,0,0,0,0,0,0,0,0,0,0,0,0,
0,0,0,558,0,0,0,0,0,0,0,0,0,0,0,0,
0,0,0,558,0,0,0,0,0,0,0,0,0,0,0,0,
0,0,0,558,0,0,0,0,0,0,0,0,0,0,0,0,
0,0,0,558,0,0,0,0,0,0,0,0,0,0,0,0,
0,0,0,558,0,0,0,0,0,0,0,0,0,0,0,0,
0,0,0,558,0,0,0,0,0,0,0,0,0,0,0,0,
0,0,0,558,0,0,0,0,0,0,0,0,0,0,0,0,
0,0,0,558,0,0,0,0,0,0,0,0,0,0,0,0,
0,0,0,558,0,0,0,0,0,0,0,0,0,0,0,0
</chunk>
   <chunk x="48" y="-416" width="16" height="16">
0,0,0,0,0,0,0,0,0,0,558,0,0,0,0,0,
0,0,0,0,0,0,0,0,0,0,558,0,0,0,0,0,
0,0,0,0,0,0,0,0,0,0,558,0,0,0,0,0,
0,0,0,0,0,0,0,0,0,0,558,0,0,0,0,0,
0,0,0,0,0,0,0,0,0,0,558,0,0,0,0,0,
0,0,0,0,0,0,0,0,0,0,558,0,0,0,0,0,
0,0,0,0,0,0,0,0,0,0,558,0,0,0,0,0,
0,0,0,0,0,0,0,0,0,0,558,0,0,0,0,0,
0,0,0,0,0,0,0,0,0,0,558,0,0,0,0,0,
0,0,0,0,0,0,0,0,0,0,558,0,0,0,0,0,
0,0,0,0,0,0,0,0,0,0,558,0,0,0,0,0,
0,0,0,0,0,0,0,0,0,0,558,0,0,0,0,0,
0,0,0,0,0,0,0,0,0,0,558,0,0,0,0,0,
0,0,0,0,0,0,0,0,0,0,558,0,0,0,0,0,
0,0,0,0,0,0,0,0,0,0,558,0,0,0,0,0,
0,0,0,0,0,0,0,0,0,0,558,0,0,0,0,0
</chunk>
   <chunk x="32" y="-400" width="16" height="16">
0,0,0,558,0,0,0,0,0,0,0,0,0,0,0,0,
0,0,0,558,0,0,0,0,0,0,0,0,0,0,0,0,
0,0,0,558,0,0,0,0,0,0,0,0,0,0,0,0,
0,0,0,558,0,0,0,0,0,0,0,0,0,0,0,0,
0,0,0,558,0,0,0,0,0,0,0,0,0,0,0,0,
0,0,0,558,0,0,0,0,0,0,0,0,0,0,0,0,
0,0,0,558,0,0,0,0,0,0,0,0,0,0,0,0,
0,0,0,558,0,0,0,0,0,0,0,0,0,0,0,0,
0,0,0,558,0,0,0,0,0,0,0,0,0,0,0,0,
0,0,0,558,0,0,0,0,0,0,0,0,0,0,0,0,
0,0,0,558,0,0,0,0,0,0,0,0,0,0,0,0,
0,0,0,558,0,0,0,0,0,0,0,0,0,0,0,0,
0,0,0,558,0,0,0,0,0,0,0,0,0,0,0,0,
0,0,0,558,0,0,0,0,0,0,0,0,0,0,0,0,
0,0,0,558,0,0,0,0,0,0,0,0,0,0,0,0,
0,0,0,558,0,0,0,0,0,0,0,0,0,0,0,0
</chunk>
   <chunk x="48" y="-400" width="16" height="16">
0,0,0,0,0,0,0,0,0,0,558,0,0,0,0,0,
0,0,0,0,0,0,0,0,0,0,558,0,0,0,0,0,
0,0,0,0,0,0,0,0,0,0,558,0,0,0,0,0,
0,0,0,0,0,0,0,0,0,0,558,0,0,0,0,0,
0,0,0,0,0,0,0,0,0,0,558,0,0,0,0,0,
0,0,0,0,0,0,0,0,0,0,558,0,0,0,0,0,
0,0,0,0,0,0,0,0,0,0,558,0,0,0,0,0,
0,0,0,0,0,0,0,0,0,0,558,0,0,0,0,0,
0,0,0,0,0,0,0,0,0,0,558,0,0,0,0,0,
0,0,0,0,0,0,0,0,0,0,558,0,0,0,0,0,
0,0,0,0,0,0,0,0,0,0,558,0,0,0,0,0,
0,0,0,0,0,0,0,0,0,0,558,0,0,0,0,0,
0,0,0,0,0,0,0,0,0,0,558,0,0,0,0,0,
0,0,0,0,0,0,0,0,0,0,558,0,0,0,0,0,
0,0,0,0,0,0,0,0,0,0,558,0,0,0,0,0,
0,0,0,0,0,0,0,0,0,0,558,0,0,0,0,0
</chunk>
   <chunk x="32" y="-384" width="16" height="16">
0,0,0,558,0,0,0,0,0,0,0,0,0,0,0,0,
0,0,0,558,0,0,0,0,0,0,0,0,0,0,0,0,
0,0,0,558,0,0,0,0,0,0,0,0,0,0,0,0,
0,0,0,558,0,0,0,0,0,0,0,0,0,0,0,0,
0,0,0,558,0,0,0,0,0,0,0,0,0,0,0,0,
0,0,0,558,0,0,0,0,0,0,0,0,0,0,0,0,
0,0,0,558,0,0,0,0,0,0,0,0,0,0,0,0,
0,0,0,558,0,0,0,0,0,0,0,0,0,0,0,0,
0,0,0,558,0,0,0,0,0,0,0,0,0,0,0,0,
0,0,0,558,0,0,0,0,0,0,0,0,0,0,0,0,
0,0,0,558,0,0,0,0,0,0,0,0,0,0,0,0,
0,0,0,558,0,0,0,0,0,0,0,0,0,0,0,0,
0,0,0,558,0,0,0,0,0,0,0,0,0,0,0,0,
0,0,0,558,0,0,0,0,0,0,0,0,0,0,0,0,
0,0,0,558,0,0,0,0,0,0,0,0,0,0,0,0,
0,0,0,558,0,0,0,0,0,0,0,0,0,0,0,0
</chunk>
   <chunk x="48" y="-384" width="16" height="16">
0,0,0,0,0,0,0,0,0,0,558,0,0,0,0,0,
0,0,0,0,0,0,0,0,0,0,558,0,0,0,0,0,
0,0,0,0,0,0,0,0,0,0,558,0,0,0,0,0,
0,0,0,0,0,0,0,0,0,0,558,0,0,0,0,0,
0,0,0,0,0,0,0,0,0,0,558,0,0,0,0,0,
0,0,0,0,0,0,0,0,0,0,558,0,0,0,0,0,
0,0,0,0,0,0,0,0,0,0,558,0,0,0,0,0,
0,0,0,0,0,0,0,0,0,0,558,0,0,0,0,0,
0,0,0,0,0,0,0,0,0,0,558,0,0,0,0,0,
0,0,0,0,0,0,0,0,0,0,558,0,0,0,0,0,
0,0,0,0,0,0,0,0,0,0,558,0,0,0,0,0,
0,0,0,0,0,0,0,0,0,0,558,0,0,0,0,0,
0,0,0,0,0,0,0,0,0,0,558,0,0,0,0,0,
0,0,0,0,0,0,0,0,0,0,558,0,0,0,0,0,
0,0,0,0,0,0,0,0,0,0,558,0,0,0,0,0,
0,0,0,0,0,0,0,0,0,0,558,0,0,0,0,0
</chunk>
   <chunk x="32" y="-368" width="16" height="16">
0,0,0,558,0,0,0,0,0,0,0,0,0,0,0,0,
0,0,0,558,0,0,0,0,0,0,0,0,0,0,0,0,
0,0,0,558,0,0,0,0,0,0,0,0,0,0,0,0,
0,0,0,558,0,0,0,0,0,0,0,0,0,0,0,0,
0,0,0,558,0,0,0,0,0,0,0,0,0,0,0,0,
0,0,0,558,0,0,0,0,0,0,0,0,0,0,0,0,
0,0,0,558,0,0,0,0,0,0,0,0,0,0,0,0,
0,0,0,558,0,0,0,0,0,0,0,0,0,0,0,0,
0,0,0,558,0,0,0,0,0,0,0,0,0,0,0,0,
0,0,0,558,0,0,0,0,0,0,0,0,0,0,0,0,
0,0,0,558,0,0,0,0,0,0,0,0,0,0,0,0,
0,0,0,558,0,0,0,0,0,0,0,0,0,0,0,0,
0,0,0,558,0,0,0,0,0,0,0,0,0,0,0,0,
0,0,0,558,0,0,0,0,0,0,0,0,0,0,0,0,
0,0,0,558,0,0,0,0,0,0,0,0,0,0,0,0,
0,0,0,558,0,0,0,0,0,0,0,0,0,0,0,0
</chunk>
   <chunk x="48" y="-368" width="16" height="16">
0,0,0,0,0,0,0,0,0,0,558,0,0,0,0,0,
0,0,0,0,0,0,0,0,0,0,558,0,0,0,0,0,
0,0,0,0,0,0,0,0,0,0,558,0,0,0,0,0,
0,0,0,0,0,0,0,0,0,0,558,0,0,0,0,0,
0,0,0,0,0,0,0,0,0,0,558,0,0,0,0,0,
0,0,0,0,0,0,0,0,0,0,558,0,0,0,0,0,
0,0,0,0,0,0,0,0,0,0,558,0,0,0,0,0,
0,0,0,0,0,0,0,0,0,0,558,0,0,0,0,0,
0,0,0,0,0,0,0,0,0,0,558,0,0,0,0,0,
0,0,0,0,0,0,0,0,0,0,558,0,0,0,0,0,
0,0,0,0,0,0,0,0,0,0,558,0,0,0,0,0,
0,0,0,0,0,0,0,0,0,0,558,0,0,0,0,0,
0,0,0,0,0,0,0,0,0,0,558,0,0,0,0,0,
0,0,0,0,0,0,0,0,0,0,558,0,0,0,0,0,
0,0,0,0,0,0,0,0,0,0,558,0,0,0,0,0,
0,0,0,0,0,0,0,0,0,0,558,0,0,0,0,0
</chunk>
   <chunk x="32" y="-352" width="16" height="16">
0,0,0,558,0,0,0,0,0,0,0,0,0,0,0,0,
0,0,0,558,0,0,0,0,0,0,0,0,0,0,0,0,
0,0,0,558,0,0,0,0,0,0,0,0,0,0,0,0,
0,0,0,558,0,0,0,0,0,0,0,0,0,0,0,0,
0,0,0,558,0,0,0,0,0,0,0,0,0,0,0,0,
0,0,0,558,0,0,0,0,0,0,0,0,0,0,0,0,
0,0,0,558,0,0,0,0,0,0,0,0,0,0,0,0,
0,0,0,558,0,0,0,0,0,0,0,0,0,0,0,0,
0,0,0,558,0,0,0,0,0,0,0,0,0,0,0,0,
0,0,0,558,0,0,0,0,0,0,0,0,0,0,0,0,
0,0,0,558,0,0,0,0,0,0,0,0,0,0,0,0,
0,0,0,558,0,0,0,0,0,0,0,0,0,0,0,0,
0,0,0,558,0,0,0,0,0,0,0,0,0,0,0,0,
0,0,0,558,0,0,0,0,0,0,0,0,0,0,0,0,
0,0,0,558,0,0,0,0,0,0,0,0,0,0,0,0,
0,0,0,558,0,0,0,0,0,0,0,0,0,0,0,0
</chunk>
   <chunk x="48" y="-352" width="16" height="16">
0,0,0,0,0,0,0,0,0,0,558,0,0,0,0,0,
0,0,0,0,0,0,0,0,0,0,558,0,0,0,0,0,
0,0,0,0,0,0,0,0,0,0,558,0,0,0,0,0,
0,0,0,0,0,0,0,0,0,0,558,0,0,0,0,0,
0,0,0,0,0,0,0,0,0,0,558,0,0,0,0,0,
0,0,0,0,0,0,0,0,0,0,558,0,0,0,0,0,
0,0,0,0,0,0,0,0,0,0,558,0,0,0,0,0,
0,0,0,0,0,0,0,0,0,0,558,0,0,0,0,0,
0,0,0,0,0,0,0,0,0,0,558,0,0,0,0,0,
0,0,0,0,0,0,0,0,0,0,558,0,0,0,0,0,
0,0,0,0,0,0,0,0,0,0,558,0,0,0,0,0,
0,0,0,0,0,0,0,0,0,0,558,0,0,0,0,0,
0,0,0,0,0,0,0,0,0,0,558,0,0,0,0,0,
0,0,0,0,0,0,0,0,0,0,558,0,0,0,0,0,
0,0,0,0,0,0,0,0,0,0,558,0,0,0,0,0,
0,0,0,0,0,0,0,0,0,0,558,0,0,0,0,0
</chunk>
   <chunk x="32" y="-336" width="16" height="16">
0,0,0,558,0,0,0,0,0,0,0,0,0,0,0,0,
0,0,0,558,0,0,0,0,0,0,0,0,0,0,0,0,
0,0,0,558,0,0,0,0,0,0,0,0,0,0,0,0,
0,0,0,558,0,0,0,0,0,0,0,0,0,0,0,0,
0,0,0,558,0,0,0,0,0,0,0,0,0,0,0,0,
0,0,0,558,0,0,0,0,0,0,0,0,0,0,0,0,
0,0,0,558,0,0,0,0,0,0,0,0,0,0,0,0,
0,0,0,558,0,0,0,0,0,0,0,0,0,0,0,0,
0,0,0,558,0,0,0,0,0,0,0,0,0,0,0,0,
0,0,0,558,0,0,0,0,0,0,0,0,0,0,0,0,
0,0,0,558,0,0,0,0,0,0,0,0,0,0,0,0,
0,0,0,558,0,0,0,0,0,0,0,0,0,0,0,0,
0,0,0,558,0,0,0,0,0,0,0,0,0,0,0,0,
0,0,0,558,0,0,0,0,0,0,0,0,0,0,0,0,
0,0,0,558,0,0,0,0,0,0,0,0,0,0,0,0,
0,0,0,558,0,0,0,0,0,0,0,0,0,0,0,0
</chunk>
   <chunk x="48" y="-336" width="16" height="16">
0,0,0,0,0,0,0,0,0,0,558,0,0,0,0,0,
0,0,0,0,0,0,0,0,0,0,558,0,0,0,0,0,
0,0,0,0,0,0,0,0,0,0,558,0,0,0,0,0,
0,0,0,0,0,0,0,0,0,0,558,0,0,0,0,0,
0,0,0,0,0,0,0,0,0,0,558,0,0,0,0,0,
0,0,0,0,0,0,0,0,0,0,558,0,0,0,0,0,
0,0,0,0,0,0,0,0,0,0,558,0,0,0,0,0,
0,0,0,0,0,0,0,0,0,0,558,0,0,0,0,0,
0,0,0,0,0,0,0,0,0,0,558,0,0,0,0,0,
0,0,0,0,0,0,0,0,0,0,558,0,0,0,0,0,
0,0,0,0,0,0,0,0,0,0,558,0,0,0,0,0,
0,0,0,0,0,0,0,0,0,0,558,0,0,0,0,0,
0,0,0,0,0,0,0,0,0,0,558,0,0,0,0,0,
0,0,0,0,0,0,0,0,0,0,558,0,0,0,0,0,
0,0,0,0,0,0,0,0,0,0,558,0,0,0,0,0,
0,0,0,0,0,0,0,0,0,0,558,0,0,0,0,0
</chunk>
   <chunk x="32" y="-320" width="16" height="16">
0,0,0,558,0,0,0,0,0,0,0,0,0,0,0,0,
0,0,0,558,0,0,0,0,0,0,0,0,0,0,0,0,
0,0,0,558,0,0,0,0,0,0,0,0,0,0,0,0,
0,0,0,558,0,0,0,0,0,0,0,0,0,0,0,0,
0,0,0,558,0,0,0,0,0,0,0,0,0,0,0,0,
0,0,0,558,0,0,0,0,0,0,0,0,0,0,0,0,
0,0,0,558,0,0,0,0,0,0,0,0,0,0,0,0,
0,0,0,558,0,0,0,0,0,0,0,0,0,0,0,0,
0,0,0,558,0,0,0,0,0,0,0,0,0,0,0,0,
0,0,0,558,0,0,0,0,0,0,0,0,0,0,0,0,
0,0,0,558,0,0,0,0,0,0,0,0,0,0,0,0,
0,0,0,558,0,0,0,0,0,0,0,0,0,0,0,0,
0,0,0,558,0,0,0,0,0,0,0,0,0,0,0,0,
0,0,0,558,0,0,0,0,0,0,0,0,0,0,0,0,
0,0,0,558,0,0,0,0,0,0,0,0,0,0,0,0,
0,0,0,558,0,0,0,0,0,0,0,0,0,0,0,0
</chunk>
   <chunk x="48" y="-320" width="16" height="16">
0,0,0,0,0,0,0,0,0,0,558,0,0,0,0,0,
0,0,0,0,0,0,0,0,0,0,558,0,0,0,0,0,
0,0,0,0,0,0,0,0,0,0,558,0,0,0,0,0,
0,0,0,0,0,0,0,0,0,0,558,0,0,0,0,0,
0,0,0,0,0,0,0,0,0,0,558,0,0,0,0,0,
0,0,0,0,0,0,0,0,0,0,558,0,0,0,0,0,
0,0,0,0,0,0,0,0,0,0,558,0,0,0,0,0,
0,0,0,0,0,0,0,0,0,0,558,0,0,0,0,0,
0,0,0,0,0,0,0,0,0,0,558,0,0,0,0,0,
0,0,0,0,0,0,0,0,0,0,558,0,0,0,0,0,
0,0,0,0,0,0,0,0,0,0,558,0,0,0,0,0,
0,0,0,0,0,0,0,0,0,0,558,0,0,0,0,0,
0,0,0,0,0,0,0,0,0,0,558,0,0,0,0,0,
0,0,0,0,0,0,0,0,0,0,558,0,0,0,0,0,
0,0,0,0,0,0,0,0,0,0,558,0,0,0,0,0,
0,0,0,0,0,0,0,0,0,0,558,0,0,0,0,0
</chunk>
   <chunk x="32" y="-304" width="16" height="16">
0,0,0,558,0,0,0,0,0,0,0,0,0,0,0,0,
0,0,0,558,0,0,0,0,0,0,0,0,0,0,0,0,
0,0,0,558,0,0,0,0,0,0,0,0,0,0,0,0,
0,0,0,558,0,0,0,0,0,0,0,0,0,0,0,0,
0,0,0,558,0,0,0,0,0,0,0,0,0,0,0,0,
0,0,0,558,0,0,0,0,0,0,0,0,0,0,0,0,
0,0,0,558,0,0,0,0,0,0,0,0,0,0,0,0,
0,0,0,558,0,0,0,0,0,0,0,0,0,0,0,0,
0,0,0,558,0,0,0,0,0,0,0,0,0,0,0,0,
0,0,0,558,0,0,0,0,0,0,0,0,0,0,0,0,
0,0,0,558,0,0,0,0,0,0,0,0,0,0,0,0,
0,0,0,558,0,0,0,0,0,0,0,0,0,0,0,0,
0,0,0,558,0,0,0,0,0,0,0,0,0,0,0,0,
0,0,0,558,0,0,0,0,0,0,0,0,0,0,0,0,
0,0,0,558,0,0,0,0,0,0,0,0,0,0,0,0,
0,0,0,558,0,0,0,0,0,0,0,0,0,0,0,0
</chunk>
   <chunk x="48" y="-304" width="16" height="16">
0,0,0,0,0,0,0,0,0,0,558,0,0,0,0,0,
0,0,0,0,0,0,0,0,0,0,558,0,0,0,0,0,
0,0,0,0,0,0,0,0,0,0,558,0,0,0,0,0,
0,0,0,0,0,0,0,0,0,0,558,0,0,0,0,0,
0,0,0,0,0,0,0,0,0,0,558,0,0,0,0,0,
0,0,0,0,0,0,0,0,0,0,558,0,0,0,0,0,
0,0,0,0,0,0,0,0,0,0,558,0,0,0,0,0,
0,0,0,0,0,0,0,0,0,0,558,0,0,0,0,0,
0,0,0,0,0,0,0,0,0,0,558,0,0,0,0,0,
0,0,0,0,0,0,0,0,0,0,558,0,0,0,0,0,
0,0,0,0,0,0,0,0,0,0,558,0,0,0,0,0,
0,0,0,0,0,0,0,0,0,0,558,0,0,0,0,0,
0,0,0,0,0,0,0,0,0,0,558,0,0,0,0,0,
0,0,0,0,0,0,0,0,0,0,558,0,0,0,0,0,
0,0,0,0,0,0,0,0,0,0,558,0,0,0,0,0,
0,0,0,0,0,0,0,0,0,0,558,0,0,0,0,0
</chunk>
   <chunk x="32" y="-288" width="16" height="16">
0,0,0,558,0,0,0,0,0,0,0,0,0,0,0,0,
0,0,0,558,0,0,0,0,0,0,0,0,0,0,0,0,
0,0,0,558,0,0,0,0,0,0,0,0,0,0,0,0,
0,0,0,558,0,0,0,0,0,0,0,0,0,0,0,0,
0,0,0,558,0,0,0,0,0,0,0,0,0,0,0,0,
0,0,0,558,0,0,0,0,0,0,0,0,0,0,0,0,
0,0,0,558,0,0,0,0,0,0,0,0,0,0,0,0,
0,0,0,558,0,0,0,0,0,0,0,0,0,0,0,0,
0,0,0,558,0,0,0,0,0,0,0,0,0,0,0,0,
0,0,0,558,0,0,0,0,0,0,0,0,0,0,0,0,
0,0,0,558,0,0,0,0,0,0,0,0,0,0,0,0,
0,0,0,558,0,0,0,0,0,0,0,0,0,0,0,0,
0,0,0,558,0,0,0,0,0,0,0,0,0,0,0,0,
0,0,0,558,0,0,0,0,0,0,0,0,558,0,0,0,
0,0,0,558,0,0,0,0,0,0,0,0,558,0,0,0,
0,0,0,558,0,0,0,0,0,0,0,558,558,0,0,0
</chunk>
   <chunk x="48" y="-288" width="16" height="16">
0,0,0,0,0,0,0,0,0,0,558,0,0,0,0,0,
0,0,0,0,0,0,0,0,0,0,558,0,0,0,0,0,
0,0,0,0,0,0,0,0,0,0,558,0,0,0,0,0,
0,0,0,0,0,0,0,0,0,0,558,0,0,0,0,0,
0,0,0,0,0,0,0,0,0,0,558,0,0,0,0,0,
0,0,0,0,0,0,0,0,0,0,558,0,0,0,0,0,
0,0,0,0,0,0,0,0,0,0,558,0,0,0,0,0,
0,0,0,0,0,0,0,0,0,0,558,0,0,0,0,0,
0,0,0,0,0,0,0,0,0,0,558,0,0,0,0,0,
0,0,0,0,0,0,0,0,0,0,558,0,0,0,0,0,
0,0,0,0,0,0,0,0,0,0,558,0,0,0,0,0,
0,0,0,0,0,0,0,0,0,0,558,0,0,0,0,0,
0,0,0,0,0,0,0,0,0,0,558,0,0,0,0,0,
0,0,0,0,0,0,0,0,0,0,558,0,0,0,0,0,
0,0,0,0,0,0,0,0,0,0,558,0,0,0,0,0,
0,0,0,0,0,0,0,0,0,0,558,0,0,0,0,0
</chunk>
   <chunk x="32" y="-272" width="16" height="16">
0,0,0,558,0,0,0,0,0,0,0,558,558,0,0,0,
0,0,0,558,0,0,0,0,0,0,0,558,558,0,0,0,
0,0,0,558,0,0,0,0,0,0,0,558,558,0,0,0,
0,0,0,558,0,0,0,0,0,0,0,558,0,0,0,0,
0,0,0,558,0,0,0,0,0,0,0,0,0,0,0,0,
0,0,0,558,0,0,0,0,0,0,0,0,0,0,0,0,
0,0,0,558,0,0,0,0,0,0,0,0,0,0,0,0,
0,0,0,558,0,0,0,0,0,0,0,0,0,0,0,0,
0,0,0,558,0,0,0,0,0,0,0,0,0,0,0,0,
0,0,0,558,0,0,0,0,0,0,0,0,0,0,0,0,
0,0,0,558,0,0,0,0,0,0,0,0,0,0,0,0,
0,0,0,558,0,0,0,0,0,0,0,0,0,0,0,0,
0,0,0,558,0,0,0,0,0,0,0,0,0,0,0,0,
0,0,0,558,0,0,0,0,0,0,0,0,0,0,0,0,
0,0,0,558,0,0,0,0,0,0,0,0,0,0,0,0,
0,0,0,558,0,0,0,0,0,0,0,0,0,0,0,0
</chunk>
   <chunk x="48" y="-272" width="16" height="16">
0,0,0,0,0,0,0,0,0,0,558,0,0,0,0,0,
0,0,0,0,0,0,0,0,0,0,558,0,0,0,0,0,
0,0,0,0,0,0,0,0,0,0,558,0,0,0,0,0,
0,0,0,0,0,0,0,0,0,0,558,0,0,0,0,0,
0,0,0,0,0,0,0,0,0,0,558,0,0,0,0,0,
0,0,0,0,0,0,0,0,0,0,558,0,0,0,0,0,
0,0,0,0,0,0,0,0,0,0,558,0,0,0,0,0,
0,0,0,0,0,0,0,0,0,0,558,0,0,0,0,0,
0,0,0,0,0,0,0,0,0,0,558,0,0,0,0,0,
0,0,0,0,0,0,0,0,0,0,558,0,0,0,0,0,
0,0,0,0,0,0,0,0,0,0,558,0,0,0,0,0,
0,0,0,0,0,0,0,0,0,0,558,0,0,0,0,0,
0,0,0,0,0,0,0,0,0,0,558,0,0,0,0,0,
0,0,0,0,0,0,0,0,0,0,558,0,0,0,0,0,
0,0,0,0,0,0,0,0,0,0,558,0,0,0,0,0,
0,0,0,0,0,0,0,0,0,0,558,0,0,0,0,0
</chunk>
   <chunk x="32" y="-256" width="16" height="16">
0,0,0,558,0,0,0,0,0,0,0,0,0,0,0,0,
0,0,0,558,0,0,0,0,0,0,0,0,0,0,0,0,
0,0,0,558,0,0,0,0,0,0,0,0,0,0,0,0,
0,0,0,558,0,0,0,0,0,0,0,0,0,0,0,0,
0,0,0,558,0,0,0,0,0,0,0,0,0,0,0,0,
0,0,0,558,0,0,0,0,0,0,0,0,0,0,0,0,
0,0,0,558,0,0,0,0,0,0,0,0,0,0,0,0,
0,0,0,558,0,0,0,0,0,0,0,0,0,0,0,0,
0,0,0,558,0,0,0,0,0,0,0,0,0,0,0,0,
0,0,0,558,0,0,0,0,0,0,0,0,0,0,0,0,
0,0,0,558,0,0,0,0,0,0,0,0,0,0,0,0,
0,0,0,558,0,0,0,0,0,0,0,0,0,0,0,0,
0,0,0,558,0,0,0,0,0,0,0,0,0,0,0,0,
0,0,0,558,0,0,0,0,0,0,0,0,0,0,0,0,
0,0,0,558,0,0,0,0,0,0,0,0,0,0,0,0,
0,0,0,558,0,0,0,0,0,0,0,0,0,0,0,0
</chunk>
   <chunk x="48" y="-256" width="16" height="16">
0,0,0,0,0,0,0,0,0,0,558,0,0,0,0,0,
0,0,0,0,0,0,0,0,0,0,558,0,0,0,0,0,
0,0,0,0,0,0,0,0,0,0,558,0,0,0,0,0,
0,0,0,0,0,0,0,0,0,0,558,0,0,0,0,0,
0,0,0,0,0,0,0,0,0,0,558,0,0,0,0,0,
0,0,0,0,0,0,0,0,0,0,558,0,0,0,0,0,
0,0,0,0,0,0,0,0,0,0,558,0,0,0,0,0,
0,0,0,0,0,0,0,0,0,0,558,0,0,0,0,0,
0,0,0,0,0,0,0,0,0,0,558,0,0,0,0,0,
0,0,0,0,0,0,0,0,0,0,558,0,0,0,0,0,
0,0,0,0,0,0,0,0,0,0,558,0,0,0,0,0,
0,0,0,0,0,0,0,0,0,0,558,0,0,0,0,0,
0,0,0,0,0,0,0,0,0,0,558,0,0,0,0,0,
0,0,0,0,0,0,0,0,0,0,558,0,0,0,0,0,
0,0,0,0,0,0,0,0,0,0,558,0,0,0,0,0,
0,0,0,0,0,0,0,0,0,0,558,0,0,0,0,0
</chunk>
   <chunk x="32" y="-240" width="16" height="16">
0,0,0,558,0,0,0,0,0,0,0,0,0,0,0,0,
0,0,0,558,0,0,0,0,0,0,0,0,0,0,0,0,
0,0,0,558,0,0,0,0,0,0,0,0,0,0,0,0,
0,0,0,558,0,0,0,0,0,0,0,0,0,0,0,0,
0,0,0,558,0,0,0,0,0,0,0,0,0,0,0,0,
0,0,0,558,0,0,0,0,0,0,0,0,0,0,0,0,
0,0,0,558,0,0,0,0,0,0,0,0,0,0,0,0,
0,0,0,558,0,0,0,0,0,0,0,0,0,0,0,0,
0,0,0,558,0,0,0,0,0,0,0,0,0,0,0,0,
0,0,0,558,0,0,0,0,0,0,0,0,0,0,0,0,
0,0,0,558,0,0,0,0,0,0,0,0,0,0,0,0,
0,0,0,558,0,0,0,0,0,0,0,0,0,0,0,0,
0,0,0,558,0,0,0,0,0,0,0,0,0,0,0,0,
0,0,0,558,0,0,0,0,0,0,0,0,0,0,0,0,
0,0,0,558,0,0,0,0,0,0,0,0,0,0,0,0,
0,0,0,558,0,0,0,0,0,0,0,0,0,0,0,0
</chunk>
   <chunk x="48" y="-240" width="16" height="16">
0,0,0,0,0,0,0,0,0,0,558,0,0,0,0,0,
0,0,0,0,0,0,0,0,0,0,558,0,0,0,0,0,
0,0,0,0,0,0,0,0,0,0,558,0,0,0,0,0,
0,0,0,0,0,0,0,0,0,0,558,0,0,0,0,0,
0,0,0,0,0,0,0,0,0,0,558,0,0,0,0,0,
0,0,0,0,0,0,0,0,0,0,558,0,0,0,0,0,
0,0,0,0,0,0,0,0,0,0,558,0,0,0,0,0,
0,0,0,0,0,0,0,0,0,0,558,0,0,0,0,0,
0,0,0,0,0,0,0,0,0,0,558,0,0,0,0,0,
0,0,0,0,0,0,0,0,0,0,558,0,0,0,0,0,
0,0,0,0,0,0,0,0,0,0,558,0,0,0,0,0,
0,0,0,0,0,0,0,0,0,0,558,0,0,0,0,0,
0,0,0,0,0,0,0,0,0,0,558,0,0,0,0,0,
0,0,0,0,0,0,0,0,0,0,558,0,0,0,0,0,
0,0,0,0,0,0,0,0,0,0,558,0,0,0,0,0,
0,0,0,0,0,0,0,0,0,0,558,0,0,0,0,0
</chunk>
   <chunk x="32" y="-224" width="16" height="16">
0,0,0,558,0,0,0,0,0,0,0,0,0,0,0,0,
0,0,0,558,0,0,0,0,0,0,0,0,0,0,0,0,
0,0,0,558,0,0,0,0,0,0,0,0,0,0,0,0,
0,0,0,558,0,0,0,0,0,0,0,0,0,0,0,0,
0,0,0,558,0,0,0,0,0,0,0,0,0,0,0,0,
0,0,0,558,0,0,0,0,0,0,0,0,0,0,0,0,
0,0,0,558,0,0,0,0,0,0,0,0,0,0,0,0,
0,0,0,558,0,0,0,0,0,0,0,0,0,0,0,0,
0,0,0,558,0,0,0,0,0,0,0,0,0,0,0,0,
0,0,0,558,0,0,0,0,0,0,0,0,0,0,0,0,
0,0,0,558,0,0,0,0,0,0,0,0,0,0,0,0,
0,0,0,558,0,0,0,0,0,0,0,0,0,0,0,0,
0,0,0,558,0,0,0,0,0,0,0,0,0,0,0,0,
0,0,0,558,0,0,0,0,0,0,0,0,0,0,0,0,
0,0,0,558,0,0,0,0,0,0,0,0,0,0,0,0,
0,0,0,558,0,0,0,0,0,0,0,0,0,0,0,0
</chunk>
   <chunk x="48" y="-224" width="16" height="16">
0,0,0,0,0,0,0,0,0,0,558,0,0,0,0,0,
0,0,0,0,0,0,0,0,0,0,558,0,0,0,0,0,
0,0,0,0,0,0,0,0,0,0,558,0,0,0,0,0,
0,0,0,0,0,0,0,0,0,0,558,0,0,0,0,0,
0,0,0,0,0,0,0,0,0,0,558,0,0,0,0,0,
0,0,0,0,0,0,0,0,0,0,558,0,0,0,0,0,
0,0,0,0,0,0,0,0,0,0,558,0,0,0,0,0,
0,0,0,0,0,0,0,0,0,0,558,0,0,0,0,0,
0,0,0,0,0,0,0,0,0,0,558,0,0,0,0,0,
0,0,0,0,0,0,0,0,0,0,558,0,0,0,0,0,
0,0,0,0,0,0,0,0,0,0,558,0,0,0,0,0,
0,0,0,0,0,0,0,0,0,0,558,0,0,0,0,0,
0,0,0,0,0,0,0,0,0,0,558,0,0,0,0,0,
0,0,0,0,0,0,0,0,0,0,558,0,0,0,0,0,
0,0,0,0,0,0,0,0,0,0,558,0,0,0,0,0,
0,0,0,0,0,0,0,0,0,0,558,0,0,0,0,0
</chunk>
   <chunk x="32" y="-208" width="16" height="16">
0,0,0,558,0,0,0,0,0,0,0,0,0,0,0,0,
0,0,0,558,0,0,0,0,0,0,0,0,0,0,0,0,
0,0,0,558,0,0,0,0,0,0,0,0,0,0,0,0,
0,0,0,558,0,0,0,0,0,0,0,0,0,0,0,0,
0,0,0,558,0,0,0,0,0,0,0,0,0,0,0,0,
0,0,0,558,0,0,0,0,0,0,0,0,0,0,0,0,
0,0,0,558,0,0,0,0,0,0,0,0,0,0,0,0,
0,0,0,558,0,0,0,0,0,0,0,0,0,0,0,0,
0,0,0,558,0,0,0,0,0,0,0,0,0,0,0,0,
0,0,0,558,0,0,0,0,0,0,0,0,0,0,0,0,
0,0,0,558,0,0,0,0,0,0,0,0,0,0,0,0,
0,0,0,558,0,0,0,0,0,0,0,0,0,0,0,0,
0,0,0,558,0,0,0,0,0,0,0,0,0,0,0,0,
0,0,0,558,0,0,0,0,0,0,0,0,0,0,0,0,
0,0,0,558,0,0,0,0,0,0,0,0,0,0,0,0,
0,0,0,558,0,0,0,0,0,0,0,0,0,0,0,0
</chunk>
   <chunk x="48" y="-208" width="16" height="16">
0,0,0,0,0,0,0,0,0,0,558,0,0,0,0,0,
0,0,0,0,0,0,0,0,0,0,558,0,0,0,0,0,
0,0,0,0,0,0,0,0,0,0,558,0,0,0,0,0,
0,0,0,0,0,0,0,0,0,0,558,0,0,0,0,0,
0,0,0,0,0,0,0,0,0,0,558,0,0,0,0,0,
0,0,0,0,0,0,0,0,0,0,558,0,0,0,0,0,
0,0,0,0,0,0,0,0,0,0,558,0,0,0,0,0,
0,0,0,0,0,0,0,0,0,0,558,0,0,0,0,0,
0,0,0,0,0,0,0,0,0,0,558,0,0,0,0,0,
0,0,0,0,0,0,0,0,0,0,558,0,0,0,0,0,
0,0,0,0,0,0,0,0,0,0,558,0,0,0,0,0,
0,0,0,0,0,0,0,0,0,0,558,0,0,0,0,0,
0,0,0,0,0,0,0,0,0,0,558,0,0,0,0,0,
0,0,0,0,0,0,0,0,0,0,558,0,0,0,0,0,
0,0,0,0,0,0,0,0,0,0,558,0,0,0,0,0,
0,0,0,0,0,0,0,0,0,0,558,0,0,0,0,0
</chunk>
   <chunk x="32" y="-192" width="16" height="16">
0,0,0,558,0,0,0,0,0,0,0,0,0,0,0,0,
0,0,0,558,0,0,0,0,0,0,0,0,0,0,0,0,
0,0,0,558,0,0,0,0,0,0,0,0,0,0,0,0,
0,0,0,558,0,0,0,0,0,0,0,0,0,0,0,0,
0,0,0,558,0,0,0,0,0,0,0,0,0,0,0,0,
0,0,0,558,0,0,0,0,0,0,0,0,0,0,0,0,
0,0,0,558,0,0,0,0,0,0,0,0,0,0,0,0,
0,0,0,558,0,0,0,0,0,0,0,0,0,0,0,0,
0,0,0,558,0,0,0,0,0,0,0,0,0,0,0,0,
0,0,0,558,0,0,0,0,0,0,0,0,0,0,0,0,
0,0,0,558,0,0,0,0,0,0,0,0,0,0,0,0,
0,0,0,558,0,0,0,0,0,0,0,0,0,0,0,0,
0,0,0,558,0,0,0,0,0,0,0,0,0,0,0,0,
0,0,0,558,0,0,0,0,0,0,0,0,0,0,0,0,
0,0,0,558,0,0,0,0,0,0,0,0,0,0,0,0,
0,0,0,558,0,0,0,0,0,0,0,0,0,0,0,0
</chunk>
   <chunk x="48" y="-192" width="16" height="16">
0,0,0,0,0,0,0,0,0,0,558,0,0,0,0,0,
0,0,0,0,0,0,0,0,0,0,558,0,0,0,0,0,
0,0,0,0,0,0,0,0,0,0,558,0,0,0,0,0,
0,0,0,0,0,0,0,0,0,0,558,0,0,0,0,0,
0,0,0,0,0,0,0,0,0,0,558,0,0,0,0,0,
0,0,0,0,0,0,0,0,0,0,558,0,0,0,0,0,
0,0,0,0,0,0,0,0,0,0,558,0,0,0,0,0,
0,0,0,0,0,0,0,0,0,0,558,0,0,0,0,0,
0,0,0,0,0,0,0,0,0,0,558,0,0,0,0,0,
0,0,0,0,0,0,0,0,0,0,558,0,0,0,0,0,
0,0,0,0,0,0,0,0,0,0,558,0,0,0,0,0,
0,0,0,0,0,0,0,0,0,0,558,0,0,0,0,0,
0,0,0,0,0,0,0,0,0,0,558,0,0,0,0,0,
0,0,0,0,0,0,0,0,0,0,558,0,0,0,0,0,
0,0,0,0,0,0,0,0,0,0,558,0,0,0,0,0,
0,0,0,0,0,0,0,0,0,0,558,0,0,0,0,0
</chunk>
   <chunk x="32" y="-176" width="16" height="16">
0,0,0,558,0,0,0,0,0,0,0,0,0,0,0,0,
0,0,0,558,0,0,0,0,0,0,0,0,0,0,0,0,
0,0,0,558,0,0,0,0,0,0,0,0,0,0,0,0,
0,0,0,558,0,0,0,0,0,0,0,0,0,0,0,0,
0,0,0,558,0,0,0,0,0,0,0,0,0,0,0,0,
0,0,0,558,0,0,0,0,0,0,0,0,0,0,0,0,
0,0,0,558,0,0,0,0,0,0,0,0,0,0,0,0,
0,0,0,558,0,0,0,0,0,0,0,0,0,0,0,0,
0,0,0,558,0,0,0,0,0,0,0,0,0,0,0,0,
0,0,0,558,0,0,0,0,0,0,0,0,0,0,0,0,
0,0,0,558,0,0,0,0,0,0,0,0,0,0,0,0,
0,0,0,558,0,0,0,0,0,0,0,0,0,0,0,0,
0,0,0,558,0,0,0,0,0,0,0,0,0,0,0,0,
0,0,0,558,0,0,0,0,0,0,0,0,0,0,0,0,
0,0,0,558,0,0,0,0,0,0,0,0,0,0,0,0,
0,0,0,558,0,0,0,0,0,0,0,0,0,0,0,0
</chunk>
   <chunk x="48" y="-176" width="16" height="16">
0,0,0,0,0,0,0,0,0,0,558,0,0,0,0,0,
0,0,0,0,0,0,0,0,0,0,558,0,0,0,0,0,
0,0,0,0,0,0,0,0,0,0,558,0,0,0,0,0,
0,0,0,0,0,0,0,0,0,0,558,0,0,0,0,0,
0,0,0,0,0,0,0,0,0,0,558,0,0,0,0,0,
0,0,0,0,0,0,0,0,0,0,558,0,0,0,0,0,
0,0,0,0,0,0,0,0,0,0,558,0,0,0,0,0,
0,0,0,0,0,0,0,0,0,0,558,0,0,0,0,0,
0,0,0,0,0,0,0,0,0,0,558,0,0,0,0,0,
0,0,0,0,0,0,0,0,0,0,558,0,0,0,0,0,
0,0,0,0,0,0,0,0,0,0,558,0,0,0,0,0,
0,0,0,0,0,0,0,0,0,0,558,0,0,0,0,0,
0,0,558,0,0,0,0,0,0,0,558,0,0,0,0,0,
0,0,558,0,0,0,0,0,0,0,558,0,0,0,0,0,
0,0,558,558,558,0,0,0,0,0,558,0,0,0,0,0,
0,0,558,0,558,0,0,0,0,0,558,0,0,0,0,0
</chunk>
   <chunk x="32" y="-160" width="16" height="16">
0,0,0,558,0,0,0,0,0,0,0,0,0,0,0,0,
0,0,0,558,0,0,0,0,0,0,0,0,0,0,0,0,
0,0,0,558,0,0,0,0,0,0,0,0,0,0,0,0,
0,0,0,558,0,0,0,0,0,0,0,0,0,0,0,0,
0,0,0,558,0,0,0,0,0,0,0,0,0,0,0,0,
0,0,0,558,0,0,0,0,0,0,0,0,0,0,0,0,
0,0,0,558,0,0,0,0,0,0,0,0,0,0,0,0,
0,0,0,558,0,0,0,0,0,0,0,0,0,0,0,0,
0,0,0,558,0,0,0,0,0,0,0,0,0,0,0,0,
0,0,0,558,0,0,0,0,0,0,0,0,0,0,0,0,
0,0,0,558,0,0,0,0,0,0,0,0,0,0,0,0,
0,0,0,558,0,0,0,0,0,0,0,0,0,0,0,0,
0,0,0,558,0,0,0,0,0,0,0,0,0,0,0,0,
0,0,0,558,0,0,0,0,0,0,0,0,0,0,0,0,
0,0,0,558,0,0,0,0,0,0,0,0,0,0,0,0,
0,0,0,558,0,0,0,0,0,0,0,0,0,0,0,0
</chunk>
   <chunk x="48" y="-160" width="16" height="16">
0,0,558,0,558,0,0,0,0,0,558,0,0,0,0,0,
0,0,558,558,558,0,0,0,0,0,558,0,0,0,0,0,
0,0,0,0,0,0,0,0,0,0,558,0,0,0,0,0,
0,0,0,0,0,0,0,0,0,0,558,0,0,0,0,0,
0,0,0,0,0,0,0,0,0,0,558,0,0,0,0,0,
0,0,0,0,0,0,0,0,0,0,558,0,0,0,0,0,
0,0,0,0,0,0,0,0,0,0,558,0,0,0,0,0,
0,0,0,0,0,0,0,0,0,0,558,0,0,0,0,0,
0,0,0,0,0,0,0,0,0,0,558,0,0,0,0,0,
0,0,0,0,0,0,0,0,0,0,558,0,0,0,0,0,
0,0,0,0,0,0,0,0,0,0,558,0,0,0,0,0,
0,0,0,0,0,0,0,0,0,0,558,0,0,0,0,0,
0,0,0,0,0,0,0,0,0,0,558,0,0,0,0,0,
0,0,0,0,0,0,0,0,0,0,558,0,0,0,0,0,
0,0,0,0,0,0,0,0,0,0,558,0,0,0,0,0,
0,0,0,0,0,0,0,0,0,0,558,0,0,0,0,0
</chunk>
   <chunk x="32" y="-144" width="16" height="16">
0,0,0,558,0,0,0,0,0,0,0,0,0,0,0,0,
0,0,0,558,0,0,0,0,0,0,0,0,0,0,0,0,
0,0,0,558,0,0,0,0,0,0,0,0,0,0,0,0,
0,0,0,558,0,0,0,0,0,0,0,0,0,0,0,0,
0,0,0,558,0,0,0,0,0,0,0,0,0,0,0,0,
0,0,0,558,0,0,0,0,0,0,0,0,0,0,0,0,
0,0,0,558,0,0,0,0,0,0,0,0,0,0,0,0,
0,0,0,558,0,0,0,0,0,0,0,0,0,0,0,0,
0,0,0,558,0,0,0,0,0,0,0,0,0,0,0,0,
0,0,0,558,0,0,0,0,0,0,0,0,0,0,0,0,
0,0,0,558,0,0,0,0,0,0,0,0,0,0,0,0,
0,0,0,558,0,0,0,0,0,0,0,0,0,0,0,0,
0,0,0,558,0,0,0,0,0,0,0,0,0,0,0,0,
0,0,0,558,0,0,0,0,0,0,0,0,0,0,0,0,
0,0,0,558,0,0,0,0,0,0,0,0,0,0,0,0,
0,0,0,558,0,0,0,0,0,0,0,0,0,0,0,0
</chunk>
   <chunk x="48" y="-144" width="16" height="16">
0,0,0,0,0,0,0,0,0,0,558,0,0,0,0,0,
0,0,0,0,0,0,0,0,0,0,558,0,0,0,0,0,
0,0,0,0,0,0,0,0,0,0,558,0,0,0,0,0,
0,0,0,0,0,0,0,0,0,0,558,0,0,0,0,0,
0,0,0,0,0,0,0,0,0,0,558,0,0,0,0,0,
0,0,0,0,0,0,0,0,0,0,558,0,0,0,0,0,
0,0,0,0,0,0,0,0,0,0,558,0,0,0,0,0,
0,0,0,0,0,0,0,0,0,0,558,0,0,0,0,0,
0,0,0,0,0,0,0,0,0,0,558,0,0,0,0,0,
0,0,0,0,0,0,0,0,0,0,558,0,0,0,0,0,
0,0,0,0,0,0,0,0,0,0,558,0,0,0,0,0,
0,0,0,0,0,0,0,0,0,0,558,0,0,0,0,0,
0,0,0,0,0,0,0,0,0,0,558,0,0,0,0,0,
0,0,0,0,0,0,0,0,0,0,558,0,0,0,0,0,
0,0,0,0,0,0,0,0,0,0,558,0,0,0,0,0,
0,0,0,0,0,0,0,0,0,0,558,0,0,0,0,0
</chunk>
   <chunk x="32" y="-128" width="16" height="16">
0,0,0,558,0,0,0,0,0,0,0,0,0,0,0,0,
0,0,0,558,0,0,0,0,0,0,0,0,0,0,0,0,
0,0,0,558,0,0,0,0,0,0,0,0,0,0,0,0,
0,0,0,558,0,0,0,0,0,0,0,0,0,0,0,0,
0,0,0,558,0,0,0,0,0,0,0,0,0,0,0,0,
0,0,0,558,0,0,0,0,0,0,0,0,0,0,0,0,
0,0,0,558,0,0,0,0,0,0,0,0,0,0,0,0,
0,0,0,558,0,0,0,0,0,0,0,0,0,0,0,0,
0,0,0,558,0,0,0,0,0,0,0,0,0,0,0,0,
0,0,0,558,0,0,0,0,0,0,0,0,0,0,0,0,
0,0,0,558,0,0,0,0,0,0,0,0,0,0,0,0,
0,0,0,558,0,0,0,0,0,0,0,0,0,0,0,0,
0,0,0,558,0,0,0,0,0,0,0,0,0,0,0,0,
0,0,0,558,0,0,0,0,0,0,0,0,0,0,0,0,
0,0,0,558,0,0,0,0,0,0,0,0,0,0,0,0,
0,0,0,558,0,0,0,0,0,0,0,0,0,0,0,0
</chunk>
   <chunk x="48" y="-128" width="16" height="16">
0,0,0,0,0,0,0,0,0,0,558,0,0,0,0,0,
0,0,0,0,0,0,0,0,0,0,558,0,0,0,0,0,
0,0,0,0,0,0,0,0,0,0,558,0,0,0,0,0,
0,0,0,0,0,0,0,0,0,0,558,0,0,0,0,0,
0,0,0,0,0,0,0,0,0,0,558,0,0,0,0,0,
0,0,0,0,0,0,0,0,0,0,558,0,0,0,0,0,
0,0,0,0,0,0,0,0,0,0,558,0,0,0,0,0,
0,0,0,0,0,0,0,0,0,0,558,0,0,0,0,0,
0,0,0,0,0,0,0,0,0,0,558,0,0,0,0,0,
0,0,0,0,0,0,0,0,0,0,558,0,0,0,0,0,
0,0,0,0,0,0,0,0,0,0,558,0,0,0,0,0,
0,0,0,0,0,0,0,0,0,0,558,0,0,0,0,0,
0,0,0,0,0,0,0,0,0,0,558,0,0,0,0,0,
0,0,0,0,0,0,0,0,0,0,558,0,0,0,0,0,
0,0,0,0,0,0,0,0,0,0,558,0,0,0,0,0,
0,0,0,0,0,0,0,0,0,0,558,0,0,0,0,0
</chunk>
   <chunk x="32" y="-112" width="16" height="16">
0,0,0,558,0,0,0,0,0,0,0,0,0,0,0,0,
0,0,0,558,0,0,0,0,0,0,0,0,0,0,0,0,
0,0,0,558,0,0,0,0,0,0,0,0,0,0,0,0,
0,0,0,558,0,0,0,0,0,0,0,0,0,0,0,0,
0,0,0,558,0,0,0,0,0,0,0,0,0,0,0,0,
0,0,0,558,0,0,0,0,0,0,0,0,0,0,0,0,
0,0,0,558,0,0,0,0,0,0,0,0,0,0,0,0,
0,0,0,558,0,0,0,0,0,0,0,0,0,0,0,0,
0,0,0,558,0,0,0,0,0,0,0,0,0,0,0,0,
0,0,0,558,0,0,0,0,0,0,0,0,0,0,0,0,
0,0,0,558,0,0,0,0,0,0,0,0,0,0,0,0,
0,0,0,558,0,0,0,0,0,0,0,0,0,0,0,0,
0,0,0,558,0,0,0,0,0,0,0,0,0,0,0,0,
0,0,0,558,0,0,0,0,0,0,0,0,0,0,0,0,
0,0,0,558,0,0,0,0,0,0,0,0,0,0,0,0,
0,0,0,558,0,0,0,0,0,0,0,0,0,0,0,0
</chunk>
   <chunk x="48" y="-112" width="16" height="16">
0,0,0,0,0,0,0,0,0,0,558,0,0,0,0,0,
0,0,0,0,0,0,0,0,0,0,558,0,0,0,0,0,
0,0,0,0,0,0,0,0,0,0,558,0,0,0,0,0,
0,0,0,0,0,0,0,0,0,0,558,0,0,0,0,0,
0,0,0,0,0,0,0,0,0,0,558,0,0,0,0,0,
0,0,0,0,0,0,0,0,0,0,558,0,0,0,0,0,
0,0,0,0,0,0,0,0,0,0,558,0,0,0,0,0,
0,0,0,0,0,0,0,0,0,0,558,0,0,0,0,0,
0,0,0,0,0,0,0,0,0,0,558,0,0,0,0,0,
0,0,0,0,0,0,0,0,0,0,558,0,0,0,0,0,
0,0,0,0,0,0,0,0,0,0,558,0,0,0,0,0,
0,0,0,0,0,0,0,0,0,0,558,0,0,0,0,0,
0,0,0,0,0,0,0,0,0,0,558,0,0,0,0,0,
0,0,0,0,0,0,0,0,0,0,558,0,0,0,0,0,
0,0,0,0,0,0,0,0,0,0,558,0,0,0,0,0,
0,0,0,0,0,0,0,0,0,0,558,0,0,0,0,0
</chunk>
   <chunk x="32" y="-96" width="16" height="16">
0,0,0,558,0,0,0,0,0,0,0,0,0,0,0,0,
0,0,0,558,0,0,0,0,0,0,0,0,0,0,0,0,
0,0,0,558,0,0,0,0,0,0,0,0,0,0,0,0,
0,0,0,558,0,0,0,0,0,0,0,0,0,0,0,0,
0,0,0,558,0,0,0,0,0,0,0,0,0,0,0,0,
0,0,0,558,0,0,0,0,0,0,0,0,0,0,0,0,
0,0,0,558,0,0,0,0,0,0,0,0,0,0,0,0,
0,0,0,558,0,0,0,0,0,0,0,0,0,0,0,0,
0,0,0,558,0,0,0,0,0,0,0,0,0,0,0,0,
0,0,0,558,0,0,0,0,0,0,0,0,0,0,0,0,
0,0,0,558,0,0,0,0,0,0,0,0,0,0,0,0,
0,0,0,558,0,0,0,0,0,0,0,0,0,0,0,0,
0,0,0,558,0,0,0,0,0,0,0,0,0,0,0,0,
0,0,0,558,0,0,0,0,0,0,0,0,0,0,0,0,
0,0,0,558,0,0,0,0,0,0,0,0,0,0,0,0,
0,0,0,558,0,0,0,0,0,0,0,0,0,0,0,0
</chunk>
   <chunk x="48" y="-96" width="16" height="16">
0,0,0,0,0,0,0,0,0,0,558,0,0,0,0,0,
0,0,0,0,0,0,0,0,0,0,558,0,0,0,0,0,
0,0,0,0,0,0,0,0,0,0,558,0,0,0,0,0,
0,0,0,0,0,0,0,0,0,0,558,0,0,0,0,0,
0,0,0,0,0,0,0,0,0,0,558,0,0,0,0,0,
0,0,0,0,0,0,0,0,0,0,558,0,0,0,0,0,
0,0,0,0,0,0,0,0,0,0,558,0,0,0,0,0,
0,0,0,0,0,0,0,0,0,0,558,0,0,0,0,0,
0,0,0,0,0,0,0,0,0,0,558,0,0,0,0,0,
0,0,0,0,0,0,0,0,0,0,558,0,0,0,0,0,
0,0,0,0,0,0,0,0,0,0,558,0,0,0,0,0,
0,0,0,0,0,0,0,0,0,0,558,0,0,0,0,0,
0,0,0,0,0,0,0,0,0,0,558,0,0,0,0,0,
0,0,0,0,0,0,0,0,0,0,558,0,0,0,0,0,
0,0,0,0,0,0,0,0,0,0,558,0,0,0,0,0,
0,0,0,0,0,0,0,0,0,0,558,0,0,0,0,0
</chunk>
   <chunk x="32" y="-80" width="16" height="16">
0,0,0,558,0,0,0,0,0,0,0,0,0,0,0,0,
0,0,0,558,0,0,0,0,0,0,0,0,0,0,0,0,
0,0,0,558,0,0,0,0,0,0,0,0,0,0,0,0,
0,0,0,558,0,0,0,0,0,0,0,0,0,0,0,0,
0,0,0,558,0,0,0,0,0,0,0,0,0,0,0,0,
0,0,0,558,0,0,0,0,0,0,0,0,0,0,0,0,
0,0,0,558,0,0,0,0,0,0,0,0,0,0,0,0,
0,0,0,558,0,0,0,0,0,0,0,0,0,0,0,0,
0,0,0,558,0,0,0,0,0,0,0,0,0,0,0,0,
0,0,0,558,0,0,0,0,0,0,0,0,0,0,0,0,
0,0,0,558,0,0,0,0,0,0,0,0,0,0,0,0,
0,0,0,558,0,0,0,0,0,0,0,0,0,0,0,0,
0,0,0,558,0,0,0,0,0,0,0,0,0,0,0,0,
0,0,0,558,0,0,0,0,0,0,0,0,0,0,0,0,
0,0,0,558,0,0,0,0,0,0,0,0,0,0,0,0,
0,0,0,558,0,0,0,0,0,0,0,0,0,0,0,0
</chunk>
   <chunk x="48" y="-80" width="16" height="16">
0,0,0,0,0,0,0,0,0,0,558,0,0,0,0,0,
0,0,0,0,0,0,0,0,0,0,558,0,0,0,0,0,
0,0,0,0,0,0,0,0,0,0,558,0,0,0,0,0,
0,0,0,0,0,0,0,0,0,0,558,0,0,0,0,0,
0,0,0,0,0,0,0,0,0,0,558,0,0,0,0,0,
0,0,0,0,0,0,0,0,0,0,558,0,0,0,0,0,
0,0,0,0,0,0,0,0,0,0,558,0,0,0,0,0,
0,0,0,0,0,0,0,0,0,0,558,0,0,0,0,0,
0,0,0,0,0,0,0,0,0,0,558,0,0,0,0,0,
0,0,0,0,0,0,0,0,0,0,558,0,0,0,0,0,
0,0,0,0,0,0,0,0,0,0,558,0,0,0,0,0,
0,0,0,0,0,0,0,0,0,0,558,0,0,0,0,0,
0,0,0,0,0,0,0,0,0,0,558,0,0,0,0,0,
0,0,0,0,0,0,0,0,0,0,558,0,0,0,0,0,
0,0,0,0,0,0,0,0,0,0,558,0,0,0,0,0,
0,0,0,0,0,0,0,0,0,0,558,0,0,0,0,0
</chunk>
   <chunk x="32" y="-64" width="16" height="16">
0,0,0,558,0,0,0,0,0,0,0,0,0,0,0,0,
0,0,0,558,0,0,0,0,0,0,0,0,0,0,0,0,
0,0,0,558,0,0,0,0,0,0,0,0,0,0,0,0,
0,0,0,558,0,0,0,0,0,0,0,0,0,0,0,0,
0,0,0,558,0,0,0,0,0,0,0,0,0,0,0,0,
0,0,0,558,0,0,0,0,0,0,0,0,0,0,0,0,
0,0,0,558,0,0,0,0,0,0,0,0,0,0,0,0,
0,0,0,558,0,0,0,0,0,0,0,0,0,0,0,0,
0,0,0,558,0,0,0,0,0,0,0,0,0,0,0,0,
0,0,0,558,0,0,0,0,0,0,0,0,0,0,0,0,
0,0,0,558,0,0,0,0,0,0,0,0,0,0,0,0,
0,0,0,558,0,0,0,0,0,0,0,0,0,0,0,0,
0,0,0,558,0,0,0,0,0,0,0,0,0,0,0,0,
0,0,0,558,0,0,0,0,0,0,0,0,0,0,0,0,
0,0,0,558,0,0,0,0,0,0,0,0,0,0,0,0,
0,0,0,558,0,0,0,0,0,0,0,0,0,0,0,0
</chunk>
   <chunk x="48" y="-64" width="16" height="16">
0,0,0,0,0,0,0,0,0,0,558,0,0,0,0,0,
0,0,0,0,0,0,0,0,0,0,558,0,0,0,0,0,
0,0,0,0,0,0,0,0,0,0,558,0,0,0,0,0,
0,0,0,0,0,0,0,0,0,0,558,0,0,0,0,0,
0,0,0,0,0,0,0,0,0,0,558,0,0,0,0,0,
0,0,0,0,0,0,0,0,0,0,558,0,0,0,0,0,
0,0,0,0,0,0,0,0,0,0,558,0,0,0,0,0,
0,0,0,0,0,0,0,0,0,0,558,0,0,0,0,0,
0,0,0,0,0,0,0,0,0,0,558,0,0,0,0,0,
0,0,0,0,0,0,0,0,0,0,558,0,0,0,0,0,
0,0,0,0,0,0,0,0,0,0,558,0,0,0,0,0,
0,0,0,0,0,0,0,0,0,0,558,0,0,0,0,0,
0,0,0,0,0,0,0,0,0,0,558,0,0,0,0,0,
0,0,0,0,0,0,0,0,0,0,558,0,0,0,0,0,
0,0,0,0,0,0,0,0,0,0,558,0,0,0,0,0,
0,0,0,0,0,0,0,0,0,0,558,0,0,0,0,0
</chunk>
   <chunk x="32" y="-48" width="16" height="16">
0,0,0,558,0,0,0,0,0,0,0,0,0,0,0,0,
0,0,0,558,0,0,0,0,0,0,0,0,0,0,0,0,
0,0,0,558,0,0,0,0,0,0,0,0,0,0,0,0,
0,0,0,558,0,0,0,0,0,0,0,0,0,0,0,0,
0,0,0,558,0,0,0,0,0,0,0,0,0,0,0,0,
0,0,0,558,0,0,0,0,0,0,0,0,0,0,0,0,
0,0,0,558,0,0,0,0,0,0,0,0,0,0,0,0,
0,0,0,558,0,0,0,0,0,0,0,0,0,0,0,0,
0,0,0,558,0,0,0,0,0,0,0,0,0,0,0,0,
0,0,0,558,0,0,0,0,0,0,0,0,0,0,0,0,
0,0,0,558,0,0,0,0,0,0,0,0,0,0,0,0,
0,0,0,558,0,0,0,0,0,0,0,0,0,0,0,0,
0,0,0,558,0,0,0,0,0,0,0,0,0,0,0,0,
0,0,0,558,0,0,0,0,0,0,0,0,0,0,0,0,
0,0,0,558,0,0,0,0,0,0,0,0,0,0,0,0,
0,0,0,558,0,0,0,0,0,0,0,0,0,0,0,0
</chunk>
   <chunk x="48" y="-48" width="16" height="16">
0,0,0,0,0,0,0,0,0,0,558,0,0,0,0,0,
0,0,0,0,0,0,0,0,0,0,558,0,0,0,0,0,
0,0,0,0,0,0,0,0,0,0,558,0,0,0,0,0,
0,0,0,0,0,0,0,0,0,0,558,0,0,0,0,0,
0,0,0,0,0,0,0,0,0,0,558,0,0,0,0,0,
0,0,0,0,0,0,0,0,0,0,558,0,0,0,0,0,
0,0,0,0,0,0,0,0,0,0,558,0,0,0,0,0,
0,0,0,0,0,0,0,0,0,0,558,0,0,0,0,0,
0,0,0,0,0,0,0,0,0,0,558,0,0,0,0,0,
0,0,0,0,0,0,0,0,0,0,558,0,0,0,0,0,
0,0,0,0,0,0,0,0,0,0,558,0,0,0,0,0,
0,0,0,0,0,0,0,0,0,0,558,0,0,0,0,0,
0,0,0,0,0,0,0,0,0,0,558,0,0,0,0,0,
0,0,0,0,0,0,0,0,0,0,558,0,0,0,0,0,
0,0,0,0,0,0,0,0,0,0,558,0,0,0,0,0,
0,0,0,0,0,0,0,0,0,0,558,0,0,0,0,0
</chunk>
   <chunk x="32" y="-32" width="16" height="16">
0,0,0,558,0,0,0,0,0,0,0,0,0,0,0,0,
0,0,0,558,0,0,0,0,0,0,0,0,0,0,0,0,
0,0,0,558,0,0,0,0,0,0,0,0,0,0,0,0,
0,0,0,558,0,0,0,0,0,0,0,0,0,0,0,0,
0,0,0,558,0,0,0,0,0,0,0,0,0,0,0,0,
0,0,0,558,0,0,0,0,0,0,0,0,0,0,0,0,
0,0,0,558,0,0,0,0,0,0,0,0,0,0,0,0,
0,0,0,558,0,0,0,0,0,0,0,0,0,0,0,0,
0,0,0,558,0,0,0,0,0,0,0,0,0,0,0,0,
0,0,0,558,0,0,0,0,0,0,0,0,0,0,0,0,
0,0,0,558,0,0,0,0,0,0,0,0,0,0,0,0,
0,0,0,558,0,0,0,0,0,0,0,0,0,0,0,0,
0,0,0,558,0,0,0,0,0,0,0,0,0,0,0,0,
0,0,0,558,0,0,0,0,0,0,0,0,0,0,0,0,
0,0,0,558,0,0,0,0,0,0,0,0,0,0,0,0,
0,0,0,558,0,0,0,0,0,0,0,0,0,0,0,0
</chunk>
   <chunk x="48" y="-32" width="16" height="16">
0,0,0,0,0,0,0,0,0,0,558,0,0,0,0,0,
0,0,0,0,0,0,0,0,0,0,558,0,0,0,0,0,
0,0,0,0,0,0,0,0,0,0,558,0,0,0,0,0,
0,0,0,0,0,0,0,0,0,0,558,0,0,0,0,0,
0,0,0,0,0,0,0,0,0,0,558,0,0,0,0,0,
0,0,0,0,0,0,0,0,0,0,558,0,0,0,0,0,
0,0,0,0,0,0,0,0,0,0,558,0,0,0,0,0,
0,0,0,0,0,0,0,0,0,0,558,0,0,0,0,0,
0,0,0,0,0,0,0,0,0,0,558,0,0,0,0,0,
0,0,0,0,0,0,0,0,0,0,558,0,0,0,0,0,
0,0,0,0,0,0,0,0,0,0,558,0,0,0,0,0,
0,0,0,0,0,0,0,0,0,0,558,0,0,0,0,0,
0,0,0,0,0,0,0,0,0,0,558,0,0,0,0,0,
0,0,0,0,0,0,0,0,0,0,558,0,0,0,0,0,
0,0,0,0,0,0,0,0,0,0,558,0,0,0,0,0,
0,0,0,0,0,0,0,0,0,0,558,0,0,0,0,0
</chunk>
   <chunk x="32" y="-16" width="16" height="16">
0,0,0,558,0,0,0,0,0,0,0,0,0,0,0,0,
0,0,0,558,0,0,0,0,0,0,0,0,0,0,0,0,
0,0,0,558,0,0,0,0,0,0,0,0,0,0,0,0,
0,0,0,558,0,0,0,0,0,0,0,0,0,0,0,0,
0,0,0,558,0,0,0,0,0,0,0,0,0,0,0,0,
0,0,0,558,0,0,0,0,0,0,0,0,0,0,0,0,
0,0,0,558,0,0,0,0,0,0,0,0,0,0,0,0,
0,0,0,558,0,0,0,0,0,0,0,0,0,0,0,0,
0,0,0,558,0,0,0,0,0,0,0,0,0,0,0,0,
0,0,0,558,0,0,0,0,0,0,0,0,0,0,0,0,
0,0,0,558,0,0,0,0,0,0,0,0,0,0,0,0,
0,0,0,558,0,0,0,0,0,0,0,0,0,0,0,0,
0,0,0,558,0,0,0,0,0,0,0,0,0,0,0,0,
0,0,0,558,0,0,0,0,0,0,0,0,0,0,0,0,
0,0,0,558,0,0,0,0,0,0,0,0,0,0,0,0,
0,0,0,558,0,0,0,0,0,0,0,0,0,0,0,0
</chunk>
   <chunk x="48" y="-16" width="16" height="16">
0,0,0,0,0,0,0,0,0,0,558,0,0,0,0,0,
0,0,0,0,0,0,0,0,0,0,558,0,0,0,0,0,
0,0,0,0,0,0,0,0,0,0,558,0,0,0,0,0,
0,0,0,0,0,0,0,0,0,0,558,0,0,0,0,0,
0,0,0,0,0,0,0,0,0,0,558,0,0,0,0,0,
0,0,0,0,0,0,0,0,0,0,558,0,0,0,0,0,
0,0,0,0,0,0,0,0,0,0,558,0,0,0,0,0,
0,0,0,0,0,0,0,0,0,0,558,0,0,0,0,0,
0,0,0,0,0,0,0,0,0,0,558,0,0,0,0,0,
0,0,0,0,0,0,0,0,0,0,558,0,0,0,0,0,
0,0,0,0,0,0,0,0,0,0,558,0,0,0,0,0,
0,0,0,0,0,0,0,0,0,0,558,0,0,0,0,0,
0,0,0,0,0,0,0,0,0,0,558,0,0,0,0,0,
0,0,0,0,0,0,0,0,0,0,558,0,0,0,0,0,
0,0,0,0,0,0,0,0,0,0,558,0,0,0,0,0,
0,0,0,0,0,0,0,0,0,0,558,0,0,0,0,0
</chunk>
   <chunk x="32" y="0" width="16" height="16">
0,0,0,558,0,0,0,0,0,0,0,0,0,0,0,0,
0,0,0,558,0,0,0,0,0,0,0,0,0,0,0,0,
0,0,0,558,0,0,0,0,0,0,0,0,0,0,0,0,
0,0,0,558,0,0,0,0,0,0,0,0,0,0,0,0,
0,0,0,558,0,0,0,0,0,0,0,0,0,0,0,0,
0,0,0,558,0,0,0,0,0,0,0,0,0,0,0,0,
0,0,0,558,0,0,0,0,0,0,0,0,0,0,0,0,
0,0,0,558,0,0,0,0,0,0,0,0,0,0,0,0,
0,0,0,558,0,0,0,0,0,0,0,0,0,0,0,0,
0,0,0,558,0,0,0,0,0,0,0,0,0,0,0,0,
0,0,0,558,0,0,0,0,0,0,0,0,0,0,0,0,
0,0,0,558,0,0,0,0,0,0,0,0,0,0,0,0,
0,0,0,558,0,0,0,0,0,0,0,0,0,0,0,0,
0,0,0,558,0,0,0,0,0,0,0,0,0,0,0,0,
0,0,0,558,0,0,0,0,0,0,0,0,0,0,0,0,
0,0,0,558,0,0,0,0,0,0,0,0,0,0,0,0
</chunk>
   <chunk x="48" y="0" width="16" height="16">
0,0,0,0,0,0,0,0,0,0,558,0,0,0,0,0,
0,0,0,0,0,0,0,0,0,0,558,0,0,0,0,0,
0,0,0,0,0,0,0,0,0,0,558,0,0,0,0,0,
0,0,0,0,0,0,0,0,0,0,558,0,0,0,0,0,
0,0,0,0,0,0,0,0,0,0,558,0,0,0,0,0,
0,0,0,0,0,0,0,0,0,0,558,0,0,0,0,0,
0,0,0,0,0,0,0,0,0,0,558,0,0,0,0,0,
0,0,0,0,0,0,0,0,0,0,558,0,0,0,0,0,
0,0,0,0,0,0,0,0,0,0,558,0,0,0,0,0,
0,0,0,0,0,0,0,0,0,0,558,0,0,0,0,0,
0,0,0,0,0,0,0,0,0,0,558,0,0,0,0,0,
0,0,0,0,0,0,0,0,0,0,558,0,0,0,0,0,
0,0,0,0,0,0,0,0,0,0,558,0,0,0,0,0,
0,0,0,0,0,0,0,0,0,0,558,0,0,0,0,0,
0,0,0,0,0,0,0,0,0,0,558,0,0,0,0,0,
0,0,0,0,0,0,0,0,0,0,558,0,0,0,0,0
</chunk>
   <chunk x="32" y="16" width="16" height="16">
0,0,0,558,0,0,0,0,0,0,0,0,0,0,0,0,
0,0,0,558,0,0,0,0,0,0,0,0,0,0,0,0,
0,0,0,558,0,0,0,0,0,0,0,0,0,0,0,0,
0,0,0,558,0,0,0,0,0,0,0,0,0,0,0,0,
0,0,0,558,0,0,0,0,0,0,0,0,0,0,0,0,
0,0,0,558,0,0,0,0,0,0,0,0,0,0,0,0,
0,0,0,558,0,0,0,0,0,0,0,0,0,0,0,0,
0,0,0,558,0,0,0,0,0,0,0,0,0,0,0,0,
0,0,0,558,0,0,0,0,0,0,0,0,0,0,0,0,
0,0,0,558,0,0,0,0,0,0,0,0,0,0,0,0,
0,0,0,558,0,0,0,0,0,0,0,0,0,0,0,0,
0,0,0,558,0,0,0,0,0,0,0,0,0,0,0,0,
0,0,0,558,0,0,0,0,0,0,0,0,0,0,0,0,
0,0,0,558,0,0,0,0,0,0,0,0,0,0,0,0,
0,0,0,558,0,0,0,0,0,0,0,0,0,0,0,0,
0,0,0,558,558,558,558,558,558,558,558,558,558,558,558,558
</chunk>
   <chunk x="48" y="16" width="16" height="16">
0,0,0,0,0,0,0,0,0,0,558,0,0,0,0,0,
0,0,0,0,0,0,0,0,0,0,558,0,0,0,0,0,
0,0,0,0,0,0,0,0,0,0,558,0,0,0,0,0,
0,0,0,0,0,0,0,0,0,0,558,0,0,0,0,0,
0,0,0,0,0,0,0,0,0,0,558,0,0,0,0,0,
0,0,0,0,0,0,0,0,0,0,558,0,0,0,0,0,
0,0,0,0,0,0,0,0,0,0,558,0,0,0,0,0,
0,0,0,0,0,0,0,0,0,0,558,0,0,0,0,0,
0,0,0,0,0,0,0,0,0,0,558,0,0,0,0,0,
0,0,0,0,0,0,0,0,0,0,558,0,0,0,0,0,
0,0,0,0,0,0,0,0,0,0,558,0,0,0,0,0,
0,0,0,0,0,0,0,0,0,0,558,0,0,0,0,0,
0,0,0,0,0,0,0,0,0,0,558,0,0,0,0,0,
0,0,0,0,0,0,0,0,0,0,558,0,0,0,0,0,
0,0,0,0,0,0,0,0,0,0,558,0,0,0,0,0,
558,558,558,558,558,558,558,558,558,558,558,0,0,0,0,0
</chunk>
  </data>
 </layer>
 <layer id="38" name="area of crossbow action" width="30" height="20" visible="0">
  <data encoding="csv">
   <chunk x="32" y="-336" width="16" height="16">
0,0,0,0,0,0,0,0,0,0,0,0,0,0,0,0,
0,0,0,0,0,0,0,0,0,0,0,0,0,0,0,0,
0,0,0,0,0,0,0,0,0,0,0,0,0,0,0,0,
0,0,0,0,0,0,0,0,0,0,0,0,0,0,0,0,
0,0,0,0,0,0,0,0,0,0,0,0,0,0,0,0,
0,0,0,0,0,0,0,0,0,0,0,0,0,0,0,0,
0,0,0,0,0,0,0,0,0,0,0,0,0,0,0,0,
0,0,0,0,0,0,0,0,0,0,0,0,0,0,0,0,
0,0,0,0,0,0,0,0,0,0,0,0,0,0,0,0,
0,0,0,0,0,0,0,0,0,0,0,0,0,0,0,0,
0,0,0,0,0,0,0,0,0,0,0,0,0,559,559,559,
0,0,0,0,0,0,0,0,0,0,0,0,0,0,0,0,
0,0,0,0,0,0,0,0,0,0,0,0,0,0,0,0,
0,0,0,0,0,0,0,0,0,0,0,0,0,0,0,0,
0,0,0,0,0,0,0,0,0,0,0,0,559,559,559,559,
0,0,0,0,0,0,0,0,0,0,0,0,0,0,0,0
</chunk>
   <chunk x="48" y="-336" width="16" height="16">
0,0,0,0,0,0,0,0,0,0,0,0,0,0,0,0,
0,0,0,0,0,0,0,0,0,0,0,0,0,0,0,0,
0,0,0,0,0,0,0,0,0,0,0,0,0,0,0,0,
0,0,0,0,0,0,0,0,0,0,0,0,0,0,0,0,
0,0,0,0,0,0,0,0,0,0,0,0,0,0,0,0,
0,0,0,0,0,0,0,0,0,0,0,0,0,0,0,0,
0,0,0,0,0,0,0,0,0,0,0,0,0,0,0,0,
0,0,0,0,0,0,0,0,0,0,0,0,0,0,0,0,
0,0,0,0,0,0,0,0,0,0,0,0,0,0,0,0,
0,0,0,0,0,0,0,0,0,0,0,0,0,0,0,0,
559,559,0,0,0,0,0,0,0,0,0,0,0,0,0,0,
0,0,0,0,0,0,0,0,0,0,0,0,0,0,0,0,
0,0,0,0,0,0,0,0,0,0,0,0,0,0,0,0,
0,0,0,0,0,0,0,0,0,0,0,0,0,0,0,0,
559,559,0,0,0,0,0,0,0,0,0,0,0,0,0,0,
0,0,0,0,0,0,0,0,0,0,0,0,0,0,0,0
</chunk>
   <chunk x="32" y="-320" width="16" height="16">
0,0,0,0,0,0,0,0,0,0,0,0,0,0,0,0,
0,0,0,0,0,0,0,0,0,0,0,0,0,0,0,0,
0,0,0,0,0,0,0,0,0,0,0,0,0,0,0,0,
0,0,0,0,0,0,0,0,0,0,0,0,0,0,0,0,
0,0,0,0,0,0,0,0,0,0,0,0,0,0,559,559,
0,0,0,0,0,0,0,0,0,0,0,0,0,0,0,0,
0,0,0,0,0,0,0,0,0,0,0,0,0,0,0,0,
0,0,0,0,0,0,0,0,0,0,0,0,0,0,559,559,
0,0,0,0,0,0,0,0,0,0,0,0,0,0,0,0,
0,0,0,0,0,0,0,0,0,0,0,0,0,0,0,0,
0,0,0,0,0,0,0,0,0,0,0,0,0,0,559,559,
0,0,0,0,0,0,0,0,0,0,0,0,0,0,0,0,
0,0,0,0,0,0,0,0,0,0,0,0,0,0,0,0,
0,0,0,0,0,0,0,0,0,0,0,0,0,0,0,0,
0,0,0,0,0,0,0,0,0,0,0,0,0,0,0,0,
0,0,0,0,0,0,0,0,0,0,0,0,0,0,0,0
</chunk>
   <chunk x="48" y="-320" width="16" height="16">
0,0,0,0,0,0,0,0,0,0,0,0,0,0,0,0,
0,0,0,0,0,0,0,0,0,0,0,0,0,0,0,0,
0,0,0,0,0,0,0,0,0,0,0,0,0,0,0,0,
0,0,0,0,0,0,0,0,0,0,0,0,0,0,0,0,
559,559,559,0,0,0,0,0,0,0,0,0,0,0,0,0,
0,0,0,0,0,0,0,0,0,0,0,0,0,0,0,0,
0,0,0,0,0,0,0,0,0,0,0,0,0,0,0,0,
559,559,559,0,0,0,0,0,0,0,0,0,0,0,0,0,
0,0,0,0,0,0,0,0,0,0,0,0,0,0,0,0,
0,0,0,0,0,0,0,0,0,0,0,0,0,0,0,0,
559,559,559,0,0,0,0,0,0,0,0,0,0,0,0,0,
0,0,0,0,0,0,0,0,0,0,0,0,0,0,0,0,
0,0,0,0,0,0,0,0,0,0,0,0,0,0,0,0,
0,0,0,0,0,0,0,0,0,0,0,0,0,0,0,0,
0,0,0,0,0,0,0,0,0,0,0,0,0,0,0,0,
0,0,0,0,0,0,0,0,0,0,0,0,0,0,0,0
</chunk>
   <chunk x="32" y="-208" width="16" height="16">
0,0,0,0,0,0,0,0,0,0,0,0,0,0,0,0,
0,0,0,0,0,0,0,0,0,0,0,0,0,0,0,0,
0,0,0,0,0,0,0,0,0,0,0,0,0,0,0,0,
0,0,0,0,0,0,0,0,0,0,0,0,0,0,0,0,
0,0,0,0,0,0,0,0,0,0,0,0,0,0,0,0,
0,0,0,0,0,0,0,0,0,0,0,0,0,0,0,0,
0,0,0,0,0,0,0,0,0,0,0,0,0,0,0,0,
0,0,0,0,0,0,0,0,0,0,0,0,0,0,0,0,
0,0,0,0,0,0,0,0,0,0,0,0,0,0,0,0,
0,0,0,0,0,0,0,0,0,0,0,0,0,0,0,0,
0,0,0,0,0,0,0,0,0,0,0,0,0,0,0,0,
0,0,0,0,0,0,0,0,0,0,0,0,0,0,0,0,
0,0,0,0,0,0,0,0,0,0,0,0,0,0,0,0,
0,0,0,0,0,0,0,0,0,0,0,0,0,0,0,0,
0,0,0,0,0,0,0,0,0,0,0,0,0,559,559,559,
0,0,0,0,0,0,0,0,0,0,0,0,0,0,0,0
</chunk>
   <chunk x="48" y="-208" width="16" height="16">
0,0,0,0,0,0,0,0,0,0,0,0,0,0,0,0,
0,0,0,0,0,0,0,0,0,0,0,0,0,0,0,0,
0,0,0,0,0,0,0,0,0,0,0,0,0,0,0,0,
0,0,0,0,0,0,0,0,0,0,0,0,0,0,0,0,
0,0,0,0,0,0,0,0,0,0,0,0,0,0,0,0,
0,0,0,0,0,0,0,0,0,0,0,0,0,0,0,0,
0,0,0,0,0,0,0,0,0,0,0,0,0,0,0,0,
0,0,0,0,0,0,0,0,0,0,0,0,0,0,0,0,
0,0,0,0,0,0,0,0,0,0,0,0,0,0,0,0,
0,0,0,0,0,0,0,0,0,0,0,0,0,0,0,0,
0,0,0,0,0,0,0,0,0,0,0,0,0,0,0,0,
0,0,0,0,0,0,0,0,0,0,0,0,0,0,0,0,
0,0,0,0,0,0,0,0,0,0,0,0,0,0,0,0,
0,0,0,0,0,0,0,0,0,0,0,0,0,0,0,0,
559,559,0,0,0,0,0,0,0,0,0,0,0,0,0,0,
0,0,0,0,0,0,0,0,0,0,0,0,0,0,0,0
</chunk>
   <chunk x="32" y="-176" width="16" height="16">
0,0,0,0,0,0,0,0,0,0,0,0,0,0,0,0,
0,0,0,0,0,0,0,0,0,0,0,0,0,0,0,0,
0,0,0,0,0,0,0,0,0,0,0,0,0,0,0,0,
0,0,0,0,0,0,0,0,0,0,0,0,0,0,0,0,
0,0,0,0,0,0,0,0,0,0,0,0,0,0,0,0,
0,0,0,0,0,0,0,0,0,0,0,0,0,0,0,0,
0,0,0,0,0,0,0,0,0,0,0,0,0,0,0,0,
0,0,0,0,0,0,0,0,0,0,0,0,0,0,0,0,
0,0,0,0,0,0,0,0,0,0,0,0,0,0,0,0,
0,0,0,0,0,0,0,0,0,0,0,0,0,0,0,0,
0,0,0,0,0,0,0,0,0,0,0,0,0,0,0,0,
0,0,0,0,0,0,0,0,0,0,0,0,0,0,0,0,
0,0,0,0,0,0,0,0,0,0,0,0,559,559,559,559,
0,0,0,0,0,0,0,0,0,0,0,0,0,0,0,0,
0,0,0,0,0,0,0,0,0,0,0,0,0,0,0,0,
0,0,0,0,0,0,0,0,0,0,0,0,0,0,0,0
</chunk>
   <chunk x="48" y="-176" width="16" height="16">
0,0,0,0,0,0,0,0,0,0,0,0,0,0,0,0,
0,0,0,0,0,0,0,0,0,0,0,0,0,0,0,0,
0,0,0,0,0,0,0,0,0,0,0,0,0,0,0,0,
0,0,0,0,0,0,0,0,0,0,0,0,0,0,0,0,
0,0,0,0,0,0,0,0,0,0,0,0,0,0,0,0,
0,0,0,0,0,0,0,0,0,0,0,0,0,0,0,0,
0,0,0,0,0,0,0,0,0,0,0,0,0,0,0,0,
0,0,0,0,0,0,0,0,0,0,0,0,0,0,0,0,
0,0,0,0,0,0,0,0,0,0,0,0,0,0,0,0,
0,0,0,0,0,0,0,0,0,0,0,0,0,0,0,0,
0,0,0,0,0,0,0,0,0,0,0,0,0,0,0,0,
0,0,0,0,0,0,0,0,0,0,0,0,0,0,0,0,
559,559,0,0,0,0,0,0,0,0,0,0,0,0,0,0,
0,0,0,0,0,0,0,0,0,0,0,0,0,0,0,0,
0,0,0,0,0,0,0,0,0,0,0,0,0,0,0,0,
0,0,0,0,0,0,0,0,0,0,0,0,0,0,0,0
</chunk>
   <chunk x="32" y="-112" width="16" height="16">
0,0,0,0,0,0,0,0,0,0,0,0,0,0,0,0,
0,0,0,0,0,0,0,0,0,0,0,0,0,0,0,0,
0,0,0,0,0,0,0,0,0,0,0,0,0,0,0,0,
0,0,0,0,0,0,0,0,0,0,0,0,0,0,0,0,
0,0,0,0,0,0,0,0,0,0,0,0,0,0,0,0,
0,0,0,0,0,0,0,0,0,0,0,0,0,0,0,0,
0,0,0,0,0,0,0,0,0,0,0,0,0,0,0,0,
0,0,0,0,0,0,0,0,0,0,0,0,0,0,0,0,
0,0,0,0,0,0,0,0,0,0,0,0,0,0,0,0,
0,0,0,0,0,0,0,0,0,0,0,0,0,0,0,0,
0,0,0,0,0,0,0,0,0,0,0,0,0,0,0,0,
0,0,0,0,0,0,0,0,0,0,0,0,0,0,559,0,
0,0,0,0,0,0,0,0,0,0,0,0,0,0,559,0,
0,0,0,0,0,0,0,0,0,0,0,0,0,0,559,0,
0,0,0,0,0,0,0,0,0,0,0,0,0,0,0,0,
0,0,0,0,0,0,0,0,0,0,0,0,0,0,0,0
</chunk>
   <chunk x="48" y="-112" width="16" height="16">
0,0,0,0,0,0,0,0,0,0,0,0,0,0,0,0,
0,0,0,0,0,0,0,0,0,0,0,0,0,0,0,0,
0,0,0,0,0,0,0,0,0,0,0,0,0,0,0,0,
0,0,0,0,0,0,0,0,0,0,0,0,0,0,0,0,
0,0,0,0,0,0,0,0,0,0,0,0,0,0,0,0,
0,0,0,0,0,0,0,0,0,0,0,0,0,0,0,0,
0,0,0,0,0,0,0,0,0,0,0,0,0,0,0,0,
0,0,0,0,0,0,0,0,0,0,0,0,0,0,0,0,
0,0,0,0,0,0,0,0,0,0,0,0,0,0,0,0,
0,0,0,0,0,0,0,0,0,0,0,0,0,0,0,0,
0,0,0,0,0,0,0,0,0,0,0,0,0,0,0,0,
559,0,0,0,0,0,0,0,0,0,0,0,0,0,0,0,
559,0,0,0,0,0,0,0,0,0,0,0,0,0,0,0,
559,0,0,0,0,0,0,0,0,0,0,0,0,0,0,0,
0,0,0,0,0,0,0,0,0,0,0,0,0,0,0,0,
0,0,0,0,0,0,0,0,0,0,0,0,0,0,0,0
</chunk>
   <chunk x="32" y="-96" width="16" height="16">
0,0,0,0,0,0,0,0,0,0,0,0,0,0,0,0,
0,0,0,0,0,0,0,0,0,0,0,0,0,0,0,0,
0,0,0,0,0,0,0,0,0,0,0,0,0,0,0,0,
0,0,0,0,0,0,0,0,0,0,0,0,0,0,0,0,
0,0,0,0,0,0,0,0,0,0,0,0,0,0,0,0,
0,0,0,0,0,0,0,0,0,0,0,0,0,0,0,0,
0,0,0,0,0,0,0,0,0,0,0,0,0,0,0,0,
0,0,0,0,0,0,0,0,0,0,0,0,0,0,0,0,
0,0,0,0,0,0,0,0,0,0,0,0,0,0,0,0,
0,0,0,0,0,0,0,0,0,0,0,0,559,559,559,559,
0,0,0,0,0,0,0,0,0,0,0,0,0,0,0,0,
0,0,0,0,0,0,0,0,0,0,0,0,0,0,0,0,
0,0,0,0,0,0,0,0,0,0,0,0,0,0,0,559,
0,0,0,0,0,0,0,0,0,0,0,0,0,0,0,0,
0,0,0,0,0,0,0,0,0,0,0,0,0,0,0,0,
0,0,0,0,0,0,0,0,0,0,0,0,559,559,559,0
</chunk>
   <chunk x="48" y="-96" width="16" height="16">
0,0,0,0,0,0,0,0,0,0,0,0,0,0,0,0,
0,0,0,0,0,0,0,0,0,0,0,0,0,0,0,0,
0,0,0,0,0,0,0,0,0,0,0,0,0,0,0,0,
0,0,0,0,0,0,0,0,0,0,0,0,0,0,0,0,
0,0,0,0,0,0,0,0,0,0,0,0,0,0,0,0,
0,0,0,0,0,0,0,0,0,0,0,0,0,0,0,0,
559,559,559,0,0,0,0,0,0,0,0,0,0,0,0,0,
0,0,0,0,0,0,0,0,0,0,0,0,0,0,0,0,
0,0,0,0,0,0,0,0,0,0,0,0,0,0,0,0,
0,0,0,0,0,0,0,0,0,0,0,0,0,0,0,0,
0,0,0,0,0,0,0,0,0,0,0,0,0,0,0,0,
0,0,0,0,0,0,0,0,0,0,0,0,0,0,0,0,
559,559,559,0,0,0,0,0,0,0,0,0,0,0,0,0,
0,0,0,0,0,0,0,0,0,0,0,0,0,0,0,0,
0,0,0,0,0,0,0,0,0,0,0,0,0,0,0,0,
0,0,0,0,0,0,0,0,0,0,0,0,0,0,0,0
</chunk>
   <chunk x="32" y="-80" width="16" height="16">
0,0,0,0,0,0,0,0,0,0,0,0,0,0,0,0,
0,0,0,0,0,0,0,0,0,0,0,0,0,0,0,0,
0,0,0,0,0,0,0,0,0,0,0,0,0,0,0,0,
0,0,0,0,0,0,0,0,0,0,0,0,0,0,0,0,
0,0,0,0,0,0,0,0,0,0,0,0,559,559,559,559,
0,0,0,0,0,0,0,0,0,0,0,0,559,559,559,559,
0,0,0,0,0,0,0,0,0,0,0,0,0,0,0,0,
0,0,0,0,0,0,0,0,0,0,0,0,0,559,559,559,
0,0,0,0,0,0,0,0,0,0,0,0,0,559,559,559,
0,0,0,0,0,0,0,0,0,0,0,0,0,0,0,0,
0,0,0,0,0,0,0,0,0,0,0,0,0,0,0,0,
0,0,0,0,0,0,0,0,0,0,0,0,0,0,0,0,
0,0,0,0,0,0,0,0,0,0,0,0,0,0,0,0,
0,0,0,0,0,0,0,0,0,0,0,0,0,0,0,0,
0,0,0,0,0,0,0,0,0,0,0,0,0,0,0,0,
0,0,0,0,0,0,0,0,0,0,0,0,0,0,0,0
</chunk>
   <chunk x="48" y="-80" width="16" height="16">
0,0,0,0,0,0,0,0,0,0,0,0,0,0,0,0,
0,0,0,0,0,0,0,0,0,0,0,0,0,0,0,0,
0,0,0,0,0,0,0,0,0,0,0,0,0,0,0,0,
0,0,0,0,0,0,0,0,0,0,0,0,0,0,0,0,
559,559,0,0,0,0,0,0,0,0,0,0,0,0,0,0,
559,559,0,0,0,0,0,0,0,0,0,0,0,0,0,0,
0,0,0,0,0,0,0,0,0,0,0,0,0,0,0,0,
559,559,559,0,0,0,0,0,0,0,0,0,0,0,0,0,
559,559,559,0,0,0,0,0,0,0,0,0,0,0,0,0,
0,0,0,0,0,0,0,0,0,0,0,0,0,0,0,0,
0,0,0,0,0,0,0,0,0,0,0,0,0,0,0,0,
0,0,0,0,0,0,0,0,0,0,0,0,0,0,0,0,
0,0,0,0,0,0,0,0,0,0,0,0,0,0,0,0,
0,0,0,0,0,0,0,0,0,0,0,0,0,0,0,0,
0,0,0,0,0,0,0,0,0,0,0,0,0,0,0,0,
0,0,0,0,0,0,0,0,0,0,0,0,0,0,0,0
</chunk>
  </data>
 </layer>
</map>
