<?xml version="1.0" encoding="UTF-8"?>
<map version="1.5" tiledversion="1.7.2" orientation="orthogonal" renderorder="right-down" width="100" height="100" tilewidth="32" tileheight="32" infinite="1" nextlayerid="33" nextobjectid="20">
 <tileset firstgid="1" source="DarkAges_Dungeon_Decor.tsx"/>
 <tileset firstgid="257" source="DarkAges_Dungeon_Basa.tsx"/>
 <layer id="23" name="Пол" width="100" height="100">
  <data encoding="csv">
   <chunk x="11360" y="272" width="16" height="16">
0,0,0,0,0,0,0,0,0,0,0,0,0,0,0,0,
0,0,0,0,0,0,0,0,0,0,0,0,0,0,0,0,
0,0,0,0,0,0,0,0,0,0,0,0,0,0,0,0,
0,0,0,0,0,0,0,0,0,0,0,0,0,0,0,0,
0,0,0,0,0,0,0,0,0,0,0,0,0,0,305,293,
0,0,0,0,0,0,0,0,0,0,0,0,305,293,294,259,
0,0,0,0,0,0,0,0,0,293,293,293,294,259,259,259,
0,0,0,0,0,0,0,0,0,259,259,259,259,259,259,259,
0,0,0,0,0,0,0,0,0,0,0,0,259,259,259,259,
0,0,0,0,0,0,0,0,0,0,0,0,0,0,0,0,
0,0,0,0,0,0,0,0,0,0,0,0,0,0,0,0,
0,0,0,0,0,0,0,0,0,0,0,0,0,0,0,0,
0,0,0,0,0,0,0,0,0,0,0,0,0,0,0,0,
0,0,0,0,0,0,0,0,0,305,293,293,293,306,0,305,
0,0,0,0,0,0,0,0,0,278,259,0,0,276,0,278,
0,0,0,0,0,0,0,0,0,278,259,0,0,276,0,0
</chunk>
   <chunk x="11376" y="272" width="16" height="16">
0,0,0,0,0,0,0,0,0,0,0,0,0,0,0,0,
0,0,0,0,0,0,0,0,0,0,0,0,0,0,0,0,
0,0,0,0,0,273,273,273,273,273,0,0,0,0,0,0,
0,0,0,0,0,289,289,289,289,289,0,0,0,0,0,0,
293,293,293,306,0,305,293,293,293,306,0,0,0,0,0,0,
259,259,259,276,0,278,259,259,259,276,0,0,0,0,0,0,
259,259,259,276,0,278,259,259,259,276,0,0,305,293,293,293,
259,259,259,0,0,0,0,0,0,0,0,0,278,259,259,259,
259,259,259,0,0,0,0,0,0,0,0,0,278,259,259,259,
259,259,259,0,0,0,0,259,0,0,0,0,259,259,259,259,
0,259,0,0,0,0,0,259,0,0,0,0,0,0,259,0,
259,259,259,0,305,293,311,259,313,293,306,0,0,259,259,259,
259,259,259,0,278,259,259,259,259,259,276,0,0,259,259,259,
311,259,313,293,294,259,259,259,259,259,292,293,293,311,259,313,
259,259,259,259,259,259,259,259,259,259,259,259,259,259,259,259,
0,0,0,0,259,259,259,259,259,259,259,259,259,259,259,259
</chunk>
   <chunk x="11392" y="272" width="16" height="16">
0,0,0,0,0,0,0,0,0,0,0,0,0,0,0,0,
0,0,0,0,0,0,0,0,0,0,0,0,0,0,0,0,
0,0,0,0,0,0,0,0,0,0,0,0,0,0,0,0,
0,0,0,0,0,0,0,0,0,0,0,0,0,0,0,0,
0,0,0,0,0,0,0,0,0,0,0,0,0,0,0,0,
0,0,0,0,0,0,0,0,0,0,0,0,0,0,0,0,
306,0,305,293,293,293,306,0,305,293,293,293,306,0,0,0,
276,0,278,259,259,259,276,0,278,259,259,259,276,0,0,0,
276,0,278,259,259,259,276,0,278,259,259,259,276,0,0,0,
259,0,259,259,259,259,259,0,259,259,259,259,259,0,0,0,
0,0,0,0,0,0,0,0,0,0,259,0,0,0,0,0,
0,0,0,259,259,259,0,0,0,0,259,259,0,0,0,0,
0,0,0,259,259,259,0,0,0,0,259,259,0,0,0,0,
293,293,293,311,259,313,293,293,293,311,259,313,306,0,0,0,
259,259,259,259,259,259,259,259,259,259,259,259,276,0,0,0,
259,259,259,259,259,259,259,259,259,259,259,259,259,0,0,0
</chunk>
   <chunk x="11408" y="272" width="16" height="16">
0,0,0,0,0,0,0,0,0,0,0,0,0,0,0,0,
0,0,0,0,0,0,0,0,0,0,0,0,0,0,0,0,
0,0,0,0,0,0,0,0,0,0,0,0,0,0,0,0,
0,0,0,0,0,0,0,0,0,0,0,0,0,0,0,0,
0,0,0,0,0,0,0,0,0,0,0,0,0,0,0,0,
0,0,0,0,0,0,0,0,0,0,0,0,0,0,0,0,
0,0,0,0,0,0,0,0,0,0,0,0,0,0,0,0,
0,0,0,0,0,0,0,0,0,0,0,0,0,0,0,0,
0,0,0,0,0,0,0,0,0,0,0,0,0,0,0,0,
0,0,0,307,308,0,0,0,0,0,0,0,0,0,0,0,
0,0,307,358,356,308,0,0,0,0,0,0,0,0,0,0,
0,0,342,341,341,340,0,0,0,0,0,0,0,0,0,0,
0,0,342,341,341,340,0,0,0,0,0,0,0,0,0,0,
0,0,342,341,341,340,0,0,0,0,0,0,0,0,0,0,
0,0,342,341,341,340,0,0,0,0,0,0,0,0,0,0,
0,0,342,341,341,340,0,0,0,0,0,0,0,0,0,0
</chunk>
   <chunk x="11360" y="288" width="16" height="16">
0,0,0,0,0,0,0,0,0,0,0,259,259,259,0,0,
0,0,0,0,0,0,0,0,0,0,0,0,259,0,0,0,
0,0,0,0,0,0,0,0,0,0,0,0,259,259,0,0,
0,0,0,0,0,0,0,0,0,0,0,0,259,259,0,0,
0,0,0,0,0,0,0,0,0,0,305,311,259,313,293,293,
0,0,0,0,0,0,0,0,0,0,278,259,259,259,259,259,
0,0,0,0,0,0,0,0,0,0,0,0,0,0,0,0,
0,0,0,0,0,0,0,0,0,0,0,0,0,0,0,0,
0,0,0,0,0,0,0,0,0,0,0,259,259,259,0,0,
0,0,0,0,0,0,0,0,0,0,0,262,259,259,259,259,
0,0,0,0,0,0,0,0,0,0,0,278,259,259,259,259,
0,0,0,0,0,0,0,0,0,0,0,278,259,259,0,259,
0,0,0,0,0,0,0,0,0,0,0,278,259,259,0,0,
0,0,0,0,0,0,0,0,0,0,0,278,259,276,0,0,
0,0,0,0,0,0,0,0,0,0,0,278,259,276,0,0,
0,0,0,0,0,0,0,0,0,0,305,294,259,292,306,0
</chunk>
   <chunk x="11376" y="288" width="16" height="16">
0,0,0,0,259,259,259,259,259,259,259,0,0,0,259,0,
0,0,0,0,0,0,259,259,259,0,0,0,0,259,259,259,
0,0,0,0,0,0,262,259,260,0,0,0,0,259,259,259,
0,0,0,0,0,0,278,259,276,0,0,0,305,311,259,313,
293,293,306,0,0,0,278,259,276,0,0,0,278,259,259,259,
259,259,259,0,0,293,294,259,292,293,306,0,278,259,259,259,
0,259,259,0,0,259,259,259,259,259,276,0,259,259,259,259,
0,259,259,0,0,0,0,259,259,259,276,258,258,258,258,0,
259,259,259,0,0,0,0,259,259,0,0,273,273,273,273,0,
259,259,259,259,259,259,259,259,259,0,0,289,289,289,289,0,
259,259,259,259,259,259,259,259,259,259,259,293,293,293,306,0,
259,259,259,259,259,0,0,259,259,259,259,259,259,259,276,0,
259,259,259,259,259,0,0,0,259,259,0,0,0,259,276,0,
0,0,259,259,259,259,259,259,259,259,259,0,0,259,276,0,
0,0,0,259,259,259,259,259,259,259,259,259,259,259,276,0,
0,0,0,0,0,0,0,259,259,259,259,259,259,259,276,0
</chunk>
   <chunk x="11392" y="288" width="16" height="16">
0,0,0,0,0,0,0,0,0,0,259,0,0,0,0,0,
0,0,0,259,259,259,0,0,0,259,259,259,0,0,0,0,
0,0,0,259,259,259,0,0,0,259,259,259,0,0,0,0,
306,0,305,311,259,313,306,0,305,311,259,313,306,0,0,0,
276,0,278,259,259,259,276,0,278,259,259,259,276,0,0,0,
276,0,278,259,259,259,276,0,278,259,259,259,276,0,0,0,
259,0,259,259,259,259,259,0,259,259,259,259,259,0,0,0,
0,0,0,0,0,0,0,0,0,0,0,0,0,0,0,0,
0,0,0,0,0,0,0,0,0,0,0,0,0,0,0,0,
0,0,0,0,0,0,0,0,0,0,0,0,0,0,0,0,
0,0,0,0,0,0,0,0,0,0,0,0,0,0,0,307,
0,0,0,0,0,0,0,0,0,0,0,0,0,0,0,342,
0,0,0,0,0,0,0,0,0,0,0,0,0,0,0,342,
0,0,0,0,0,0,0,0,0,0,0,0,0,0,0,342,
0,0,0,0,0,0,0,0,0,0,0,0,0,0,0,342,
0,0,0,307,357,308,0,0,0,0,307,357,308,0,0,342
</chunk>
   <chunk x="11408" y="288" width="16" height="16">
0,307,358,341,341,356,308,0,0,0,0,0,0,0,0,0,
0,342,341,341,341,341,340,0,0,0,0,0,0,0,0,0,
0,342,341,341,341,341,340,0,0,0,0,0,0,0,0,0,
0,342,341,341,341,341,340,0,0,0,0,0,0,0,0,0,
0,0,0,341,341,0,0,0,0,0,0,0,0,0,0,0,
0,0,0,326,324,0,0,0,0,0,0,0,0,0,0,0,
0,0,0,342,340,0,0,0,0,0,0,0,0,0,0,0,
0,0,0,342,340,0,0,0,0,0,0,0,0,0,0,0,
0,0,307,358,356,357,308,0,0,0,0,0,0,0,0,0,
0,0,342,341,341,341,340,0,0,0,0,0,0,0,0,0,
357,357,358,341,341,341,340,0,0,0,0,0,0,0,0,0,
341,341,341,341,341,341,340,0,0,0,0,0,0,0,0,0,
341,341,0,0,0,0,0,0,0,0,0,0,0,0,0,0,
341,324,0,0,0,0,0,0,0,0,0,0,0,0,0,0,
341,340,0,0,0,0,0,0,0,0,0,0,0,0,0,0,
341,340,0,0,0,0,0,0,0,0,259,259,0,0,0,0
</chunk>
   <chunk x="11360" y="304" width="16" height="16">
0,0,0,0,0,0,0,0,0,305,294,259,259,259,292,306,
0,0,0,0,0,0,0,0,0,278,259,259,259,259,259,276,
0,0,0,0,0,0,0,0,0,278,259,259,259,259,259,276,
0,0,0,0,0,0,0,0,0,278,259,259,259,259,259,276,
0,0,0,0,0,0,0,0,0,0,259,259,259,259,259,0,
0,0,0,0,0,0,0,0,0,0,0,0,0,0,0,0,
0,0,0,0,0,0,0,0,0,0,0,0,0,0,0,0,
0,0,0,0,0,0,0,0,0,0,0,0,0,0,0,0,
0,0,0,0,0,0,0,0,0,0,0,0,0,0,0,0,
0,0,0,0,0,0,0,0,0,0,0,0,0,0,0,0,
0,0,0,0,0,0,0,0,0,0,0,0,0,0,0,0,
0,0,0,0,0,0,0,0,0,0,0,0,0,0,0,0,
0,0,0,0,0,0,0,0,0,0,0,0,0,0,0,0,
0,0,0,0,0,0,0,0,0,0,0,0,0,0,0,0,
0,0,0,0,0,0,0,0,0,0,0,0,0,0,0,0,
0,0,0,0,0,0,0,0,0,0,0,0,0,0,0,0
</chunk>
   <chunk x="11376" y="304" width="16" height="16">
0,0,0,0,0,0,0,0,0,0,0,259,259,259,0,0,
0,0,0,0,0,0,0,0,0,0,0,262,259,260,0,0,
0,0,0,0,0,0,0,0,0,0,0,278,259,276,0,0,
0,0,0,0,0,0,0,0,0,0,0,278,259,276,0,0,
0,0,0,0,0,0,0,0,0,0,0,294,259,292,0,0,
0,0,0,0,0,0,0,0,0,0,0,259,259,259,0,0,
0,0,0,0,0,0,0,0,0,0,0,259,259,259,0,0,
0,0,0,0,0,0,0,0,259,259,259,259,259,259,0,0,
0,0,0,0,0,0,0,259,259,259,259,259,259,259,0,0,
0,0,0,0,0,0,0,259,259,259,259,259,259,0,0,0,
0,0,0,0,0,0,0,259,259,259,0,0,0,0,0,0,
0,0,0,0,0,0,0,259,259,259,0,0,0,0,0,0,
0,0,0,0,0,0,0,259,259,259,259,259,259,259,0,0,
0,0,0,0,0,0,0,259,259,259,259,259,259,259,259,0,
0,0,0,0,0,0,0,0,259,259,259,259,259,259,259,0,
0,0,0,0,0,0,0,0,0,0,0,0,259,259,259,292
</chunk>
   <chunk x="11392" y="304" width="16" height="16">
0,0,307,358,341,356,308,0,0,307,358,341,356,308,0,342,
0,0,342,341,341,341,356,357,357,358,341,341,341,340,0,342,
0,0,342,341,341,341,341,341,341,341,341,341,341,340,0,342,
0,0,0,0,341,341,0,0,0,0,341,341,0,0,0,342,
0,0,0,0,326,324,0,0,0,0,326,324,0,0,0,342,
0,0,0,0,342,340,0,0,0,0,342,340,0,0,0,342,
0,0,0,0,342,340,0,0,0,0,342,340,0,0,0,342,
0,0,307,357,358,356,357,357,357,357,358,356,357,357,357,358,
0,0,342,341,341,341,341,341,341,341,341,341,341,341,341,341,
0,0,0,341,341,341,0,0,0,0,0,0,0,0,0,0,
0,0,0,326,341,324,0,0,0,0,0,0,0,0,0,0,
0,0,0,342,341,340,0,0,0,0,0,0,0,0,0,0,
0,0,0,342,341,340,0,0,0,0,0,0,0,0,0,0,
0,305,293,358,341,356,308,0,0,0,0,0,0,0,0,0,
0,259,341,341,341,341,340,0,0,0,0,0,0,0,0,0,
293,294,341,341,341,341,340,0,0,0,0,0,0,0,0,0
</chunk>
   <chunk x="11408" y="304" width="16" height="16">
341,340,0,307,357,357,357,308,0,307,341,308,0,0,0,0,
341,340,0,342,341,341,341,340,0,342,341,340,0,0,0,0,
341,356,357,358,341,341,341,340,0,342,341,340,0,0,0,0,
341,341,341,341,341,341,341,340,0,342,341,340,0,0,0,0,
341,341,0,341,341,341,341,340,0,342,341,340,0,0,0,0,
341,324,0,0,0,0,0,0,0,0,0,0,0,0,0,0,
341,340,0,0,0,0,0,0,0,0,0,0,0,0,0,0,
341,340,0,0,0,0,0,0,0,0,0,0,0,0,0,0,
341,340,0,0,0,0,0,0,0,0,0,0,0,0,0,0,
0,0,0,0,0,0,0,0,0,0,0,0,0,0,0,0,
0,0,0,0,0,0,0,0,0,0,0,0,0,0,0,0,
0,0,0,0,0,0,0,0,0,0,0,0,0,0,0,0,
0,0,0,0,0,0,0,0,0,0,0,0,0,0,0,0,
0,0,0,0,0,0,0,0,0,0,0,0,0,0,0,0,
0,0,0,0,0,0,0,0,0,0,0,0,0,0,0,0,
0,0,0,0,0,0,0,0,0,0,0,0,0,0,0,0
</chunk>
   <chunk x="11376" y="320" width="16" height="16">
0,0,0,0,0,0,0,0,0,0,0,0,259,259,259,259,
0,0,0,0,0,0,0,0,0,0,0,0,0,259,259,259,
0,0,0,0,0,0,0,0,0,0,0,0,0,0,0,0,
0,0,0,0,0,0,0,0,0,0,0,0,0,0,0,0,
0,0,0,0,0,0,0,0,0,0,0,0,0,0,0,0,
0,0,0,0,0,0,0,0,0,0,0,0,0,0,0,0,
0,0,0,0,0,0,0,0,0,0,0,0,0,0,0,0,
0,0,0,0,0,0,0,0,0,0,0,0,0,0,0,0,
0,0,0,0,0,0,0,0,0,0,0,0,0,0,0,0,
0,0,0,0,0,0,0,0,0,0,0,0,0,0,0,0,
0,0,0,0,0,0,0,0,0,0,0,0,0,0,0,0,
0,0,0,0,0,0,0,0,0,0,0,0,0,0,0,0,
0,0,0,0,0,0,0,0,0,0,0,0,0,0,0,0,
0,0,0,0,0,0,0,0,0,0,0,0,0,0,0,0,
0,0,0,0,0,0,0,0,0,0,0,0,0,0,0,0,
0,0,0,0,0,0,0,0,0,0,0,0,0,0,0,0
</chunk>
   <chunk x="11392" y="320" width="16" height="16">
259,341,341,341,341,341,340,0,0,0,0,0,0,0,0,0,
259,259,341,341,341,341,276,0,0,0,0,0,0,0,0,0,
0,259,259,341,341,259,276,0,0,0,0,0,0,0,0,0,
0,0,0,0,0,0,0,0,0,0,0,0,0,0,0,0,
0,0,0,0,0,0,0,0,0,0,0,0,0,0,0,0,
0,0,0,0,0,0,0,0,0,0,0,0,0,0,0,0,
0,0,0,0,0,0,0,0,0,0,0,0,0,0,0,0,
0,0,0,0,0,0,0,0,0,0,0,0,0,0,0,0,
0,0,0,0,0,0,0,0,0,0,0,0,0,0,0,0,
0,0,0,0,0,0,0,0,0,0,0,0,0,0,0,0,
0,0,0,0,0,0,0,0,0,0,0,0,0,0,0,0,
0,0,0,0,0,0,0,0,0,0,0,0,0,0,0,0,
0,0,0,0,0,0,0,0,0,0,0,0,0,0,0,0,
0,0,0,0,0,0,0,0,0,0,0,0,0,0,0,0,
0,0,0,0,0,0,0,0,0,0,0,0,0,0,0,0,
0,0,0,0,0,0,0,0,0,0,0,0,0,0,0,0
</chunk>
  </data>
 </layer>
 <layer id="32" name="Декор Пола" width="100" height="100">
  <data encoding="csv">
   <chunk x="11376" y="272" width="16" height="16">
0,0,0,0,0,0,0,0,0,0,0,0,0,0,0,0,
0,0,0,0,0,0,0,0,0,0,0,0,0,0,0,0,
0,0,0,0,0,0,0,0,0,0,0,0,0,0,0,0,
0,0,0,0,0,0,0,0,0,0,0,0,0,0,0,0,
0,0,0,0,0,0,0,0,0,0,0,0,0,0,0,0,
0,0,0,0,0,0,0,0,0,0,0,0,0,0,0,0,
0,0,0,0,0,0,0,0,0,0,0,0,36,0,0,354,
0,0,0,0,0,0,0,0,0,0,0,0,0,0,0,0,
0,0,0,0,0,0,0,0,0,0,0,0,0,0,0,0,
0,0,0,0,0,0,0,0,0,0,0,0,0,0,0,0,
0,0,0,0,0,0,0,0,0,0,0,0,0,0,0,0,
0,0,0,0,0,0,0,0,0,0,0,0,0,0,0,0,
0,0,0,0,0,0,0,0,0,0,0,0,0,0,355,0,
0,0,0,0,0,0,0,0,0,0,0,355,0,0,0,0,
0,0,0,0,0,0,0,0,0,0,0,0,0,0,0,0,
0,0,0,0,0,0,0,0,0,0,0,0,0,0,0,0
</chunk>
   <chunk x="11392" y="272" width="16" height="16">
0,0,0,0,0,0,0,0,0,0,0,0,0,0,0,0,
0,0,0,0,0,0,0,0,0,0,0,0,0,0,0,0,
0,0,0,0,0,0,0,0,0,0,0,0,0,0,0,0,
0,0,0,0,0,0,0,0,0,0,0,0,0,0,0,0,
0,0,0,0,0,0,0,0,0,0,0,0,0,0,0,0,
0,0,0,0,0,0,0,0,0,0,0,0,0,0,0,0,
312,0,0,355,403,0,354,0,0,0,0,0,0,0,0,0,
355,0,0,0,0,0,355,0,0,0,0,0,0,0,0,0,
0,0,0,0,0,0,0,0,0,0,0,0,0,0,0,0,
0,0,0,0,0,0,0,0,0,0,0,0,0,0,0,0,
0,0,0,0,0,0,0,0,0,0,0,0,0,0,0,0,
0,0,0,0,0,0,0,0,0,0,0,0,0,0,0,0,
0,0,0,0,0,0,0,0,0,0,0,0,0,0,0,0,
0,0,0,0,0,0,0,0,0,0,0,0,0,0,0,0,
0,0,0,0,0,0,0,0,0,0,0,0,0,0,0,0,
0,0,0,0,0,0,0,0,0,0,0,0,0,0,0,0
</chunk>
   <chunk x="11376" y="288" width="16" height="16">
0,0,0,0,0,0,0,0,0,0,0,0,0,0,0,0,
0,0,0,0,0,0,0,0,0,0,0,0,0,0,0,0,
0,0,0,0,0,0,0,0,0,0,0,0,0,0,0,0,
0,0,0,0,0,0,0,0,0,0,0,0,0,0,0,0,
0,0,0,0,0,0,0,0,0,0,0,0,0,0,0,0,
0,0,0,0,0,0,0,0,0,0,0,0,0,0,0,0,
0,0,0,0,0,0,0,0,0,0,0,0,0,0,0,0,
0,0,0,0,0,0,0,0,0,0,0,0,0,0,0,0,
0,0,0,0,0,0,0,0,0,0,0,0,0,0,0,0,
0,0,0,0,0,0,0,0,0,0,0,0,0,0,0,0,
0,0,0,0,354,0,0,0,0,0,0,0,0,0,0,0,
0,0,0,0,0,0,0,0,0,0,0,0,0,0,0,0,
0,0,0,0,0,0,0,0,0,0,0,0,0,0,0,0,
0,0,0,0,0,0,0,0,0,0,0,0,0,0,0,0,
0,0,0,0,0,0,0,0,0,0,0,0,0,0,0,0,
0,0,0,0,0,0,0,0,0,0,0,0,0,0,0,0
</chunk>
   <chunk x="11392" y="288" width="16" height="16">
0,0,0,0,0,0,0,0,0,0,0,0,0,0,0,0,
0,0,0,0,371,0,0,0,0,0,0,0,0,0,0,0,
0,0,0,0,386,0,0,0,0,0,0,0,0,0,0,0,
0,0,0,402,387,386,372,0,0,0,371,0,0,0,0,0,
0,0,0,0,402,387,404,0,0,2147484036,387,388,0,0,0,0,
0,0,0,0,0,403,0,0,0,0,403,0,0,0,0,0,
0,0,0,0,0,0,0,0,0,0,0,0,0,0,0,0,
0,0,0,0,0,0,0,0,0,0,0,0,0,0,0,0,
0,0,0,0,0,0,0,0,0,0,0,0,0,0,0,0,
0,0,0,0,0,0,0,0,0,0,0,0,0,0,0,0,
0,0,0,0,0,0,0,0,0,0,0,0,0,0,0,404,
0,0,0,0,0,0,0,0,0,0,0,0,0,0,0,0,
0,0,0,0,0,0,0,0,0,0,0,0,0,0,0,0,
0,0,0,0,0,0,0,0,0,0,0,0,0,0,0,355,
0,0,0,0,0,0,0,0,0,0,0,0,0,0,0,0,
0,0,0,404,371,402,0,0,0,0,371,371,371,0,0,372
</chunk>
   <chunk x="11408" y="288" width="16" height="16">
0,0,0,0,0,355,0,0,0,0,0,0,0,0,0,0,
0,0,354,0,0,0,0,0,0,0,0,0,0,0,0,0,
0,0,0,0,0,0,0,0,0,0,0,0,0,0,0,0,
0,0,0,0,0,0,0,0,0,0,0,0,0,0,0,0,
0,0,0,0,0,0,0,0,0,0,0,0,0,0,0,0,
0,0,0,0,0,0,0,0,0,0,0,0,0,0,0,0,
0,0,0,0,0,0,0,0,0,0,0,0,0,0,0,0,
0,0,0,0,0,0,0,0,0,0,0,0,0,0,0,0,
0,0,404,0,0,0,0,0,0,0,0,0,0,0,0,0,
0,0,0,0,0,0,0,0,0,0,0,0,0,0,0,0,
0,354,0,0,0,0,0,0,0,0,0,0,0,0,0,0,
0,0,0,0,0,0,0,0,0,0,0,0,0,0,0,0,
0,0,0,0,0,0,0,0,0,0,0,0,0,0,0,0,
0,0,0,0,0,0,0,0,0,0,0,0,0,0,0,0,
0,402,0,0,0,0,0,0,0,0,0,0,0,0,0,0,
0,0,0,0,0,0,0,0,0,0,0,0,0,0,0,0
</chunk>
   <chunk x="11360" y="304" width="16" height="16">
0,0,0,0,0,0,0,0,0,0,0,0,0,0,355,0,
0,0,0,0,0,0,0,0,0,0,354,0,0,0,0,0,
0,0,0,0,0,0,0,0,0,0,0,0,0,0,0,0,
0,0,0,0,0,0,0,0,0,0,0,0,0,0,0,0,
0,0,0,0,0,0,0,0,0,0,0,0,0,0,0,0,
0,0,0,0,0,0,0,0,0,0,0,0,0,0,0,0,
0,0,0,0,0,0,0,0,0,0,0,0,0,0,0,0,
0,0,0,0,0,0,0,0,0,0,0,0,0,0,0,0,
0,0,0,0,0,0,0,0,0,0,0,0,0,0,0,0,
0,0,0,0,0,0,0,0,0,0,0,0,0,0,0,0,
0,0,0,0,0,0,0,0,0,0,0,0,0,0,0,0,
0,0,0,0,0,0,0,0,0,0,0,0,0,0,0,0,
0,0,0,0,0,0,0,0,0,0,0,0,0,0,0,0,
0,0,0,0,0,0,0,0,0,0,0,0,0,0,0,0,
0,0,0,0,0,0,0,0,0,0,0,0,0,0,0,0,
0,0,0,0,0,0,0,0,0,0,0,0,0,0,0,0
</chunk>
   <chunk x="11376" y="304" width="16" height="16">
0,0,0,0,0,0,0,0,0,0,0,0,0,0,0,0,
0,0,0,0,0,0,0,0,0,0,0,0,0,0,0,0,
0,0,0,0,0,0,0,0,0,0,0,0,0,0,0,0,
0,0,0,0,0,0,0,0,0,0,0,0,0,0,0,0,
0,0,0,0,0,0,0,0,0,0,0,0,0,0,0,0,
0,0,0,0,0,0,0,0,0,0,0,0,355,0,0,0,
0,0,0,0,0,0,0,0,0,0,0,0,0,0,0,0,
0,0,0,0,0,0,0,0,0,0,0,0,0,0,0,0,
0,0,0,0,0,0,0,0,0,0,0,0,0,0,0,0,
0,0,0,0,0,0,0,0,354,0,0,0,0,0,0,0,
0,0,0,0,0,0,0,0,0,0,0,0,0,0,0,0,
0,0,0,0,0,0,0,0,0,0,0,0,0,0,0,0,
0,0,0,0,0,0,0,0,0,0,0,0,0,0,0,0,
0,0,0,0,0,0,0,0,0,0,0,0,0,0,0,0,
0,0,0,0,0,0,0,0,0,0,0,0,0,354,0,0,
0,0,0,0,0,0,0,0,0,0,0,0,0,0,0,0
</chunk>
   <chunk x="11392" y="304" width="16" height="16">
0,0,0,2147484036,387,388,0,0,0,370,386,386,386,386,0,388,
0,0,388,0,403,0,0,370,386,387,404,403,402,386,0,403,
0,0,372,0,0,0,370,386,387,387,404,0,0,402,0,371,
0,0,0,0,0,2147484036,0,0,0,0,388,0,0,0,0,387,
0,0,0,0,0,2147484036,0,0,0,0,403,0,0,0,0,403,
0,0,0,0,0,402,0,0,0,0,0,0,0,0,0,0,
0,0,0,0,0,0,0,0,0,0,0,0,0,0,0,0,
0,0,0,0,0,0,0,0,0,0,0,0,0,0,0,0,
0,0,0,0,0,0,0,0,0,0,0,0,0,0,370,386,
0,0,0,0,0,0,0,0,0,0,0,0,0,0,0,0,
0,0,0,0,0,0,0,0,0,0,0,0,0,0,0,0,
0,0,0,0,0,0,0,0,0,0,0,0,0,0,0,0,
0,0,0,0,0,0,0,0,0,0,0,0,0,0,0,0,
0,0,0,0,0,0,0,0,0,0,0,0,0,0,0,0,
0,0,0,0,0,0,0,0,0,0,0,0,0,0,0,0,
0,0,0,0,0,0,0,0,0,0,0,0,0,0,0,0
</chunk>
   <chunk x="11408" y="304" width="16" height="16">
0,403,0,354,402,387,386,404,0,0,0,0,0,0,0,0,
0,0,0,370,387,387,404,403,0,376,377,378,0,0,0,0,
0,0,403,404,403,403,0,0,0,392,393,394,0,0,0,0,
0,0,0,0,0,0,0,0,0,408,409,410,0,0,0,0,
0,2147484036,0,0,0,355,0,0,0,0,0,0,0,0,0,0,
0,403,0,0,0,0,0,0,0,0,0,0,0,0,0,0,
0,0,0,0,0,0,0,0,0,0,0,0,0,0,0,0,
0,0,0,0,0,0,0,0,0,0,0,0,0,0,0,0,
372,370,0,0,0,0,0,0,0,0,0,0,0,0,0,0,
0,0,0,0,0,0,0,0,0,0,0,0,0,0,0,0,
0,0,0,0,0,0,0,0,0,0,0,0,0,0,0,0,
0,0,0,0,0,0,0,0,0,0,0,0,0,0,0,0,
0,0,0,0,0,0,0,0,0,0,0,0,0,0,0,0,
0,0,0,0,0,0,0,0,0,0,0,0,0,0,0,0,
0,0,0,0,0,0,0,0,0,0,0,0,0,0,0,0,
0,0,0,0,0,0,0,0,0,0,0,0,0,0,0,0
</chunk>
  </data>
 </layer>
 <layer id="24" name="Стены" width="100" height="100">
  <data encoding="csv">
   <chunk x="11360" y="272" width="16" height="16">
0,0,0,0,0,0,0,0,0,0,0,0,0,0,0,0,
0,0,0,0,0,0,0,0,0,0,0,0,0,0,258,258,
0,0,0,0,0,0,0,0,0,0,0,0,258,258,273,273,
0,0,0,0,0,0,0,0,0,258,258,258,273,273,289,289,
0,0,0,0,0,0,0,0,0,273,273,273,289,289,0,0,
0,0,0,0,0,0,0,0,0,289,289,289,0,0,0,0,
0,0,0,0,0,0,0,0,257,0,0,0,0,0,0,0,
0,0,0,0,0,0,0,0,257,0,0,0,0,0,0,0,
0,0,0,0,0,0,0,0,0,257,257,257,0,0,0,0,
0,0,0,0,0,0,0,0,0,0,0,0,257,257,257,257,
0,0,0,0,0,0,0,0,0,258,258,258,258,258,0,258,
0,0,0,0,0,0,0,0,0,273,273,273,273,273,0,273,
0,0,0,0,0,0,0,0,0,289,289,289,289,289,0,289,
0,0,0,0,0,0,0,0,257,0,0,0,0,0,257,0,
0,0,0,0,0,0,0,0,257,0,0,259,259,259,257,0,
0,0,0,0,0,0,0,0,257,0,0,259,259,259,257,257
</chunk>
   <chunk x="11376" y="272" width="16" height="16">
0,0,0,0,0,0,0,0,0,0,0,0,0,0,0,0,
258,258,258,258,0,258,258,258,258,258,0,0,0,0,0,0,
322,273,273,322,0,0,0,0,0,0,0,0,0,0,0,0,
289,289,338,337,0,0,0,0,0,0,0,0,258,258,258,258,
0,0,0,0,257,0,0,0,0,0,257,0,273,273,273,274,
0,0,0,0,257,0,0,0,0,0,257,0,289,289,289,337,
0,0,0,0,257,0,0,0,0,0,257,257,0,0,0,0,
0,0,0,257,257,257,257,257,257,257,257,257,0,0,0,0,
0,0,0,257,258,258,263,264,265,258,258,257,0,0,0,0,
0,0,0,257,273,273,279,280,281,273,273,257,0,0,0,0,
263,264,265,258,289,289,295,296,297,289,289,258,258,263,0,265,
279,365,281,273,0,0,0,0,0,0,0,273,273,279,0,267,
295,381,297,289,0,0,0,0,0,0,0,289,289,295,0,299,
0,0,0,0,0,0,0,0,0,0,0,0,0,0,0,0,
0,0,0,0,0,0,0,0,0,0,0,0,0,0,0,0,
257,257,257,257,0,0,0,0,0,0,0,0,0,0,0,0
</chunk>
   <chunk x="11392" y="272" width="16" height="16">
0,0,0,0,0,0,0,0,0,0,0,0,0,0,0,0,
0,0,0,0,0,0,0,0,0,0,0,0,0,0,0,0,
0,0,0,0,0,0,0,0,0,0,0,0,0,0,0,0,
258,0,258,258,258,258,258,0,258,258,258,258,258,0,0,0,
321,0,273,273,275,273,273,0,273,273,273,273,273,0,0,0,
338,0,289,289,289,289,289,0,289,289,289,289,289,0,0,0,
0,257,0,0,0,0,0,257,0,0,0,0,0,257,0,0,
0,257,0,0,0,0,0,257,0,0,0,0,0,257,0,0,
0,257,0,0,0,0,0,257,0,0,0,0,0,257,0,0,
0,257,0,0,0,0,0,257,0,0,0,0,0,257,0,0,
258,258,258,263,264,265,258,258,258,263,0,265,258,0,0,0,
273,273,273,279,280,281,273,273,273,279,0,267,273,0,0,0,
289,289,289,295,296,297,290,289,289,295,0,299,289,0,0,0,
0,0,0,0,0,0,0,0,0,0,0,0,0,257,0,0,
0,0,0,0,0,0,0,0,0,0,0,0,0,257,0,0,
0,0,0,0,0,0,0,0,0,0,0,0,0,257,0,0
</chunk>
   <chunk x="11408" y="272" width="16" height="16">
0,0,0,0,0,0,0,0,0,0,0,0,0,0,0,0,
0,0,0,0,0,0,0,0,0,0,0,0,0,0,0,0,
0,0,0,0,0,0,0,0,0,0,0,0,0,0,0,0,
0,0,0,0,0,0,0,0,0,0,0,0,0,0,0,0,
0,0,0,0,0,0,0,0,0,0,0,0,0,0,0,0,
0,0,0,0,0,0,0,0,0,0,0,0,0,0,0,0,
0,0,0,0,0,0,0,0,0,0,0,0,0,0,0,0,
0,0,258,0,0,258,0,0,0,0,0,0,0,0,0,0,
0,0,273,0,0,273,0,0,0,0,0,0,0,0,0,0,
0,0,289,0,0,289,0,0,0,0,0,0,0,0,0,0,
0,257,0,0,0,0,257,0,0,0,0,0,0,0,0,0,
0,257,0,0,0,0,257,0,0,0,0,0,0,0,0,0,
0,257,0,0,0,0,257,0,0,0,0,0,0,0,0,0,
0,258,0,0,0,0,258,0,0,0,0,0,0,0,0,0,
0,273,0,0,0,0,273,0,0,0,0,0,0,0,0,0,
0,289,0,0,0,0,289,0,0,0,0,0,0,0,0,0
</chunk>
   <chunk x="11360" y="288" width="16" height="16">
0,0,0,0,0,0,0,0,0,257,257,0,0,0,0,0,
0,0,0,0,0,0,0,0,0,0,258,263,264,265,258,258,
0,0,0,0,0,0,0,0,0,0,323,284,287,288,273,273,
0,0,0,0,0,0,0,0,0,0,339,300,303,304,339,339,
0,0,0,0,0,0,0,0,0,257,0,0,0,0,0,0,
0,0,0,0,0,0,0,0,0,257,0,0,0,0,0,0,
0,0,0,0,0,0,0,0,0,0,0,0,0,0,0,0,
0,0,0,0,0,0,0,0,0,0,0,0,0,0,0,0,
0,0,0,0,0,0,0,0,0,0,257,0,0,0,0,0,
0,0,0,0,0,0,0,0,0,0,257,0,0,0,0,0,
0,0,0,0,0,0,0,0,0,0,257,0,0,0,0,0,
0,0,0,0,0,0,0,0,0,0,257,0,0,0,257,0,
0,0,0,0,0,0,0,0,0,257,258,0,0,0,258,257,
0,0,0,0,0,0,0,0,0,258,273,0,0,0,273,258,
0,0,0,0,0,0,0,0,0,273,289,0,0,0,289,273,
0,0,0,0,0,0,0,0,0,289,0,0,0,0,0,289
</chunk>
   <chunk x="11376" y="288" width="16" height="16">
0,0,0,257,0,0,0,0,0,0,0,257,258,263,0,265,
258,258,258,257,257,257,0,0,0,257,257,0,273,279,0,267,
273,273,273,258,258,258,0,0,0,258,258,0,291,295,0,299,
339,289,339,273,323,273,0,0,0,273,323,257,0,0,0,0,
0,0,0,339,339,339,0,0,0,339,339,257,0,0,0,0,
0,0,0,0,0,0,0,0,0,0,0,257,0,0,0,0,
0,0,0,0,0,0,0,0,0,0,0,257,0,0,0,0,
0,0,0,0,0,0,0,0,0,0,0,0,0,0,0,0,
0,0,0,0,0,0,0,0,0,0,0,0,0,0,0,0,
0,0,0,0,0,0,0,0,0,0,0,339,289,339,339,0,
0,0,0,0,0,0,0,0,0,0,0,0,0,0,0,257,
0,0,0,0,0,0,0,0,0,0,0,0,0,0,0,257,
0,0,0,0,0,0,0,0,0,0,0,0,0,0,0,257,
257,257,0,0,0,0,0,0,0,0,0,0,0,0,0,257,
0,0,257,0,0,0,0,0,0,0,0,0,0,0,0,257,
0,0,0,257,257,257,257,0,0,0,0,0,0,0,0,257
</chunk>
   <chunk x="11392" y="288" width="16" height="16">
258,0,258,263,264,265,258,0,258,263,264,265,258,0,0,0,
273,0,261,279,280,281,273,0,273,279,280,281,273,0,0,0,
289,0,289,295,296,297,289,0,289,295,296,297,289,0,0,0,
0,257,0,0,0,0,0,257,0,0,0,0,0,257,0,0,
0,257,0,0,0,0,0,257,0,0,0,0,0,257,0,0,
0,257,0,0,0,0,0,257,0,0,0,0,0,257,0,0,
0,0,0,0,0,0,0,0,0,0,0,0,0,0,0,0,
0,0,0,0,0,0,0,0,0,0,0,0,0,0,0,258,
0,0,0,0,0,0,0,0,0,0,0,0,0,0,0,261,
0,0,0,0,0,0,0,0,0,0,0,0,0,0,0,289,
0,0,0,0,0,0,0,0,0,0,0,0,0,0,257,0,
0,0,0,0,0,0,0,0,0,0,0,0,0,0,257,0,
0,0,0,258,258,258,0,0,0,0,258,258,258,0,257,0,
0,0,258,273,274,273,258,0,0,258,273,273,273,258,257,0,
0,0,273,289,289,289,273,258,258,273,289,289,289,273,257,0,
0,0,289,0,0,0,289,273,273,289,0,0,0,289,257,0
</chunk>
   <chunk x="11408" y="288" width="16" height="16">
257,0,0,0,0,0,0,257,0,0,0,0,0,0,0,0,
257,0,0,0,0,0,0,257,0,0,0,0,0,0,0,0,
257,0,0,0,0,0,0,257,0,0,0,0,0,0,0,0,
257,0,0,0,0,0,0,257,0,0,0,0,0,0,0,0,
0,257,257,0,0,257,257,0,0,0,0,0,0,0,0,0,
0,0,258,0,0,258,258,0,0,0,0,0,0,0,0,0,
0,0,273,0,0,273,273,0,0,0,0,0,0,0,0,0,
258,258,289,0,0,289,289,0,0,0,0,0,0,0,0,0,
274,273,0,0,0,0,0,257,0,0,0,0,0,0,0,0,
289,289,0,0,0,0,0,257,0,0,0,0,0,0,0,0,
0,0,0,0,0,0,0,257,0,0,0,0,0,0,0,0,
0,0,0,0,0,0,0,257,0,0,0,0,0,0,0,0,
0,0,257,257,257,257,257,257,0,0,0,0,0,0,0,0,
0,0,257,258,258,258,258,258,0,263,264,265,0,0,0,0,
0,0,257,273,273,273,261,273,0,284,285,286,0,0,0,0,
0,0,258,277,289,289,289,291,0,300,301,302,0,0,0,0
</chunk>
   <chunk x="11360" y="304" width="16" height="16">
0,0,0,0,0,0,0,0,257,0,0,0,0,0,0,0,
0,0,0,0,0,0,0,0,257,0,0,0,0,0,0,0,
0,0,0,0,0,0,0,0,257,0,0,0,0,0,0,0,
0,0,0,0,0,0,0,0,257,0,0,0,0,0,0,0,
0,0,0,0,0,0,0,0,0,257,0,0,0,0,0,257,
0,0,0,0,0,0,0,0,0,0,257,257,257,257,257,0,
0,0,0,0,0,0,0,0,0,0,0,0,0,0,0,0,
0,0,0,0,0,0,0,0,0,0,0,0,0,0,0,0,
0,0,0,0,0,0,0,0,0,0,0,0,0,0,0,0,
0,0,0,0,0,0,0,0,0,0,0,0,0,0,0,0,
0,0,0,0,0,0,0,0,0,0,0,0,0,0,0,0,
0,0,0,0,0,0,0,0,0,0,0,0,0,0,0,0,
0,0,0,0,0,0,0,0,0,0,0,0,0,0,0,0,
0,0,0,0,0,0,0,0,0,0,0,0,0,0,0,0,
0,0,0,0,0,0,0,0,0,0,0,0,0,0,0,0,
0,0,0,0,0,0,0,0,0,0,0,0,0,0,0,0
</chunk>
   <chunk x="11376" y="304" width="16" height="16">
257,0,0,0,0,0,0,257,257,257,257,0,0,0,257,0,
257,0,0,0,0,0,0,0,0,0,258,0,0,0,258,0,
257,0,0,0,0,0,0,0,0,0,273,0,0,0,273,0,
257,0,0,0,0,0,0,0,0,0,289,0,0,0,289,0,
0,0,0,0,0,0,0,0,0,0,257,0,0,0,257,0,
0,0,0,0,0,0,0,0,0,0,257,0,0,0,257,0,
0,0,0,0,0,0,0,0,257,257,257,0,0,0,257,0,
0,0,0,0,0,0,0,257,0,0,0,0,0,0,257,0,
0,0,0,0,0,0,257,0,0,0,0,0,0,0,257,0,
0,0,0,0,0,0,257,0,0,0,0,0,0,257,0,0,
0,0,0,0,0,0,257,0,0,0,257,257,257,0,0,0,
0,0,0,0,0,0,257,0,0,0,257,257,257,257,0,0,
0,0,0,0,0,0,257,0,0,0,0,0,0,0,257,0,
0,0,0,0,0,0,257,0,0,0,0,0,0,0,0,257,
0,0,0,0,0,0,0,257,0,0,0,0,0,0,0,257,
0,0,0,0,0,0,0,0,257,257,257,257,0,0,0,0
</chunk>
   <chunk x="11392" y="304" width="16" height="16">
0,257,0,0,0,0,0,277,289,0,0,0,0,0,257,0,
0,257,0,0,0,0,0,0,0,0,0,0,0,0,257,0,
0,257,0,0,0,0,0,0,0,0,0,0,0,0,257,0,
0,0,257,257,0,0,257,257,257,257,0,0,257,257,257,0,
0,0,258,258,0,0,258,258,258,258,0,0,258,258,258,0,
0,0,273,273,0,0,273,273,261,273,0,0,273,273,261,0,
0,0,289,289,0,0,289,289,277,289,0,0,289,290,289,0,
0,257,0,0,0,0,0,0,0,0,0,0,0,0,0,0,
0,257,0,0,0,0,0,0,0,0,0,0,0,0,0,0,
0,257,257,0,0,0,257,257,257,257,257,257,257,257,257,257,
0,258,258,0,0,0,258,0,0,0,0,0,0,0,0,0,
257,273,273,0,0,0,273,0,0,0,0,0,0,0,0,0,
258,289,289,0,0,0,289,0,0,0,0,0,0,0,0,0,
273,0,0,0,0,0,0,257,0,0,0,0,0,0,0,0,
289,0,0,0,0,0,0,257,0,0,0,0,0,0,0,0,
0,0,0,0,0,0,0,257,0,0,0,0,0,0,0,0
</chunk>
   <chunk x="11408" y="304" width="16" height="16">
0,0,273,0,0,0,0,0,257,0,0,0,257,0,0,0,
0,0,289,0,0,0,0,0,257,0,0,0,257,0,0,0,
0,0,0,0,0,0,0,0,257,0,0,0,257,0,0,0,
0,0,0,0,0,0,0,0,257,0,0,0,257,0,0,0,
0,0,257,0,0,0,0,0,257,0,0,0,257,0,0,0,
0,0,257,257,257,257,257,257,0,257,257,257,0,0,0,0,
0,0,257,0,0,0,0,0,0,0,0,0,0,0,0,0,
0,0,257,0,0,0,0,0,0,0,0,0,0,0,0,0,
0,0,257,0,0,0,0,0,0,0,0,0,0,0,0,0,
257,257,0,0,0,0,0,0,0,0,0,0,0,0,0,0,
0,0,0,0,0,0,0,0,0,0,0,0,0,0,0,0,
0,0,0,0,0,0,0,0,0,0,0,0,0,0,0,0,
0,0,0,0,0,0,0,0,0,0,0,0,0,0,0,0,
0,0,0,0,0,0,0,0,0,0,0,0,0,0,0,0,
0,0,0,0,0,0,0,0,0,0,0,0,0,0,0,0,
0,0,0,0,0,0,0,0,0,0,0,0,0,0,0,0
</chunk>
   <chunk x="11376" y="320" width="16" height="16">
0,0,0,0,0,0,0,0,0,0,0,257,0,0,0,0,
0,0,0,0,0,0,0,0,0,0,0,0,257,0,0,0,
0,0,0,0,0,0,0,0,0,0,0,0,0,257,257,257,
0,0,0,0,0,0,0,0,0,0,0,0,0,0,0,0,
0,0,0,0,0,0,0,0,0,0,0,0,0,0,0,0,
0,0,0,0,0,0,0,0,0,0,0,0,0,0,0,0,
0,0,0,0,0,0,0,0,0,0,0,0,0,0,0,0,
0,0,0,0,0,0,0,0,0,0,0,0,0,0,0,0,
0,0,0,0,0,0,0,0,0,0,0,0,0,0,0,0,
0,0,0,0,0,0,0,0,0,0,0,0,0,0,0,0,
0,0,0,0,0,0,0,0,0,0,0,0,0,0,0,0,
0,0,0,0,0,0,0,0,0,0,0,0,0,0,0,0,
0,0,0,0,0,0,0,0,0,0,0,0,0,0,0,0,
0,0,0,0,0,0,0,0,0,0,0,0,0,0,0,0,
0,0,0,0,0,0,0,0,0,0,0,0,0,0,0,0,
0,0,0,0,0,0,0,0,0,0,0,0,0,0,0,0
</chunk>
   <chunk x="11392" y="320" width="16" height="16">
0,0,0,0,0,0,0,257,0,0,0,0,0,0,0,0,
0,0,0,0,0,0,0,257,0,0,0,0,0,0,0,0,
257,0,0,0,0,0,0,257,0,0,0,0,0,0,0,0,
0,257,257,257,257,257,257,0,0,0,0,0,0,0,0,0,
0,0,0,0,0,0,0,0,0,0,0,0,0,0,0,0,
0,0,0,0,0,0,0,0,0,0,0,0,0,0,0,0,
0,0,0,0,0,0,0,0,0,0,0,0,0,0,0,0,
0,0,0,0,0,0,0,0,0,0,0,0,0,0,0,0,
0,0,0,0,0,0,0,0,0,0,0,0,0,0,0,0,
0,0,0,0,0,0,0,0,0,0,0,0,0,0,0,0,
0,0,0,0,0,0,0,0,0,0,0,0,0,0,0,0,
0,0,0,0,0,0,0,0,0,0,0,0,0,0,0,0,
0,0,0,0,0,0,0,0,0,0,0,0,0,0,0,0,
0,0,0,0,0,0,0,0,0,0,0,0,0,0,0,0,
0,0,0,0,0,0,0,0,0,0,0,0,0,0,0,0,
0,0,0,0,0,0,0,0,0,0,0,0,0,0,0,0
</chunk>
  </data>
 </layer>
 <layer id="25" name="Проходимые тайлы" width="100" height="100">
  <data encoding="csv">
   <chunk x="11376" y="272" width="16" height="16">
0,0,0,0,0,0,0,0,0,0,0,0,0,0,0,0,
0,0,0,0,0,0,0,0,0,0,0,0,0,0,0,0,
0,0,0,0,0,0,0,0,0,0,0,0,0,0,0,0,
0,0,0,0,0,0,0,0,0,0,0,0,0,0,0,0,
0,0,0,0,0,0,0,0,0,0,0,0,0,0,0,0,
0,0,0,0,0,0,0,0,0,0,0,0,0,0,0,0,
0,0,0,0,0,0,0,0,0,0,0,0,0,0,0,0,
0,0,0,0,0,0,0,0,0,0,0,0,0,0,0,0,
0,0,0,0,0,0,0,0,0,0,0,0,0,0,0,0,
257,257,257,0,0,0,0,0,0,0,0,0,257,257,471,257,
0,0,0,0,0,0,0,0,0,0,0,0,0,0,264,0,
0,0,0,0,0,0,0,0,0,0,0,0,0,0,266,0,
0,0,0,0,0,0,0,0,0,0,0,0,0,0,0,0,
0,0,0,0,0,0,0,0,0,0,0,0,0,0,0,0,
0,0,0,0,0,0,0,0,0,0,0,0,0,0,0,0,
0,0,0,0,0,0,0,0,0,0,0,257,257,257,471,257
</chunk>
   <chunk x="11392" y="272" width="16" height="16">
0,0,0,0,0,0,0,0,0,0,0,0,0,0,0,0,
0,0,0,0,0,0,0,0,0,0,0,0,0,0,0,0,
0,0,0,0,0,0,0,0,0,0,0,0,0,0,0,0,
0,0,0,0,0,0,0,0,0,0,0,0,0,0,0,0,
0,0,0,0,0,0,0,0,0,0,0,0,0,0,0,0,
0,0,0,0,0,0,0,0,0,0,0,0,0,0,0,0,
0,0,0,0,0,0,0,0,0,0,0,0,0,0,0,0,
0,0,0,0,0,0,0,0,0,0,0,0,0,0,0,0,
0,0,0,0,0,0,0,0,0,0,0,0,0,0,0,0,
257,0,257,257,257,257,257,0,257,257,471,257,257,0,0,0,
0,0,0,0,0,0,0,0,0,0,264,0,0,0,0,0,
0,0,0,0,0,0,0,0,0,0,266,0,0,0,0,0,
0,0,0,0,0,0,0,0,0,0,0,0,0,0,0,0,
0,0,0,0,0,0,0,0,0,0,0,0,0,0,0,0,
0,0,0,0,0,0,0,0,0,0,0,0,0,0,0,0,
257,257,257,257,257,257,257,257,257,257,257,257,257,0,0,0
</chunk>
   <chunk x="11360" y="288" width="16" height="16">
0,0,0,0,0,0,0,0,0,0,0,257,257,257,0,0,
0,0,0,0,0,0,0,0,0,0,0,0,0,0,0,0,
0,0,0,0,0,0,0,0,0,0,0,0,0,0,0,0,
0,0,0,0,0,0,0,0,0,0,0,0,0,0,0,0,
0,0,0,0,0,0,0,0,0,0,0,0,0,0,0,0,
0,0,0,0,0,0,0,0,0,0,0,0,0,0,0,0,
0,0,0,0,0,0,0,0,0,0,0,0,0,0,0,0,
0,0,0,0,0,0,0,0,0,0,0,0,0,0,0,0,
0,0,0,0,0,0,0,0,0,0,0,0,0,0,0,0,
0,0,0,0,0,0,0,0,0,0,0,0,0,0,0,0,
0,0,0,0,0,0,0,0,0,0,0,0,0,0,0,0,
0,0,0,0,0,0,0,0,0,0,0,0,0,0,0,0,
0,0,0,0,0,0,0,0,0,0,0,0,0,0,0,0,
0,0,0,0,0,0,0,0,0,0,0,0,0,0,0,0,
0,0,0,0,0,0,0,0,0,0,0,0,0,0,0,0,
0,0,0,0,0,0,0,0,0,0,0,0,0,0,0,0
</chunk>
   <chunk x="11376" y="288" width="16" height="16">
0,0,0,0,0,0,0,0,0,0,0,0,0,0,264,0,
0,0,0,0,0,0,0,0,0,0,0,0,0,0,266,0,
0,0,0,0,0,0,0,0,0,0,0,0,0,0,0,0,
0,0,0,0,0,0,0,0,0,0,0,0,0,0,0,0,
0,0,0,0,0,0,0,0,0,0,0,0,0,0,0,0,
0,0,0,0,0,0,0,0,0,0,0,0,0,0,0,0,
0,0,0,0,0,0,0,0,0,0,0,0,257,257,257,257,
0,0,0,0,0,0,0,0,0,0,0,0,0,0,0,0,
0,0,0,0,0,0,0,0,0,0,0,0,0,0,0,0,
0,0,0,0,0,0,0,0,0,0,0,0,0,0,0,0,
0,0,0,0,0,0,0,0,0,0,0,0,0,0,0,0,
0,0,0,0,0,0,0,0,0,0,0,0,0,0,0,0,
0,0,0,0,0,0,0,0,0,0,0,0,0,0,0,0,
0,0,0,0,0,0,0,0,0,0,0,0,0,0,0,0,
0,0,0,0,0,0,0,0,0,0,0,0,0,0,0,0,
0,0,0,0,0,0,0,0,0,0,0,0,0,0,0,0
</chunk>
   <chunk x="11392" y="288" width="16" height="16">
0,0,0,0,0,0,0,0,0,0,0,0,0,0,0,0,
0,0,0,0,0,0,0,0,0,0,0,0,0,0,0,0,
0,0,0,0,0,0,0,0,0,0,0,0,0,0,0,0,
0,0,0,0,0,0,0,0,0,0,0,0,0,0,0,0,
0,0,0,0,0,0,0,0,0,0,0,0,0,0,0,0,
0,0,0,0,0,0,0,0,0,0,0,0,0,0,0,0,
257,0,257,257,257,257,257,0,257,257,257,257,257,0,0,0,
0,0,0,0,0,0,0,0,0,0,0,0,0,0,0,0,
0,0,0,0,0,0,0,0,0,0,0,0,0,0,0,0,
0,0,0,0,0,0,0,0,0,0,0,0,0,0,0,0,
0,0,0,0,0,0,0,0,0,0,0,0,0,0,0,0,
0,0,0,0,0,0,0,0,0,0,0,0,0,0,0,0,
0,0,0,0,0,0,0,0,0,0,0,0,0,0,0,0,
0,0,0,0,0,0,0,0,0,0,0,0,0,0,0,0,
0,0,0,0,0,0,0,0,0,0,0,0,0,0,0,0,
0,0,0,0,0,0,0,0,0,0,0,0,0,0,0,0
</chunk>
  </data>
 </layer>
 <layer id="28" name="Рвы (рвы вниз)" width="100" height="100">
  <data encoding="csv">
   <chunk x="11360" y="288" width="16" height="16">
0,0,0,0,0,0,0,0,0,0,0,0,0,0,0,0,
0,0,0,0,0,0,0,0,0,0,0,0,0,0,0,0,
0,0,0,0,0,0,0,0,0,0,0,0,0,0,0,0,
0,0,0,0,0,0,0,0,0,0,0,0,0,0,0,0,
0,0,0,0,0,0,0,0,0,0,0,0,0,0,0,0,
0,0,0,0,0,0,0,0,0,0,0,0,0,0,0,0,
0,0,0,0,0,0,0,0,0,0,359,343,343,343,359,343,
0,0,0,0,0,0,0,0,0,0,385,401,471,401,369,471,
0,0,0,0,0,0,0,0,0,0,0,0,0,0,401,385,
0,0,0,0,0,0,0,0,0,0,0,0,0,0,0,0,
0,0,0,0,0,0,0,0,0,0,0,0,0,0,0,0,
0,0,0,0,0,0,0,0,0,0,0,0,0,0,0,0,
0,0,0,0,0,0,0,0,0,0,0,0,0,0,0,0,
0,0,0,0,0,0,0,0,0,0,0,0,0,0,0,0,
0,0,0,0,0,0,0,0,0,0,0,0,0,0,0,0,
0,0,0,0,0,0,0,0,0,0,0,0,0,0,0,0
</chunk>
   <chunk x="11376" y="288" width="16" height="16">
0,0,0,0,0,0,0,0,0,0,0,0,0,0,0,0,
0,0,0,0,0,0,0,0,0,0,0,0,0,0,0,0,
0,0,0,0,0,0,0,0,0,0,0,0,0,0,0,0,
0,0,0,0,0,0,0,0,0,0,0,0,0,0,0,0,
0,0,0,0,0,0,0,0,0,0,0,0,0,0,0,0,
0,0,0,353,353,0,0,0,0,0,0,0,0,0,0,0,
343,0,0,471,401,0,0,0,0,0,0,0,0,0,0,0,
401,0,0,401,369,343,359,0,0,0,0,0,0,0,0,0,
0,0,0,401,401,385,401,0,0,343,343,0,0,0,0,0,
0,0,0,0,0,0,0,0,0,369,401,0,0,0,0,0,
0,0,0,0,0,0,0,0,0,0,0,0,0,0,0,0,
0,0,0,0,0,343,343,0,0,0,0,0,0,0,0,0,
0,0,0,0,0,385,401,343,0,0,343,359,343,0,0,0,
0,0,0,0,0,0,0,0,0,0,0,369,385,0,0,0,
0,0,0,0,0,0,0,0,0,0,0,0,0,0,0,0,
0,0,0,0,0,0,0,0,0,0,0,0,0,0,0,0
</chunk>
   <chunk x="11376" y="304" width="16" height="16">
0,0,0,0,0,0,0,0,0,0,0,0,0,0,0,0,
0,0,0,0,0,0,0,0,0,0,0,0,0,0,0,0,
0,0,0,0,0,0,0,0,0,0,0,0,0,0,0,0,
0,0,0,0,0,0,0,0,0,0,0,0,0,0,0,0,
0,0,0,0,0,0,0,0,0,0,353,0,0,0,353,0,
0,0,0,0,0,0,0,0,0,0,0,0,0,0,0,0,
0,0,0,0,0,0,0,0,0,0,0,0,0,0,0,0,
0,0,0,0,0,0,0,0,0,0,0,0,0,0,0,0,
0,0,0,0,0,0,0,0,0,0,0,0,0,0,0,0,
0,0,0,0,0,0,0,0,0,0,0,0,0,343,0,0,
0,0,0,0,0,0,0,0,0,0,343,343,343,0,0,0,
0,0,0,0,0,0,0,0,0,0,0,0,0,0,0,0,
0,0,0,0,0,0,0,0,0,0,0,0,0,0,0,0,
0,0,0,0,0,0,0,0,0,0,0,0,0,0,0,0,
0,0,0,0,0,0,0,343,0,0,0,0,0,0,0,0,
0,0,0,0,0,0,0,0,343,343,343,343,0,0,0,0
</chunk>
   <chunk x="11392" y="304" width="16" height="16">
0,0,0,0,0,0,0,0,0,0,0,0,0,0,0,0,
0,0,0,0,0,0,0,0,0,0,0,0,0,0,0,0,
0,0,0,0,0,0,0,0,0,0,0,0,0,0,0,0,
0,0,0,0,0,0,0,0,0,0,0,0,0,0,0,0,
0,0,0,0,0,0,0,0,0,0,0,0,0,0,0,0,
0,0,0,0,0,0,0,0,0,0,0,0,0,0,0,0,
0,0,0,0,0,0,0,0,0,0,0,0,0,0,0,0,
0,0,0,0,0,0,0,0,0,0,0,0,0,0,0,0,
0,0,0,0,0,0,0,0,0,0,0,0,0,0,0,0,
0,0,0,0,0,0,0,0,0,0,0,0,0,0,0,0,
0,0,0,0,0,0,0,0,0,0,0,0,0,0,0,0,
0,0,0,0,0,0,0,0,0,0,0,0,0,0,0,0,
0,0,0,0,0,0,0,0,0,0,0,0,0,0,0,0,
0,0,0,0,0,0,0,0,0,0,0,0,0,0,0,0,
0,0,360,0,0,0,0,0,0,0,0,0,0,0,0,0,
0,0,0,0,0,0,0,0,0,0,0,0,0,0,0,0
</chunk>
   <chunk x="11376" y="320" width="16" height="16">
0,0,0,0,0,0,0,0,0,0,0,0,0,0,0,0,
0,0,0,0,0,0,0,0,0,0,0,0,343,0,0,0,
0,0,0,0,0,0,0,0,0,0,0,0,0,343,343,343,
0,0,0,0,0,0,0,0,0,0,0,0,0,0,0,0,
0,0,0,0,0,0,0,0,0,0,0,0,0,0,0,0,
0,0,0,0,0,0,0,0,0,0,0,0,0,0,0,0,
0,0,0,0,0,0,0,0,0,0,0,0,0,0,0,0,
0,0,0,0,0,0,0,0,0,0,0,0,0,0,0,0,
0,0,0,0,0,0,0,0,0,0,0,0,0,0,0,0,
0,0,0,0,0,0,0,0,0,0,0,0,0,0,0,0,
0,0,0,0,0,0,0,0,0,0,0,0,0,0,0,0,
0,0,0,0,0,0,0,0,0,0,0,0,0,0,0,0,
0,0,0,0,0,0,0,0,0,0,0,0,0,0,0,0,
0,0,0,0,0,0,0,0,0,0,0,0,0,0,0,0,
0,0,0,0,0,0,0,0,0,0,0,0,0,0,0,0,
0,0,0,0,0,0,0,0,0,0,0,0,0,0,0,0
</chunk>
   <chunk x="11392" y="320" width="16" height="16">
0,360,0,0,0,0,0,0,0,0,0,0,0,0,0,0,
0,0,0,0,0,0,0,0,0,0,0,0,0,0,0,0,
0,0,0,0,0,0,0,0,0,0,0,0,0,0,0,0,
0,0,0,0,0,0,0,0,0,0,0,0,0,0,0,0,
0,0,0,0,0,0,0,0,0,0,0,0,0,0,0,0,
0,0,0,0,0,0,0,0,0,0,0,0,0,0,0,0,
0,0,0,0,0,0,0,0,0,0,0,0,0,0,0,0,
0,0,0,0,0,0,0,0,0,0,0,0,0,0,0,0,
0,0,0,0,0,0,0,0,0,0,0,0,0,0,0,0,
0,0,0,0,0,0,0,0,0,0,0,0,0,0,0,0,
0,0,0,0,0,0,0,0,0,0,0,0,0,0,0,0,
0,0,0,0,0,0,0,0,0,0,0,0,0,0,0,0,
0,0,0,0,0,0,0,0,0,0,0,0,0,0,0,0,
0,0,0,0,0,0,0,0,0,0,0,0,0,0,0,0,
0,0,0,0,0,0,0,0,0,0,0,0,0,0,0,0,
0,0,0,0,0,0,0,0,0,0,0,0,0,0,0,0
</chunk>
  </data>
 </layer>
 <layer id="31" name="Рвы вверх" width="100" height="100">
  <data encoding="csv">
   <chunk x="11360" y="288" width="16" height="16">
0,0,0,0,0,0,0,0,0,0,0,0,0,0,0,0,
0,0,0,0,0,0,0,0,0,0,0,0,0,0,0,0,
0,0,0,0,0,0,0,0,0,0,0,0,0,0,0,0,
0,0,0,0,0,0,0,0,0,0,0,0,0,0,0,0,
0,0,0,0,0,0,0,0,0,0,0,0,0,0,0,0,
0,0,0,0,0,0,0,0,0,0,0,0,0,0,0,0,
0,0,0,0,0,0,0,0,0,0,0,0,0,0,0,0,
0,0,0,0,0,0,0,0,0,0,0,362,346,362,0,0,
0,0,0,0,0,0,0,0,0,0,0,0,0,0,362,362,
0,0,0,0,0,0,0,0,0,0,0,0,0,0,0,0,
0,0,0,0,0,0,0,0,0,0,0,0,0,0,0,0,
0,0,0,0,0,0,0,0,0,0,0,0,0,0,0,0,
0,0,0,0,0,0,0,0,0,0,0,0,0,0,0,0,
0,0,0,0,0,0,0,0,0,0,0,0,0,0,0,0,
0,0,0,0,0,0,0,0,0,0,0,0,0,0,0,0,
0,0,0,0,0,0,0,0,0,0,0,0,0,0,0,0
</chunk>
   <chunk x="11376" y="288" width="16" height="16">
0,0,0,0,0,0,0,0,0,0,0,0,0,0,0,0,
0,0,0,0,0,0,0,0,0,0,0,0,0,0,0,0,
0,0,0,0,0,0,0,0,0,0,0,0,0,0,0,0,
0,0,0,0,0,0,0,0,0,0,0,0,0,0,0,0,
0,0,0,0,0,0,0,0,0,0,0,0,0,0,0,0,
0,0,0,0,0,0,0,0,0,0,0,0,0,0,0,0,
0,0,0,0,0,0,0,0,0,0,0,0,0,0,0,0,
362,0,0,0,0,0,0,0,0,0,0,0,0,0,0,0,
0,0,0,362,362,346,362,0,0,0,0,0,0,0,0,0,
0,0,0,0,0,0,0,0,0,362,346,0,0,0,0,0,
0,0,0,0,0,0,0,0,0,0,0,0,0,0,0,0,
0,0,0,0,0,0,0,0,0,0,0,0,0,0,0,0,
0,0,0,0,0,362,362,362,0,0,362,0,0,0,0,0,
0,0,0,0,0,0,0,0,0,0,0,362,362,0,0,0,
0,0,0,0,0,0,0,0,0,0,0,0,0,0,0,0,
0,0,0,0,0,0,0,0,0,0,0,0,0,0,0,0
</chunk>
   <chunk x="11376" y="304" width="16" height="16">
0,0,0,0,0,0,0,0,0,0,0,0,0,0,0,0,
0,0,0,0,0,0,0,0,0,0,0,0,0,0,0,0,
0,0,0,0,0,0,0,0,0,0,0,0,0,0,0,0,
0,0,0,0,0,0,0,0,0,0,0,0,0,0,0,0,
0,0,0,0,0,0,0,0,0,0,0,0,0,0,0,0,
0,0,0,0,0,0,0,0,0,0,0,0,0,0,0,0,
0,0,0,0,0,0,0,0,362,346,362,0,0,0,0,0,
0,0,0,0,0,0,0,362,0,0,0,0,0,0,0,0,
0,0,0,0,0,0,0,0,0,0,0,0,0,0,0,0,
0,0,0,0,0,0,0,0,0,0,0,0,0,0,0,0,
0,0,0,0,0,0,0,0,0,0,0,0,0,0,0,0,
0,0,0,0,0,0,0,0,0,0,362,346,362,362,0,0,
0,0,0,0,0,0,0,0,0,0,0,0,0,0,362,0,
0,0,0,0,0,0,0,0,0,0,0,0,0,0,0,0,
0,0,0,0,0,0,0,0,0,0,0,0,0,0,0,362,
0,0,0,0,0,0,0,0,0,0,0,0,0,0,0,0
</chunk>
   <chunk x="11392" y="320" width="16" height="16">
0,362,0,0,0,0,346,0,0,0,0,0,0,0,0,0,
0,0,346,0,0,346,0,0,0,0,0,0,0,0,0,0,
0,0,0,362,362,0,0,0,0,0,0,0,0,0,0,0,
0,0,0,0,0,0,0,0,0,0,0,0,0,0,0,0,
0,0,0,0,0,0,0,0,0,0,0,0,0,0,0,0,
0,0,0,0,0,0,0,0,0,0,0,0,0,0,0,0,
0,0,0,0,0,0,0,0,0,0,0,0,0,0,0,0,
0,0,0,0,0,0,0,0,0,0,0,0,0,0,0,0,
0,0,0,0,0,0,0,0,0,0,0,0,0,0,0,0,
0,0,0,0,0,0,0,0,0,0,0,0,0,0,0,0,
0,0,0,0,0,0,0,0,0,0,0,0,0,0,0,0,
0,0,0,0,0,0,0,0,0,0,0,0,0,0,0,0,
0,0,0,0,0,0,0,0,0,0,0,0,0,0,0,0,
0,0,0,0,0,0,0,0,0,0,0,0,0,0,0,0,
0,0,0,0,0,0,0,0,0,0,0,0,0,0,0,0,
0,0,0,0,0,0,0,0,0,0,0,0,0,0,0,0
</chunk>
  </data>
 </layer>
 <layer id="29" name="Рвы влево" width="100" height="100">
  <data encoding="csv">
   <chunk x="11360" y="288" width="16" height="16">
0,0,0,0,0,0,0,0,0,0,0,0,0,0,0,0,
0,0,0,0,0,0,0,0,0,0,0,0,0,0,0,0,
0,0,0,0,0,0,0,0,0,0,0,0,0,0,0,0,
0,0,0,0,0,0,0,0,0,0,0,0,0,0,0,0,
0,0,0,0,0,0,0,0,0,0,0,0,0,0,0,0,
0,0,0,0,0,0,0,0,0,0,0,0,0,0,0,0,
0,0,0,0,0,0,0,0,0,0,0,0,0,0,0,0,
0,0,0,0,0,0,0,0,0,0,0,0,0,0,0,0,
0,0,0,0,0,0,0,0,0,0,0,0,0,0,0,345,
0,0,0,0,0,0,0,0,0,0,0,0,0,0,0,0,
0,0,0,0,0,0,0,0,0,0,0,0,0,0,0,0,
0,0,0,0,0,0,0,0,0,0,0,0,0,0,0,0,
0,0,0,0,0,0,0,0,0,0,0,0,0,0,0,0,
0,0,0,0,0,0,0,0,0,0,0,0,0,0,0,0,
0,0,0,0,0,0,0,0,0,0,0,0,0,0,0,0,
0,0,0,0,0,0,0,0,0,0,0,0,0,0,0,0
</chunk>
   <chunk x="11376" y="288" width="16" height="16">
0,0,0,0,0,0,0,0,0,0,0,0,0,0,0,0,
0,0,0,0,0,0,0,0,0,0,0,0,0,0,0,0,
0,0,0,0,0,0,0,0,0,0,0,0,0,0,0,0,
0,0,0,0,0,0,0,0,0,0,0,0,0,0,0,0,
0,0,0,0,0,0,0,0,0,0,0,0,0,0,0,0,
0,0,0,0,345,0,0,0,0,0,0,0,0,0,0,0,
345,0,0,0,345,0,0,0,0,0,0,0,0,0,0,0,
345,0,0,0,0,0,345,0,0,0,0,0,0,0,0,0,
0,0,0,0,0,0,345,0,0,0,0,0,0,0,0,0,
0,0,0,0,0,0,0,0,0,0,0,0,0,0,0,0,
0,0,0,0,0,0,0,0,0,0,0,0,0,0,0,0,
0,0,0,0,0,0,345,0,0,0,0,0,0,0,0,0,
0,0,0,0,0,0,0,345,0,0,0,0,361,0,0,0,
0,0,0,0,0,0,0,0,0,0,0,0,345,0,0,0,
0,0,0,0,0,0,0,0,0,0,0,0,0,0,0,0,
0,0,0,0,0,0,0,0,0,0,0,0,0,0,0,0
</chunk>
   <chunk x="11376" y="304" width="16" height="16">
0,0,0,0,0,0,0,0,0,0,0,0,0,0,0,0,
0,0,0,0,0,0,0,0,0,0,0,0,0,0,0,0,
0,0,0,0,0,0,0,0,0,0,0,0,0,0,0,0,
0,0,0,0,0,0,0,0,0,0,0,0,0,0,0,0,
0,0,0,0,0,0,0,0,0,0,345,0,0,0,0,0,
0,0,0,0,0,0,0,0,0,0,345,0,0,0,0,0,
0,0,0,0,0,0,0,0,0,0,345,0,0,0,0,0,
0,0,0,0,0,0,0,345,0,0,0,0,0,0,0,0,
0,0,0,0,0,0,345,0,0,0,0,0,0,0,0,0,
0,0,0,0,0,0,361,0,0,0,0,0,0,0,0,0,
0,0,0,0,0,0,345,0,0,0,0,0,0,0,0,0,
0,0,0,0,0,0,345,0,0,0,0,0,0,0,0,0,
0,0,0,0,0,0,345,0,0,0,0,0,0,0,0,0,
0,0,0,0,0,0,345,0,0,0,0,0,0,0,0,0,
0,0,0,0,0,0,0,345,0,0,0,0,0,0,0,0,
0,0,0,0,0,0,0,0,0,0,0,345,0,0,0,0
</chunk>
   <chunk x="11392" y="304" width="16" height="16">
0,0,0,0,0,0,0,0,0,0,0,0,0,0,0,0,
0,0,0,0,0,0,0,0,0,0,0,0,0,0,0,0,
0,0,0,0,0,0,0,0,0,0,0,0,0,0,0,0,
0,0,0,0,0,0,0,0,0,0,0,0,0,0,0,0,
0,0,0,0,0,0,0,0,0,0,0,0,0,0,0,0,
0,0,0,0,0,0,0,0,0,0,0,0,0,0,0,0,
0,0,0,0,0,0,0,0,0,0,0,0,0,0,0,0,
0,0,0,0,0,0,0,0,0,0,0,0,0,0,0,0,
0,0,0,0,0,0,0,0,0,0,0,0,0,0,0,0,
0,0,0,0,0,0,0,0,0,0,0,0,0,0,0,0,
0,0,0,0,0,0,0,0,0,0,0,0,0,0,0,0,
0,0,0,0,0,0,0,0,0,0,0,0,0,0,0,0,
0,0,0,347,0,0,0,0,0,0,0,0,0,0,0,0,
0,0,0,363,0,0,0,0,0,0,0,0,0,0,0,0,
0,0,363,0,0,0,0,0,0,0,0,0,0,0,0,0,
0,0,347,0,0,0,0,0,0,0,0,0,0,0,0,0
</chunk>
   <chunk x="11376" y="320" width="16" height="16">
0,0,0,0,0,0,0,0,0,0,0,345,0,0,0,0,
0,0,0,0,0,0,0,0,0,0,0,0,345,0,0,0,
0,0,0,0,0,0,0,0,0,0,0,0,0,0,0,0,
0,0,0,0,0,0,0,0,0,0,0,0,0,0,0,0,
0,0,0,0,0,0,0,0,0,0,0,0,0,0,0,0,
0,0,0,0,0,0,0,0,0,0,0,0,0,0,0,0,
0,0,0,0,0,0,0,0,0,0,0,0,0,0,0,0,
0,0,0,0,0,0,0,0,0,0,0,0,0,0,0,0,
0,0,0,0,0,0,0,0,0,0,0,0,0,0,0,0,
0,0,0,0,0,0,0,0,0,0,0,0,0,0,0,0,
0,0,0,0,0,0,0,0,0,0,0,0,0,0,0,0,
0,0,0,0,0,0,0,0,0,0,0,0,0,0,0,0,
0,0,0,0,0,0,0,0,0,0,0,0,0,0,0,0,
0,0,0,0,0,0,0,0,0,0,0,0,0,0,0,0,
0,0,0,0,0,0,0,0,0,0,0,0,0,0,0,0,
0,0,0,0,0,0,0,0,0,0,0,0,0,0,0,0
</chunk>
   <chunk x="11392" y="320" width="16" height="16">
0,363,0,0,0,0,0,0,0,0,0,0,0,0,0,0,
0,0,347,0,0,0,0,0,0,0,0,0,0,0,0,0,
0,0,0,363,0,0,0,0,0,0,0,0,0,0,0,0,
0,0,0,0,0,0,0,0,0,0,0,0,0,0,0,0,
0,0,0,0,0,0,0,0,0,0,0,0,0,0,0,0,
0,0,0,0,0,0,0,0,0,0,0,0,0,0,0,0,
0,0,0,0,0,0,0,0,0,0,0,0,0,0,0,0,
0,0,0,0,0,0,0,0,0,0,0,0,0,0,0,0,
0,0,0,0,0,0,0,0,0,0,0,0,0,0,0,0,
0,0,0,0,0,0,0,0,0,0,0,0,0,0,0,0,
0,0,0,0,0,0,0,0,0,0,0,0,0,0,0,0,
0,0,0,0,0,0,0,0,0,0,0,0,0,0,0,0,
0,0,0,0,0,0,0,0,0,0,0,0,0,0,0,0,
0,0,0,0,0,0,0,0,0,0,0,0,0,0,0,0,
0,0,0,0,0,0,0,0,0,0,0,0,0,0,0,0,
0,0,0,0,0,0,0,0,0,0,0,0,0,0,0,0
</chunk>
  </data>
 </layer>
 <layer id="30" name="Рвы вправо" width="100" height="100">
  <data encoding="csv">
   <chunk x="11360" y="288" width="16" height="16">
0,0,0,0,0,0,0,0,0,0,0,0,0,0,0,0,
0,0,0,0,0,0,0,0,0,0,0,0,0,0,0,0,
0,0,0,0,0,0,0,0,0,0,0,0,0,0,0,0,
0,0,0,0,0,0,0,0,0,0,0,0,0,0,0,0,
0,0,0,0,0,0,0,0,0,0,0,0,0,0,0,0,
0,0,0,0,0,0,0,0,0,0,0,0,0,0,0,0,
0,0,0,0,0,0,0,0,0,0,0,0,0,0,0,0,
0,0,0,0,0,0,0,0,0,0,0,0,0,0,0,0,
0,0,0,0,0,0,0,0,0,0,0,0,0,0,347,0,
0,0,0,0,0,0,0,0,0,0,0,0,0,0,0,0,
0,0,0,0,0,0,0,0,0,0,0,0,0,0,0,0,
0,0,0,0,0,0,0,0,0,0,0,0,0,0,0,0,
0,0,0,0,0,0,0,0,0,0,0,0,0,0,0,0,
0,0,0,0,0,0,0,0,0,0,0,0,0,0,0,0,
0,0,0,0,0,0,0,0,0,0,0,0,0,0,0,0,
0,0,0,0,0,0,0,0,0,0,0,0,0,0,0,0
</chunk>
   <chunk x="11376" y="288" width="16" height="16">
0,0,0,0,0,0,0,0,0,0,0,0,0,0,0,0,
0,0,0,0,0,0,0,0,0,0,0,0,0,0,0,0,
0,0,0,0,0,0,0,0,0,0,0,0,0,0,0,0,
0,0,0,0,0,0,0,0,0,0,0,0,0,0,0,0,
0,0,0,0,0,0,0,0,0,0,0,0,0,0,0,0,
0,0,0,347,0,0,0,0,0,0,0,0,0,0,0,0,
0,0,0,347,0,0,0,0,0,0,0,0,0,0,0,0,
0,0,0,363,0,0,0,0,0,0,0,0,0,0,0,0,
0,0,0,347,0,0,0,0,0,347,0,0,0,0,0,0,
0,0,0,0,0,0,0,0,0,347,0,0,0,0,0,0,
0,0,0,0,0,0,0,0,0,0,0,0,0,0,0,0,
0,0,0,0,0,347,0,0,0,0,0,0,0,0,0,0,
0,0,0,0,0,347,0,0,0,0,347,0,0,0,0,0,
0,0,0,0,0,0,0,0,0,0,0,347,0,0,0,0,
0,0,0,0,0,0,0,0,0,0,0,0,0,0,0,0,
0,0,0,0,0,0,0,0,0,0,0,0,0,0,0,0
</chunk>
   <chunk x="11376" y="304" width="16" height="16">
0,0,0,0,0,0,0,0,0,0,0,0,0,0,0,0,
0,0,0,0,0,0,0,0,0,0,0,0,0,0,0,0,
0,0,0,0,0,0,0,0,0,0,0,0,0,0,0,0,
0,0,0,0,0,0,0,0,0,0,0,0,0,0,0,0,
0,0,0,0,0,0,0,0,0,0,0,0,0,0,347,0,
0,0,0,0,0,0,0,0,0,0,0,0,0,0,363,0,
0,0,0,0,0,0,0,0,0,0,0,0,0,0,347,0,
0,0,0,0,0,0,0,0,0,0,0,0,0,0,347,0,
0,0,0,0,0,0,0,0,0,0,0,0,0,0,347,0,
0,0,0,0,0,0,0,0,0,0,0,0,0,347,0,0,
0,0,0,0,0,0,0,0,0,0,347,0,0,0,0,0,
0,0,0,0,0,0,0,0,0,0,363,0,0,0,0,0,
0,0,0,0,0,0,0,0,0,0,0,0,0,0,347,0,
0,0,0,0,0,0,0,0,0,0,0,0,0,0,0,347,
0,0,0,0,0,0,0,0,0,0,0,0,0,0,0,347,
0,0,0,0,0,0,0,0,0,0,0,0,0,0,0,0
</chunk>
   <chunk x="11392" y="320" width="16" height="16">
0,0,0,0,0,0,0,0,0,0,0,0,0,0,0,0,
0,0,0,0,0,361,0,0,0,0,0,0,0,0,0,0,
0,0,0,0,361,0,0,0,0,0,0,0,0,0,0,0,
0,0,0,0,0,0,0,0,0,0,0,0,0,0,0,0,
0,0,0,0,0,0,0,0,0,0,0,0,0,0,0,0,
0,0,0,0,0,0,0,0,0,0,0,0,0,0,0,0,
0,0,0,0,0,0,0,0,0,0,0,0,0,0,0,0,
0,0,0,0,0,0,0,0,0,0,0,0,0,0,0,0,
0,0,0,0,0,0,0,0,0,0,0,0,0,0,0,0,
0,0,0,0,0,0,0,0,0,0,0,0,0,0,0,0,
0,0,0,0,0,0,0,0,0,0,0,0,0,0,0,0,
0,0,0,0,0,0,0,0,0,0,0,0,0,0,0,0,
0,0,0,0,0,0,0,0,0,0,0,0,0,0,0,0,
0,0,0,0,0,0,0,0,0,0,0,0,0,0,0,0,
0,0,0,0,0,0,0,0,0,0,0,0,0,0,0,0,
0,0,0,0,0,0,0,0,0,0,0,0,0,0,0,0
</chunk>
  </data>
 </layer>
 <layer id="26" name="Декор" width="100" height="100">
  <data encoding="csv">
   <chunk x="11360" y="272" width="16" height="16">
0,0,0,0,0,0,0,0,0,0,0,0,0,0,0,0,
0,0,0,0,0,0,0,0,0,0,0,0,0,0,0,0,
0,0,0,0,0,0,0,0,0,0,0,0,0,0,0,0,
0,0,0,0,0,0,0,0,0,0,0,0,0,0,0,0,
0,0,0,0,0,0,0,0,0,0,0,0,0,0,0,0,
0,0,0,0,0,0,0,0,0,0,0,0,0,0,0,0,
0,0,0,0,0,0,0,0,0,0,0,0,0,355,0,0,
0,0,0,0,0,0,0,0,0,0,0,0,0,0,0,0,
0,0,0,0,0,0,0,0,0,0,0,0,0,0,0,354,
0,0,0,0,0,0,0,0,0,0,0,0,0,0,0,0,
0,0,0,0,0,0,0,0,0,0,0,0,0,0,0,0,
0,0,0,0,0,0,0,0,0,348,0,0,0,348,0,0,
0,0,0,0,0,0,0,0,0,364,0,0,0,364,0,0,
0,0,0,0,0,0,0,0,0,354,0,0,0,0,0,0,
0,0,0,0,0,0,0,0,0,0,0,0,355,0,0,0,
0,0,0,0,0,0,0,0,0,0,0,0,0,0,0,0
</chunk>
   <chunk x="11376" y="272" width="16" height="16">
0,0,0,0,0,0,0,0,0,0,0,0,0,0,0,0,
0,0,0,0,0,0,0,0,0,0,0,0,0,0,0,0,
0,0,0,0,0,0,98,99,0,0,0,0,0,0,0,0,
0,0,0,0,0,113,114,115,116,117,0,0,0,0,328,0,
0,0,0,354,0,129,130,131,132,133,0,0,0,1,0,1,
0,0,0,0,0,145,146,147,148,11,0,0,0,0,0,0,
0,0,0,0,0,161,162,163,164,27,0,0,0,0,0,0,
0,355,0,0,0,0,0,0,0,0,0,0,0,0,0,0,
0,0,0,0,329,0,0,0,0,328,0,0,0,0,0,0,
0,0,0,0,0,349,0,0,0,349,0,0,0,0,0,0,
0,0,0,0,0,364,0,0,0,364,0,0,2147483976,0,0,0,
0,0,0,0,0,0,0,0,0,0,0,0,0,314,0,0,
0,0,0,0,0,0,0,0,0,0,0,0,0,330,0,0,
0,0,0,0,0,0,0,0,0,0,0,0,0,0,0,0,
0,0,0,0,0,0,0,0,0,0,0,0,0,0,0,0,
0,0,0,0,0,0,0,0,0,0,0,0,0,0,0,0
</chunk>
   <chunk x="11392" y="272" width="16" height="16">
0,0,0,0,0,0,0,0,0,0,0,0,0,0,0,0,
0,0,0,0,0,0,0,0,0,0,0,0,0,0,0,0,
0,0,0,0,0,0,0,0,0,0,0,0,0,0,0,0,
0,0,0,329,0,0,0,0,0,0,328,329,0,0,0,0,
0,0,0,2,0,17,0,0,0,2,0,1,0,0,0,0,
0,0,0,0,34,0,0,0,0,0,0,0,0,0,0,0,
0,0,0,0,50,0,65,0,0,0,0,0,0,0,0,0,
0,0,0,0,0,0,81,0,0,0,0,0,0,0,0,0,
0,0,0,0,0,0,0,0,0,0,0,0,0,0,0,0,
0,0,0,0,0,0,0,0,0,0,0,0,0,0,0,0,
0,328,0,0,2147483977,0,329,0,328,0,0,0,0,0,0,0,
0,349,0,0,0,0,0,349,0,314,0,0,0,0,0,0,
0,364,0,0,0,0,0,364,0,330,0,0,0,0,0,0,
0,0,0,0,0,0,0,0,0,0,0,0,0,0,0,0,
0,0,0,0,0,0,0,0,0,0,0,0,0,0,0,0,
0,0,0,0,0,0,0,0,0,0,0,0,0,0,0,0
</chunk>
   <chunk x="11408" y="272" width="16" height="16">
0,0,0,0,0,0,0,0,0,0,0,0,0,0,0,0,
0,0,0,0,0,0,0,0,0,0,0,0,0,0,0,0,
0,0,0,0,0,0,0,0,0,0,0,0,0,0,0,0,
0,0,0,0,0,0,0,0,0,0,0,0,0,0,0,0,
0,0,0,0,0,0,0,0,0,0,0,0,0,0,0,0,
0,0,0,0,0,0,0,0,0,0,0,0,0,0,0,0,
0,0,0,0,0,0,0,0,0,0,0,0,0,0,0,0,
0,0,0,0,0,0,0,0,0,0,0,0,0,0,0,0,
0,0,349,0,0,349,0,0,0,0,0,0,0,0,0,0,
0,0,364,0,0,364,0,0,0,0,0,0,0,0,0,0,
0,0,0,0,0,0,0,0,0,0,0,0,0,0,0,0,
0,0,0,0,0,0,0,0,0,0,0,0,0,0,0,0,
0,0,0,0,0,0,0,0,0,0,0,0,0,0,0,0,
0,0,0,0,0,0,0,0,0,0,0,0,0,0,0,0,
0,349,0,0,0,0,349,0,0,0,0,0,0,0,0,0,
0,364,0,0,0,0,364,0,0,0,0,0,0,0,0,0
</chunk>
   <chunk x="11360" y="288" width="16" height="16">
0,0,0,0,0,0,0,0,0,0,0,0,0,0,0,0,
0,0,0,0,0,0,0,0,0,0,328,0,0,0,0,328,
0,0,0,0,0,0,0,0,0,0,0,0,0,0,2147483975,327,
0,0,0,0,0,0,0,0,0,0,0,0,0,0,0,0,
0,0,0,0,0,0,0,0,0,0,0,0,0,0,0,0,
0,0,0,0,0,0,0,0,0,0,0,0,0,0,0,0,
0,0,0,0,0,0,0,0,0,0,0,0,0,0,0,0,
0,0,0,0,0,0,0,0,0,0,0,0,0,0,0,0,
0,0,0,0,0,0,0,0,0,0,0,0,0,0,0,0,
0,0,0,0,0,0,0,0,0,0,0,0,0,0,0,0,
0,0,0,0,0,0,0,0,0,0,0,0,0,0,0,0,
0,0,0,0,0,0,0,0,0,0,0,0,0,0,0,0,
0,0,0,0,0,0,0,0,0,0,0,0,0,0,0,0,
0,0,0,0,0,0,0,0,0,0,349,0,0,0,349,0,
0,0,0,0,0,0,0,0,0,0,364,0,0,0,364,0,
0,0,0,0,0,0,0,0,0,0,0,0,0,0,0,0
</chunk>
   <chunk x="11376" y="288" width="16" height="16">
0,0,0,0,0,0,0,0,0,0,0,0,0,0,0,0,
329,0,0,0,0,0,0,0,0,0,0,0,0,0,0,0,
349,2147483975,327,0,329,0,0,0,0,0,0,0,0,0,0,0,
364,0,0,0,0,349,0,0,0,349,0,0,0,0,0,0,
0,0,0,0,0,364,0,0,0,364,0,0,0,0,0,0,
0,0,0,0,0,0,0,0,0,0,0,0,0,0,0,0,
0,0,0,0,0,0,0,0,0,0,0,0,0,0,0,0,
0,0,0,0,0,0,0,0,0,0,0,0,328,0,2147483976,0,
0,0,0,0,0,0,0,0,0,0,0,349,2147483975,327,349,0,
0,0,0,0,0,0,0,0,0,0,0,364,0,0,364,0,
0,0,0,0,0,0,0,0,0,0,0,0,0,0,0,0,
0,0,0,0,0,0,0,0,0,0,0,0,0,0,0,0,
0,0,0,0,0,0,0,0,0,0,0,0,0,0,0,0,
0,0,0,0,0,0,0,0,0,0,0,0,0,0,0,0,
0,0,0,0,0,0,0,0,0,0,0,0,0,0,0,0,
0,0,0,0,0,0,0,0,0,0,0,0,0,0,0,0
</chunk>
   <chunk x="11392" y="288" width="16" height="16">
328,0,0,0,0,0,0,0,0,0,0,0,328,0,0,0,
0,0,0,0,0,0,319,0,320,0,0,0,0,0,0,0,
0,0,33,0,0,0,335,0,336,0,0,0,0,0,0,0,
0,0,49,0,0,67,68,0,0,0,0,0,0,0,0,0,
0,0,0,0,0,0,0,0,0,53,84,18,0,0,0,0,
0,0,0,0,0,0,0,0,0,0,0,0,0,0,0,0,
0,0,0,0,0,0,0,0,0,0,0,0,0,0,0,0,
0,0,0,0,0,0,0,0,0,0,0,0,0,0,0,0,
0,0,0,0,0,0,0,0,0,0,0,0,0,0,0,0,
0,0,0,0,0,0,0,0,0,0,0,0,0,0,0,0,
0,0,0,0,0,0,0,0,0,0,0,0,0,0,0,0,
0,0,0,0,0,0,0,0,0,0,0,0,0,0,0,0,
0,0,0,0,0,329,0,0,0,0,0,328,0,0,0,0,
0,0,0,0,0,0,0,0,0,0,0,0,0,0,0,0,
0,0,349,0,0,0,349,0,329,349,0,0,0,349,0,0,
0,0,364,0,0,0,364,0,0,364,0,0,0,364,0,0
</chunk>
   <chunk x="11408" y="288" width="16" height="16">
0,0,0,0,0,0,0,0,0,0,0,0,0,0,0,0,
0,0,0,0,0,0,0,0,0,0,0,0,0,0,0,0,
0,0,0,0,0,0,0,0,0,0,0,0,0,0,0,0,
0,0,0,0,0,0,0,0,0,0,0,0,0,0,0,0,
0,0,0,0,0,0,0,0,0,0,0,0,0,0,0,0,
0,0,0,0,0,0,0,0,0,0,0,0,0,0,0,0,
0,0,349,0,0,349,0,0,0,0,0,0,0,0,0,0,
328,0,364,0,0,364,0,0,0,0,0,0,0,0,0,0,
0,0,0,0,0,0,0,0,0,0,0,0,0,0,0,0,
0,0,0,0,0,0,0,0,0,0,0,0,0,0,0,0,
0,0,0,0,0,0,0,0,0,0,0,0,0,0,0,0,
0,0,0,0,0,0,0,0,0,0,0,0,0,0,0,0,
0,0,0,0,0,0,0,0,0,0,0,0,0,0,0,0,
0,0,0,0,0,329,0,0,0,329,0,328,0,0,0,0,
0,0,0,0,0,2147483975,327,0,0,0,0,0,0,0,0,0,
0,0,0,0,0,0,0,0,0,0,0,0,0,0,0,0
</chunk>
   <chunk x="11392" y="304" width="16" height="16">
0,0,0,0,0,0,0,0,0,0,0,0,0,0,0,0,
0,0,0,0,0,0,0,0,0,0,0,0,0,0,0,0,
0,0,0,0,0,0,0,0,0,0,0,0,0,0,0,0,
0,0,0,0,0,0,0,0,0,0,0,0,0,0,0,0,
0,0,0,0,0,0,0,329,0,0,0,0,0,328,0,0,
0,0,0,0,0,0,349,2147483975,327,349,0,0,0,0,0,0,
0,0,0,0,0,0,364,0,0,364,0,0,0,0,0,0,
0,0,0,0,0,0,355,0,0,0,0,0,355,0,0,0,
0,0,0,0,0,0,0,0,354,0,0,0,0,0,0,0,
0,0,0,0,0,0,0,0,0,0,0,0,0,0,0,0,
0,0,328,0,0,0,0,0,0,0,0,0,0,0,0,0,
0,0,349,0,0,0,349,0,0,0,0,0,0,0,0,0,
0,0,364,0,0,0,364,0,0,0,0,0,0,0,0,0,
0,0,0,0,0,0,0,0,0,0,0,0,0,0,0,0,
0,0,0,0,0,0,0,0,0,0,0,0,0,0,0,0,
0,0,0,0,0,0,0,0,0,0,0,0,0,0,0,0
</chunk>
  </data>
 </layer>
 <layer id="27" name="!!! здесь это должно быть" width="100" height="100" visible="0">
  <data encoding="csv">
   <chunk x="11376" y="272" width="16" height="16">
0,0,0,0,0,0,0,0,0,0,0,0,0,0,0,0,
0,0,0,0,0,0,0,0,0,0,0,0,0,0,0,0,
0,0,0,0,0,0,0,0,0,0,0,0,0,0,0,0,
0,0,0,0,0,0,0,0,0,0,0,0,0,0,0,0,
0,0,0,0,0,0,0,0,0,0,0,0,0,0,0,0,
0,0,0,0,0,0,0,0,0,0,0,0,0,0,0,0,
0,0,0,0,0,0,0,0,0,0,0,0,0,0,0,0,
0,0,0,0,0,0,0,0,0,0,0,0,0,0,0,0,
0,0,0,0,0,0,0,0,0,0,0,0,0,0,0,0,
0,0,0,0,0,0,0,0,0,0,0,0,0,0,0,0,
0,0,0,0,0,0,0,0,0,0,0,0,0,0,0,0,
279,365,281,0,0,0,0,0,0,0,0,0,0,0,0,0,
295,381,297,0,0,0,0,0,0,0,0,0,0,0,0,0,
0,0,0,0,0,0,0,0,0,0,0,0,0,0,0,0,
0,0,0,0,0,0,0,0,0,0,0,0,0,0,0,0,
0,0,0,0,0,0,0,0,0,0,0,0,0,0,0,0
</chunk>
   <chunk x="11360" y="288" width="16" height="16">
0,0,0,0,0,0,0,0,0,0,0,0,0,0,0,0,
0,0,0,0,0,0,0,0,0,0,0,0,0,0,0,0,
0,0,0,0,0,0,0,0,0,0,0,0,0,0,0,0,
0,0,0,0,0,0,0,0,0,0,0,0,0,0,0,0,
0,0,0,0,0,0,0,0,0,0,0,0,0,0,0,0,
0,0,0,0,0,0,0,0,0,0,0,0,0,0,0,0,
0,0,0,0,0,0,0,0,0,0,0,0,0,0,0,0,
0,0,0,0,0,0,0,0,0,0,0,287,288,0,0,0,
0,0,0,0,0,0,0,0,0,0,0,303,304,0,0,0,
0,0,0,0,0,0,0,0,0,0,0,0,0,0,0,0,
0,0,0,0,0,0,0,0,0,0,0,0,0,0,0,0,
0,0,0,0,0,0,0,0,0,0,0,0,0,0,0,0,
0,0,0,0,0,0,0,0,0,0,0,0,0,0,0,0,
0,0,0,0,0,0,0,0,0,0,0,0,0,0,0,0,
0,0,0,0,0,0,0,0,0,0,0,0,0,0,0,0,
0,0,0,0,0,0,0,0,0,0,0,0,0,417,418,0
</chunk>
   <chunk x="11376" y="304" width="16" height="16">
0,0,0,0,0,0,0,0,0,0,0,0,0,0,0,0,
0,0,0,0,0,0,0,0,0,0,0,0,0,0,0,0,
0,0,0,0,0,0,0,0,0,0,0,259,0,0,0,0,
0,0,0,0,0,0,0,0,0,0,0,0,0,0,0,0,
0,0,0,0,0,0,0,0,0,0,0,0,0,0,0,0,
0,0,0,0,0,0,0,0,0,0,0,0,0,0,0,0,
0,0,0,0,0,0,0,0,0,0,0,0,0,0,0,0,
0,0,0,0,0,0,0,0,0,0,0,0,0,0,0,0,
0,0,0,0,0,0,0,0,0,0,0,0,0,0,0,0,
0,0,0,0,0,0,0,0,0,0,0,0,0,0,0,0,
0,0,0,0,0,0,0,0,0,0,0,0,0,0,0,0,
0,0,0,0,0,0,0,0,0,0,0,0,0,0,0,0,
0,0,0,0,0,0,0,0,0,0,0,0,0,0,0,0,
0,0,0,0,0,0,0,0,0,0,0,0,0,0,0,0,
0,0,0,0,0,0,0,0,0,0,0,0,0,0,0,0,
0,0,0,0,0,0,0,0,0,0,0,0,0,0,0,0
</chunk>
  </data>
 </layer>
</map>
