<?xml version="1.0" encoding="UTF-8"?>
<map version="1.5" tiledversion="1.7.2" orientation="orthogonal" renderorder="right-down" width="100" height="100" tilewidth="32" tileheight="32" infinite="1" nextlayerid="30" nextobjectid="135">
 <tileset firstgid="1" source="1_TimeTravel_SrednevekovoyePodzemel'ye2.tsx"/>
 <tileset firstgid="145" source="0_Pustota.tsx"/>
 <tileset firstgid="146" source="1_TimeTravel_SrednevekovoyePodzemel'ye1.tsx"/>
 <tileset firstgid="290" source="1_TimeTravel_Doors.tsx"/>
 <tileset firstgid="402" source="1_TimeTravel_Shipy.tsx"/>
 <tileset firstgid="410" source="1_TimeTravel_Decor2Plan.tsx"/>
 <layer id="8" name="Пол1" width="100" height="100">
  <data encoding="csv">
   <chunk x="-32" y="-32" width="16" height="16">
0,0,0,0,0,0,0,0,0,0,0,0,0,0,0,0,
0,0,0,0,0,0,0,0,0,0,0,0,0,0,0,0,
0,0,0,0,0,0,0,0,0,0,0,0,0,0,0,0,
0,0,0,0,0,0,0,0,0,0,0,0,0,0,0,0,
0,0,0,0,0,0,0,0,0,0,0,0,0,0,0,0,
0,0,0,0,0,0,0,0,0,0,0,0,0,0,0,0,
0,0,0,0,0,0,0,0,0,0,0,0,0,0,0,0,
0,0,0,0,49,50,50,50,50,50,50,50,50,50,50,50,
0,0,0,49,81,66,123,66,66,139,66,97,99,66,66,66,
0,0,0,65,66,74,75,76,123,66,66,129,131,66,139,139,
0,50,50,81,66,90,91,92,66,0,0,0,0,0,0,0,
0,66,66,66,66,106,107,108,66,0,0,0,0,0,0,0,
0,0,0,123,66,66,74,76,100,0,0,0,0,0,0,0,
0,0,0,66,66,66,106,108,67,0,0,0,0,0,0,0,
0,0,0,84,66,66,66,66,67,0,0,0,0,0,0,0,
0,0,0,65,66,66,66,66,83,50,50,0,0,0,50,50
</chunk>
   <chunk x="-16" y="-32" width="16" height="16">
0,0,0,0,0,0,0,0,0,0,0,0,0,0,0,0,
0,0,0,0,0,0,0,0,0,0,0,0,0,0,0,0,
0,0,0,0,0,0,0,0,0,0,0,0,0,0,0,0,
0,0,0,0,0,0,0,0,0,0,0,0,0,0,0,0,
0,0,0,0,0,0,0,0,0,0,0,0,0,0,0,0,
0,0,0,0,0,0,0,0,0,0,0,0,0,0,0,0,
0,0,0,0,0,0,0,0,0,0,0,0,0,0,0,0,
50,51,0,0,0,0,0,0,0,0,0,0,0,0,0,0,
66,83,51,0,0,0,0,0,0,0,0,0,0,0,0,0,
123,123,67,0,0,0,0,0,0,0,0,0,0,0,0,0,
123,123,67,0,0,0,0,0,0,0,0,0,0,0,0,0,
66,66,67,0,0,0,0,0,0,0,0,0,0,0,0,0,
84,66,67,0,0,0,0,0,0,0,0,0,0,0,0,0,
65,139,67,0,0,0,0,0,0,0,0,0,0,0,0,0,
65,66,67,0,0,0,0,0,0,0,0,0,0,0,0,0,
81,66,83,51,0,0,0,0,0,0,0,0,0,0,0,0
</chunk>
   <chunk x="-32" y="-16" width="16" height="16">
0,0,0,65,97,99,66,123,66,123,100,0,0,0,84,123,
0,0,0,65,129,131,139,139,66,66,67,0,0,0,65,66,
0,0,0,65,123,123,139,139,66,66,67,0,0,0,65,123,
0,0,0,65,123,123,66,66,66,66,67,0,0,0,65,123,
0,0,0,65,66,66,97,99,66,66,83,50,50,50,81,66,
0,0,0,65,66,139,129,131,66,123,66,66,66,66,74,76,
0,0,0,0,123,66,66,66,66,66,66,66,66,66,106,108,
0,0,0,0,0,0,66,123,123,66,139,66,66,66,66,66,
0,0,0,0,0,0,0,0,0,0,0,0,0,0,0,0,
0,0,0,0,0,0,0,0,0,0,0,0,0,0,0,0,
0,0,0,0,0,0,0,0,0,0,0,0,0,0,0,0,
0,0,0,0,0,0,0,0,0,0,0,0,0,0,0,0,
0,0,0,0,0,0,0,0,0,0,0,0,0,0,0,0,
0,0,0,0,0,0,0,0,0,0,0,0,0,0,0,0,
0,0,0,0,0,0,0,0,0,0,0,0,0,0,0,0,
0,0,0,0,0,0,0,0,0,0,0,0,0,0,0,0
</chunk>
   <chunk x="-16" y="-16" width="16" height="16">
66,66,66,83,51,0,0,0,0,0,0,0,0,0,0,0,
66,97,98,99,67,0,0,0,0,0,0,0,0,0,0,0,
123,113,114,115,67,0,0,0,0,0,194,219,217,218,195,196,
123,129,130,131,67,0,0,0,0,0,210,2147483908,211,211,211,212,
66,66,66,66,67,0,0,0,0,0,210,211,211,211,211,212,
66,66,66,139,67,0,0,0,0,0,210,211,211,211,211,212,
66,66,66,66,67,0,0,0,0,0,210,211,211,211,259,212,
66,66,66,66,67,0,0,0,0,0,0,0,211,211,0,0,
0,123,123,0,0,0,0,0,0,0,0,0,211,211,0,0,
0,121,122,0,0,0,0,0,0,0,0,0,211,211,0,0,
0,137,138,0,0,0,0,0,0,0,0,0,211,211,0,0,
0,134,134,0,0,0,0,0,0,0,0,0,194,196,0,0,
0,134,134,0,0,0,0,0,194,195,195,195,226,228,195,195,
0,194,196,0,0,0,0,0,210,258,211,227,274,211,211,211,
194,226,228,195,195,195,217,218,226,211,0,0,0,0,0,0,
210,227,2147483922,211,211,259,211,211,211,211,0,0,0,0,0,0
</chunk>
   <chunk x="0" y="-16" width="16" height="16">
0,0,0,0,0,0,0,0,0,0,0,0,0,0,0,0,
0,0,0,0,0,0,0,0,0,0,0,0,0,0,0,0,
0,0,0,0,0,0,0,0,0,0,0,0,0,0,0,0,
0,0,0,0,0,0,0,0,0,0,0,0,0,0,0,0,
0,0,0,0,0,0,0,0,0,0,0,0,0,0,0,0,
0,0,0,0,0,0,0,0,0,0,0,0,0,0,0,0,
0,0,0,0,194,195,195,195,195,195,196,0,0,194,195,195,
0,0,0,0,210,211,2147483906,211,211,227,212,0,0,210,214,214,
0,0,0,0,210,211,211,211,211,259,212,0,0,210,214,214,
0,0,0,0,0,227,211,0,0,0,0,0,0,0,211,258,
0,0,0,0,0,211,211,0,0,0,0,0,0,0,211,211,
0,0,0,0,0,211,274,0,0,0,0,0,0,0,243,211,
219,220,0,0,0,211,211,0,0,0,0,0,0,0,211,211,
243,212,0,0,0,194,196,0,0,0,0,0,0,0,194,196,
2147483875,228,195,195,195,226,228,195,195,195,195,195,195,195,226,228,
211,211,211,211,275,259,211,211,211,211,211,258,211,211,211,211
</chunk>
   <chunk x="16" y="-16" width="16" height="16">
0,0,0,0,0,0,0,0,0,0,0,0,0,0,0,0,
0,0,0,0,0,0,0,0,0,0,0,0,0,0,0,0,
0,0,0,0,0,0,0,0,0,0,0,0,0,0,0,0,
0,0,0,0,0,0,0,0,0,0,0,0,0,0,0,0,
0,0,0,0,0,0,0,0,0,0,0,0,0,0,0,0,
0,0,0,0,0,0,0,0,0,0,0,0,0,0,0,0,
195,195,219,220,0,0,194,195,195,195,195,195,196,0,0,0,
214,214,214,236,0,0,210,258,211,211,274,243,212,0,0,0,
214,214,214,212,0,0,210,211,211,211,211,2147483922,212,0,0,0,
0,0,0,0,0,0,0,259,211,0,0,0,0,0,0,0,
0,0,0,0,0,0,0,211,211,0,0,0,0,0,0,0,
0,0,0,0,0,0,0,211,211,0,0,0,0,0,0,0,
0,0,0,0,0,0,0,211,211,0,0,0,0,0,0,0,
0,0,0,0,0,0,0,194,196,0,0,0,0,0,0,0,
195,195,195,195,195,195,195,226,228,195,195,195,196,0,0,0,
211,211,276,211,211,211,211,211,211,211,274,227,212,0,0,0
</chunk>
   <chunk x="-32" y="0" width="16" height="16">
0,0,0,0,0,0,0,0,0,0,0,0,0,0,0,0,
0,0,0,0,0,0,0,0,0,0,0,0,0,0,0,0,
0,0,0,0,0,0,0,0,0,0,0,0,0,0,0,0,
0,0,0,0,0,0,0,0,0,0,0,0,0,0,0,0,
0,0,0,0,0,0,0,0,0,0,0,0,0,0,0,0,
0,0,0,0,0,0,0,0,0,0,194,195,195,195,195,196,
0,0,0,0,0,0,0,0,0,194,226,243,211,211,211,228,
0,0,0,0,0,0,0,0,0,210,274,211,211,211,211,276,
0,0,0,0,0,0,0,0,0,210,211,211,276,211,211,211,
0,0,0,0,0,0,0,0,0,0,211,211,211,211,211,243,
0,0,0,0,0,0,0,0,0,0,0,0,211,2147483922,0,0,
0,0,0,0,0,0,0,0,0,0,0,0,211,211,0,0,
0,0,0,0,0,0,0,0,0,0,0,0,211,211,0,0,
0,0,0,0,0,0,0,0,0,0,0,0,211,211,0,0,
0,0,0,0,0,0,0,0,0,0,0,0,194,196,0,0,
0,0,0,0,0,0,0,0,0,0,194,195,226,228,195,195
</chunk>
   <chunk x="-16" y="0" width="16" height="16">
0,0,0,0,0,0,0,0,211,211,0,0,211,211,0,0,
0,0,0,0,0,0,0,0,211,211,0,0,211,211,0,0,
0,0,0,0,0,0,0,0,244,211,0,0,0,0,0,0,
0,0,0,0,0,0,0,0,210,211,0,0,0,0,0,0,
0,0,0,0,0,0,0,0,210,243,211,211,211,211,211,211,
0,0,0,0,0,0,0,0,0,0,0,274,211,211,211,0,
196,0,0,0,0,0,0,0,0,0,0,211,211,211,211,0,
212,0,0,0,0,0,0,0,0,0,0,244,211,211,242,0,
212,0,0,0,0,0,0,0,0,0,0,210,211,243,212,0,
0,0,0,0,0,0,0,0,0,0,0,210,211,211,212,0,
0,0,0,0,0,0,0,0,194,195,195,226,211,211,228,195,
0,0,0,0,0,0,0,0,210,227,211,211,211,211,211,211,
0,0,0,0,0,0,0,0,210,211,211,0,0,0,0,0,
0,0,0,0,0,0,0,154,226,211,0,0,0,0,0,0,
0,0,194,156,0,0,0,211,211,211,0,0,0,0,0,0,
195,195,226,259,0,0,0,214,214,276,0,0,0,0,0,0
</chunk>
   <chunk x="0" y="0" width="16" height="16">
211,211,0,0,0,211,211,0,0,0,0,0,0,0,227,211,
211,2147483923,0,0,0,211,211,0,0,0,0,0,0,0,211,211,
211,242,0,0,0,211,259,0,0,0,0,0,0,0,211,275,
211,212,0,0,0,211,211,0,0,0,0,0,0,0,211,211,
259,212,0,0,0,194,196,0,0,0,0,0,0,0,194,196,
0,0,0,0,194,226,228,195,195,195,196,0,0,194,226,228,
0,0,0,0,210,243,214,214,214,211,212,0,0,210,211,214,
0,0,0,0,210,211,214,214,214,276,212,0,0,210,275,214,
0,0,0,0,0,0,0,0,0,0,0,0,0,0,0,0,
0,0,0,0,0,0,0,0,0,0,0,0,0,0,0,0,
195,196,0,0,0,0,0,0,0,0,0,0,0,0,0,0,
211,212,0,0,0,0,0,0,0,0,0,0,0,0,0,0,
275,212,0,0,0,0,0,0,0,0,0,0,0,0,0,0,
258,228,219,220,0,0,0,0,0,0,0,0,0,0,0,0,
243,214,214,228,196,0,0,0,0,0,0,0,0,0,0,0,
214,214,214,214,236,0,0,0,0,0,0,0,0,0,0,0
</chunk>
   <chunk x="16" y="0" width="16" height="16">
0,0,0,0,0,0,0,211,258,0,0,0,0,0,0,0,
0,0,0,0,0,0,0,211,211,0,0,0,0,0,0,0,
0,0,0,0,0,0,0,211,211,0,0,0,0,0,0,0,
0,0,0,0,0,0,0,211,211,0,0,0,0,0,0,0,
0,0,0,0,0,0,0,194,196,0,0,0,0,0,0,0,
195,195,195,196,0,0,194,226,228,195,195,195,196,0,0,0,
214,211,227,212,0,0,210,259,214,214,211,243,212,0,0,0,
214,214,211,212,0,0,210,214,214,214,214,214,212,0,0,0,
0,0,0,0,0,0,0,0,0,0,0,0,0,0,0,0,
0,0,0,0,0,0,0,0,0,0,0,0,0,0,0,0,
0,0,0,0,0,0,0,0,0,0,0,0,0,0,0,0,
0,0,0,0,0,0,0,0,0,0,0,0,0,0,0,0,
0,0,0,0,0,0,0,0,0,0,0,0,0,0,0,0,
0,0,0,0,0,0,0,0,0,0,0,0,0,0,0,0,
0,0,0,0,0,0,0,0,0,0,0,0,0,0,0,0,
0,0,0,0,0,0,0,0,0,0,0,0,0,0,0,0
</chunk>
   <chunk x="-32" y="16" width="16" height="16">
0,0,0,0,0,0,0,0,0,0,210,211,211,211,211,211,
0,0,0,0,0,0,0,0,0,0,210,227,211,0,0,0,
0,0,0,0,0,0,0,0,0,0,210,260,0,0,0,0,
0,0,0,0,0,0,0,0,0,0,210,211,0,0,0,0,
0,0,0,0,0,0,0,0,0,0,210,211,0,0,0,0,
0,0,0,0,0,0,0,0,0,0,210,211,0,0,0,0,
0,0,0,0,0,0,0,0,0,0,210,211,259,211,0,0,
0,0,0,0,0,0,0,0,0,0,210,211,211,211,211,211,
0,0,0,0,0,0,0,0,0,0,210,211,211,211,211,211,
0,0,0,0,0,0,0,0,0,0,0,275,211,211,211,211,
0,0,0,0,0,0,0,0,0,0,0,0,0,0,211,211,
0,0,0,0,0,0,0,0,0,0,0,0,0,0,2147483922,211,
0,0,0,0,0,0,0,0,0,0,0,0,0,0,244,242,
0,0,0,0,0,0,0,0,0,0,0,0,0,0,210,212,
0,0,0,0,0,0,0,0,0,0,0,0,0,0,210,212,
0,0,0,0,0,0,0,0,0,0,0,0,0,194,226,228
</chunk>
   <chunk x="-16" y="16" width="16" height="16">
2147483923,211,211,211,211,211,214,214,214,214,0,0,0,0,0,0,
0,211,211,211,211,211,214,214,214,214,0,0,0,0,0,0,
0,0,0,0,0,0,214,214,214,214,0,0,0,0,0,0,
0,0,0,0,0,0,214,214,214,214,0,0,0,0,0,0,
0,0,0,0,0,0,214,214,214,214,211,0,0,0,0,211,
0,0,0,0,0,211,214,214,211,211,211,211,211,211,211,227,
0,0,0,0,260,211,211,211,0,0,2147483922,211,211,211,2147483922,211,
0,0,0,0,211,243,211,0,0,0,0,0,0,0,0,211,
211,211,211,211,227,211,211,0,0,0,0,0,0,0,0,211,
259,211,211,211,211,211,0,0,0,0,0,0,0,0,0,0,
0,0,0,0,0,0,0,0,0,0,0,0,0,0,0,0,
0,0,0,0,0,0,0,0,0,0,0,0,0,0,0,0,
0,0,0,0,0,0,0,0,0,0,0,0,0,0,0,0,
0,0,0,0,0,0,0,0,0,0,0,0,0,0,0,0,
0,0,0,0,0,0,0,0,0,0,0,0,0,0,0,0,
196,0,0,0,0,0,0,0,0,0,0,0,0,0,0,0
</chunk>
   <chunk x="0" y="16" width="16" height="16">
214,214,214,214,228,195,195,195,195,196,0,0,0,0,0,0,
214,214,214,214,211,211,211,227,211,228,195,196,0,0,0,0,
214,214,214,211,0,0,0,0,0,211,2147483923,228,196,0,0,0,
214,214,211,0,0,0,0,0,0,0,211,276,212,0,0,0,
211,211,0,0,0,0,0,0,0,0,0,211,212,0,0,0,
274,211,0,0,0,0,0,0,0,0,0,227,212,0,0,0,
211,211,0,0,0,0,0,0,0,0,0,211,228,195,196,0,
211,211,0,0,0,0,0,0,0,0,0,211,211,260,212,0,
211,211,211,0,0,0,0,0,0,0,0,211,214,214,228,196,
259,211,211,2147483923,0,0,0,0,0,0,214,214,214,214,214,212,
0,227,211,211,211,211,0,0,0,211,214,214,214,214,214,212,
0,0,211,214,214,214,211,243,211,211,214,214,214,214,214,212,
0,0,211,214,214,214,214,211,211,211,211,214,214,214,214,212,
0,0,0,214,214,214,214,0,0,0,0,0,0,214,214,212,
0,0,0,214,214,214,214,0,0,0,0,0,0,211,211,212,
0,0,0,244,214,214,0,0,0,0,0,0,0,211,243,212
</chunk>
   <chunk x="16" y="16" width="16" height="16">
0,0,0,0,0,0,0,0,0,0,0,0,0,0,0,0,
0,0,0,0,0,0,0,0,0,0,0,0,0,0,0,0,
0,0,0,0,0,0,0,0,0,0,0,0,0,0,0,0,
0,0,0,0,0,0,0,0,0,0,0,0,0,0,0,0,
0,0,0,0,0,0,0,0,0,0,0,0,0,0,0,0,
0,0,0,0,0,0,0,0,0,0,0,0,0,0,0,0,
0,0,0,0,0,0,0,0,0,0,0,0,0,0,77,2147483725,
0,0,0,0,0,0,0,0,0,0,0,0,0,0,77,2147483725,
0,0,0,0,0,0,0,0,0,0,0,0,0,0,77,2147483725,
0,0,0,0,0,0,0,0,0,0,0,0,0,0,65,67,
0,0,0,0,0,0,0,0,0,0,0,0,0,0,65,67,
0,0,0,0,0,0,0,0,0,0,0,0,0,49,81,83,
0,0,0,0,0,0,0,0,0,0,0,0,49,81,66,123,
0,0,0,0,0,0,0,0,0,0,0,0,65,123,121,122,
0,0,0,0,0,0,0,0,0,0,0,0,65,66,137,138,
0,0,0,0,0,0,0,0,0,0,0,0,0,66,123,66
</chunk>
   <chunk x="32" y="16" width="16" height="16">
0,0,0,0,0,0,0,0,0,0,0,0,0,0,0,0,
0,0,0,0,0,0,0,0,0,0,0,0,0,0,0,0,
0,0,0,0,0,0,0,0,0,0,0,0,0,0,0,0,
0,0,0,0,0,0,0,0,0,0,0,0,0,0,0,0,
0,0,0,0,0,0,0,0,0,0,0,0,0,0,0,0,
0,0,0,0,0,0,0,0,0,0,0,0,0,0,0,0,
0,0,0,0,0,0,0,0,0,0,0,0,0,0,0,0,
0,0,0,0,0,0,0,0,0,0,0,0,0,0,0,0,
0,0,0,0,0,0,0,0,0,0,0,0,0,0,0,0,
0,0,0,0,0,0,0,0,0,0,0,0,0,0,0,0,
0,0,0,0,0,0,0,0,0,0,0,0,0,0,0,0,
51,0,0,0,0,0,0,0,0,0,0,0,0,0,0,0,
83,51,0,0,0,0,0,0,0,0,0,0,0,0,0,0,
66,67,0,0,0,0,0,0,0,0,0,0,0,0,0,0,
123,67,0,0,0,0,0,0,0,0,0,0,0,0,0,0,
66,0,0,0,0,0,0,0,0,0,0,0,0,0,0,0
</chunk>
   <chunk x="-32" y="32" width="16" height="16">
0,0,0,0,0,0,0,0,0,0,0,0,194,226,211,211,
0,0,0,0,0,0,0,0,0,0,0,0,210,211,211,211,
0,0,0,0,0,0,0,0,0,0,0,0,210,211,211,211,
0,0,0,0,0,0,0,0,0,0,0,0,210,243,211,211,
0,0,0,0,0,0,0,0,0,0,0,0,0,274,211,211,
0,0,0,0,0,0,0,0,0,0,0,0,0,0,0,0,
0,0,0,0,0,0,0,0,0,0,0,0,0,0,0,0,
0,0,0,0,0,0,0,0,0,0,0,0,0,0,0,0,
0,0,0,0,0,0,0,0,0,0,0,0,0,0,0,0,
0,0,0,0,0,0,0,0,0,0,0,0,0,0,0,0,
0,0,0,0,0,0,0,0,0,0,0,0,0,0,0,0,
0,0,0,0,0,0,0,0,0,0,0,0,0,0,0,0,
0,0,0,0,0,0,0,0,0,0,0,0,0,0,0,0,
0,0,0,0,0,0,0,0,0,0,0,0,0,0,0,0,
0,0,0,0,0,0,0,0,0,0,0,0,0,0,0,0,
0,0,0,0,0,0,0,0,0,0,0,0,0,0,0,0
</chunk>
   <chunk x="-16" y="32" width="16" height="16">
228,196,0,0,0,0,0,0,0,0,0,0,0,0,0,0,
227,212,0,0,0,0,0,0,0,0,0,0,0,0,0,0,
211,212,0,0,0,0,0,0,0,0,0,0,0,0,0,0,
211,212,0,0,0,0,0,0,0,0,0,0,0,0,0,0,
259,0,0,0,0,0,0,0,0,0,0,0,0,0,0,214,
0,0,0,0,0,0,0,0,0,0,0,0,0,0,214,214,
0,0,0,0,0,0,0,0,0,0,0,0,0,0,214,214,
0,0,0,0,0,0,0,0,0,0,0,0,0,0,243,214,
0,0,0,0,0,0,0,0,0,0,0,0,0,0,0,211,
0,0,0,0,0,0,0,0,0,0,0,0,0,0,0,227,
0,0,0,0,0,0,0,0,0,0,0,0,0,0,0,211,
0,0,0,0,0,0,0,0,0,0,0,0,0,0,0,211,
0,0,0,0,0,0,0,0,0,0,0,0,0,0,260,211,
0,0,0,0,0,0,0,0,0,0,0,0,0,0,211,214,
0,0,0,0,0,0,0,0,0,0,0,0,0,0,211,214,
0,0,0,0,0,0,0,0,0,0,0,0,0,0,0,214
</chunk>
   <chunk x="0" y="32" width="16" height="16">
0,0,0,210,211,0,0,0,0,0,0,0,0,211,211,0,
0,0,0,210,211,0,0,0,0,0,0,0,0,211,211,0,
154,195,195,226,243,0,0,0,0,0,0,211,227,211,242,0,
259,214,214,214,211,0,0,0,0,0,211,211,211,2147483922,0,0,
214,214,214,214,214,0,0,0,211,211,211,211,0,0,0,0,
214,214,214,214,214,0,0,0,211,211,2147483923,260,0,0,0,0,
214,214,214,214,214,214,0,0,211,211,0,0,0,0,0,0,
214,214,214,214,214,214,214,211,211,259,0,0,0,0,0,0,
214,214,0,0,214,214,214,211,211,0,0,0,0,0,0,0,
211,0,0,0,0,0,2147483923,211,211,0,0,0,0,0,0,0,
211,0,0,0,0,0,0,211,242,0,0,0,0,0,0,0,
211,0,0,0,0,0,0,211,212,0,0,0,0,0,0,0,
211,0,0,0,0,0,0,211,212,0,0,0,0,0,0,0,
214,214,0,0,0,0,211,211,212,0,0,0,0,0,0,0,
214,214,274,0,0,211,211,211,212,0,0,0,0,0,0,0,
214,214,214,214,211,211,211,211,212,0,0,0,0,0,0,0
</chunk>
   <chunk x="16" y="32" width="16" height="16">
0,0,0,0,0,0,0,0,0,0,0,0,0,0,66,66,
0,0,0,0,0,0,0,0,0,0,0,0,0,0,123,123,
0,0,0,0,0,0,0,0,0,0,0,0,0,0,84,100,
0,0,0,0,0,0,0,0,0,0,0,0,0,0,65,67,
0,0,0,0,0,0,0,0,0,0,0,0,0,0,65,67,
0,0,0,0,0,0,0,0,0,0,0,0,0,0,65,67,
0,0,0,0,0,0,0,0,0,0,0,0,49,50,81,83,
0,0,0,0,0,0,0,0,0,0,0,0,65,139,66,66,
0,0,0,0,0,0,0,0,0,0,0,0,65,66,139,139,
0,0,0,0,0,0,0,0,0,0,0,0,65,139,66,66,
0,0,0,0,0,0,0,0,0,0,0,0,0,0,121,122,
0,0,0,0,0,0,0,0,0,0,0,0,0,0,137,138,
0,0,0,0,0,0,0,0,0,0,0,0,0,0,139,139,
0,0,0,0,0,0,0,0,0,0,0,0,0,0,139,139,
0,0,0,0,0,0,0,0,0,0,0,0,0,0,49,51,
0,0,0,0,0,0,0,0,0,0,0,0,0,49,81,83
</chunk>
   <chunk x="32" y="32" width="16" height="16">
0,0,0,0,0,0,0,0,0,0,0,0,0,0,0,0,
0,0,0,0,0,0,0,0,0,0,0,0,0,0,0,0,
0,0,0,0,0,0,0,0,0,0,0,0,0,0,0,0,
0,0,0,0,0,0,0,0,0,0,0,0,0,0,0,0,
0,0,0,0,0,0,0,0,0,0,0,0,0,0,0,0,
0,0,0,0,0,0,0,0,0,0,0,0,0,0,0,0,
50,51,0,0,0,0,0,0,0,0,0,0,0,0,0,0,
139,67,0,0,0,0,0,0,0,0,0,0,0,0,0,0,
66,67,0,0,0,0,0,0,0,0,0,0,0,0,0,0,
139,67,0,0,0,0,0,0,0,0,0,0,0,0,0,0,
0,0,0,0,0,0,0,0,0,0,0,0,0,0,0,0,
0,0,0,0,0,0,0,0,0,0,0,0,0,0,0,0,
0,0,0,0,0,0,0,0,0,0,0,0,0,0,0,0,
0,0,0,0,0,0,0,0,0,0,0,0,0,0,0,0,
0,0,0,0,0,0,0,0,0,0,0,0,0,0,0,0,
50,51,0,0,0,0,0,0,0,0,0,0,0,0,0,0
</chunk>
   <chunk x="-16" y="48" width="16" height="16">
0,0,0,0,0,0,0,0,0,0,0,0,0,0,0,211,
0,0,0,0,0,0,0,0,0,0,0,0,0,0,0,0,
0,0,0,0,0,0,0,0,0,0,0,0,0,0,0,0,
0,0,0,0,0,0,0,0,0,0,0,0,0,0,0,0,
0,0,0,0,0,0,0,0,0,0,0,0,0,0,0,0,
0,0,0,0,0,0,0,0,0,0,0,0,0,0,0,0,
0,0,0,0,0,0,0,0,0,0,0,0,0,0,0,0,
0,0,0,0,0,0,0,0,0,0,0,0,0,0,0,0,
0,0,0,0,0,0,0,0,0,0,0,0,0,0,0,0,
0,0,0,0,0,0,0,0,0,0,0,0,0,0,0,0,
0,0,0,0,0,0,0,0,0,0,0,0,0,0,0,0,
0,0,0,0,0,0,0,0,0,0,0,0,0,0,0,0,
0,0,0,0,0,0,0,0,0,0,0,0,0,0,0,0,
0,0,0,0,0,0,0,0,0,0,0,0,0,0,0,0,
0,0,0,0,0,0,0,0,0,0,0,0,0,0,0,211,
0,0,0,0,0,0,0,0,0,0,0,0,0,0,0,211
</chunk>
   <chunk x="0" y="48" width="16" height="16">
214,214,214,214,214,214,211,243,212,0,0,0,0,0,0,0,
276,211,214,214,214,214,211,211,0,0,0,0,0,0,0,0,
0,0,214,214,211,211,0,0,0,0,0,0,0,0,0,0,
0,0,211,211,227,211,0,0,0,0,0,0,0,0,0,0,
0,0,211,211,211,243,0,0,0,0,0,0,0,0,0,0,
0,0,211,211,211,211,0,0,0,0,0,0,0,0,0,0,
0,0,211,211,211,211,0,0,0,0,0,0,0,0,0,0,
0,0,211,211,211,211,0,0,0,0,0,0,0,0,0,0,
0,0,211,211,211,2147483923,0,0,0,0,0,0,0,0,0,0,
0,0,2147483908,211,211,211,0,0,0,0,0,0,0,0,0,0,
0,0,211,211,211,211,0,0,0,0,0,0,0,0,0,0,
0,0,211,211,211,211,0,0,0,0,0,0,0,0,0,0,
0,227,211,211,211,211,211,0,0,0,0,0,0,0,0,0,
211,211,211,0,0,211,211,258,0,0,0,0,0,0,0,0,
211,211,0,0,0,0,211,211,211,0,0,0,0,0,0,0,
211,0,0,0,0,0,0,211,211,0,0,0,0,0,0,0
</chunk>
   <chunk x="16" y="48" width="16" height="16">
0,0,0,0,0,0,0,0,0,0,0,0,0,65,66,66,
0,0,0,0,0,0,0,0,0,0,0,0,0,65,123,139,
0,0,0,0,0,0,0,0,0,0,0,0,0,65,123,123,
0,0,0,0,0,0,0,0,0,0,0,0,0,0,66,66,
0,0,0,0,0,0,0,0,0,0,0,0,0,0,0,0,
0,0,0,0,0,0,0,0,0,0,0,0,0,0,0,0,
0,0,0,0,0,0,0,0,0,0,0,0,0,0,0,0,
0,0,0,0,0,0,0,0,0,0,0,0,0,0,0,0,
0,0,0,0,0,0,0,0,0,0,0,0,0,0,0,0,
0,0,0,0,0,0,0,0,49,68,50,51,0,0,0,49,
0,0,0,0,0,0,0,0,65,139,139,83,50,50,50,81,
0,0,0,0,0,0,0,0,65,139,139,123,66,123,66,66,
0,0,0,0,0,0,0,0,0,123,66,0,0,0,0,0,
0,0,0,0,0,0,0,0,0,66,66,0,0,0,0,0,
0,0,0,0,0,0,0,0,0,84,100,0,0,0,0,0,
0,0,0,0,0,0,0,0,0,65,67,0,0,0,0,0
</chunk>
   <chunk x="32" y="48" width="16" height="16">
66,83,51,0,0,49,50,51,0,0,0,0,0,0,0,0,
123,66,83,50,50,81,66,67,0,0,0,0,0,0,0,0,
66,66,66,66,66,74,76,67,0,0,0,0,0,0,0,0,
66,139,123,0,0,106,108,67,0,0,0,0,0,0,0,0,
0,0,0,0,0,123,139,67,0,0,0,0,0,0,0,0,
0,0,0,0,0,84,66,67,0,0,0,0,49,50,50,50,
0,0,0,0,0,65,123,67,0,0,0,0,65,66,66,123,
0,0,0,0,0,65,66,67,0,0,49,50,81,66,121,122,
0,0,0,0,0,65,66,67,0,0,65,123,66,66,137,138,
50,68,51,0,0,65,66,83,50,50,81,66,66,97,99,66,
121,122,67,0,0,65,66,139,123,66,123,123,66,129,131,66,
137,138,67,0,0,65,66,123,0,0,123,139,123,66,66,66,
66,123,0,0,0,65,66,66,0,0,66,66,66,66,66,123,
66,66,0,0,0,65,66,100,0,0,0,0,0,0,0,0,
84,100,0,0,0,65,66,67,0,0,0,0,0,0,0,0,
65,67,0,0,0,65,123,67,0,0,0,0,0,0,0,0
</chunk>
   <chunk x="48" y="48" width="16" height="16">
0,0,0,0,0,0,0,0,0,0,0,0,0,0,0,0,
0,0,0,0,0,0,0,0,0,0,0,0,0,0,0,0,
0,0,0,0,0,0,0,0,0,0,0,0,0,0,0,0,
0,0,0,0,0,0,0,0,0,0,0,0,0,0,0,0,
0,0,0,0,0,0,0,0,0,0,0,0,0,0,0,0,
50,51,0,0,0,0,0,0,0,0,0,0,0,0,0,0,
123,67,0,0,49,51,0,0,0,0,0,0,0,0,0,0,
123,67,0,0,65,67,0,0,0,0,0,0,0,0,0,0,
66,67,0,0,65,67,0,0,0,0,0,0,0,0,0,0,
66,67,0,0,65,67,0,0,0,0,0,0,0,0,0,0,
66,67,0,0,0,0,0,0,0,0,0,0,0,0,0,0,
66,67,0,0,0,0,0,0,0,0,0,0,0,0,0,0,
0,0,0,0,0,0,0,0,0,0,0,0,0,0,0,0,
0,0,0,0,0,0,0,0,0,0,0,0,0,0,0,0,
0,0,0,0,0,0,0,0,0,0,0,0,0,0,0,0,
0,0,0,0,0,0,0,0,0,0,0,0,0,0,0,0
</chunk>
   <chunk x="-16" y="64" width="16" height="16">
0,0,0,0,0,0,0,0,0,0,0,0,0,0,0,211,
0,0,0,0,0,0,0,0,0,0,0,0,0,0,0,259,
0,0,0,0,0,0,0,0,0,0,0,0,0,0,0,0,
0,0,0,0,0,0,0,0,0,0,0,0,0,0,0,0,
0,0,0,0,0,0,0,0,0,0,0,0,0,0,0,0,
0,0,0,0,0,0,0,0,0,0,0,0,0,0,0,0,
0,0,0,0,0,0,0,0,0,0,0,0,0,0,0,0,
0,0,0,0,0,0,0,0,0,0,0,0,0,0,0,0,
0,0,0,0,0,0,0,0,0,0,0,0,0,0,0,0,
0,0,0,0,0,0,0,0,0,0,0,0,0,0,0,0,
0,0,0,0,0,0,0,0,0,0,0,0,0,0,0,0,
0,0,0,0,0,0,0,0,0,0,0,0,0,0,0,0,
0,0,0,0,0,0,0,0,0,0,0,0,0,0,0,0,
0,0,0,0,0,0,0,0,0,0,0,0,0,0,0,0,
0,0,0,0,0,0,0,0,0,0,0,0,0,0,0,0,
0,0,0,0,0,0,0,0,0,0,0,0,0,0,0,0
</chunk>
   <chunk x="0" y="64" width="16" height="16">
211,0,0,0,0,0,0,211,211,0,0,0,0,0,0,0,
211,211,0,0,0,0,211,211,211,0,0,0,0,0,0,0,
2147483922,211,211,0,0,211,243,211,0,0,0,0,0,0,0,0,
0,211,211,211,211,227,259,0,0,0,0,0,0,0,0,0,
0,0,259,211,211,211,0,0,0,0,0,0,0,0,0,0,
0,0,211,211,134,211,0,0,0,0,0,0,0,0,0,0,
0,0,134,211,211,134,0,0,0,0,0,0,0,0,0,49,
0,0,103,134,134,102,0,0,0,0,49,50,50,50,50,81,
0,0,118,134,134,101,0,0,0,49,81,97,98,99,66,123,
0,0,117,136,133,83,50,50,50,81,66,113,114,115,66,66,
0,0,135,123,66,66,123,66,66,66,66,129,130,131,66,66,
0,0,0,66,66,66,66,66,66,66,97,99,123,139,66,66,
0,0,0,0,0,0,0,0,0,123,129,131,66,66,66,66,
0,0,0,0,0,0,0,0,0,0,0,0,0,0,0,0,
0,0,0,0,0,0,0,0,0,0,0,0,0,0,0,0,
0,0,0,0,0,0,0,0,0,0,0,0,0,0,0,0
</chunk>
   <chunk x="16" y="64" width="16" height="16">
0,0,0,0,0,0,0,0,0,65,67,0,0,0,0,0,
0,0,0,0,0,0,49,68,50,81,83,50,50,50,50,50,
0,0,0,0,0,0,65,139,139,66,123,66,66,66,66,123,
0,0,0,0,0,0,0,139,139,66,0,0,0,0,0,0,
0,0,0,0,0,0,0,123,66,66,0,0,0,0,0,0,
0,0,0,0,0,0,0,84,66,100,0,0,0,0,0,0,
50,50,51,0,0,0,0,65,66,67,0,0,0,0,0,0,
66,66,83,51,0,0,0,65,66,67,0,0,0,0,0,0,
139,123,66,83,50,50,50,81,66,67,0,0,0,0,0,0,
123,123,66,66,66,66,66,66,123,67,0,0,0,0,0,0,
66,97,99,66,0,0,0,0,0,0,0,0,0,0,0,0,
66,129,131,0,0,0,0,0,0,0,0,0,0,0,0,0,
0,0,0,0,0,0,0,0,0,0,0,0,0,0,0,0,
0,0,0,0,0,0,0,0,0,0,0,0,0,0,0,0,
0,0,0,0,0,0,0,0,0,0,0,0,0,0,0,0,
0,0,0,0,0,0,0,0,0,0,0,0,0,0,0,0
</chunk>
   <chunk x="32" y="64" width="16" height="16">
65,67,0,0,0,65,123,67,0,0,0,0,0,0,0,0,
81,83,50,68,50,81,66,67,0,0,0,0,0,0,0,0,
66,66,139,139,123,66,66,67,0,0,0,0,0,0,0,0,
0,0,0,0,0,0,0,0,0,0,0,0,0,0,0,0,
0,0,0,0,0,0,0,0,0,0,0,0,0,0,0,0,
0,0,0,0,0,0,0,0,0,0,0,0,0,0,0,0,
0,0,0,0,0,0,0,0,0,0,0,0,0,0,0,0,
0,0,0,0,0,0,0,0,0,0,0,0,0,0,0,0,
0,0,0,0,0,0,0,0,0,0,0,0,0,0,0,0,
0,0,0,0,0,0,0,0,0,0,0,0,0,0,0,0,
0,0,0,0,0,0,0,0,0,0,0,0,0,0,0,0,
0,0,0,0,0,0,0,0,0,0,0,0,0,0,0,0,
0,0,0,0,0,0,0,0,0,0,0,0,0,0,0,0,
0,0,0,0,0,0,0,0,0,0,0,0,0,0,0,0,
0,0,0,0,0,0,0,0,0,0,0,0,0,0,0,0,
0,0,0,0,0,0,0,0,0,0,0,0,0,0,0,0
</chunk>
  </data>
 </layer>
 <layer id="15" name="Рвы" width="100" height="100">
  <data encoding="csv">
   <chunk x="-16" y="-16" width="16" height="16">
0,0,0,0,0,0,0,0,0,0,0,0,0,0,0,0,
0,0,0,0,0,0,0,0,0,0,0,0,0,0,0,0,
0,0,0,0,0,0,0,0,0,0,0,0,0,0,0,0,
0,0,0,0,0,0,0,0,0,0,0,0,0,0,0,0,
0,0,0,0,0,0,0,0,0,0,0,0,0,0,0,0,
0,0,0,0,0,0,0,0,0,0,0,0,0,0,0,0,
0,0,0,0,0,0,0,0,0,0,0,0,0,0,0,0,
0,0,0,0,0,0,0,0,0,0,0,0,0,0,0,0,
0,0,0,0,0,0,0,0,0,0,0,0,0,0,0,0,
0,0,0,0,0,0,0,0,0,0,0,0,0,0,0,0,
0,0,0,0,0,0,0,0,0,0,0,0,0,0,0,0,
0,0,0,0,0,0,0,0,0,0,0,0,0,0,0,0,
0,0,0,0,0,0,0,0,0,0,0,0,0,0,0,0,
0,0,0,0,0,0,0,0,0,0,0,0,0,0,0,0,
0,0,0,0,0,0,0,0,0,0,247,248,248,248,248,249,
0,0,0,0,0,0,0,0,0,0,213,245,230,230,246,215
</chunk>
   <chunk x="-16" y="0" width="16" height="16">
0,0,0,0,0,0,0,0,0,0,213,215,0,0,213,215,
0,0,0,0,0,0,0,0,0,0,213,215,0,0,213,215,
0,0,0,0,0,0,0,0,0,0,213,250,248,248,251,215,
0,0,0,0,0,0,0,0,0,0,229,230,230,230,230,231,
0,0,0,0,0,0,0,0,0,0,0,0,0,0,0,0,
0,0,0,0,0,0,0,0,0,0,0,0,0,0,0,0,
0,0,0,0,0,0,0,0,0,0,0,0,0,0,0,0,
0,0,0,0,0,0,0,0,0,0,0,0,0,0,0,0,
0,0,0,0,0,0,0,0,0,0,0,0,0,0,0,0,
0,0,0,0,0,0,0,0,0,0,0,0,0,0,0,0,
0,0,0,0,0,0,0,0,0,0,0,0,0,0,0,0,
0,0,0,0,0,0,0,0,0,0,0,0,0,0,0,0,
0,0,0,0,0,0,0,0,0,0,0,247,248,248,248,249,
0,0,0,0,0,264,215,0,0,0,247,251,0,0,265,215,
0,0,0,0,213,263,215,0,0,0,213,0,264,263,0,215,
0,0,0,0,229,230,231,0,0,0,213,265,0,265,264,215
</chunk>
   <chunk x="-32" y="16" width="16" height="16">
0,0,0,0,0,0,0,0,0,0,0,0,0,0,0,0,
0,0,0,0,0,0,0,0,0,0,0,0,0,247,248,248,
0,0,0,0,0,0,0,0,0,0,0,0,247,251,0,264,
0,0,0,0,0,0,0,0,0,0,0,0,213,265,263,265,
0,0,0,0,0,0,0,0,0,0,0,0,213,264,265,0,
0,0,0,0,0,0,0,0,0,0,0,0,229,230,246,264,
0,0,0,0,0,0,0,0,0,0,0,0,0,0,229,230,
0,0,0,0,0,0,0,0,0,0,0,0,0,0,0,0,
0,0,0,0,0,0,0,0,0,0,0,0,0,0,0,0,
0,0,0,0,0,0,0,0,0,0,0,0,0,0,0,0,
0,0,0,0,0,0,0,0,0,0,0,0,0,0,0,0,
0,0,0,0,0,0,0,0,0,0,0,0,0,0,0,0,
0,0,0,0,0,0,0,0,0,0,0,0,0,0,0,0,
0,0,0,0,0,0,0,0,0,0,0,0,0,0,0,0,
0,0,0,0,0,0,0,0,0,0,0,0,0,0,0,0,
0,0,0,0,0,0,0,0,0,0,0,0,0,0,0,0
</chunk>
   <chunk x="-16" y="16" width="16" height="16">
0,0,0,0,0,0,0,0,0,0,213,0,263,0,0,215,
249,0,0,0,0,0,0,0,0,0,213,263,0,264,0,215,
250,248,248,248,248,249,0,0,0,0,213,0,264,263,265,215,
264,265,0,264,265,215,0,0,0,0,229,246,0,265,245,231,
0,263,265,0,245,231,0,0,0,0,0,229,230,230,231,0,
0,265,0,245,231,0,0,0,0,0,0,0,0,0,0,0,
246,264,265,215,0,0,0,0,0,0,0,0,0,0,0,0,
229,230,230,231,0,0,0,0,0,0,0,0,0,0,0,0,
0,0,0,0,0,0,0,0,0,0,0,0,0,0,0,0,
0,0,0,0,0,0,0,0,0,0,0,0,0,0,0,0,
0,0,0,0,0,0,0,0,0,0,0,0,0,0,0,0,
0,0,0,0,0,0,0,0,0,0,0,0,0,0,0,0,
0,0,0,0,0,0,0,0,0,0,0,0,0,0,0,0,
0,0,0,0,0,0,0,0,0,0,0,0,0,0,0,0,
0,0,0,0,0,0,0,0,0,0,0,0,0,0,0,0,
0,0,0,0,0,0,0,0,0,0,0,0,0,0,0,0
</chunk>
   <chunk x="0" y="16" width="16" height="16">
0,0,0,0,0,0,0,0,0,0,0,0,0,0,0,0,
0,0,0,0,0,0,0,0,0,0,0,0,0,0,0,0,
0,0,0,0,247,248,248,248,249,0,0,0,0,0,0,0,
0,0,0,247,251,264,0,0,250,249,0,0,0,0,0,0,
0,0,247,251,265,0,265,264,0,250,249,0,0,0,0,0,
0,0,213,0,264,264,265,0,263,265,215,0,0,0,0,0,
0,0,213,264,265,0,263,0,265,0,215,0,0,0,0,0,
0,0,229,246,265,0,265,0,0,264,215,0,0,0,0,0,
0,0,0,229,246,264,0,0,264,245,231,0,0,0,0,0,
0,0,0,0,229,230,246,265,245,231,0,0,0,0,0,0,
0,0,0,0,0,0,229,230,231,0,0,0,0,0,0,0,
0,0,0,0,0,0,0,0,0,0,0,0,0,0,0,0,
0,0,0,0,0,0,0,0,0,0,0,0,0,0,0,0,
0,0,0,0,0,0,0,247,248,248,248,248,249,0,0,0,
0,0,0,0,0,0,0,213,265,0,265,0,215,0,0,0,
0,0,0,0,0,0,247,251,263,265,264,265,215,0,0,0
</chunk>
   <chunk x="-16" y="32" width="16" height="16">
0,0,0,0,0,0,0,0,0,0,0,0,0,0,0,0,
0,0,0,0,0,0,0,0,0,0,0,0,0,0,0,0,
0,0,0,0,0,0,0,0,0,0,0,0,0,0,0,215,
0,0,0,0,0,0,0,0,0,0,0,0,0,0,245,231,
0,0,0,0,0,0,0,0,0,0,0,0,0,245,231,0,
0,0,0,0,0,0,0,0,0,0,0,265,0,215,0,0,
0,0,0,0,0,0,0,0,0,0,0,0,263,215,0,0,
0,0,0,0,0,0,0,0,0,0,0,265,0,215,0,0,
0,0,0,0,0,0,0,0,0,0,0,264,265,250,249,0,
0,0,0,0,0,0,0,0,0,0,0,265,0,0,215,0,
0,0,0,0,0,0,0,0,0,0,0,0,264,265,215,0,
0,0,0,0,0,0,0,0,0,0,0,0,0,245,231,0,
0,0,0,0,0,0,0,0,0,0,0,263,265,215,0,0,
0,0,0,0,0,0,0,0,0,0,0,0,0,215,0,0,
0,0,0,0,0,0,0,0,0,0,0,0,264,215,0,0,
0,0,0,0,0,0,0,0,0,0,0,0,0,250,249,0
</chunk>
   <chunk x="0" y="32" width="16" height="16">
0,0,0,0,0,247,251,0,0,263,265,0,215,0,0,0,
0,0,0,0,0,213,264,0,265,0,245,230,231,0,0,0,
0,0,0,0,0,213,0,263,265,245,231,0,0,0,0,0,
0,0,0,0,0,213,265,245,230,231,0,0,0,0,0,0,
0,0,0,0,0,213,264,215,0,0,0,0,0,0,0,0,
0,0,0,0,0,229,246,215,0,0,0,0,0,0,0,0,
0,0,0,0,0,0,229,231,0,0,0,0,0,0,0,0,
0,0,0,0,0,0,0,0,0,0,0,0,0,0,0,0,
0,0,247,249,0,0,0,0,0,0,0,0,0,0,0,0,
0,247,251,250,248,249,0,0,0,0,0,0,0,0,0,0,
0,213,263,0,265,250,249,0,0,0,0,0,0,0,0,0,
0,213,0,265,264,0,215,0,0,0,0,0,0,0,0,0,
0,229,246,264,265,245,231,0,0,0,0,0,0,0,0,0,
0,0,229,246,245,231,0,0,0,0,0,0,0,0,0,0,
0,0,0,229,231,0,0,0,0,0,0,0,0,0,0,0,
0,0,0,0,0,0,0,0,0,0,0,0,0,0,0,0
</chunk>
   <chunk x="-16" y="48" width="16" height="16">
0,0,0,0,0,0,0,0,0,0,0,0,0,0,0,0,
0,0,0,0,0,0,0,0,0,0,0,0,0,0,0,0,
0,0,0,0,0,0,0,0,0,0,0,0,0,0,0,0,
0,0,0,0,0,0,0,0,0,0,0,0,0,0,0,0,
0,0,0,0,0,0,0,0,0,0,0,0,0,0,0,0,
0,0,0,0,0,0,0,0,0,0,0,0,0,0,0,0,
0,0,0,0,0,0,0,0,0,0,0,0,0,0,0,0,
0,0,0,0,0,0,0,0,0,0,0,0,0,0,0,0,
0,0,0,0,0,0,0,0,0,0,0,0,0,0,0,0,
0,0,0,0,0,0,0,0,0,0,0,0,0,0,0,0,
0,0,0,0,0,0,0,0,0,0,0,0,0,0,0,0,
0,0,0,0,0,0,0,0,0,0,0,0,0,0,0,0,
0,0,0,0,0,0,0,0,0,0,0,0,0,0,0,245,
0,0,0,0,0,0,0,0,0,0,0,0,0,0,245,231,
0,0,0,0,0,0,0,0,0,0,0,0,0,0,215,0,
0,0,0,0,0,0,0,0,0,0,0,0,0,0,215,0
</chunk>
   <chunk x="0" y="48" width="16" height="16">
0,0,0,0,0,0,0,0,0,0,0,0,0,0,0,0,
0,0,0,0,0,0,0,0,0,0,0,0,0,0,0,0,
0,0,0,0,0,0,0,0,0,0,0,0,0,0,0,0,
0,0,0,0,0,0,0,0,0,0,0,0,0,0,0,0,
0,0,0,0,0,0,0,0,0,0,0,0,0,0,0,0,
0,0,0,0,0,0,0,0,0,0,0,0,0,0,0,0,
0,0,0,0,0,0,0,0,0,0,0,0,0,0,0,0,
0,215,0,0,0,0,213,0,0,0,0,0,0,0,0,0,
0,215,0,0,0,0,213,0,0,0,0,0,0,0,0,0,
0,215,0,0,0,0,213,0,0,0,0,0,0,0,0,0,
0,215,0,0,0,0,213,0,0,0,0,0,0,0,0,0,
245,231,0,0,0,0,229,246,0,0,0,0,0,0,0,0,
231,0,0,0,0,0,0,229,246,0,0,0,0,0,0,0,
0,0,0,247,249,0,0,0,229,246,0,0,0,0,0,0,
0,0,247,251,250,249,0,0,0,213,0,0,0,0,0,0,
0,247,251,0,0,250,249,0,0,213,0,0,0,0,0,0
</chunk>
   <chunk x="-16" y="64" width="16" height="16">
0,0,0,0,0,0,0,0,0,0,0,0,0,0,215,0,
0,0,0,0,0,0,0,0,0,0,0,0,0,0,215,0,
0,0,0,0,0,0,0,0,0,0,0,0,0,0,250,249,
0,0,0,0,0,0,0,0,0,0,0,0,0,0,0,250,
0,0,0,0,0,0,0,0,0,0,0,0,0,0,0,0,
0,0,0,0,0,0,0,0,0,0,0,0,0,0,0,0,
0,0,0,0,0,0,0,0,0,0,0,0,0,0,0,0,
0,0,0,0,0,0,0,0,0,0,0,0,0,0,0,0,
0,0,0,0,0,0,0,0,0,0,0,0,0,0,0,0,
0,0,0,0,0,0,0,0,0,0,0,0,0,0,0,0,
0,0,0,0,0,0,0,0,0,0,0,0,0,0,0,0,
0,0,0,0,0,0,0,0,0,0,0,0,0,0,0,0,
0,0,0,0,0,0,0,0,0,0,0,0,0,0,0,0,
0,0,0,0,0,0,0,0,0,0,0,0,0,0,0,0,
0,0,0,0,0,0,0,0,0,0,0,0,0,0,0,0,
0,0,0,0,0,0,0,0,0,0,0,0,0,0,0,0
</chunk>
   <chunk x="0" y="64" width="16" height="16">
0,229,246,0,0,245,231,0,0,213,0,0,0,0,0,0,
0,0,229,246,245,231,0,0,0,213,0,0,0,0,0,0,
0,0,0,229,231,0,0,0,247,251,0,0,0,0,0,0,
249,0,0,0,0,0,0,247,251,0,0,0,0,0,0,0,
0,0,0,0,0,0,0,0,0,0,0,0,0,0,0,0,
0,0,0,0,0,0,0,0,0,0,0,0,0,0,0,0,
0,0,0,0,0,0,0,0,0,0,0,0,0,0,0,0,
0,0,0,0,0,0,0,0,0,0,0,0,0,0,0,0,
0,0,0,0,0,0,0,0,0,0,0,0,0,0,0,0,
0,0,0,0,0,0,0,0,0,0,0,0,0,0,0,0,
0,0,0,0,0,0,0,0,0,0,0,0,0,0,0,0,
0,0,0,0,0,0,0,0,0,0,0,0,0,0,0,0,
0,0,0,0,0,0,0,0,0,0,0,0,0,0,0,0,
0,0,0,0,0,0,0,0,0,0,0,0,0,0,0,0,
0,0,0,0,0,0,0,0,0,0,0,0,0,0,0,0,
0,0,0,0,0,0,0,0,0,0,0,0,0,0,0,0
</chunk>
  </data>
 </layer>
 <layer id="9" name="Пол2" width="100" height="100">
  <data encoding="csv">
   <chunk x="-32" y="-32" width="16" height="16">
0,0,0,0,0,0,0,0,0,0,0,0,0,0,0,0,
0,0,0,0,0,0,0,0,0,0,0,0,0,0,0,0,
0,0,0,0,0,0,0,0,0,0,0,0,0,0,0,0,
0,0,0,0,0,0,0,0,0,0,0,0,0,0,0,0,
0,0,0,0,0,0,0,0,0,0,0,0,0,0,0,0,
0,0,0,0,0,0,0,0,0,0,0,0,0,0,0,0,
0,0,0,0,0,0,0,0,0,0,0,0,0,0,0,0,
0,0,0,0,0,0,0,0,0,0,0,0,0,0,0,0,
0,0,0,0,0,0,0,0,0,0,0,0,0,0,0,0,
0,0,0,0,0,0,0,0,0,0,0,0,0,0,0,0,
0,2684354851,0,0,0,0,0,0,0,0,0,0,0,0,0,0,
0,2684354851,0,0,0,0,0,0,0,0,0,0,0,0,0,0,
0,0,0,0,0,0,0,0,0,0,0,0,0,0,0,0,
0,0,0,0,0,0,0,0,0,0,0,0,0,0,0,0,
0,0,0,0,0,0,0,0,0,0,0,0,0,0,0,0,
0,0,0,0,0,0,0,0,0,0,0,0,0,0,0,0
</chunk>
   <chunk x="-16" y="-16" width="16" height="16">
0,0,0,0,0,0,0,0,0,0,0,0,0,0,0,0,
0,0,0,0,0,0,0,0,0,0,0,0,0,0,0,0,
0,0,0,0,0,0,0,0,0,0,0,0,0,0,0,0,
0,0,0,0,0,0,0,0,0,0,0,0,0,0,0,0,
0,0,0,0,0,0,0,0,0,0,0,0,0,0,0,0,
0,0,0,0,0,0,0,0,0,0,0,0,0,0,0,0,
0,0,0,0,0,0,0,0,0,0,0,0,0,0,0,0,
0,0,0,0,0,0,0,0,0,0,0,0,0,0,0,0,
0,0,0,0,0,0,0,0,0,0,0,0,0,0,0,0,
0,0,0,0,0,0,0,0,0,0,0,0,0,0,0,0,
0,0,0,0,0,0,0,0,0,0,0,0,291,291,0,0,
0,0,0,0,0,0,0,0,0,0,0,0,0,0,0,0,
0,291,291,0,0,0,0,0,0,0,0,0,0,0,0,0,
0,0,0,0,0,0,0,0,0,0,0,0,0,0,0,0,
0,0,0,0,0,0,0,0,0,0,0,0,0,0,0,0,
0,0,0,0,0,0,0,0,0,0,0,0,0,0,0,0
</chunk>
   <chunk x="0" y="-16" width="16" height="16">
0,0,0,0,0,0,0,0,0,0,0,0,0,0,0,0,
0,0,0,0,0,0,0,0,0,0,0,0,0,0,0,0,
0,0,0,0,0,0,0,0,0,0,0,0,0,0,0,0,
0,0,0,0,0,0,0,0,0,0,0,0,0,0,0,0,
0,0,0,0,0,0,0,0,0,0,0,0,0,0,0,0,
0,0,0,0,0,0,0,0,0,0,0,0,0,0,0,0,
0,0,0,0,0,0,0,0,0,0,0,0,0,0,0,0,
0,0,0,0,0,0,0,0,0,0,0,0,0,0,197,198,
0,0,0,0,0,0,0,0,0,0,0,0,0,0,229,230,
0,0,0,0,0,0,0,0,0,0,0,0,0,0,0,0,
0,0,0,0,0,0,0,0,0,0,0,0,0,0,0,0,
0,0,0,0,0,0,0,0,0,0,0,0,0,0,0,0,
0,0,0,0,0,291,291,0,0,0,0,0,0,0,291,291,
0,0,0,0,0,0,0,0,0,0,0,0,0,0,0,0,
0,0,0,0,0,0,0,0,0,0,0,0,0,0,0,0,
0,0,0,0,0,0,0,0,0,0,0,0,0,0,0,0
</chunk>
   <chunk x="16" y="-16" width="16" height="16">
0,0,0,0,0,0,0,0,0,0,0,0,0,0,0,0,
0,0,0,0,0,0,0,0,0,0,0,0,0,0,0,0,
0,0,0,0,0,0,0,0,0,0,0,0,0,0,0,0,
0,0,0,0,0,0,0,0,0,0,0,0,0,0,0,0,
0,0,0,0,0,0,0,0,0,0,0,0,0,0,0,0,
0,0,0,0,0,0,0,0,0,0,0,0,0,0,0,0,
0,0,0,0,0,0,0,0,0,0,0,0,0,0,0,0,
198,198,199,0,0,0,0,0,0,0,0,0,0,0,0,0,
230,230,231,0,0,0,0,0,0,0,0,0,0,0,0,0,
0,0,0,0,0,0,0,0,0,0,0,0,0,0,0,0,
0,0,0,0,0,0,0,0,0,0,0,0,0,0,0,0,
0,0,0,0,0,0,0,0,0,0,0,0,0,0,0,0,
0,0,0,0,0,0,0,291,291,0,0,0,0,0,0,0,
0,0,0,0,0,0,0,0,0,0,0,0,0,0,0,0,
0,0,0,0,0,0,0,0,0,0,0,0,0,0,0,0,
0,0,0,0,0,0,0,0,0,0,0,0,0,0,0,0
</chunk>
   <chunk x="-32" y="0" width="16" height="16">
0,0,0,0,0,0,0,0,0,0,0,0,0,0,0,0,
0,0,0,0,0,0,0,0,0,0,0,0,0,0,0,0,
0,0,0,0,0,0,0,0,0,0,0,0,0,0,0,0,
0,0,0,0,0,0,0,0,0,0,0,0,0,0,0,0,
0,0,0,0,0,0,0,0,0,0,0,0,0,0,0,0,
0,0,0,0,0,0,0,0,0,0,0,0,0,0,0,0,
0,0,0,0,0,0,0,0,0,0,0,0,0,0,0,0,
0,0,0,0,0,0,0,0,0,0,0,0,0,0,0,0,
0,0,0,0,0,0,0,0,0,0,0,0,0,0,0,0,
0,0,0,0,0,0,0,0,0,0,0,0,0,0,0,0,
0,0,0,0,0,0,0,0,0,0,0,0,0,0,0,0,
0,0,0,0,0,0,0,0,0,0,0,0,0,0,0,0,
0,0,0,0,0,0,0,0,0,0,0,0,0,0,0,0,
0,0,0,0,0,0,0,0,0,0,0,0,291,291,0,0,
0,0,0,0,0,0,0,0,0,0,0,0,0,0,0,0,
0,0,0,0,0,0,0,0,0,0,0,0,0,0,0,0
</chunk>
   <chunk x="-16" y="0" width="16" height="16">
0,0,0,0,0,0,0,0,0,0,0,0,0,0,0,0,
0,0,0,0,0,0,0,0,0,0,0,0,0,0,0,0,
0,0,0,0,0,0,0,0,0,0,0,0,0,0,0,0,
0,0,0,0,0,0,0,0,0,0,0,0,0,0,0,0,
0,0,0,0,0,0,0,0,0,0,0,0,0,0,0,0,
0,0,0,0,0,0,0,0,0,0,0,0,0,0,0,0,
0,0,0,0,0,0,0,0,0,0,0,0,0,0,0,0,
0,0,0,0,0,0,0,0,0,0,0,0,0,0,0,0,
0,0,0,0,0,0,0,0,0,0,0,0,0,0,0,0,
0,0,0,0,0,0,0,0,0,0,0,0,0,0,0,0,
0,0,0,0,0,0,0,0,0,0,0,0,0,0,0,0,
0,0,0,0,0,0,0,0,0,0,0,0,0,0,0,0,
0,0,0,0,0,0,0,0,0,0,0,0,0,0,0,0,
0,0,0,0,0,0,172,0,0,0,0,0,0,0,0,0,
0,0,0,0,172,0,0,0,0,0,0,0,0,0,0,0,
0,0,0,0,0,0,0,197,199,0,0,0,0,0,0,0
</chunk>
   <chunk x="0" y="0" width="16" height="16">
0,0,0,0,0,0,0,0,0,0,0,0,0,0,0,0,
0,0,0,0,0,0,0,0,0,0,0,0,0,0,0,0,
0,0,0,0,0,0,0,0,0,0,0,0,0,0,0,0,
0,0,0,0,0,291,291,0,0,0,0,0,0,0,291,291,
0,0,0,0,0,0,0,0,0,0,0,0,0,0,0,0,
0,0,0,0,0,0,0,0,0,0,0,0,0,0,0,0,
0,0,0,0,0,0,197,198,199,0,0,0,0,0,0,197,
0,0,0,0,0,0,213,245,231,0,0,0,0,0,0,213,
0,0,0,0,0,0,0,0,0,0,0,0,0,0,0,0,
0,0,0,0,0,0,0,0,0,0,0,0,0,0,0,0,
0,0,0,0,0,0,0,0,0,0,0,0,0,0,0,0,
0,0,0,0,0,0,0,0,0,0,0,0,0,0,0,0,
0,0,0,0,0,0,0,0,0,0,0,0,0,0,0,0,
0,0,0,0,0,0,0,0,0,0,0,0,0,0,0,0,
0,197,199,0,0,0,0,0,0,0,0,0,0,0,0,0,
197,262,261,199,0,0,0,0,0,0,0,0,0,0,0,0
</chunk>
   <chunk x="16" y="0" width="16" height="16">
0,0,0,0,0,0,0,0,0,0,0,0,0,0,0,0,
0,0,0,0,0,0,0,0,0,0,0,0,0,0,0,0,
0,0,0,0,0,0,0,0,0,0,0,0,0,0,0,0,
0,0,0,0,0,0,0,291,291,0,0,0,0,0,0,0,
0,0,0,0,0,0,0,0,0,0,0,0,0,0,0,0,
0,0,0,0,0,0,0,0,0,0,0,0,0,0,0,0,
199,0,0,0,0,0,0,0,197,199,0,0,0,0,0,0,
261,199,0,0,0,0,0,197,262,261,198,199,0,0,0,0,
0,0,0,0,0,0,0,0,0,0,0,0,0,0,0,0,
0,0,0,0,0,0,0,0,0,0,0,0,0,0,0,0,
0,0,0,0,0,0,0,0,0,0,0,0,0,0,0,0,
0,0,0,0,0,0,0,0,0,0,0,0,0,0,0,0,
0,0,0,0,0,0,0,0,0,0,0,0,0,0,0,0,
0,0,0,0,0,0,0,0,0,0,0,0,0,0,0,0,
0,0,0,0,0,0,0,0,0,0,0,0,0,0,0,0,
0,0,0,0,0,0,0,0,0,0,0,0,0,0,0,0
</chunk>
   <chunk x="-16" y="16" width="16" height="16">
0,0,0,0,0,0,197,262,261,199,0,0,0,0,0,0,
0,0,0,0,0,0,213,0,0,215,0,0,0,0,0,0,
0,0,0,0,0,0,213,0,0,215,0,0,0,0,0,0,
0,0,0,0,0,0,213,0,0,215,0,0,0,0,0,0,
0,0,0,0,0,0,213,245,230,231,0,0,0,0,0,0,
0,0,0,0,0,0,229,231,0,0,0,0,0,0,0,0,
0,0,0,0,0,0,0,0,0,0,0,0,0,0,0,0,
0,0,0,0,0,0,0,0,0,0,0,0,0,0,0,0,
0,0,0,0,0,0,0,0,0,0,0,0,0,0,0,0,
0,0,0,0,0,0,0,0,0,0,0,0,0,0,0,0,
0,0,0,0,0,0,0,0,0,0,0,0,0,0,0,0,
0,0,0,0,0,0,0,0,0,0,0,0,0,0,0,0,
0,0,0,0,0,0,0,0,0,0,0,0,0,0,0,0,
0,0,0,0,0,0,0,0,0,0,0,0,0,0,0,0,
0,0,0,0,0,0,0,0,0,0,0,0,0,0,0,0,
0,0,0,0,0,0,0,0,0,0,0,0,0,0,0,0
</chunk>
   <chunk x="0" y="16" width="16" height="16">
213,0,0,215,0,0,0,0,0,0,0,0,0,0,0,0,
213,0,245,231,0,0,0,0,0,0,0,0,0,0,0,0,
213,245,231,0,0,0,0,0,0,0,0,0,0,0,0,0,
229,231,0,0,0,0,0,0,0,0,0,0,0,0,0,0,
0,0,0,0,0,0,0,0,0,0,0,0,0,0,0,0,
0,0,0,0,0,0,0,0,0,0,0,0,0,0,0,0,
0,0,0,0,0,0,0,0,0,0,0,0,0,0,0,0,
0,0,0,0,0,0,0,0,0,0,0,0,0,0,0,0,
0,0,0,0,0,0,0,0,0,0,0,0,197,199,0,0,
0,0,0,0,0,0,0,0,0,0,197,198,262,261,199,0,
0,0,0,0,0,0,0,0,0,0,213,0,0,0,215,0,
0,0,0,197,198,199,0,0,0,0,229,246,0,0,215,0,
0,0,0,213,0,261,199,0,0,0,0,229,230,246,215,0,
0,0,0,213,0,0,215,0,0,0,0,0,0,229,231,0,
0,0,0,229,246,245,231,0,0,0,0,0,0,0,0,0,
0,0,0,0,229,231,0,0,0,0,0,0,0,0,0,0
</chunk>
   <chunk x="16" y="16" width="16" height="16">
0,0,0,0,0,0,0,0,0,0,0,0,0,0,0,0,
0,0,0,0,0,0,0,0,0,0,0,0,0,0,0,0,
0,0,0,0,0,0,0,0,0,0,0,0,0,0,0,0,
0,0,0,0,0,0,0,0,0,0,0,0,0,0,0,0,
0,0,0,0,0,0,0,0,0,0,0,0,0,0,0,0,
0,0,0,0,0,0,0,0,0,0,0,0,0,0,0,0,
0,0,0,0,0,0,0,0,0,0,0,0,0,0,1073742115,1073742115,
0,0,0,0,0,0,0,0,0,0,0,0,0,0,0,0,
0,0,0,0,0,0,0,0,0,0,0,0,0,0,0,0,
0,0,0,0,0,0,0,0,0,0,0,0,0,0,3221225763,3221225763,
0,0,0,0,0,0,0,0,0,0,0,0,0,0,0,0,
0,0,0,0,0,0,0,0,0,0,0,0,0,0,0,0,
0,0,0,0,0,0,0,0,0,0,0,0,0,0,0,0,
0,0,0,0,0,0,0,0,0,0,0,0,0,0,0,0,
0,0,0,0,0,0,0,0,0,0,0,0,0,0,0,0,
0,0,0,0,0,0,0,0,0,0,0,0,0,0,0,0
</chunk>
   <chunk x="-16" y="32" width="16" height="16">
0,0,0,0,0,0,0,0,0,0,0,0,0,0,0,0,
0,0,0,0,0,0,0,0,0,0,0,0,0,0,0,0,
0,0,0,0,0,0,0,0,0,0,0,0,0,0,0,172,
0,0,0,0,0,0,0,0,0,0,0,0,0,0,0,0,
0,0,0,0,0,0,0,0,0,0,0,0,0,0,0,197,
0,0,0,0,0,0,0,0,0,0,0,0,0,0,197,262,
0,0,0,0,0,0,0,0,0,0,0,0,0,0,229,246,
0,0,0,0,0,0,0,0,0,0,0,0,0,0,0,229,
0,0,0,0,0,0,0,0,0,0,0,0,0,0,0,0,
0,0,0,0,0,0,0,0,0,0,0,0,0,0,0,0,
0,0,0,0,0,0,0,0,0,0,0,0,0,0,0,0,
0,0,0,0,0,0,0,0,0,0,0,0,0,0,0,0,
0,0,0,0,0,0,0,0,0,0,0,0,0,0,0,0,
0,0,0,0,0,0,0,0,0,0,0,0,0,0,0,197,
0,0,0,0,0,0,0,0,0,0,0,0,0,0,0,213,
0,0,0,0,0,0,0,0,0,0,0,0,0,0,0,229
</chunk>
   <chunk x="0" y="32" width="16" height="16">
0,0,0,0,0,0,0,0,0,0,0,0,0,0,0,0,
0,0,0,0,0,0,0,0,0,0,0,0,0,0,0,0,
0,0,0,0,0,0,0,0,0,0,0,0,0,0,0,0,
0,197,198,199,0,0,0,0,0,0,0,0,0,0,0,0,
198,262,0,261,199,0,0,0,0,0,0,0,0,0,0,0,
0,0,0,0,215,0,0,0,0,0,0,0,0,0,0,0,
0,0,0,0,261,199,0,0,0,0,0,0,0,0,0,0,
246,245,230,230,246,261,199,0,0,0,0,0,0,0,0,0,
229,231,0,0,229,230,231,0,0,0,0,0,0,0,0,0,
0,0,0,0,0,0,0,0,0,0,0,0,0,0,0,0,
0,0,0,0,0,0,0,0,0,0,0,0,0,0,0,0,
0,0,0,0,0,0,0,0,0,0,0,0,0,0,0,0,
0,0,0,0,0,0,0,0,0,0,0,0,0,0,0,0,
198,199,0,0,0,0,0,0,0,0,0,0,0,0,0,0,
0,215,0,0,0,0,0,0,0,0,0,0,0,0,0,0,
246,261,198,199,0,0,0,0,0,0,0,0,0,0,0,0
</chunk>
   <chunk x="16" y="32" width="16" height="16">
0,0,0,0,0,0,0,0,0,0,0,0,0,0,0,0,
0,0,0,0,0,0,0,0,0,0,0,0,0,0,0,0,
0,0,0,0,0,0,0,0,0,0,0,0,0,0,0,0,
0,0,0,0,0,0,0,0,0,0,0,0,0,0,0,0,
0,0,0,0,0,0,0,0,0,0,0,0,0,0,0,0,
0,0,0,0,0,0,0,0,0,0,0,0,0,0,0,0,
0,0,0,0,0,0,0,0,0,0,0,0,0,0,0,0,
0,0,0,0,0,0,0,0,0,0,0,0,0,0,0,0,
0,0,0,0,0,0,0,0,0,0,0,0,0,0,0,0,
0,0,0,0,0,0,0,0,0,0,0,0,0,0,0,0,
0,0,0,0,0,0,0,0,0,0,0,0,0,0,0,0,
0,0,0,0,0,0,0,0,0,0,0,0,0,0,0,0,
0,0,0,0,0,0,0,0,0,0,0,0,0,0,0,0,
0,0,0,0,0,0,0,0,0,0,0,0,0,0,291,291,
0,0,0,0,0,0,0,0,0,0,0,0,0,0,0,0,
0,0,0,0,0,0,0,0,0,0,0,0,0,0,0,0
</chunk>
   <chunk x="0" y="48" width="16" height="16">
229,230,246,261,198,199,0,0,0,0,0,0,0,0,0,0,
0,0,213,245,230,231,0,0,0,0,0,0,0,0,0,0,
0,0,229,231,0,0,0,0,0,0,0,0,0,0,0,0,
0,0,0,0,0,0,0,0,0,0,0,0,0,0,0,0,
0,0,0,0,0,0,0,0,0,0,0,0,0,0,0,0,
0,0,0,0,0,0,0,0,0,0,0,0,0,0,0,0,
0,0,0,0,0,0,0,0,0,0,0,0,0,0,0,0,
0,1073742115,0,0,0,0,1073742115,0,0,0,0,0,0,0,0,0,
0,0,0,0,0,0,0,0,0,0,0,0,0,0,0,0,
0,0,0,0,0,0,0,0,0,0,0,0,0,0,0,0,
0,0,0,0,0,0,0,0,0,0,0,0,0,0,0,0,
0,0,0,0,0,0,0,0,0,0,0,0,0,0,0,0,
0,0,0,0,0,0,0,0,0,0,0,0,0,0,0,0,
0,0,0,0,0,0,0,0,0,0,0,0,0,0,0,0,
0,0,0,0,0,0,0,0,0,0,0,0,0,0,0,0,
0,0,0,0,0,0,0,0,0,0,0,0,0,0,0,0
</chunk>
  </data>
 </layer>
 <layer id="27" name="Пол (должно исчезнуть)" width="100" height="100">
  <data encoding="csv">
   <chunk x="16" y="32" width="16" height="16">
0,0,0,0,0,0,0,0,0,0,0,0,0,0,0,0,
0,0,0,0,0,0,0,0,0,0,0,0,0,0,0,0,
0,0,0,0,0,0,0,0,0,0,0,0,0,0,0,0,
0,0,0,0,0,0,0,0,0,0,0,0,0,0,0,0,
0,0,0,0,0,0,0,0,0,0,0,0,0,0,0,0,
0,0,0,0,0,0,0,0,0,0,0,0,0,0,0,0,
0,0,0,0,0,0,0,0,0,0,0,0,0,0,50,50,
0,0,0,0,0,0,0,0,0,0,0,0,0,0,0,0,
0,0,0,0,0,0,0,0,0,0,0,0,0,0,0,0,
0,0,0,0,0,0,0,0,0,0,0,0,0,0,0,0,
0,0,0,0,0,0,0,0,0,0,0,0,0,0,0,0,
0,0,0,0,0,0,0,0,0,0,0,0,0,0,0,0,
0,0,0,0,0,0,0,0,0,0,0,0,0,0,0,0,
0,0,0,0,0,0,0,0,0,0,0,0,0,0,0,0,
0,0,0,0,0,0,0,0,0,0,0,0,0,0,0,0,
0,0,0,0,0,0,0,0,0,0,0,0,0,0,0,0
</chunk>
  </data>
 </layer>
 <layer id="21" name="Сено" width="100" height="100">
  <data encoding="csv">
   <chunk x="16" y="48" width="16" height="16">
0,0,0,0,0,0,0,0,0,0,0,0,0,0,0,0,
0,0,0,0,0,0,0,0,0,0,0,0,0,0,0,0,
0,0,0,0,0,0,0,0,0,0,0,0,0,0,0,0,
0,0,0,0,0,0,0,0,0,0,0,0,0,0,0,0,
0,0,0,0,0,0,0,0,0,0,0,0,0,0,0,0,
0,0,0,0,0,0,0,0,0,0,0,0,0,0,0,0,
0,0,0,0,0,0,0,0,0,0,0,0,0,0,0,0,
0,0,0,0,0,0,0,0,0,0,0,0,0,0,0,0,
0,0,0,0,0,0,0,0,0,0,0,0,0,0,0,0,
0,0,0,0,0,0,0,0,2147483759,110,111,0,0,0,0,126,
0,0,0,0,0,0,0,0,125,126,127,0,0,2147483791,142,142,
0,0,0,0,0,0,0,0,2147483791,142,143,0,0,0,0,0,
0,0,0,0,0,0,0,0,0,0,0,0,0,0,0,0,
0,0,0,0,0,0,0,0,0,0,0,0,0,0,0,0,
0,0,0,0,0,0,0,0,0,0,0,0,0,0,0,0,
0,0,0,0,0,0,0,0,0,0,0,0,0,0,0,0
</chunk>
   <chunk x="32" y="48" width="16" height="16">
0,0,0,0,0,109,126,126,0,0,0,0,0,0,0,0,
0,0,0,0,0,2147483791,109,126,0,0,0,0,0,0,0,0,
0,0,0,0,0,0,2147483791,109,0,0,0,0,0,0,0,0,
0,0,0,0,0,0,0,2147483791,0,0,0,0,0,0,0,0,
0,0,0,0,0,111,0,0,0,0,0,0,0,0,0,0,
0,0,0,0,0,141,111,0,0,0,0,0,0,0,0,0,
0,0,0,0,0,126,127,0,0,0,0,0,0,0,0,0,
0,0,0,0,0,2147483757,143,0,0,0,2147483757,143,0,0,0,0,
0,0,0,0,0,143,0,0,0,0,143,0,0,0,0,0,
126,126,126,0,0,0,0,0,0,0,0,0,0,0,0,0,
109,126,126,0,0,0,0,0,0,0,0,0,0,0,0,0,
2147483791,142,142,0,0,0,0,0,0,0,110,111,0,0,0,0,
0,0,0,0,0,0,0,0,0,0,126,141,111,0,2147483759,110,
0,0,0,0,0,111,0,0,0,0,0,0,0,0,0,0,
0,0,0,0,0,127,0,0,0,0,0,0,0,0,0,0,
127,0,0,0,0,143,0,0,0,0,0,0,0,0,0,0
</chunk>
   <chunk x="48" y="48" width="16" height="16">
0,0,0,0,0,0,0,0,0,0,0,0,0,0,0,0,
0,0,0,0,0,0,0,0,0,0,0,0,0,0,0,0,
0,0,0,0,0,0,0,0,0,0,0,0,0,0,0,0,
0,0,0,0,0,0,0,0,0,0,0,0,0,0,0,0,
0,0,0,0,0,0,0,0,0,0,0,0,0,0,0,0,
0,0,0,0,0,0,0,0,0,0,0,0,0,0,0,0,
0,0,0,0,0,0,0,0,0,0,0,0,0,0,0,0,
0,0,0,0,0,0,0,0,0,0,0,0,0,0,0,0,
0,0,0,0,0,0,0,0,0,0,0,0,0,0,0,0,
0,0,0,0,0,0,0,0,0,0,0,0,0,0,0,0,
0,2147483759,0,0,0,0,0,0,0,0,0,0,0,0,0,0,
2147483759,2147483789,0,0,0,0,0,0,0,0,0,0,0,0,0,0,
0,0,0,0,0,0,0,0,0,0,0,0,0,0,0,0,
0,0,0,0,0,0,0,0,0,0,0,0,0,0,0,0,
0,0,0,0,0,0,0,0,0,0,0,0,0,0,0,0,
0,0,0,0,0,0,0,0,0,0,0,0,0,0,0,0
</chunk>
   <chunk x="16" y="64" width="16" height="16">
0,0,0,0,0,0,0,0,0,0,0,0,0,0,0,0,
0,0,0,0,0,0,126,127,0,0,0,0,2147483791,142,143,0,
0,0,0,0,0,0,142,143,0,0,0,0,0,0,0,0,
0,0,0,0,0,0,0,0,0,0,0,0,0,0,0,0,
0,0,0,0,0,0,0,0,0,0,0,0,0,0,0,0,
0,0,0,0,0,0,0,0,0,0,0,0,0,0,0,0,
0,0,0,0,0,0,0,110,111,0,0,0,0,0,0,0,
0,0,0,0,0,0,0,126,127,0,0,0,0,0,0,0,
0,0,0,0,0,0,2147483791,142,143,0,0,0,0,0,0,0,
0,0,0,0,0,0,0,0,0,0,0,0,0,0,0,0,
0,0,0,0,0,0,0,0,0,0,0,0,0,0,0,0,
0,0,0,0,0,0,0,0,0,0,0,0,0,0,0,0,
0,0,0,0,0,0,0,0,0,0,0,0,0,0,0,0,
0,0,0,0,0,0,0,0,0,0,0,0,0,0,0,0,
0,0,0,0,0,0,0,0,0,0,0,0,0,0,0,0,
0,0,0,0,0,0,0,0,0,0,0,0,0,0,0,0
</chunk>
   <chunk x="32" y="64" width="16" height="16">
0,0,0,0,0,0,0,0,0,0,0,0,0,0,0,0,
0,0,0,0,0,0,2147483759,110,0,0,0,0,0,0,0,0,
2147483759,110,0,0,0,0,125,126,0,0,0,0,0,0,0,0,
0,0,0,0,0,0,0,0,0,0,0,0,0,0,0,0,
0,0,0,0,0,0,0,0,0,0,0,0,0,0,0,0,
0,0,0,0,0,0,0,0,0,0,0,0,0,0,0,0,
0,0,0,0,0,0,0,0,0,0,0,0,0,0,0,0,
0,0,0,0,0,0,0,0,0,0,0,0,0,0,0,0,
0,0,0,0,0,0,0,0,0,0,0,0,0,0,0,0,
0,0,0,0,0,0,0,0,0,0,0,0,0,0,0,0,
0,0,0,0,0,0,0,0,0,0,0,0,0,0,0,0,
0,0,0,0,0,0,0,0,0,0,0,0,0,0,0,0,
0,0,0,0,0,0,0,0,0,0,0,0,0,0,0,0,
0,0,0,0,0,0,0,0,0,0,0,0,0,0,0,0,
0,0,0,0,0,0,0,0,0,0,0,0,0,0,0,0,
0,0,0,0,0,0,0,0,0,0,0,0,0,0,0,0
</chunk>
  </data>
 </layer>
 <layer id="16" name="Шипы" width="100" height="100">
  <data encoding="csv">
   <chunk x="0" y="-16" width="16" height="16">
0,0,0,0,0,0,0,0,0,0,0,0,0,0,0,0,
0,0,0,0,0,0,0,0,0,0,0,0,0,0,0,0,
0,0,0,0,0,0,0,0,0,0,0,0,0,0,0,0,
0,0,0,0,0,0,0,0,0,0,0,0,0,0,0,0,
0,0,0,0,0,0,0,0,0,0,0,0,0,0,0,0,
0,0,0,0,0,0,0,0,0,0,0,0,0,0,0,0,
0,0,0,0,0,0,0,0,0,0,0,0,0,0,0,0,
0,0,0,0,0,0,0,0,402,0,0,0,0,0,0,0,
0,0,0,0,0,403,0,0,0,0,0,0,0,0,0,0,
0,0,0,0,0,0,0,0,0,0,0,0,0,0,0,0,
0,0,0,0,0,0,0,0,0,0,0,0,0,0,0,0,
0,0,0,0,0,0,0,0,0,0,0,0,0,0,0,0,
0,0,0,0,0,0,0,0,0,0,0,0,0,0,0,0,
0,0,0,0,0,0,0,0,0,0,0,0,0,0,0,0,
0,0,0,0,0,0,0,0,0,0,0,0,0,0,0,0,
0,0,0,0,0,0,0,0,0,0,0,0,0,0,0,0
</chunk>
   <chunk x="-32" y="0" width="16" height="16">
0,0,0,0,0,0,0,0,0,0,0,0,0,0,0,0,
0,0,0,0,0,0,0,0,0,0,0,0,0,0,0,0,
0,0,0,0,0,0,0,0,0,0,0,0,0,0,0,0,
0,0,0,0,0,0,0,0,0,0,0,0,0,0,0,0,
0,0,0,0,0,0,0,0,0,0,0,0,0,0,0,0,
0,0,0,0,0,0,0,0,0,0,0,0,0,0,0,0,
0,0,0,0,0,0,0,0,0,0,0,0,0,0,0,0,
0,0,0,0,0,0,0,0,0,0,0,0,0,0,0,0,
0,0,0,0,0,0,0,0,0,0,0,0,0,0,0,0,
0,0,0,0,0,0,0,0,0,0,0,0,0,0,0,0,
0,0,0,0,0,0,0,0,0,0,0,0,0,0,0,0,
0,0,0,0,0,0,0,0,0,0,0,0,0,0,0,0,
0,0,0,0,0,0,0,0,0,0,0,0,0,0,0,0,
0,0,0,0,0,0,0,0,0,0,0,0,0,0,0,0,
0,0,0,0,0,0,0,0,0,0,0,0,0,0,0,0,
0,0,0,0,0,0,0,0,0,0,404,0,0,0,404,403
</chunk>
   <chunk x="-16" y="0" width="16" height="16">
0,0,0,0,0,0,0,0,0,0,0,0,0,0,0,0,
0,0,0,0,0,0,0,0,0,0,0,0,0,0,0,0,
0,0,0,0,0,0,0,0,0,0,0,0,0,0,0,0,
0,0,0,0,0,0,0,0,0,0,0,0,0,0,0,0,
0,0,0,0,0,0,0,0,0,0,0,0,0,0,0,0,
0,0,0,0,0,0,0,0,0,0,0,0,0,0,0,0,
0,0,0,0,0,0,0,0,0,0,0,0,0,0,0,0,
0,0,0,0,0,0,0,0,0,0,0,0,0,0,0,0,
0,0,0,0,0,0,0,0,0,0,0,0,0,0,0,0,
0,0,0,0,0,0,0,0,0,0,0,0,0,0,0,0,
0,0,0,0,0,0,0,0,404,403,0,0,0,405,0,0,
0,0,0,0,0,0,0,0,0,0,0,0,406,403,0,0,
0,0,0,0,0,0,0,0,0,0,404,0,0,0,0,0,
0,0,0,0,0,0,0,403,0,0,0,0,0,0,0,0,
0,0,404,0,0,0,0,402,0,0,0,0,0,0,0,0,
0,0,0,0,0,0,0,0,0,0,0,0,0,0,0,0
</chunk>
   <chunk x="0" y="0" width="16" height="16">
0,0,0,0,0,0,0,0,0,0,0,0,0,0,0,0,
0,0,0,0,0,0,0,0,0,0,0,0,0,0,0,0,
0,0,0,0,0,0,0,0,0,0,0,0,0,0,0,0,
0,0,0,0,0,0,0,0,0,0,0,0,0,0,0,0,
0,0,0,0,0,0,0,0,0,0,0,0,0,0,0,0,
0,0,0,0,0,0,0,0,0,0,0,0,0,0,406,0,
0,0,0,0,0,0,0,0,0,402,0,0,0,0,0,0,
0,0,0,0,0,0,0,0,0,0,0,0,0,0,0,0,
0,0,0,0,0,0,0,0,0,0,0,0,0,0,0,0,
0,0,0,0,0,0,0,0,0,0,0,0,0,0,0,0,
406,405,0,0,0,0,0,0,0,0,0,0,0,0,0,0,
0,0,0,0,0,0,0,0,0,0,0,0,0,0,0,0,
0,0,0,0,0,0,0,0,0,0,0,0,0,0,0,0,
0,0,0,0,0,0,0,0,0,0,0,0,0,0,0,0,
0,0,0,403,405,0,0,0,0,0,0,0,0,0,0,0,
0,0,0,0,405,0,0,0,0,0,0,0,0,0,0,0
</chunk>
   <chunk x="16" y="0" width="16" height="16">
0,0,0,0,0,0,0,0,0,0,0,0,0,0,0,0,
0,0,0,0,0,0,0,0,0,0,0,0,0,0,0,0,
0,0,0,0,0,0,0,0,0,0,0,0,0,0,0,0,
0,0,0,0,0,0,0,0,0,0,0,0,0,0,0,0,
0,0,0,0,0,0,0,0,0,0,0,0,0,0,0,0,
0,0,403,0,0,0,0,0,0,0,0,0,0,0,0,0,
0,402,0,0,0,0,0,0,0,0,0,0,0,0,0,0,
0,0,0,0,0,0,0,0,0,0,0,0,0,0,0,0,
0,0,0,0,0,0,0,0,0,0,0,0,0,0,0,0,
0,0,0,0,0,0,0,0,0,0,0,0,0,0,0,0,
0,0,0,0,0,0,0,0,0,0,0,0,0,0,0,0,
0,0,0,0,0,0,0,0,0,0,0,0,0,0,0,0,
0,0,0,0,0,0,0,0,0,0,0,0,0,0,0,0,
0,0,0,0,0,0,0,0,0,0,0,0,0,0,0,0,
0,0,0,0,0,0,0,0,0,0,0,0,0,0,0,0,
0,0,0,0,0,0,0,0,0,0,0,0,0,0,0,0
</chunk>
   <chunk x="-32" y="16" width="16" height="16">
0,0,0,0,0,0,0,0,0,0,0,0,0,0,0,0,
0,0,0,0,0,0,0,0,0,0,0,0,406,0,0,0,
0,0,0,0,0,0,0,0,0,0,0,0,0,0,0,0,
0,0,0,0,0,0,0,0,0,0,0,404,0,0,0,0,
0,0,0,0,0,0,0,0,0,0,0,0,405,0,0,0,
0,0,0,0,0,0,0,0,0,0,0,0,0,404,0,0,
0,0,0,0,0,0,0,0,0,0,0,0,0,0,405,0,
0,0,0,0,0,0,0,0,0,0,0,0,0,0,0,402,
0,0,0,0,0,0,0,0,0,0,0,403,0,0,0,0,
0,0,0,0,0,0,0,0,0,0,0,405,402,0,0,0,
0,0,0,0,0,0,0,0,0,0,0,0,0,0,0,0,
0,0,0,0,0,0,0,0,0,0,0,0,0,0,0,0,
0,0,0,0,0,0,0,0,0,0,0,0,0,0,0,0,
0,0,0,0,0,0,0,0,0,0,0,0,0,0,0,0,
0,0,0,0,0,0,0,0,0,0,0,0,0,0,0,0,
0,0,0,0,0,0,0,0,0,0,0,0,0,0,0,0
</chunk>
   <chunk x="-16" y="16" width="16" height="16">
0,0,0,405,0,0,0,0,0,406,0,0,0,0,0,0,
0,403,403,402,405,0,0,0,404,402,0,0,0,0,0,0,
0,0,0,0,0,404,0,0,0,403,0,0,0,0,0,0,
0,0,0,0,0,0,0,0,0,0,403,0,0,0,0,405,
0,0,0,0,0,406,0,0,0,0,0,0,0,0,405,406,
0,0,0,0,406,405,0,0,0,0,0,0,0,0,0,0,
0,0,0,0,0,0,0,406,0,0,403,0,0,0,0,0,
0,0,0,406,0,0,0,0,0,0,0,0,0,0,0,402,
0,0,0,0,0,0,403,0,0,0,0,0,0,0,0,406,
0,0,0,0,0,403,0,0,0,0,0,0,0,0,0,0,
0,0,0,0,0,0,0,0,0,0,0,0,0,0,0,0,
0,0,0,0,0,0,0,0,0,0,0,0,0,0,0,0,
0,0,0,0,0,0,0,0,0,0,0,0,0,0,0,0,
0,0,0,0,0,0,0,0,0,0,0,0,0,0,0,0,
0,0,0,0,0,0,0,0,0,0,0,0,0,0,0,0,
0,0,0,0,0,0,0,0,0,0,0,0,0,0,0,0
</chunk>
   <chunk x="0" y="16" width="16" height="16">
406,0,0,0,403,0,0,0,403,405,0,0,0,0,0,0,
405,0,0,0,0,0,0,0,0,0,0,405,0,0,0,0,
0,0,0,0,0,0,0,0,0,0,0,403,405,0,0,0,
0,0,406,405,0,0,0,0,0,0,0,0,406,0,0,0,
0,0,405,0,0,0,0,0,0,0,0,0,0,0,0,0,
0,0,0,0,0,0,0,0,0,0,0,0,0,0,0,0,
0,0,0,0,0,0,0,0,0,0,0,0,0,0,405,0,
0,0,404,0,0,0,0,0,0,0,0,403,0,0,0,0,
405,0,0,403,405,0,0,0,0,0,406,405,0,0,406,405,
0,0,0,0,404,0,0,0,404,406,405,0,0,0,0,0,
0,403,0,0,403,402,0,0,0,0,0,0,0,0,0,0,
0,0,405,0,0,0,0,0,0,0,0,0,0,0,0,0,
0,0,402,0,0,0,0,406,406,0,0,0,0,406,0,0,
0,0,0,0,0,0,0,0,0,0,0,0,0,0,0,0,
0,0,0,0,0,404,406,0,0,0,0,0,0,0,0,0,
0,0,0,0,0,403,0,0,0,0,0,0,0,0,0,0
</chunk>
   <chunk x="-16" y="32" width="16" height="16">
0,0,0,0,0,0,0,0,0,0,0,0,0,0,0,0,
0,0,0,0,0,0,0,0,0,0,0,0,0,0,0,0,
0,0,0,0,0,0,0,0,0,0,0,0,0,0,0,404,
0,0,0,0,0,0,0,0,0,0,0,0,0,0,0,406,
0,0,0,0,0,0,0,0,0,0,0,0,0,0,406,405,
0,0,0,0,0,0,0,0,0,0,0,0,0,0,0,0,
0,0,0,0,0,0,0,0,0,0,0,0,0,0,0,0,
0,0,0,0,0,0,0,0,0,0,0,0,0,0,405,0,
0,0,0,0,0,0,0,0,0,0,0,0,0,0,0,0,
0,0,0,0,0,0,0,0,0,0,0,0,0,0,0,0,
0,0,0,0,0,0,0,0,0,0,0,0,0,0,0,0,
0,0,0,0,0,0,0,0,0,0,0,0,0,0,406,0,
0,0,0,0,0,0,0,0,0,0,0,0,0,0,0,0,
0,0,0,0,0,0,0,0,0,0,0,0,0,0,0,0,
0,0,0,0,0,0,0,0,0,0,0,0,0,404,402,0,
0,0,0,0,0,0,0,0,0,0,0,0,0,0,0,0
</chunk>
   <chunk x="0" y="32" width="16" height="16">
0,0,0,0,0,0,0,0,0,0,0,0,0,0,0,0,
0,0,0,0,0,0,0,0,0,0,404,0,0,0,0,0,
403,0,404,405,0,0,0,0,0,404,406,0,0,0,406,0,
0,0,0,0,0,0,0,404,0,0,0,0,0,403,0,0,
0,0,0,0,0,0,0,404,403,0,0,0,0,0,0,0,
0,404,0,0,406,405,0,0,0,0,0,0,0,0,0,0,
406,405,0,0,406,403,0,0,0,0,0,0,0,0,0,0,
0,0,0,0,0,0,0,0,0,0,0,0,0,0,0,0,
0,0,0,0,0,0,0,0,0,0,0,0,0,0,0,0,
0,0,0,0,0,0,0,0,406,0,0,0,0,0,0,0,
0,405,0,0,0,0,0,0,0,0,0,0,0,0,0,0,
0,0,0,0,0,0,0,0,0,0,0,0,0,0,0,0,
0,0,0,0,0,0,406,0,0,0,0,0,0,0,0,0,
0,0,403,0,0,406,0,0,0,0,0,0,0,0,0,0,
0,0,0,0,0,0,0,0,405,0,0,0,0,0,0,0,
0,0,0,0,0,0,0,0,0,0,0,0,0,0,0,0
</chunk>
   <chunk x="-16" y="48" width="16" height="16">
0,0,0,0,0,0,0,0,0,0,0,0,0,0,0,402,
0,0,0,0,0,0,0,0,0,0,0,0,0,0,0,0,
0,0,0,0,0,0,0,0,0,0,0,0,0,0,0,0,
0,0,0,0,0,0,0,0,0,0,0,0,0,0,0,0,
0,0,0,0,0,0,0,0,0,0,0,0,0,0,0,0,
0,0,0,0,0,0,0,0,0,0,0,0,0,0,0,0,
0,0,0,0,0,0,0,0,0,0,0,0,0,0,0,0,
0,0,0,0,0,0,0,0,0,0,0,0,0,0,0,0,
0,0,0,0,0,0,0,0,0,0,0,0,0,0,0,0,
0,0,0,0,0,0,0,0,0,0,0,0,0,0,0,0,
0,0,0,0,0,0,0,0,0,0,0,0,0,0,0,0,
0,0,0,0,0,0,0,0,0,0,0,0,0,0,0,0,
0,0,0,0,0,0,0,0,0,0,0,0,0,0,0,404,
0,0,0,0,0,0,0,0,0,0,0,0,0,0,0,0,
0,0,0,0,0,0,0,0,0,0,0,0,0,0,0,0,
0,0,0,0,0,0,0,0,0,0,0,0,0,0,0,0
</chunk>
   <chunk x="0" y="48" width="16" height="16">
0,0,0,403,0,0,0,0,405,0,0,0,0,0,0,0,
405,0,0,0,0,0,404,402,0,0,0,0,0,0,0,0,
0,0,0,0,0,0,0,0,0,0,0,0,0,0,0,0,
0,0,405,0,0,0,0,0,0,0,0,0,0,0,0,0,
0,0,0,0,0,0,0,0,0,0,0,0,0,0,0,0,
0,0,0,0,0,0,0,0,0,0,0,0,0,0,0,0,
0,0,0,0,0,0,0,0,0,0,0,0,0,0,0,0,
0,0,0,0,0,0,0,0,0,0,0,0,0,0,0,0,
0,0,0,0,0,0,0,0,0,0,0,0,0,0,0,0,
0,0,0,0,0,0,0,0,0,0,0,0,0,0,0,0,
0,0,0,0,0,0,0,0,0,0,0,0,0,0,0,0,
0,405,0,0,0,0,0,0,0,0,0,0,0,0,0,0,
0,0,0,0,0,0,0,0,0,0,0,0,0,0,0,0,
0,0,0,0,0,0,0,0,0,0,0,0,0,0,0,0,
0,0,0,0,0,0,405,0,0,0,0,0,0,0,0,0,
0,0,0,0,0,0,0,0,0,0,0,0,0,0,0,0
</chunk>
   <chunk x="0" y="64" width="16" height="16">
0,403,0,0,0,0,0,0,0,0,0,0,0,0,0,0,
0,0,0,0,0,0,0,0,406,0,0,0,0,0,0,0,
0,0,0,0,404,0,0,0,0,0,0,0,0,0,0,0,
0,0,0,0,0,0,0,0,0,0,0,0,0,0,0,0,
0,0,0,0,0,0,0,0,0,0,0,0,0,0,0,0,
0,0,0,0,0,0,0,0,0,0,0,0,0,0,0,0,
0,0,0,0,0,0,0,0,0,0,0,0,0,0,0,0,
0,0,0,0,0,0,0,0,0,0,0,0,0,0,0,0,
0,0,0,0,0,0,0,0,0,0,0,0,0,0,0,0,
0,0,0,0,0,0,0,0,0,0,0,0,0,0,0,0,
0,0,0,0,0,0,0,0,0,0,0,0,0,0,0,0,
0,0,0,0,0,0,0,0,0,0,0,0,0,0,0,0,
0,0,0,0,0,0,0,0,0,0,0,0,0,0,0,0,
0,0,0,0,0,0,0,0,0,0,0,0,0,0,0,0,
0,0,0,0,0,0,0,0,0,0,0,0,0,0,0,0,
0,0,0,0,0,0,0,0,0,0,0,0,0,0,0,0
</chunk>
  </data>
 </layer>
 <layer id="26" name="Шипы выдвигающиеся" width="100" height="100">
  <data encoding="csv">
   <chunk x="-16" y="0" width="16" height="16">
0,0,0,0,0,0,0,0,0,0,0,0,0,0,0,0,
0,0,0,0,0,0,0,0,0,0,0,0,0,0,0,0,
0,0,0,0,0,0,0,0,0,0,0,0,0,0,0,0,
0,0,0,0,0,0,0,0,0,0,0,0,0,0,0,0,
0,0,0,0,0,0,0,0,0,0,0,0,0,0,0,0,
0,0,0,0,0,0,0,0,0,0,0,0,0,0,0,0,
0,0,0,0,0,0,0,0,0,0,0,0,0,0,0,0,
0,0,0,0,0,0,0,0,0,0,0,0,0,0,0,0,
0,0,0,0,0,0,0,0,0,0,0,0,0,0,0,0,
0,0,0,0,0,0,0,0,0,0,0,0,0,0,0,0,
0,0,0,0,0,0,0,0,0,0,0,0,0,0,0,0,
0,0,0,0,0,0,0,0,0,0,0,0,0,0,0,0,
0,0,0,0,0,0,0,0,0,0,0,0,0,0,0,0,
0,0,0,0,0,0,0,0,0,0,0,0,0,0,0,0,
0,0,0,0,0,0,0,0,0,0,0,0,0,0,0,0,
0,0,2147484055,0,0,0,0,0,0,0,0,0,0,0,0,0
</chunk>
   <chunk x="0" y="0" width="16" height="16">
0,0,0,0,0,0,0,0,0,0,0,0,0,0,0,0,
0,0,0,0,0,0,0,0,0,0,0,0,0,0,0,0,
0,0,0,0,0,0,0,0,0,0,0,0,0,0,0,0,
0,0,0,0,0,0,0,0,0,0,0,0,0,0,0,0,
0,0,0,0,0,0,0,0,0,0,0,0,0,0,0,0,
0,0,0,0,0,0,0,0,0,0,0,0,0,0,0,0,
0,0,0,0,0,0,0,0,0,0,0,0,0,0,0,0,
0,0,0,0,0,0,0,0,0,0,0,0,0,0,0,0,
0,0,0,0,0,0,0,0,0,0,0,0,0,0,0,0,
0,0,0,0,0,0,0,0,0,0,0,0,0,0,0,0,
0,0,0,0,0,0,0,0,0,0,0,0,0,0,0,0,
0,0,0,0,0,0,0,0,0,0,0,0,0,0,0,0,
0,0,0,0,0,0,0,0,0,0,0,0,0,0,0,0,
0,0,2147484055,0,0,0,0,0,0,0,0,0,0,0,0,0,
0,0,0,0,0,0,0,0,0,0,0,0,0,0,0,0,
0,407,407,0,0,0,0,0,0,0,0,0,0,0,0,0
</chunk>
   <chunk x="-16" y="16" width="16" height="16">
0,0,2147484055,0,0,0,0,0,0,0,0,0,0,0,0,0,
0,0,0,0,0,0,0,0,0,0,0,0,0,0,0,0,
0,0,0,0,0,0,0,0,0,0,0,0,0,0,0,0,
0,0,0,0,0,0,0,0,0,0,0,0,0,0,0,0,
0,0,0,0,0,0,0,0,0,0,0,0,0,0,0,0,
0,0,0,0,0,0,0,0,0,0,0,0,0,0,0,0,
0,0,0,0,0,0,0,0,0,0,0,0,0,0,0,0,
0,0,0,0,0,0,0,0,0,0,0,0,0,0,0,0,
0,2147484055,0,0,0,0,0,0,0,0,0,0,0,0,0,0,
0,2147484055,0,0,0,0,0,0,0,0,0,0,0,0,0,0,
0,0,0,0,0,0,0,0,0,0,0,0,0,0,0,0,
0,0,0,0,0,0,0,0,0,0,0,0,0,0,0,0,
0,0,0,0,0,0,0,0,0,0,0,0,0,0,0,0,
0,0,0,0,0,0,0,0,0,0,0,0,0,0,0,0,
0,0,0,0,0,0,0,0,0,0,0,0,0,0,0,0,
0,0,0,0,0,0,0,0,0,0,0,0,0,0,0,0
</chunk>
   <chunk x="0" y="16" width="16" height="16">
0,0,0,0,0,0,0,0,0,0,0,0,0,0,0,0,
0,0,0,0,0,0,0,0,0,0,0,0,0,0,0,0,
0,0,0,0,0,0,0,0,0,0,0,0,0,0,0,0,
0,0,0,0,0,0,0,0,0,0,0,0,0,0,0,0,
0,0,0,0,0,0,0,0,0,0,0,0,0,0,0,0,
0,0,0,0,0,0,0,0,0,0,0,0,0,0,0,0,
0,0,0,0,0,0,0,0,0,0,0,0,2147484055,0,0,0,
0,0,0,0,0,0,0,0,0,0,0,0,0,0,0,0,
0,0,0,0,0,0,0,0,0,0,0,0,0,0,0,0,
0,0,0,407,0,0,0,0,0,0,0,0,0,0,0,0,
0,0,407,0,0,0,0,0,0,0,0,0,0,0,0,0,
0,0,0,0,0,0,0,0,0,0,0,0,0,0,0,0,
0,0,0,0,0,0,0,0,0,0,0,0,0,0,0,0,
0,0,0,0,0,0,0,0,0,0,0,0,0,0,0,0,
0,0,0,0,0,0,0,0,0,0,0,0,0,0,0,0,
0,0,0,0,0,0,0,0,0,0,0,0,0,0,0,0
</chunk>
   <chunk x="0" y="32" width="16" height="16">
0,0,0,0,0,0,0,0,0,0,0,0,0,0,0,0,
0,0,0,0,0,0,0,0,0,0,0,0,0,0,0,0,
0,0,0,0,0,0,0,0,0,0,0,0,2147484055,0,0,0,
0,0,0,2147484055,0,0,0,0,0,0,0,0,0,0,0,0,
0,0,0,0,2147484055,0,0,0,0,0,0,0,0,0,0,0,
0,0,0,0,0,0,0,0,2147484055,2147484055,0,0,0,0,0,0,
0,0,0,0,0,0,0,0,0,0,0,0,0,0,0,0,
0,0,0,0,0,0,0,0,0,0,0,0,0,0,0,0,
0,0,0,0,0,0,0,0,0,0,0,0,0,0,0,0,
0,0,0,0,0,0,0,0,0,0,0,0,0,0,0,0,
0,0,0,0,0,0,0,0,0,0,0,0,0,0,0,0,
0,0,0,0,0,0,0,0,0,0,0,0,0,0,0,0,
0,0,0,0,0,0,0,0,0,0,0,0,0,0,0,0,
0,0,0,0,0,0,0,2147484055,0,0,0,0,0,0,0,0,
0,0,0,0,0,0,0,0,0,0,0,0,0,0,0,0,
0,0,0,0,0,0,0,0,0,0,0,0,0,0,0,0
</chunk>
   <chunk x="0" y="48" width="16" height="16">
0,0,0,0,0,0,0,0,0,0,0,0,0,0,0,0,
0,0,0,0,0,0,0,0,0,0,0,0,0,0,0,0,
0,0,2147484055,2147484055,2147484055,2147484055,0,0,0,0,0,0,0,0,0,0,
0,0,0,0,0,0,0,0,0,0,0,0,0,0,0,0,
0,0,0,0,0,0,0,0,0,0,0,0,0,0,0,0,
0,0,0,0,0,0,0,0,0,0,0,0,0,0,0,0,
0,0,0,0,0,0,0,0,0,0,0,0,0,0,0,0,
0,0,0,0,0,0,0,0,0,0,0,0,0,0,0,0,
0,0,0,0,0,0,0,0,0,0,0,0,0,0,0,0,
0,0,0,0,0,0,0,0,0,0,0,0,0,0,0,0,
0,0,0,0,0,0,0,0,0,0,0,0,0,0,0,0,
0,0,0,0,0,0,0,0,0,0,0,0,0,0,0,0,
0,0,0,0,0,0,0,0,0,0,0,0,0,0,0,0,
0,0,0,0,0,0,0,0,0,0,0,0,0,0,0,0,
0,0,0,0,0,0,0,0,0,0,0,0,0,0,0,0,
0,0,0,0,0,0,0,0,0,0,0,0,0,0,0,0
</chunk>
  </data>
 </layer>
 <layer id="10" name="Стены1" width="100" height="100">
  <data encoding="csv">
   <chunk x="-32" y="-32" width="16" height="16">
0,0,0,0,0,0,0,0,0,0,0,0,0,0,0,0,
0,0,0,0,0,0,0,0,0,0,0,0,0,0,0,0,
0,0,0,0,0,0,0,0,0,0,0,0,0,0,0,0,
0,0,0,0,0,0,0,0,0,0,0,0,0,0,0,0,
0,0,0,0,1,1,10,11,1,1,26,11,1,1,1,1,
0,0,0,1,1,1,1,1,27,28,1,1,10,11,1,27,
0,0,0,1,33,42,43,33,33,33,33,33,33,33,42,43,
0,29,1,33,0,0,0,0,0,0,0,0,0,0,0,0,
0,29,1,0,0,0,0,0,0,0,0,0,0,0,0,0,
0,45,33,0,0,0,0,0,0,0,0,0,0,0,0,0,
0,0,0,0,0,0,0,0,0,0,0,0,0,0,0,0,
0,0,0,0,0,0,0,0,0,0,0,0,0,0,0,0,
0,0,0,0,0,0,0,0,0,1,1,1,27,28,1,1,
0,0,0,0,0,0,0,0,0,1,27,28,1,1,10,11,
0,0,0,0,0,0,0,0,0,33,33,0,0,0,43,33,
0,0,0,0,0,0,0,0,0,0,0,0,0,0,0,0
</chunk>
   <chunk x="-16" y="-32" width="16" height="16">
0,0,0,0,0,0,0,0,0,0,0,0,0,0,0,0,
0,0,0,0,0,0,0,0,0,0,0,0,0,0,0,0,
0,0,0,0,0,0,0,0,0,0,0,0,0,0,0,0,
0,0,0,0,0,0,0,0,0,0,0,0,0,0,0,0,
1,10,0,0,0,0,0,0,0,0,0,0,0,0,0,0,
28,1,1,0,0,0,0,0,0,0,0,0,0,0,0,0,
33,33,1,0,0,0,0,0,0,0,0,0,0,0,0,0,
0,0,33,0,0,0,0,0,0,0,0,0,0,0,0,0,
0,0,0,0,0,0,0,0,0,0,0,0,0,0,0,0,
0,0,0,0,0,0,0,0,0,0,0,0,0,0,0,0,
0,0,0,0,0,0,0,0,0,0,0,0,0,0,0,0,
0,0,0,0,0,0,0,0,0,0,0,0,0,0,0,0,
0,0,0,1,0,0,0,0,0,0,0,0,0,0,0,0,
0,0,0,1,1,0,0,0,0,0,0,0,0,0,0,0,
0,0,0,33,27,0,0,0,0,0,0,0,0,0,0,0,
0,0,0,0,33,0,0,0,0,0,146,241,146,146,255,146
</chunk>
   <chunk x="-32" y="-16" width="16" height="16">
0,0,0,0,0,0,0,0,0,0,0,0,0,0,0,0,
0,0,0,0,0,0,0,0,0,0,0,1,1,1,0,0,
0,0,0,0,0,0,0,0,0,0,0,10,11,1,0,0,
0,0,0,0,0,0,0,0,0,0,0,33,34,33,0,0,
0,0,0,0,0,0,0,0,0,0,0,0,0,0,0,0,
0,0,0,0,0,0,0,0,0,0,0,0,0,0,0,0,
0,0,0,0,0,0,0,0,0,0,0,0,0,0,0,0,
0,0,0,0,0,0,0,0,0,0,0,0,0,0,0,0,
0,0,0,0,0,0,0,0,0,0,0,0,0,0,0,0,
0,0,0,0,0,0,0,0,0,0,0,0,0,0,0,0,
0,0,0,0,0,0,0,0,0,0,0,0,0,0,0,0,
0,0,0,0,0,0,0,0,0,0,0,0,0,0,0,0,
0,0,0,0,0,0,0,0,0,0,0,0,0,0,0,0,
0,0,0,0,0,0,0,0,0,0,0,0,0,0,0,0,
0,0,0,0,0,0,0,0,0,0,0,0,0,0,0,0,
0,0,0,0,0,0,0,0,0,0,0,0,0,0,0,0
</chunk>
   <chunk x="-16" y="-16" width="16" height="16">
0,0,0,0,0,0,0,0,0,0,146,255,185,146,146,146,
0,0,0,0,0,0,0,0,0,0,178,203,201,202,288,178,
0,0,0,0,0,0,0,0,0,0,0,0,0,0,0,0,
0,0,0,0,0,0,0,0,0,0,0,0,0,0,0,0,
0,0,0,0,0,0,0,0,0,0,0,0,0,0,0,0,
0,0,0,0,0,0,0,0,0,0,0,0,0,0,0,0,
0,0,0,0,0,0,0,0,0,0,0,0,0,0,0,0,
0,0,0,0,0,0,0,0,0,0,0,0,0,0,0,0,
0,0,0,0,0,0,0,0,0,0,0,0,0,0,0,0,
0,0,0,0,0,0,0,0,146,146,146,146,0,0,146,146,
0,0,0,0,0,0,0,0,146,240,241,146,0,0,146,255,
146,0,0,146,255,163,146,146,178,178,178,178,0,0,178,178,
146,0,0,146,146,146,240,255,0,0,0,0,0,0,0,0,
178,0,0,178,287,178,201,202,0,0,0,0,0,0,0,0,
0,0,0,0,0,0,0,0,0,0,0,0,0,0,0,0,
0,0,0,0,0,0,0,0,0,0,0,0,0,0,0,0
</chunk>
   <chunk x="0" y="-16" width="16" height="16">
0,0,0,0,0,0,0,0,0,0,0,0,0,0,0,0,
0,0,0,0,0,0,0,0,0,0,0,0,0,0,0,0,
0,0,0,0,0,0,0,0,0,0,0,0,0,0,0,0,
0,0,0,0,146,146,146,146,146,146,146,0,0,146,255,146,
0,0,0,0,146,240,146,146,146,255,146,0,0,184,146,146,
0,0,0,0,178,178,287,178,178,287,178,0,0,200,202,178,
0,0,0,0,0,0,0,0,0,0,0,0,0,216,218,0,
0,0,0,0,0,0,0,0,0,0,0,0,0,0,0,0,
0,0,0,0,0,0,0,0,0,0,0,0,0,0,0,0,
241,146,0,0,0,0,0,0,0,0,0,0,0,0,0,0,
146,146,0,0,0,0,0,0,0,0,0,0,0,0,0,0,
203,201,255,146,146,0,0,146,255,146,146,146,241,146,0,0,
0,0,162,241,146,0,0,146,146,240,241,255,146,146,0,0,
0,0,178,178,178,0,0,178,178,178,289,178,288,178,0,0,
0,0,0,0,0,0,0,0,0,0,0,0,0,0,0,0,
0,0,0,0,0,0,0,0,0,0,0,0,0,0,0,0
</chunk>
   <chunk x="16" y="-16" width="16" height="16">
0,0,0,0,0,0,0,0,0,0,0,0,0,0,0,0,
0,0,0,0,0,0,0,0,0,0,0,0,0,0,0,0,
0,0,0,0,0,0,0,0,0,0,0,0,0,0,0,0,
146,146,146,240,0,0,146,146,146,146,146,255,146,0,0,0,
240,146,185,188,0,0,146,255,240,146,146,146,146,0,0,0,
178,203,201,204,0,0,178,178,178,178,178,288,178,0,0,0,
0,219,217,0,0,0,0,0,0,0,0,0,0,0,0,0,
0,0,0,0,0,0,0,0,0,0,0,0,0,0,0,0,
0,0,0,0,0,0,0,0,0,0,0,0,0,0,0,0,
0,0,0,0,0,0,0,0,0,0,0,0,0,0,0,0,
0,0,0,0,0,0,0,0,0,0,0,0,0,0,0,0,
146,146,255,146,146,146,146,0,0,146,146,146,146,0,0,0,
146,146,146,146,240,146,146,0,0,146,146,255,240,0,0,0,
178,287,178,178,178,178,178,0,0,178,179,178,178,0,0,0,
0,0,0,0,0,0,0,0,0,0,0,0,0,0,0,0,
0,0,0,0,0,0,0,0,0,0,0,0,0,0,0,0
</chunk>
   <chunk x="-32" y="0" width="16" height="16">
0,0,0,0,0,0,0,0,0,0,0,0,0,0,0,0,
0,0,0,0,0,0,0,0,0,0,0,0,0,0,0,0,
0,0,0,0,0,0,0,0,0,0,241,146,146,146,240,241,
0,0,0,0,0,0,0,0,0,170,146,240,146,146,146,146,
0,0,0,0,0,0,0,0,0,241,186,289,178,287,178,187,
0,0,0,0,0,0,0,0,0,186,0,0,0,0,0,0,
0,0,0,0,0,0,0,0,0,0,0,0,0,0,0,0,
0,0,0,0,0,0,0,0,0,0,0,0,0,0,0,0,
0,0,0,0,0,0,0,0,0,0,0,0,0,0,0,0,
0,0,0,0,0,0,0,0,0,0,0,0,0,0,0,0,
0,0,0,0,0,0,0,0,0,0,0,0,0,0,0,0,
0,0,0,0,0,0,0,0,0,0,0,0,0,0,0,0,
0,0,0,0,0,0,0,0,0,0,170,171,0,0,171,146,
0,0,0,0,0,0,0,0,0,0,146,171,0,0,170,171,
0,0,0,0,0,0,0,0,0,0,186,187,0,0,186,187,
0,0,0,0,0,0,0,0,0,0,0,0,0,0,0,0
</chunk>
   <chunk x="-16" y="0" width="16" height="16">
0,0,0,0,0,0,0,0,0,0,0,0,0,0,0,0,
0,0,0,0,0,0,0,0,0,0,0,0,0,0,0,0,
0,0,0,0,0,0,0,0,0,0,0,0,0,0,0,0,
146,0,0,0,0,0,0,0,0,0,0,0,0,0,0,0,
171,0,0,0,0,0,0,0,0,0,0,0,0,0,0,0,
187,0,0,0,0,0,0,0,0,0,0,0,0,0,0,0,
0,0,0,0,0,0,0,0,0,0,0,0,0,0,0,0,
0,0,0,0,0,0,0,0,146,171,146,0,0,0,0,146,
0,0,0,0,0,0,0,0,170,146,171,0,0,0,0,171,
0,0,0,0,0,0,0,0,178,186,187,0,0,0,0,186,
0,0,0,0,0,255,170,146,0,0,0,0,0,0,0,0,
0,0,255,170,146,171,146,171,0,0,0,0,0,0,0,0,
146,171,171,171,170,187,186,187,0,0,0,0,0,0,0,0,
255,162,178,187,186,0,0,0,0,0,0,0,0,0,0,0,
186,288,0,0,0,0,0,0,0,0,0,0,0,0,0,0,
0,0,0,0,0,0,0,0,0,0,0,0,0,0,0,0
</chunk>
   <chunk x="0" y="0" width="16" height="16">
0,0,0,0,0,0,0,0,0,0,0,0,0,0,0,0,
0,0,0,0,0,0,0,0,0,0,0,0,0,0,0,0,
0,0,0,0,146,0,0,146,146,146,146,0,0,146,0,0,
0,0,0,0,146,0,0,146,146,255,163,0,0,146,0,0,
0,0,0,0,178,0,0,178,288,178,178,0,0,178,0,0,
0,0,0,0,0,0,0,0,0,0,0,0,0,0,0,0,
0,0,0,0,0,0,0,0,0,0,0,0,0,0,0,0,
170,146,0,0,0,0,0,0,0,0,0,0,0,0,0,0,
146,171,0,0,0,0,0,0,0,0,0,0,0,0,0,0,
187,187,0,0,0,0,0,0,0,0,0,0,0,0,0,0,
0,0,146,170,0,0,0,0,0,0,0,0,0,0,0,0,
0,0,162,188,170,0,0,0,0,0,0,0,0,0,0,0,
0,0,203,204,146,0,0,0,0,0,0,0,0,0,0,0,
0,0,0,0,187,146,146,241,146,146,0,0,0,0,0,0,
0,0,0,0,0,171,170,171,171,170,241,171,0,0,0,0,
0,0,0,0,0,186,178,187,187,179,171,146,146,0,0,0
</chunk>
   <chunk x="16" y="0" width="16" height="16">
0,0,0,0,0,0,0,0,0,0,0,0,0,0,0,0,
0,0,0,0,0,0,0,0,0,0,0,0,0,0,0,0,
146,146,146,241,0,0,146,0,0,146,240,146,146,0,0,0,
146,241,146,175,0,0,146,0,0,146,191,146,240,0,0,0,
178,178,178,178,0,0,287,0,0,178,178,178,178,0,0,0,
0,0,0,0,0,0,0,0,0,0,0,0,0,0,0,0,
0,0,0,0,0,0,0,0,0,0,0,0,0,0,0,0,
0,0,0,0,0,0,0,0,0,0,0,0,0,0,0,0,
0,0,0,0,0,0,0,0,0,0,0,0,0,0,0,0,
0,0,0,0,0,0,0,0,0,0,0,0,0,0,0,0,
0,0,0,0,0,0,0,0,0,0,0,0,0,0,0,0,
0,0,0,0,0,0,0,0,0,0,0,0,0,0,0,0,
0,0,0,0,0,0,0,0,0,0,0,0,0,0,0,0,
0,0,0,0,0,0,0,0,0,0,0,0,0,0,0,0,
0,0,0,0,0,0,0,0,0,0,0,0,0,0,0,0,
0,0,0,0,0,0,0,0,0,0,0,0,0,0,0,0
</chunk>
   <chunk x="-32" y="16" width="16" height="16">
0,0,0,0,0,0,0,0,0,0,0,0,0,0,0,0,
0,0,0,0,0,0,0,0,0,0,0,0,0,0,0,0,
0,0,0,0,0,0,0,0,0,0,0,0,0,0,0,0,
0,0,0,0,0,0,0,0,0,0,0,0,0,0,0,0,
0,0,0,0,0,0,0,0,0,0,0,0,0,0,0,0,
0,0,0,0,0,0,0,0,0,0,0,0,0,0,0,0,
0,0,0,0,0,0,0,0,0,0,0,0,0,0,0,0,
0,0,0,0,0,0,0,0,0,0,0,0,0,0,0,0,
0,0,0,0,0,0,0,0,0,0,0,0,0,0,0,0,
0,0,0,0,0,0,0,0,0,0,0,0,0,0,0,0,
0,0,0,0,0,0,0,0,0,0,0,0,0,0,0,0,
0,0,0,0,0,0,0,0,0,0,0,0,0,0,0,0,
0,0,0,0,0,0,0,0,0,0,0,0,0,146,0,0,
0,0,0,0,0,0,0,0,0,0,0,0,146,146,0,0,
0,0,0,0,0,0,0,0,0,0,0,0,146,178,0,0,
0,0,0,0,0,0,0,0,0,0,0,0,178,0,0,0
</chunk>
   <chunk x="-16" y="16" width="16" height="16">
0,0,0,0,0,0,0,0,0,0,0,0,0,0,0,0,
0,0,0,0,0,0,0,0,0,0,0,0,0,0,0,0,
0,0,0,0,0,0,0,0,0,0,0,0,0,0,0,0,
0,0,0,0,0,0,0,0,0,0,0,0,0,0,0,0,
0,0,0,0,0,0,0,0,0,0,0,0,0,0,0,0,
0,0,0,0,0,0,0,0,0,0,0,0,0,0,0,0,
0,0,0,0,0,0,0,0,0,0,0,0,0,0,0,0,
0,0,0,0,0,0,0,0,0,0,0,0,0,0,0,0,
0,0,0,0,0,0,0,0,0,0,0,0,0,0,0,0,
0,0,0,0,0,0,0,0,0,0,0,0,0,0,0,0,
0,0,0,0,0,0,0,0,0,0,0,0,0,0,0,0,
0,0,0,0,0,0,0,0,0,0,0,0,0,0,0,0,
146,0,0,0,0,0,0,0,0,0,0,0,0,0,0,0,
146,146,0,0,0,0,0,0,0,0,0,0,0,0,0,0,
178,146,0,0,0,0,0,0,0,0,0,0,0,0,0,0,
0,178,0,0,0,0,0,0,0,0,0,0,0,0,171,146
</chunk>
   <chunk x="0" y="16" width="16" height="16">
0,0,0,0,0,0,0,0,0,0,178,186,171,0,0,0,
0,0,0,0,0,0,0,0,0,0,0,0,187,0,0,0,
0,0,0,0,0,0,0,0,0,0,0,0,0,0,0,0,
0,0,0,0,0,0,0,0,0,0,0,0,0,146,146,0,
0,0,0,0,0,0,0,0,0,0,0,0,0,170,171,0,
0,0,0,0,0,0,0,0,0,0,0,0,0,287,186,146,
0,0,0,0,0,0,0,0,0,0,0,0,0,0,0,171,
0,0,0,0,0,0,0,0,0,0,0,0,0,0,0,187,
0,0,0,0,0,0,0,0,0,0,0,0,0,0,0,0,
0,0,0,0,0,0,0,0,0,0,0,0,0,0,0,0,
0,0,0,0,0,0,0,0,0,0,0,0,0,0,0,0,
0,0,0,0,0,0,0,0,0,0,0,0,0,0,0,0,
0,0,0,0,0,0,0,0,0,0,0,0,0,0,0,0,
0,0,0,0,0,0,0,0,0,0,0,0,0,0,0,0,
0,0,0,0,0,0,0,0,0,0,0,0,0,0,0,0,
146,146,146,0,0,0,0,0,0,0,0,0,0,0,0,0
</chunk>
   <chunk x="16" y="16" width="16" height="16">
0,0,0,0,0,0,0,0,0,0,0,0,0,0,0,0,
0,0,0,0,0,0,0,0,0,0,0,0,0,0,0,0,
0,0,0,0,0,0,0,0,0,0,0,0,0,0,0,0,
0,0,0,0,0,0,0,0,0,0,0,0,0,0,0,0,
0,0,0,0,0,0,0,0,0,0,0,0,0,0,0,0,
0,0,0,0,0,0,0,0,0,0,0,0,0,0,0,0,
0,0,0,0,0,0,0,0,0,0,0,0,0,0,0,0,
0,0,0,0,0,0,0,0,0,0,0,0,0,0,0,0,
0,0,0,0,0,0,0,0,0,0,0,0,0,3,0,0,
0,0,0,0,0,0,0,0,0,0,0,0,3,1,0,0,
0,0,0,0,0,0,0,0,0,0,0,0,1,35,0,0,
0,0,0,0,0,0,0,0,0,0,0,0,35,0,0,0,
0,0,0,0,0,0,0,0,0,0,0,0,0,0,0,0,
0,0,0,0,0,0,0,0,0,0,0,0,0,0,0,0,
0,0,0,0,0,0,0,0,0,0,0,0,0,0,0,0,
0,0,0,0,0,0,0,0,0,0,0,0,0,0,0,0
</chunk>
   <chunk x="32" y="16" width="16" height="16">
0,0,0,0,0,0,0,0,0,0,0,0,0,0,0,0,
0,0,0,0,0,0,0,0,0,0,0,0,0,0,0,0,
0,0,0,0,0,0,0,0,0,0,0,0,0,0,0,0,
0,0,0,0,0,0,0,0,0,0,0,0,0,0,0,0,
0,0,0,0,0,0,0,0,0,0,0,0,0,0,0,0,
0,0,0,0,0,0,0,0,0,0,0,0,0,0,0,0,
0,0,0,0,0,0,0,0,0,0,0,0,0,0,0,0,
0,0,0,0,0,0,0,0,0,0,0,0,0,0,0,0,
3,0,0,0,0,0,0,0,0,0,0,0,0,0,0,0,
1,3,0,0,0,0,0,0,0,0,0,0,0,0,0,0,
35,1,0,0,0,0,0,0,0,0,0,0,0,0,0,0,
0,35,0,0,0,0,0,0,0,0,0,0,0,0,0,0,
0,0,0,0,0,0,0,0,0,0,0,0,0,0,0,0,
0,0,0,0,0,0,0,0,0,0,0,0,0,0,0,0,
0,0,0,0,0,0,0,0,0,0,0,0,0,0,0,0,
0,0,0,0,0,0,0,0,0,0,0,0,0,0,0,0
</chunk>
   <chunk x="-16" y="32" width="16" height="16">
0,0,0,0,0,0,0,0,0,0,0,0,0,0,170,170,
0,0,0,0,0,0,0,0,0,0,0,0,0,170,187,178,
0,0,0,0,0,0,0,0,0,0,0,171,146,146,0,0,
0,0,0,0,0,0,0,0,0,0,0,170,171,186,0,0,
0,0,0,0,0,0,0,0,0,0,0,287,187,0,0,0,
0,0,0,0,0,0,0,0,0,0,0,0,0,0,0,0,
0,0,0,0,0,0,0,0,0,0,0,0,0,0,0,0,
0,0,0,0,0,0,0,0,0,0,0,0,0,0,0,0,
0,0,0,0,0,0,0,0,0,0,0,0,0,0,0,0,
0,0,0,0,0,0,0,0,0,0,146,0,0,0,0,0,
0,0,0,0,0,0,0,0,0,0,170,0,0,0,0,0,
0,0,0,0,0,0,0,0,0,0,178,0,0,0,0,0,
0,0,0,0,0,0,0,0,0,0,0,0,0,0,0,0,
0,0,0,0,0,0,0,0,0,0,0,0,0,0,0,0,
0,0,0,0,0,0,0,0,0,0,0,0,0,0,0,0,
0,0,0,0,0,0,0,0,0,0,0,0,0,0,0,0
</chunk>
   <chunk x="0" y="32" width="16" height="16">
171,241,170,0,0,0,0,0,0,0,0,0,0,0,0,0,
186,187,178,0,0,0,0,0,0,0,0,0,0,0,0,0,
0,0,0,0,0,0,0,0,0,0,0,0,0,0,0,0,
0,0,0,0,0,0,0,0,0,0,0,0,0,0,0,0,
0,0,0,0,0,0,0,0,0,0,0,0,0,0,0,0,
0,0,0,0,0,0,0,0,0,0,0,0,0,0,0,0,
0,0,0,0,0,0,0,0,0,0,0,0,0,0,0,0,
0,0,0,0,0,0,0,0,0,0,0,0,0,0,0,0,
0,0,0,0,0,0,0,0,0,0,0,0,0,0,0,0,
0,0,0,0,0,0,0,0,0,0,0,0,0,0,0,0,
0,0,0,0,0,0,0,0,0,0,0,0,0,0,0,0,
0,0,0,0,0,0,0,0,0,0,0,0,0,0,0,0,
0,0,0,0,0,0,0,0,0,0,0,0,0,0,0,0,
0,0,0,0,0,0,0,0,0,0,0,0,0,0,0,0,
0,0,0,0,0,0,0,0,0,0,0,0,0,0,0,0,
0,0,0,0,0,0,0,0,0,0,0,0,0,0,0,0
</chunk>
   <chunk x="16" y="32" width="16" height="16">
0,0,0,0,0,0,0,0,0,0,0,0,0,0,0,0,
0,0,0,0,0,0,0,0,0,0,0,0,0,0,0,0,
0,0,0,0,0,0,0,0,0,0,0,0,0,0,0,0,
0,0,0,0,0,0,0,0,0,0,0,0,3,3,0,0,
0,0,0,0,0,0,0,0,0,0,0,0,1,1,0,0,
0,0,0,0,0,0,0,0,0,0,0,0,35,35,0,0,
0,0,0,0,0,0,0,0,0,0,0,0,0,0,0,0,
0,0,0,0,0,0,0,0,0,0,0,0,0,0,0,0,
0,0,0,0,0,0,0,0,0,0,0,0,0,0,0,0,
0,0,0,0,0,0,0,0,0,0,0,0,0,0,0,0,
0,0,0,0,0,0,0,0,0,0,0,0,0,0,0,0,
0,0,0,0,0,0,0,0,0,0,0,0,0,0,0,0,
0,0,0,0,0,0,0,0,0,0,0,0,0,3,0,0,
0,0,0,0,0,0,0,0,0,0,0,0,0,1,0,0,
0,0,0,0,0,0,0,0,0,0,0,0,0,35,0,0,
0,0,0,0,0,0,0,0,0,0,0,0,0,0,0,0
</chunk>
   <chunk x="32" y="32" width="16" height="16">
0,0,0,0,0,0,0,0,0,0,0,0,0,0,0,0,
0,0,0,0,0,0,0,0,0,0,0,0,0,0,0,0,
0,0,0,0,0,0,0,0,0,0,0,0,0,0,0,0,
3,3,0,0,0,0,0,0,0,0,0,0,0,0,0,0,
1,1,0,0,0,0,0,0,0,0,0,0,0,0,0,0,
35,35,0,0,0,0,0,0,0,0,0,0,0,0,0,0,
0,0,0,0,0,0,0,0,0,0,0,0,0,0,0,0,
0,0,0,0,0,0,0,0,0,0,0,0,0,0,0,0,
0,0,0,0,0,0,0,0,0,0,0,0,0,0,0,0,
0,0,0,0,0,0,0,0,0,0,0,0,0,0,0,0,
0,0,0,0,0,0,0,0,0,0,0,0,0,0,0,0,
0,0,0,0,0,0,0,0,0,0,0,0,0,0,0,0,
3,3,0,0,0,0,0,0,0,0,0,0,0,0,0,0,
1,1,3,0,0,3,3,3,0,0,0,0,0,0,0,0,
35,35,1,3,3,1,17,1,0,0,0,0,0,0,0,0,
0,0,35,10,11,35,35,35,0,0,0,0,0,0,0,0
</chunk>
   <chunk x="0" y="48" width="16" height="16">
0,0,0,0,0,0,0,0,0,0,0,0,0,0,0,0,
0,0,0,0,0,0,0,0,0,0,0,0,0,0,0,0,
0,0,0,0,0,0,0,0,0,0,0,0,0,0,0,0,
0,0,0,0,0,0,0,0,0,0,0,0,0,0,0,0,
280,146,0,0,0,0,146,279,0,0,0,0,0,0,0,0,
280,146,0,0,0,0,146,279,0,0,0,0,0,0,0,0,
282,178,0,0,0,0,178,281,0,0,0,0,0,0,0,0,
0,0,0,0,0,0,0,0,0,0,0,0,0,0,0,0,
0,0,0,0,0,0,0,0,0,0,0,0,0,0,0,0,
0,0,0,0,0,0,0,0,0,0,0,0,0,0,0,0,
0,0,0,0,0,0,0,0,0,0,0,0,0,0,0,0,
0,0,0,0,0,0,0,0,0,0,0,0,0,0,0,0,
0,0,0,0,0,0,0,0,0,0,0,0,0,0,0,0,
0,0,0,0,0,0,0,0,0,0,0,0,0,0,0,0,
0,0,0,0,0,0,0,0,0,0,0,0,0,0,0,0,
0,0,0,0,0,0,0,0,0,0,0,0,0,0,0,0
</chunk>
   <chunk x="16" y="48" width="16" height="16">
0,0,0,0,0,0,0,0,0,0,0,0,0,0,0,0,
0,0,0,0,0,0,0,0,0,0,0,0,0,0,0,0,
0,0,0,0,0,0,0,0,0,0,0,0,0,0,0,0,
0,0,0,0,0,0,0,0,0,0,0,0,0,0,0,0,
0,0,0,0,0,0,0,0,0,0,0,0,0,0,0,0,
0,0,0,0,0,0,0,0,0,0,0,0,0,0,0,0,
0,0,0,0,0,0,0,0,3,20,3,3,0,0,0,3,
0,0,0,0,0,0,0,0,1,36,1,1,3,3,3,1,
0,0,0,0,0,0,0,0,35,52,44,35,1,1,2,35,
0,0,0,0,0,0,0,0,0,0,0,0,35,35,35,0,
0,0,0,0,0,0,0,0,0,0,0,0,0,0,0,0,
0,0,0,0,0,0,0,0,0,0,0,0,0,0,0,0,
0,0,0,0,0,0,0,0,0,0,0,0,0,0,0,0,
0,0,0,0,0,0,0,0,0,0,0,0,0,0,0,0,
0,0,0,0,0,0,3,20,3,0,0,3,3,3,3,3,
0,0,0,0,0,0,1,36,1,0,0,1,2,27,28,1
</chunk>
   <chunk x="32" y="48" width="16" height="16">
0,0,0,35,35,0,0,0,0,0,0,0,0,0,0,0,
0,0,0,0,0,0,0,0,0,0,0,0,0,0,0,0,
0,0,0,0,0,0,0,0,0,0,0,0,3,3,3,3,
0,0,0,0,0,0,0,0,0,0,0,0,1,10,11,1,
0,0,0,0,0,0,0,0,0,0,3,3,35,35,35,35,
0,0,0,0,0,0,0,0,0,0,18,1,0,0,0,0,
3,20,3,0,0,0,0,0,3,3,35,35,0,0,0,0,
1,36,26,0,0,0,0,0,27,28,0,0,0,0,0,0,
35,52,35,0,0,0,0,0,35,35,0,0,0,0,0,0,
0,0,0,0,0,0,0,0,0,0,0,0,0,0,0,0,
0,0,0,0,0,0,0,0,0,0,0,0,0,0,0,0,
0,0,0,0,0,0,0,0,0,0,0,0,0,0,0,0,
0,0,0,0,0,0,0,0,0,146,0,0,0,0,0,0,
0,0,0,0,0,0,0,0,0,0,0,0,0,0,0,0,
0,0,3,20,3,0,0,0,0,0,0,0,0,0,0,0,
0,0,1,36,1,0,0,0,0,0,0,0,0,0,0,0
</chunk>
   <chunk x="48" y="48" width="16" height="16">
0,0,0,0,0,0,0,0,0,0,0,0,0,0,0,0,
0,0,0,0,0,0,0,0,0,0,0,0,0,0,0,0,
3,3,0,0,0,0,0,0,0,0,0,0,0,0,0,0,
2,1,0,0,0,0,0,0,0,0,0,0,0,0,0,0,
35,44,0,0,0,0,0,0,0,0,0,0,0,0,0,0,
0,0,0,0,0,0,0,0,0,0,0,0,0,0,0,0,
0,0,0,0,0,0,0,0,0,0,0,0,0,0,0,0,
0,0,0,0,0,0,0,0,0,0,0,0,0,0,0,0,
0,0,0,0,0,0,0,0,0,0,0,0,0,0,0,0,
0,0,0,0,0,0,0,0,0,0,0,0,0,0,0,0,
0,0,0,0,0,0,0,0,0,0,0,0,0,0,0,0,
0,0,0,0,0,0,0,0,0,0,0,0,0,0,0,0,
0,0,0,0,0,0,0,0,0,0,0,0,0,0,0,0,
0,0,0,0,0,0,0,0,0,0,0,0,0,0,0,0,
0,0,0,0,0,0,0,0,0,0,0,0,0,0,0,0,
0,0,0,0,0,0,0,0,0,0,0,0,0,0,0,0
</chunk>
   <chunk x="0" y="64" width="16" height="16">
0,0,0,0,0,0,0,0,0,0,0,0,0,0,0,0,
0,0,0,0,0,0,0,0,0,0,0,0,0,0,0,0,
0,0,0,0,0,0,0,0,0,0,0,0,0,0,0,0,
0,0,0,0,0,0,0,0,0,0,0,0,0,0,0,1,
0,0,0,0,0,0,0,0,0,0,1,1,1,1,1,1,
0,0,0,0,0,0,0,0,0,1,1,17,10,11,1,33,
0,0,0,0,0,0,1,1,1,2,33,33,33,33,33,0,
0,0,0,0,0,0,1,1,1,33,0,0,0,0,0,0,
0,0,0,0,0,0,33,42,43,0,0,0,0,0,0,0,
0,0,0,0,0,0,0,0,0,0,0,0,0,0,0,0,
0,0,0,0,0,0,0,0,0,0,0,0,0,0,0,0,
0,0,0,0,0,0,0,0,0,0,0,0,0,0,0,0,
0,0,0,0,0,0,0,0,0,0,0,0,0,0,0,0,
0,0,0,0,0,0,0,0,0,0,0,0,0,0,0,0,
0,0,0,0,0,0,0,0,0,0,0,0,0,0,0,0,
0,0,0,0,0,0,0,0,0,0,0,0,0,0,0,0
</chunk>
   <chunk x="16" y="64" width="16" height="16">
0,0,0,0,0,0,35,52,35,0,0,35,35,35,44,35,
0,0,0,0,0,0,0,0,0,0,0,0,0,0,0,0,
0,0,0,0,0,0,0,0,0,0,0,0,0,0,0,0,
1,1,1,0,0,0,0,0,0,0,0,0,0,0,0,0,
1,26,11,1,0,0,0,0,0,0,0,0,0,0,0,0,
33,34,33,1,1,2,1,0,0,0,0,0,0,0,0,0,
0,0,0,33,1,1,1,0,0,0,0,0,0,0,0,0,
0,0,0,0,33,42,43,0,0,0,0,0,0,0,0,0,
0,0,0,0,0,0,0,0,0,0,0,0,0,0,0,0,
0,0,0,0,0,0,0,0,0,0,0,0,0,0,0,0,
0,0,0,0,0,0,0,0,0,0,0,0,0,0,0,0,
0,0,0,0,0,0,0,0,0,0,0,0,0,0,0,0,
0,0,0,0,0,0,0,0,0,0,0,0,0,0,0,0,
0,0,0,0,0,0,0,0,0,0,0,0,0,0,0,0,
0,0,0,0,0,0,0,0,0,0,0,0,0,0,0,0,
0,0,0,0,0,0,0,0,0,0,0,0,0,0,0,0
</chunk>
   <chunk x="32" y="64" width="16" height="16">
0,0,35,52,35,0,0,0,0,0,0,0,0,0,0,0,
0,0,0,0,0,0,0,0,0,0,0,0,0,0,0,0,
0,0,0,0,0,0,0,0,0,0,0,0,0,0,0,0,
0,0,0,0,0,0,0,0,0,0,0,0,0,0,0,0,
0,0,0,0,0,0,0,0,0,0,0,0,0,0,0,0,
0,0,0,0,0,0,0,0,0,0,0,0,0,0,0,0,
0,0,0,0,0,0,0,0,0,0,0,0,0,0,0,0,
0,0,0,0,0,0,0,0,0,0,0,0,0,0,0,0,
0,0,0,0,0,0,0,0,0,0,0,0,0,0,0,0,
0,0,0,0,0,0,0,0,0,0,0,0,0,0,0,0,
0,0,0,0,0,0,0,0,0,0,0,0,0,0,0,0,
0,0,0,0,0,0,0,0,0,0,0,0,0,0,0,0,
0,0,0,0,0,0,0,0,0,0,0,0,0,0,0,0,
0,0,0,0,0,0,0,0,0,0,0,0,0,0,0,0,
0,0,0,0,0,0,0,0,0,0,0,0,0,0,0,0,
0,0,0,0,0,0,0,0,0,0,0,0,0,0,0,0
</chunk>
  </data>
 </layer>
 <layer id="19" name="Стены1(должно будет исчезнуть)" width="100" height="100">
  <data encoding="csv">
   <chunk x="16" y="32" width="16" height="16">
0,0,0,0,0,0,0,0,0,0,0,0,0,0,0,0,
0,0,0,0,0,0,0,0,0,0,0,0,0,0,0,0,
0,0,0,0,0,0,0,0,0,0,0,0,0,0,0,0,
0,0,0,0,0,0,0,0,0,0,0,0,0,0,3,3,
0,0,0,0,0,0,0,0,0,0,0,0,0,0,1,1,
0,0,0,0,0,0,0,0,0,0,0,0,0,0,35,35,
0,0,0,0,0,0,0,0,0,0,0,0,0,0,0,0,
0,0,0,0,0,0,0,0,0,0,0,0,0,0,0,0,
0,0,0,0,0,0,0,0,0,0,0,0,0,0,0,0,
0,0,0,0,0,0,0,0,0,0,0,0,0,0,0,0,
0,0,0,0,0,0,0,0,0,0,0,0,0,0,0,0,
0,0,0,0,0,0,0,0,0,0,0,0,0,0,0,0,
0,0,0,0,0,0,0,0,0,0,0,0,0,0,0,0,
0,0,0,0,0,0,0,0,0,0,0,0,0,0,0,0,
0,0,0,0,0,0,0,0,0,0,0,0,0,0,0,0,
0,0,0,0,0,0,0,0,0,0,0,0,0,0,0,0
</chunk>
  </data>
 </layer>
 <layer id="17" name="Декор1" width="100" height="100">
  <data encoding="csv">
   <chunk x="-16" y="-16" width="16" height="16">
0,0,0,0,0,0,0,0,0,0,0,0,0,0,0,0,
0,0,0,0,0,0,0,0,0,0,0,0,0,0,0,0,
0,0,0,0,0,0,0,0,0,0,0,0,0,0,0,0,
0,0,0,0,0,0,0,0,0,0,0,0,0,0,0,0,
0,0,0,0,0,0,0,0,0,0,0,0,0,0,0,0,
0,0,0,0,0,0,0,0,0,0,0,0,0,0,0,0,
0,0,0,0,0,0,0,0,0,0,0,0,0,0,0,0,
0,0,0,0,0,0,0,0,0,0,0,0,0,0,0,0,
0,0,0,0,0,0,0,0,0,0,0,0,0,0,0,0,
0,0,0,0,0,0,0,0,0,0,0,0,0,0,0,0,
0,0,0,0,0,0,0,0,0,0,411,0,0,0,0,411,
0,0,0,0,0,0,0,0,0,0,0,0,0,0,0,0,
0,0,0,0,0,411,0,0,0,0,0,0,0,0,0,0,
0,0,0,0,0,0,0,0,0,0,0,0,0,0,0,0,
0,0,0,0,0,0,0,0,0,0,0,0,0,0,0,0,
0,0,0,0,0,0,0,0,0,0,0,0,0,0,0,0
</chunk>
   <chunk x="0" y="-16" width="16" height="16">
0,0,0,0,0,0,0,0,0,0,0,0,0,0,0,0,
0,0,0,0,0,0,0,0,0,0,0,0,0,0,0,0,
0,0,0,0,0,0,0,0,0,0,0,0,0,0,0,0,
0,0,0,0,0,0,0,0,0,0,0,0,0,0,0,0,
0,0,0,0,0,0,0,0,0,461,0,0,0,0,0,0,
0,0,0,0,0,0,0,0,0,443,0,0,0,0,0,0,
0,0,0,0,0,0,0,0,0,459,0,0,0,233,0,0,
0,0,0,0,0,0,0,0,0,0,0,0,0,0,0,0,
0,0,0,0,0,0,0,0,0,0,0,0,0,0,0,0,
0,0,0,0,0,0,0,0,0,0,0,0,0,0,0,0,
0,0,0,0,0,0,0,0,0,0,0,0,0,0,0,0,
0,0,0,0,0,0,0,0,0,426,427,2147484074,0,0,0,0,
0,0,0,411,0,0,0,0,411,0,0,0,411,0,0,0,
0,0,0,0,0,0,0,0,0,0,0,0,0,0,0,0,
0,0,0,0,0,0,2147484106,0,0,0,0,0,0,0,0,0,
0,0,0,0,0,0,0,0,0,0,0,0,2147484090,0,0,0
</chunk>
   <chunk x="16" y="-16" width="16" height="16">
0,0,0,0,0,0,0,0,0,0,0,0,0,0,0,0,
0,0,0,0,0,0,0,0,0,0,0,0,0,0,0,0,
0,0,0,0,0,0,0,0,0,0,0,0,0,0,0,0,
0,0,0,0,0,0,0,0,0,0,0,0,0,0,0,0,
0,0,410,0,0,0,0,0,0,0,0,410,0,0,0,0,
0,0,0,0,0,0,0,0,0,0,0,0,0,0,0,0,
0,0,233,0,0,0,0,0,0,0,0,0,0,0,0,0,
0,0,0,234,0,0,0,0,0,0,0,0,0,0,0,0,
0,0,0,0,0,0,0,0,0,0,0,0,0,0,0,0,
0,0,0,0,0,0,0,0,0,0,0,0,0,0,0,0,
0,0,0,0,0,0,0,0,0,0,0,0,0,0,0,0,
0,0,426,427,2147484074,0,0,0,0,0,0,0,0,0,0,0,
0,411,0,0,0,411,0,0,0,0,411,0,0,0,0,0,
0,0,0,0,0,0,0,0,0,0,0,0,0,0,0,0,
0,0,0,0,0,0,0,442,0,0,0,0,0,0,0,0,
0,0,0,0,0,0,0,0,458,0,0,0,0,0,0,0
</chunk>
   <chunk x="-32" y="0" width="16" height="16">
0,0,0,0,0,0,0,0,0,0,0,0,0,0,0,0,
0,0,0,0,0,0,0,0,0,0,0,0,0,0,0,0,
0,0,0,0,0,0,0,0,0,0,0,0,0,0,0,0,
0,0,0,0,0,0,0,0,0,0,0,0,0,0,0,0,
0,0,0,0,0,0,0,0,0,0,0,0,0,0,0,0,
0,0,0,0,0,0,0,0,0,0,0,0,0,0,0,0,
0,0,0,0,0,0,0,0,0,0,0,0,0,0,0,0,
0,0,0,0,0,0,0,0,0,0,0,0,0,0,0,0,
0,0,0,0,0,0,0,0,0,0,0,0,0,0,0,0,
0,0,0,0,0,0,0,0,0,0,0,0,0,0,0,0,
0,0,0,0,0,0,0,0,0,0,0,0,0,0,0,0,
0,0,0,0,0,0,0,0,0,0,0,0,0,0,0,0,
0,0,0,0,0,0,0,0,0,0,0,0,0,0,0,426,
0,0,0,0,0,0,0,0,0,0,0,0,0,0,0,0,
0,0,0,0,0,0,0,0,0,0,0,0,0,0,0,0,
0,0,0,0,0,0,0,0,0,0,0,0,0,0,0,0
</chunk>
   <chunk x="-16" y="0" width="16" height="16">
0,0,0,0,0,0,0,0,0,0,0,0,0,0,0,0,
0,0,0,0,0,0,0,0,0,0,0,0,0,0,0,0,
0,0,0,0,0,0,0,0,0,0,0,0,0,0,0,0,
0,0,0,0,0,0,0,0,0,0,0,0,0,0,0,0,
0,0,0,0,0,0,0,0,0,0,0,0,0,0,0,0,
0,0,0,0,0,0,0,0,0,0,0,0,0,0,0,0,
0,0,0,0,0,0,0,0,0,0,0,0,0,0,0,0,
0,0,0,0,0,0,0,0,0,0,0,0,0,0,0,0,
0,0,0,0,0,0,0,0,0,411,0,0,0,0,0,0,
0,0,0,0,0,0,0,0,0,0,0,0,0,0,0,0,
0,0,0,0,0,0,0,0,0,0,0,0,0,0,0,0,
0,0,0,0,0,0,0,0,0,0,0,0,0,0,0,0,
2147484074,0,0,0,0,0,0,0,0,0,0,0,0,0,0,0,
0,0,0,0,0,0,0,0,0,0,0,0,0,0,0,0,
0,0,0,0,0,0,0,0,0,0,0,0,0,0,0,0,
0,0,0,0,0,0,0,0,0,0,0,0,0,0,0,0
</chunk>
   <chunk x="0" y="0" width="16" height="16">
0,0,0,0,0,0,0,0,0,0,0,0,0,0,0,0,
0,0,0,0,0,0,0,0,0,0,0,0,0,0,0,0,
0,0,0,0,0,0,0,0,0,0,0,0,0,0,0,0,
0,0,0,0,0,0,0,0,0,410,0,0,0,0,0,0,
0,0,0,0,0,0,0,0,0,0,0,0,0,0,0,458,
0,0,0,0,0,0,0,0,0,0,0,0,0,0,0,0,
0,0,0,0,0,0,0,0,0,0,0,0,0,0,0,0,
0,0,0,0,0,0,0,0,0,0,0,0,0,2147484106,2147484090,0,
411,0,0,0,0,0,0,0,0,0,0,0,0,0,0,0,
0,0,0,0,0,0,0,0,0,0,0,0,0,0,0,0,
0,0,0,0,0,0,0,0,0,0,0,0,0,0,0,0,
0,0,0,0,0,0,0,0,0,0,0,0,0,0,0,0,
0,0,0,0,0,0,0,0,0,0,0,0,0,0,0,0,
0,0,0,0,0,0,426,427,2147484074,0,0,0,0,0,0,0,
0,0,0,0,0,0,0,0,0,0,0,0,0,0,0,0,
0,0,0,0,0,0,0,0,0,0,0,0,0,0,0,0
</chunk>
   <chunk x="16" y="0" width="16" height="16">
0,0,0,0,0,0,0,0,0,0,0,0,0,0,0,0,
0,0,0,0,0,0,0,0,0,0,0,0,0,0,0,0,
0,0,0,0,0,0,0,0,0,0,0,0,0,0,0,0,
0,0,410,0,0,0,0,0,0,0,0,410,0,0,0,0,
0,0,0,0,0,0,0,0,0,0,0,0,0,0,0,0,
0,0,0,0,0,0,0,0,0,0,460,0,0,0,0,0,
0,0,0,0,0,0,0,0,0,0,0,442,0,0,0,0,
0,0,458,0,0,0,0,2147484090,0,0,0,0,458,0,0,0,
0,0,0,0,0,0,0,0,0,0,0,0,0,0,0,0,
0,0,0,0,0,0,0,0,0,0,0,0,0,0,0,0,
0,0,0,0,0,0,0,0,0,0,0,0,0,0,0,0,
0,0,0,0,0,0,0,0,0,0,0,0,0,0,0,0,
0,0,0,0,0,0,0,0,0,0,0,0,0,0,0,0,
0,0,0,0,0,0,0,0,0,0,0,0,0,0,0,0,
0,0,0,0,0,0,0,0,0,0,0,0,0,0,0,0,
0,0,0,0,0,0,0,0,0,0,0,0,0,0,0,0
</chunk>
   <chunk x="-16" y="16" width="16" height="16">
0,0,0,0,0,0,0,0,0,0,0,0,0,0,0,0,
0,0,0,0,0,0,0,0,0,0,0,0,0,0,0,0,
0,0,0,0,0,0,0,0,0,0,0,0,0,0,0,0,
0,0,0,0,0,0,0,0,0,0,0,0,0,0,0,0,
0,0,0,0,0,0,0,0,0,0,0,0,0,0,0,0,
0,0,0,0,0,0,0,0,0,0,0,0,0,0,0,0,
0,0,0,0,0,0,0,0,0,0,0,0,0,0,0,0,
0,0,0,0,0,0,0,0,0,0,0,0,0,0,0,0,
0,0,0,0,0,0,0,0,0,0,0,0,0,0,0,0,
0,0,0,0,0,0,0,0,0,0,0,0,0,0,0,0,
0,0,0,0,0,0,0,0,0,0,0,0,0,0,0,0,
0,0,0,0,0,0,0,0,0,0,0,0,0,0,0,0,
0,0,0,0,0,0,0,0,0,0,0,0,0,0,0,0,
0,0,0,0,0,0,0,0,0,0,0,0,0,0,0,0,
0,0,0,0,0,0,0,0,0,0,0,0,0,0,0,0,
0,0,0,0,0,0,0,0,0,0,0,0,0,0,0,426
</chunk>
   <chunk x="0" y="16" width="16" height="16">
0,0,0,0,0,0,0,0,0,0,0,0,0,0,0,0,
0,0,0,0,0,0,0,0,0,0,0,0,0,0,0,0,
0,0,0,0,0,0,0,0,0,0,0,0,0,0,0,0,
0,0,0,0,0,0,0,0,0,0,0,0,0,0,0,0,
0,0,0,0,0,0,0,0,0,0,0,0,0,0,0,0,
0,0,0,0,0,0,0,0,0,0,0,0,0,0,0,0,
0,0,0,0,0,0,0,0,0,0,0,0,0,0,0,0,
0,0,0,0,0,0,0,0,0,0,0,0,0,0,0,0,
0,0,0,0,0,0,0,0,0,0,0,0,0,0,0,0,
0,0,0,0,0,0,0,0,0,0,0,0,0,0,0,0,
0,0,0,0,0,0,0,0,0,0,0,0,0,0,0,0,
0,0,0,0,0,0,0,0,0,0,0,0,0,0,0,0,
0,0,0,0,0,0,0,0,0,0,0,0,0,0,0,0,
0,0,0,0,0,0,0,0,0,0,0,0,0,0,0,0,
0,0,0,0,0,0,0,0,0,0,0,0,0,0,0,0,
427,2147484074,0,0,0,0,0,0,0,0,0,0,0,0,0,0
</chunk>
   <chunk x="16" y="16" width="16" height="16">
0,0,0,0,0,0,0,0,0,0,0,0,0,0,0,0,
0,0,0,0,0,0,0,0,0,0,0,0,0,0,0,0,
0,0,0,0,0,0,0,0,0,0,0,0,0,0,0,0,
0,0,0,0,0,0,0,0,0,0,0,0,0,0,0,0,
0,0,0,0,0,0,0,0,0,0,0,0,0,0,0,0,
0,0,0,0,0,0,0,0,0,0,0,0,0,0,0,0,
0,0,0,0,0,0,0,0,0,0,0,0,0,0,0,0,
0,0,0,0,0,0,0,0,0,0,0,0,0,0,0,0,
0,0,0,0,0,0,0,0,0,0,0,0,0,0,0,0,
0,0,0,0,0,0,0,0,0,0,0,0,0,0,0,0,
0,0,0,0,0,0,0,0,0,0,0,0,411,0,0,0,
0,0,0,0,0,0,0,0,0,0,0,0,0,0,0,0,
0,0,0,0,0,0,0,0,0,0,0,0,0,0,0,0,
0,0,0,0,0,0,0,0,0,0,0,0,0,0,0,0,
0,0,0,0,0,0,0,0,0,0,0,0,0,0,0,0,
0,0,0,0,0,0,0,0,0,0,0,0,0,0,0,0
</chunk>
   <chunk x="32" y="16" width="16" height="16">
0,0,0,0,0,0,0,0,0,0,0,0,0,0,0,0,
0,0,0,0,0,0,0,0,0,0,0,0,0,0,0,0,
0,0,0,0,0,0,0,0,0,0,0,0,0,0,0,0,
0,0,0,0,0,0,0,0,0,0,0,0,0,0,0,0,
0,0,0,0,0,0,0,0,0,0,0,0,0,0,0,0,
0,0,0,0,0,0,0,0,0,0,0,0,0,0,0,0,
0,0,0,0,0,0,0,0,0,0,0,0,0,0,0,0,
0,0,0,0,0,0,0,0,0,0,0,0,0,0,0,0,
0,0,0,0,0,0,0,0,0,0,0,0,0,0,0,0,
0,0,0,0,0,0,0,0,0,0,0,0,0,0,0,0,
0,411,0,0,0,0,0,0,0,0,0,0,0,0,0,0,
0,0,0,0,0,0,0,0,0,0,0,0,0,0,0,0,
0,0,0,0,0,0,0,0,0,0,0,0,0,0,0,0,
0,0,0,0,0,0,0,0,0,0,0,0,0,0,0,0,
0,0,0,0,0,0,0,0,0,0,0,0,0,0,0,0,
0,0,0,0,0,0,0,0,0,0,0,0,0,0,0,0
</chunk>
   <chunk x="0" y="48" width="16" height="16">
0,0,0,0,0,0,0,0,0,0,0,0,0,0,0,0,
0,0,0,0,0,0,0,0,0,0,0,0,0,0,0,0,
0,0,0,0,0,0,0,0,0,0,0,0,0,0,0,0,
0,0,0,0,0,0,0,0,0,0,0,0,0,0,0,0,
0,0,0,0,0,0,0,0,0,0,0,0,0,0,0,0,
0,429,0,0,0,0,429,0,0,0,0,0,0,0,0,0,
0,445,0,0,0,0,445,0,0,0,0,0,0,0,0,0,
0,0,0,0,0,0,0,0,0,0,0,0,0,0,0,0,
0,0,0,0,0,0,0,0,0,0,0,0,0,0,0,0,
0,0,0,0,0,0,0,0,0,0,0,0,0,0,0,0,
0,0,0,0,0,0,0,0,0,0,0,0,0,0,0,0,
0,0,0,0,0,0,0,0,0,0,0,0,0,0,0,0,
0,0,0,0,0,0,0,0,0,0,0,0,0,0,0,0,
0,0,0,0,0,0,0,0,0,0,0,0,0,0,0,0,
0,0,0,0,0,0,0,0,0,0,0,0,0,0,0,0,
0,0,0,0,0,0,0,0,0,0,0,0,0,0,0,0
</chunk>
   <chunk x="16" y="48" width="16" height="16">
0,0,0,0,0,0,0,0,0,0,0,0,0,0,0,0,
0,0,0,0,0,0,0,0,0,0,0,0,0,0,0,0,
0,0,0,0,0,0,0,0,0,0,0,0,0,0,0,0,
0,0,0,0,0,0,0,0,0,0,0,0,0,0,0,0,
0,0,0,0,0,0,0,0,0,0,0,0,0,0,0,0,
0,0,0,0,0,0,0,0,0,0,0,0,0,0,0,0,
0,0,0,0,0,0,0,0,0,0,0,0,0,0,0,0,
0,0,0,0,0,0,0,0,429,0,411,0,0,0,0,0,
0,0,0,0,0,0,0,0,445,0,0,0,0,429,0,0,
0,0,0,0,0,0,0,0,0,0,0,0,0,445,0,0,
0,0,0,0,0,0,0,0,0,0,0,0,0,0,0,0,
0,0,0,0,0,0,0,0,0,0,0,0,0,0,0,0,
0,0,0,0,0,0,0,0,0,0,0,0,0,0,0,0,
0,0,0,0,0,0,0,0,0,0,0,0,0,0,0,0,
0,0,0,0,0,0,0,0,0,0,0,0,0,0,0,0,
0,0,0,0,0,0,0,0,0,0,0,0,0,411,0,0
</chunk>
   <chunk x="32" y="48" width="16" height="16">
0,0,0,0,0,0,0,0,0,0,0,0,0,0,0,0,
0,0,0,0,0,0,0,0,0,0,0,0,0,0,0,0,
0,0,0,0,0,0,0,0,0,0,0,0,0,0,0,0,
0,0,0,0,0,0,0,0,0,0,0,0,428,411,0,0,
0,0,0,0,0,0,0,0,0,0,0,0,444,0,0,0,
0,0,0,0,0,0,0,0,0,0,0,0,0,0,0,0,
0,0,0,0,0,0,0,0,0,0,0,0,0,0,0,0,
411,0,429,0,0,0,0,0,0,0,0,0,0,0,0,0,
0,0,445,0,0,0,0,0,0,0,0,0,0,0,0,0,
0,0,0,0,0,0,0,0,0,0,0,0,0,0,0,0,
0,0,0,0,0,0,0,0,0,0,0,0,0,0,0,0,
0,0,0,0,0,0,0,0,0,0,0,0,0,0,0,0,
0,0,0,0,0,0,0,0,0,0,0,0,0,0,0,0,
0,0,0,0,0,0,0,0,0,0,0,0,0,0,0,0,
0,0,0,0,0,0,0,0,0,0,0,0,0,0,0,0,
0,0,0,0,0,0,0,0,0,0,0,0,0,0,0,0
</chunk>
   <chunk x="48" y="48" width="16" height="16">
0,0,0,0,0,0,0,0,0,0,0,0,0,0,0,0,
0,0,0,0,0,0,0,0,0,0,0,0,0,0,0,0,
0,0,0,0,0,0,0,0,0,0,0,0,0,0,0,0,
411,428,0,0,0,0,0,0,0,0,0,0,0,0,0,0,
0,444,0,0,0,0,0,0,0,0,0,0,0,0,0,0,
0,0,0,0,0,0,0,0,0,0,0,0,0,0,0,0,
0,0,0,0,0,0,0,0,0,0,0,0,0,0,0,0,
0,0,0,0,0,0,0,0,0,0,0,0,0,0,0,0,
0,0,0,0,0,0,0,0,0,0,0,0,0,0,0,0,
0,0,0,0,0,0,0,0,0,0,0,0,0,0,0,0,
0,0,0,0,0,0,0,0,0,0,0,0,0,0,0,0,
0,0,0,0,0,0,0,0,0,0,0,0,0,0,0,0,
0,0,0,0,0,0,0,0,0,0,0,0,0,0,0,0,
0,0,0,0,0,0,0,0,0,0,0,0,0,0,0,0,
0,0,0,0,0,0,0,0,0,0,0,0,0,0,0,0,
0,0,0,0,0,0,0,0,0,0,0,0,0,0,0,0
</chunk>
   <chunk x="0" y="64" width="16" height="16">
0,0,0,0,0,0,0,0,0,0,0,0,0,0,0,0,
0,0,0,0,0,0,0,0,0,0,0,0,0,0,0,0,
0,0,0,0,0,0,0,0,0,0,0,0,0,0,0,0,
0,0,0,0,0,0,0,0,0,0,0,0,0,0,0,0,
0,0,0,0,0,0,0,0,0,0,0,426,427,2147484074,0,0,
0,0,0,0,0,0,0,0,0,0,430,0,411,0,430,0,
0,0,0,0,0,0,0,0,0,0,446,0,0,0,446,0,
0,0,0,0,0,0,0,411,0,0,0,0,0,0,0,0,
0,0,0,0,0,0,0,0,0,0,0,0,0,0,0,0,
0,0,0,0,0,0,0,0,0,0,0,0,0,0,0,0,
0,0,0,0,0,0,0,0,0,0,0,0,0,0,0,0,
0,0,0,0,0,0,0,0,0,0,0,0,0,0,0,0,
0,0,0,0,0,0,0,0,0,0,0,0,0,0,0,0,
0,0,0,0,0,0,0,0,0,0,0,0,0,0,0,0,
0,0,0,0,0,0,0,0,0,0,0,0,0,0,0,0,
0,0,0,0,0,0,0,0,0,0,0,0,0,0,0,0
</chunk>
   <chunk x="16" y="64" width="16" height="16">
0,0,0,0,0,0,0,0,0,0,0,0,0,0,0,0,
0,0,0,0,0,0,0,0,0,0,0,0,0,0,0,0,
0,0,0,0,0,0,0,0,0,0,0,0,0,0,0,0,
426,2147484074,0,0,0,0,0,0,0,0,0,0,0,0,0,0,
0,0,0,0,0,0,0,0,0,0,0,0,0,0,0,0,
0,0,0,430,0,0,0,0,0,0,0,0,0,0,0,0,
0,0,0,446,0,411,0,0,0,0,0,0,0,0,0,0,
0,0,0,0,0,0,0,0,0,0,0,0,0,0,0,0,
0,0,0,0,0,0,0,0,0,0,0,0,0,0,0,0,
0,0,0,0,0,0,0,0,0,0,0,0,0,0,0,0,
0,0,0,0,0,0,0,0,0,0,0,0,0,0,0,0,
0,0,0,0,0,0,0,0,0,0,0,0,0,0,0,0,
0,0,0,0,0,0,0,0,0,0,0,0,0,0,0,0,
0,0,0,0,0,0,0,0,0,0,0,0,0,0,0,0,
0,0,0,0,0,0,0,0,0,0,0,0,0,0,0,0,
0,0,0,0,0,0,0,0,0,0,0,0,0,0,0,0
</chunk>
  </data>
 </layer>
 <layer id="29" name="Свет" width="100" height="100" opacity="0.1" offsetx="16" offsety="16">
  <data encoding="csv">
   <chunk x="-16" y="-16" width="16" height="16">
0,0,0,0,0,0,0,0,0,0,0,0,0,0,0,0,
0,0,0,0,0,0,0,0,0,0,0,0,0,0,0,0,
0,0,0,0,0,0,0,0,0,0,0,0,0,0,0,0,
0,0,0,0,0,0,0,0,0,0,0,0,0,0,0,0,
0,0,0,0,0,0,0,0,0,0,0,0,0,0,0,0,
0,0,0,0,0,0,0,0,0,0,0,0,0,0,0,0,
0,0,0,0,0,0,0,0,0,0,0,0,0,0,0,0,
0,0,0,0,0,0,0,0,0,0,0,0,0,0,0,0,
0,0,0,0,0,0,0,0,0,0,0,0,0,0,0,0,
0,0,0,0,0,0,0,0,0,416,417,0,0,0,416,417,
0,0,0,0,0,0,0,0,0,432,433,0,0,0,432,433,
0,0,0,0,416,417,0,0,0,0,0,0,0,0,0,0,
0,0,0,0,432,433,0,0,0,0,0,0,0,0,0,0,
0,0,0,0,0,0,0,0,0,0,0,0,0,0,0,0,
0,0,0,0,0,0,0,0,0,0,0,0,0,0,0,0,
0,0,0,0,0,0,0,0,0,0,0,0,0,0,0,0
</chunk>
   <chunk x="0" y="-16" width="16" height="16">
0,0,0,0,0,0,0,0,0,0,0,0,0,0,0,0,
0,0,0,0,0,0,0,0,0,0,0,0,0,0,0,0,
0,0,0,0,0,0,0,0,0,0,0,0,0,0,0,0,
0,0,0,0,0,0,0,0,0,0,0,0,0,0,0,0,
0,0,0,0,0,0,0,0,0,0,0,0,0,0,0,0,
0,0,0,0,0,0,0,0,0,0,0,0,0,0,0,0,
0,0,0,0,0,0,0,0,0,0,0,0,0,0,0,0,
0,0,0,0,0,0,0,0,0,0,0,0,0,0,0,0,
0,0,0,0,0,0,0,0,0,0,0,0,0,0,0,0,
0,0,0,0,0,0,0,0,0,0,0,0,0,0,0,0,
0,0,0,0,0,0,0,0,0,0,0,0,0,0,0,0,
0,0,416,417,0,0,0,416,417,0,0,416,417,0,0,0,
0,0,432,433,0,0,0,432,433,0,0,432,433,0,0,0,
0,0,0,0,0,0,0,0,0,0,0,0,0,0,0,0,
0,0,0,0,0,0,0,0,0,0,0,0,0,0,0,0,
0,0,0,0,0,0,0,0,0,0,0,0,0,0,0,0
</chunk>
   <chunk x="16" y="-16" width="16" height="16">
0,0,0,0,0,0,0,0,0,0,0,0,0,0,0,0,
0,0,0,0,0,0,0,0,0,0,0,0,0,0,0,0,
0,0,0,0,0,0,0,0,0,0,0,0,0,0,0,0,
0,0,0,0,0,0,0,0,0,0,0,0,0,0,0,0,
0,0,0,0,0,0,0,0,0,0,0,0,0,0,0,0,
0,0,0,0,0,0,0,0,0,0,0,0,0,0,0,0,
0,0,0,0,0,0,0,0,0,0,0,0,0,0,0,0,
0,0,0,0,0,0,0,0,0,0,0,0,0,0,0,0,
0,0,0,0,0,0,0,0,0,0,0,0,0,0,0,0,
0,0,0,0,0,0,0,0,0,0,0,0,0,0,0,0,
0,0,0,0,0,0,0,0,0,0,0,0,0,0,0,0,
416,417,0,0,416,417,0,0,0,416,417,0,0,0,0,0,
432,433,0,0,432,433,0,0,0,432,433,0,0,0,0,0,
0,0,0,0,0,0,0,0,0,0,0,0,0,0,0,0,
0,0,0,0,0,0,0,0,0,0,0,0,0,0,0,0,
0,0,0,0,0,0,0,0,0,0,0,0,0,0,0,0
</chunk>
   <chunk x="-16" y="0" width="16" height="16">
0,0,0,0,0,0,0,0,0,0,0,0,0,0,0,0,
0,0,0,0,0,0,0,0,0,0,0,0,0,0,0,0,
0,0,0,0,0,0,0,0,0,0,0,0,0,0,0,0,
0,0,0,0,0,0,0,0,0,0,0,0,0,0,0,0,
0,0,0,0,0,0,0,0,0,0,0,0,0,0,0,0,
0,0,0,0,0,0,0,0,0,0,0,0,0,0,0,0,
0,0,0,0,0,0,0,0,0,0,0,0,0,0,0,0,
0,0,0,0,0,0,0,0,416,417,0,0,0,0,0,416,
0,0,0,0,0,0,0,0,432,433,0,0,0,0,0,432,
0,0,0,0,0,0,0,0,0,0,0,0,0,0,0,0,
0,0,0,0,0,0,0,0,0,0,0,0,0,0,0,0,
0,0,0,0,0,0,0,0,0,0,0,0,0,0,0,0,
0,0,0,0,0,0,0,0,0,0,0,0,0,0,0,0,
0,0,0,0,0,0,0,0,0,0,0,0,0,0,0,0,
0,0,0,0,0,0,0,0,0,0,0,0,0,0,0,0,
0,0,0,0,0,0,0,0,0,0,0,0,0,0,0,0
</chunk>
   <chunk x="0" y="0" width="16" height="16">
0,0,0,0,0,0,0,0,0,0,0,0,0,0,0,0,
0,0,0,0,0,0,0,0,0,0,0,0,0,0,0,0,
0,0,0,0,0,0,0,0,0,0,0,0,0,0,0,0,
0,0,0,0,0,0,0,0,0,0,0,0,0,0,0,0,
0,0,0,0,0,0,0,0,0,0,0,0,0,0,0,0,
0,0,0,0,0,0,0,0,0,0,0,0,0,0,0,0,
0,0,0,0,0,0,0,0,0,0,0,0,0,0,0,0,
417,0,0,0,0,0,0,0,0,0,0,0,0,0,0,0,
433,0,0,0,0,0,0,0,0,0,0,0,0,0,0,0,
0,0,0,0,0,0,0,0,0,0,0,0,0,0,0,0,
0,0,0,0,0,0,0,0,0,0,0,0,0,0,0,0,
0,0,0,0,0,0,0,0,0,0,0,0,0,0,0,0,
0,0,0,0,0,0,0,0,0,0,0,0,0,0,0,0,
0,0,0,0,0,0,0,0,0,0,0,0,0,0,0,0,
0,0,0,0,0,0,0,0,0,0,0,0,0,0,0,0,
0,0,0,0,0,0,0,0,0,0,0,0,0,0,0,0
</chunk>
   <chunk x="16" y="16" width="16" height="16">
0,0,0,0,0,0,0,0,0,0,0,0,0,0,0,0,
0,0,0,0,0,0,0,0,0,0,0,0,0,0,0,0,
0,0,0,0,0,0,0,0,0,0,0,0,0,0,0,0,
0,0,0,0,0,0,0,0,0,0,0,0,0,0,0,0,
0,0,0,0,0,0,0,0,0,0,0,0,0,0,0,0,
0,0,0,0,0,0,0,0,0,0,0,0,0,0,0,0,
0,0,0,0,0,0,0,0,0,0,0,0,0,0,0,0,
0,0,0,0,0,0,0,0,0,0,0,0,0,0,0,0,
0,0,0,0,0,0,0,0,0,0,0,0,0,0,0,0,
0,0,0,0,0,0,0,0,0,0,0,416,417,0,0,0,
0,0,0,0,0,0,0,0,0,0,0,432,433,0,0,0,
0,0,0,0,0,0,0,0,0,0,0,0,0,0,0,0,
0,0,0,0,0,0,0,0,0,0,0,0,0,0,0,0,
0,0,0,0,0,0,0,0,0,0,0,0,0,0,0,0,
0,0,0,0,0,0,0,0,0,0,0,0,0,0,0,0,
0,0,0,0,0,0,0,0,0,0,0,0,0,0,0,0
</chunk>
   <chunk x="32" y="16" width="16" height="16">
0,0,0,0,0,0,0,0,0,0,0,0,0,0,0,0,
0,0,0,0,0,0,0,0,0,0,0,0,0,0,0,0,
0,0,0,0,0,0,0,0,0,0,0,0,0,0,0,0,
0,0,0,0,0,0,0,0,0,0,0,0,0,0,0,0,
0,0,0,0,0,0,0,0,0,0,0,0,0,0,0,0,
0,0,0,0,0,0,0,0,0,0,0,0,0,0,0,0,
0,0,0,0,0,0,0,0,0,0,0,0,0,0,0,0,
0,0,0,0,0,0,0,0,0,0,0,0,0,0,0,0,
0,0,0,0,0,0,0,0,0,0,0,0,0,0,0,0,
416,417,0,0,0,0,0,0,0,0,0,0,0,0,0,0,
432,433,0,0,0,0,0,0,0,0,0,0,0,0,0,0,
0,0,0,0,0,0,0,0,0,0,0,0,0,0,0,0,
0,0,0,0,0,0,0,0,0,0,0,0,0,0,0,0,
0,0,0,0,0,0,0,0,0,0,0,0,0,0,0,0,
0,0,0,0,0,0,0,0,0,0,0,0,0,0,0,0,
0,0,0,0,0,0,0,0,0,0,0,0,0,0,0,0
</chunk>
   <chunk x="16" y="48" width="16" height="16">
0,0,0,0,0,0,0,0,0,0,0,0,0,0,0,0,
0,0,0,0,0,0,0,0,0,0,0,0,0,0,0,0,
0,0,0,0,0,0,0,0,0,0,0,0,0,0,0,0,
0,0,0,0,0,0,0,0,0,0,0,0,0,0,0,0,
0,0,0,0,0,0,0,0,0,0,0,0,0,0,0,0,
0,0,0,0,0,0,0,0,0,0,0,0,0,0,0,0,
0,0,0,0,0,0,0,0,0,416,417,0,0,0,0,416,
0,0,0,0,0,0,0,0,0,432,433,0,0,0,0,432,
0,0,0,0,0,0,0,0,0,0,0,0,0,0,0,0,
0,0,0,0,0,0,0,0,0,0,0,0,0,0,0,0,
0,0,0,0,0,0,0,0,0,0,0,0,0,0,0,0,
0,0,0,0,0,0,0,0,0,0,0,0,0,0,0,0,
0,0,0,0,0,0,0,0,0,0,0,0,0,0,0,0,
0,0,0,0,0,0,0,0,0,0,0,0,0,0,0,0,
0,0,0,0,0,0,0,0,0,0,0,0,416,417,0,0,
0,0,0,0,0,0,0,0,0,0,0,0,432,433,0,0
</chunk>
   <chunk x="32" y="48" width="16" height="16">
0,0,0,0,0,0,0,0,0,0,0,0,0,0,0,0,
0,0,0,0,0,0,0,0,0,0,0,0,0,0,0,0,
0,0,0,0,0,0,0,0,0,0,0,0,416,417,0,416,
0,0,0,0,0,0,0,0,0,0,0,0,432,433,0,432,
0,0,0,0,0,0,0,0,0,0,0,0,0,0,0,0,
0,0,0,0,0,0,0,0,0,0,0,0,0,0,0,0,
417,0,0,0,0,0,0,0,0,0,0,0,0,0,0,0,
433,0,0,0,0,0,0,0,0,0,0,0,0,0,0,0,
0,0,0,0,0,0,0,0,0,0,0,0,0,0,0,0,
0,0,0,0,0,0,0,0,0,0,0,0,0,0,0,0,
0,0,0,0,0,0,0,0,0,0,0,0,0,0,0,0,
0,0,0,0,0,0,0,0,0,0,0,0,0,0,0,0,
0,0,0,0,0,0,0,0,0,0,0,0,0,0,0,0,
0,0,0,0,0,0,0,0,0,0,0,0,0,0,0,0,
0,0,0,0,0,0,0,0,0,0,0,0,0,0,0,0,
0,0,0,0,0,0,0,0,0,0,0,0,0,0,0,0
</chunk>
   <chunk x="48" y="48" width="16" height="16">
0,0,0,0,0,0,0,0,0,0,0,0,0,0,0,0,
0,0,0,0,0,0,0,0,0,0,0,0,0,0,0,0,
417,0,0,0,0,0,0,0,0,0,0,0,0,0,0,0,
433,0,0,0,0,0,0,0,0,0,0,0,0,0,0,0,
0,0,0,0,0,0,0,0,0,0,0,0,0,0,0,0,
0,0,0,0,0,0,0,0,0,0,0,0,0,0,0,0,
0,0,0,0,0,0,0,0,0,0,0,0,0,0,0,0,
0,0,0,0,0,0,0,0,0,0,0,0,0,0,0,0,
0,0,0,0,0,0,0,0,0,0,0,0,0,0,0,0,
0,0,0,0,0,0,0,0,0,0,0,0,0,0,0,0,
0,0,0,0,0,0,0,0,0,0,0,0,0,0,0,0,
0,0,0,0,0,0,0,0,0,0,0,0,0,0,0,0,
0,0,0,0,0,0,0,0,0,0,0,0,0,0,0,0,
0,0,0,0,0,0,0,0,0,0,0,0,0,0,0,0,
0,0,0,0,0,0,0,0,0,0,0,0,0,0,0,0,
0,0,0,0,0,0,0,0,0,0,0,0,0,0,0,0
</chunk>
   <chunk x="0" y="64" width="16" height="16">
0,0,0,0,0,0,0,0,0,0,0,0,0,0,0,0,
0,0,0,0,0,0,0,0,0,0,0,0,0,0,0,0,
0,0,0,0,0,0,0,0,0,0,0,0,0,0,0,0,
0,0,0,0,0,0,0,0,0,0,0,0,0,0,0,0,
0,0,0,0,0,0,0,0,0,0,0,416,417,0,0,0,
0,0,0,0,0,0,0,0,0,0,0,432,433,0,0,0,
0,0,0,0,0,0,416,417,0,0,0,0,0,0,0,0,
0,0,0,0,0,0,432,433,0,0,0,0,0,0,0,0,
0,0,0,0,0,0,0,0,0,0,0,0,0,0,0,0,
0,0,0,0,0,0,0,0,0,0,0,0,0,0,0,0,
0,0,0,0,0,0,0,0,0,0,0,0,0,0,0,0,
0,0,0,0,0,0,0,0,0,0,0,0,0,0,0,0,
0,0,0,0,0,0,0,0,0,0,0,0,0,0,0,0,
0,0,0,0,0,0,0,0,0,0,0,0,0,0,0,0,
0,0,0,0,0,0,0,0,0,0,0,0,0,0,0,0,
0,0,0,0,0,0,0,0,0,0,0,0,0,0,0,0
</chunk>
   <chunk x="16" y="64" width="16" height="16">
0,0,0,0,0,0,0,0,0,0,0,0,0,0,0,0,
0,0,0,0,0,0,0,0,0,0,0,0,0,0,0,0,
0,0,0,0,0,0,0,0,0,0,0,0,0,0,0,0,
0,0,0,0,0,0,0,0,0,0,0,0,0,0,0,0,
0,0,0,0,0,0,0,0,0,0,0,0,0,0,0,0,
0,0,0,0,416,417,0,0,0,0,0,0,0,0,0,0,
0,0,0,0,432,433,0,0,0,0,0,0,0,0,0,0,
0,0,0,0,0,0,0,0,0,0,0,0,0,0,0,0,
0,0,0,0,0,0,0,0,0,0,0,0,0,0,0,0,
0,0,0,0,0,0,0,0,0,0,0,0,0,0,0,0,
0,0,0,0,0,0,0,0,0,0,0,0,0,0,0,0,
0,0,0,0,0,0,0,0,0,0,0,0,0,0,0,0,
0,0,0,0,0,0,0,0,0,0,0,0,0,0,0,0,
0,0,0,0,0,0,0,0,0,0,0,0,0,0,0,0,
0,0,0,0,0,0,0,0,0,0,0,0,0,0,0,0,
0,0,0,0,0,0,0,0,0,0,0,0,0,0,0,0
</chunk>
  </data>
 </layer>
 <layer id="22" name="Особое" width="100" height="100">
  <data encoding="csv">
   <chunk x="16" y="-16" width="16" height="16">
0,0,0,0,0,0,0,0,0,0,0,0,0,0,0,0,
0,0,0,0,0,0,0,0,0,0,0,0,0,0,0,0,
0,0,0,0,0,0,0,0,0,0,0,0,0,0,0,0,
0,0,0,0,0,0,0,0,0,0,0,0,0,0,0,0,
0,0,0,0,0,0,0,0,0,0,0,0,0,0,0,0,
0,0,0,0,0,0,0,0,0,0,0,0,0,0,0,0,
0,0,0,235,0,0,0,0,0,0,0,0,0,0,0,0,
0,0,0,0,0,0,0,0,0,0,0,0,0,0,0,0,
0,0,0,0,0,0,0,0,0,0,0,0,0,0,0,0,
0,0,0,0,0,0,0,0,0,0,0,0,0,0,0,0,
0,0,0,0,0,0,0,0,0,0,0,0,0,0,0,0,
0,0,0,0,0,0,0,0,0,0,0,0,0,0,0,0,
0,0,0,0,0,0,0,0,0,0,0,0,0,0,0,0,
0,0,0,0,0,0,0,0,0,0,0,0,0,0,0,0,
0,0,0,0,0,0,0,0,0,0,0,0,0,0,0,0,
0,0,0,0,0,0,0,0,0,0,0,0,0,0,0,0
</chunk>
   <chunk x="0" y="0" width="16" height="16">
0,0,0,0,0,0,0,0,0,0,0,0,0,0,0,0,
0,0,0,0,0,0,0,0,0,0,0,0,0,0,0,0,
0,0,0,0,0,0,0,0,0,0,0,0,0,0,0,0,
0,0,0,0,0,0,0,0,0,0,0,0,0,0,0,0,
0,0,0,0,0,0,0,0,0,0,0,0,0,0,0,0,
0,0,0,0,0,0,0,0,0,0,0,0,0,0,0,0,
0,0,0,0,0,0,0,0,0,0,0,0,0,0,0,0,
0,0,0,0,0,0,0,0,0,0,0,0,0,0,0,0,
0,0,0,0,0,0,0,0,0,0,0,0,0,0,0,0,
0,0,0,0,0,0,0,0,0,0,0,0,0,0,0,0,
0,0,0,0,0,0,0,0,0,0,0,0,0,0,0,0,
0,0,0,0,0,0,0,0,0,0,0,0,0,0,0,0,
0,0,0,0,0,0,0,0,0,0,0,0,0,0,0,0,
0,0,0,235,0,0,0,0,0,0,0,0,0,0,0,0,
0,0,0,0,0,0,0,0,0,0,0,0,0,0,0,0,
0,0,0,0,0,0,0,0,0,0,0,0,0,0,0,0
</chunk>
   <chunk x="16" y="48" width="16" height="16">
0,0,0,0,0,0,0,0,0,0,0,0,0,0,0,0,
0,0,0,0,0,0,0,0,0,0,0,0,0,0,0,0,
0,0,0,0,0,0,0,0,0,0,0,0,0,0,0,0,
0,0,0,0,0,0,0,0,0,0,0,0,0,0,0,0,
0,0,0,0,0,0,0,0,0,0,0,0,0,0,0,0,
0,0,0,0,0,0,0,0,0,0,0,0,0,0,0,0,
0,0,0,0,0,0,0,0,0,0,0,0,0,0,0,0,
0,0,0,0,0,0,0,0,0,0,0,0,0,0,0,0,
0,0,0,0,0,0,0,0,0,0,0,0,0,0,0,0,
0,0,0,0,0,0,0,0,0,0,0,0,0,0,0,0,
0,0,0,0,0,0,0,0,0,0,0,0,0,0,0,0,
0,0,0,0,0,0,0,0,0,0,0,0,0,0,0,140,
0,0,0,0,0,0,0,0,0,0,0,0,0,0,0,0,
0,0,0,0,0,0,0,0,0,0,0,0,0,0,0,0,
0,0,0,0,0,0,0,0,0,0,0,0,0,0,0,0,
0,0,0,0,0,0,0,0,0,0,124,0,0,0,0,0
</chunk>
   <chunk x="32" y="48" width="16" height="16">
0,0,0,0,0,0,0,0,0,0,0,0,0,0,0,0,
0,124,0,0,0,0,0,0,0,0,0,0,0,0,0,0,
0,0,0,0,0,0,0,0,0,0,0,0,0,0,0,0,
0,0,140,0,0,0,0,0,0,0,0,0,0,0,0,0,
0,0,0,0,0,0,0,0,0,0,0,0,0,0,0,0,
0,0,0,0,0,0,0,0,0,0,0,0,0,0,0,0,
0,0,0,0,0,0,0,0,0,0,0,0,0,0,0,0,
0,0,0,0,0,0,0,0,0,0,0,0,0,0,0,0,
0,0,0,0,0,0,0,0,0,0,0,140,0,0,0,140,
0,0,0,0,0,0,0,0,0,0,0,0,0,0,0,124,
0,0,0,0,0,0,0,0,0,0,0,0,0,0,140,0,
0,0,0,0,0,0,140,0,0,0,0,0,0,0,0,124,
0,0,0,0,0,0,0,0,0,0,0,0,0,0,0,0,
0,0,0,0,0,0,0,0,0,0,0,0,0,0,0,0,
0,0,0,0,0,0,0,124,0,0,0,0,0,0,0,0,
0,0,0,0,0,0,0,0,0,0,0,0,0,0,0,0
</chunk>
   <chunk x="48" y="48" width="16" height="16">
0,0,0,0,0,0,0,0,0,0,0,0,0,0,0,0,
0,0,0,0,0,0,0,0,0,0,0,0,0,0,0,0,
0,0,0,0,0,0,0,0,0,0,0,0,0,0,0,0,
0,0,0,0,0,0,0,0,0,0,0,0,0,0,0,0,
0,0,0,0,0,0,0,0,0,0,0,0,0,0,0,0,
0,0,0,0,0,0,0,0,0,0,0,0,0,0,0,0,
0,0,0,0,0,0,0,0,0,0,0,0,0,0,0,0,
0,0,0,0,0,0,0,0,0,0,0,0,0,0,0,0,
140,0,0,0,0,0,0,0,0,0,0,0,0,0,0,0,
0,0,0,0,0,0,0,0,0,0,0,0,0,0,0,0,
0,0,0,0,0,0,0,0,0,0,0,0,0,0,0,0,
0,0,0,0,0,0,0,0,0,0,0,0,0,0,0,0,
0,0,0,0,0,0,0,0,0,0,0,0,0,0,0,0,
0,0,0,0,0,0,0,0,0,0,0,0,0,0,0,0,
0,0,0,0,0,0,0,0,0,0,0,0,0,0,0,0,
0,0,0,0,0,0,0,0,0,0,0,0,0,0,0,0
</chunk>
   <chunk x="16" y="64" width="16" height="16">
0,0,0,0,0,0,0,0,0,0,0,0,0,0,0,0,
0,0,0,0,0,0,0,0,0,140,0,0,0,0,0,0,
0,0,0,0,0,0,0,0,0,0,0,0,0,124,0,0,
0,0,0,0,0,0,0,0,0,0,0,0,0,0,0,0,
0,0,0,0,0,0,0,0,0,0,0,0,0,0,0,0,
0,0,0,0,0,0,0,0,0,0,0,0,0,0,0,0,
0,0,0,0,0,0,0,0,0,0,0,0,0,0,0,0,
0,0,0,0,0,0,0,0,0,140,0,0,0,0,0,0,
0,0,0,0,0,140,0,0,0,0,0,0,0,0,0,0,
0,0,0,0,0,0,0,0,124,0,0,0,0,0,0,0,
0,0,0,0,0,0,0,0,0,0,0,0,0,0,0,0,
0,0,0,0,0,0,0,0,0,0,0,0,0,0,0,0,
0,0,0,0,0,0,0,0,0,0,0,0,0,0,0,0,
0,0,0,0,0,0,0,0,0,0,0,0,0,0,0,0,
0,0,0,0,0,0,0,0,0,0,0,0,0,0,0,0,
0,0,0,0,0,0,0,0,0,0,0,0,0,0,0,0
</chunk>
  </data>
 </layer>
 <layer id="11" name="Стены верх" width="100" height="100">
  <data encoding="csv">
   <chunk x="-32" y="-32" width="16" height="16">
0,0,0,0,0,0,0,0,0,0,0,0,0,0,0,0,
0,0,0,0,0,0,0,0,0,0,0,0,0,0,0,0,
0,0,0,0,0,0,0,0,0,0,0,0,0,0,0,0,
0,0,0,5,6,6,6,58,6,6,58,58,6,6,6,6,
0,0,5,25,0,0,0,0,0,0,0,0,0,0,0,0,
0,0,21,0,0,0,0,0,0,0,0,0,0,0,0,0,
0,13,25,0,0,0,0,0,0,0,0,0,0,0,0,0,
0,0,0,0,0,0,0,0,0,0,0,0,0,0,0,0,
0,0,0,0,0,0,0,0,0,0,0,0,0,0,0,0,
0,0,0,0,0,0,0,0,0,0,0,0,0,0,0,0,
0,0,0,0,0,0,0,0,0,8,38,38,38,38,38,9,
0,0,0,0,0,0,0,0,0,24,6,6,58,6,6,25,
0,3221225486,9,0,0,0,0,0,0,0,0,0,0,0,0,0,
0,0,21,0,0,0,0,0,0,0,0,0,0,0,0,0,
0,0,21,0,0,0,0,0,0,0,0,8,38,9,0,0,
0,0,21,0,0,0,0,0,0,0,0,23,0,21,0,0
</chunk>
   <chunk x="-16" y="-32" width="16" height="16">
0,0,0,0,0,0,0,0,0,0,0,0,0,0,0,0,
0,0,0,0,0,0,0,0,0,0,0,0,0,0,0,0,
0,0,0,0,0,0,0,0,0,0,0,0,0,0,0,0,
6,6,7,0,0,0,0,0,0,0,0,0,0,0,0,0,
0,0,24,7,0,0,0,0,0,0,0,0,0,0,0,0,
0,0,0,23,0,0,0,0,0,0,0,0,0,0,0,0,
0,0,0,23,0,0,0,0,0,0,0,0,0,0,0,0,
0,0,0,23,0,0,0,0,0,0,0,0,0,0,0,0,
0,0,0,23,0,0,0,0,0,0,0,0,0,0,0,0,
0,0,0,23,0,0,0,0,0,0,0,0,0,0,0,0,
0,0,0,23,0,0,0,0,0,0,0,0,0,0,0,0,
0,0,0,24,7,0,0,0,0,0,0,0,0,0,0,0,
0,0,0,0,24,7,0,0,0,0,0,0,0,0,0,0,
0,0,0,0,0,23,0,0,0,0,0,0,0,0,0,0,
0,0,0,0,0,23,0,0,0,149,150,150,150,150,150,150,
0,0,0,0,0,23,0,0,0,165,0,0,0,0,0,0
</chunk>
   <chunk x="0" y="-32" width="16" height="16">
0,0,0,0,0,0,0,0,0,0,0,0,0,0,0,0,
0,0,0,0,0,0,0,0,0,0,0,0,0,0,0,0,
0,0,0,0,0,0,0,0,0,0,0,0,0,0,0,0,
0,0,0,0,0,0,0,0,0,0,0,0,0,0,0,0,
0,0,0,0,0,0,0,0,0,0,0,0,0,0,0,0,
0,0,0,0,0,0,0,0,0,0,0,0,0,0,0,0,
0,0,0,0,0,0,0,0,0,0,0,0,0,0,0,0,
0,0,0,0,0,0,0,0,0,0,0,0,0,0,0,0,
0,0,0,0,0,0,0,0,0,0,0,0,0,0,0,0,
0,0,0,0,0,0,0,0,0,0,0,0,0,0,0,0,
0,0,0,0,0,0,0,0,0,0,0,0,0,0,0,0,
0,0,0,0,0,0,0,0,0,0,0,0,0,0,0,0,
0,0,0,0,0,0,0,0,0,0,0,0,0,0,0,0,
0,0,0,0,0,0,0,0,0,0,0,0,0,0,0,0,
151,0,0,0,0,0,0,0,0,0,0,0,0,0,0,0,
167,0,0,0,0,0,0,0,0,0,0,0,0,0,0,0
</chunk>
   <chunk x="-32" y="-16" width="16" height="16">
0,0,21,0,0,0,0,0,0,0,0,24,6,25,0,0,
0,0,21,0,0,0,0,0,0,0,0,0,0,0,0,0,
0,0,21,0,0,0,0,0,0,0,0,0,0,0,0,0,
0,0,21,0,0,0,0,0,0,0,0,0,0,0,0,0,
0,0,21,0,0,0,0,0,0,0,0,0,0,0,0,0,
0,0,21,0,0,0,0,0,0,0,0,0,0,0,0,0,
0,0,37,9,0,0,0,0,0,0,0,0,0,0,0,0,
0,0,0,37,38,9,0,0,0,0,0,0,0,0,0,0,
0,0,0,0,0,37,38,38,38,38,38,38,38,38,38,38,
0,0,0,0,0,0,0,0,0,0,0,0,0,0,0,0,
0,0,0,0,0,0,0,0,0,0,0,0,0,0,0,149,
0,0,0,0,0,0,0,0,0,0,0,0,0,0,0,165,
0,0,0,0,0,0,0,0,0,0,0,0,0,0,0,165,
0,0,0,0,0,0,0,0,0,0,0,0,0,0,0,165,
0,0,0,0,0,0,0,0,0,0,0,0,0,0,0,165,
0,0,0,0,0,0,0,0,0,0,0,0,0,0,0,165
</chunk>
   <chunk x="-16" y="-16" width="16" height="16">
0,0,0,0,0,23,0,0,0,165,0,0,0,0,0,0,
0,0,0,0,0,23,0,0,0,165,0,0,0,0,0,0,
0,0,0,0,0,23,0,0,0,165,0,0,0,0,0,0,
0,0,0,0,0,23,0,0,0,165,0,0,0,0,0,0,
0,0,0,0,0,23,0,0,0,165,0,0,0,0,0,0,
0,0,0,0,0,23,0,0,0,165,0,0,0,0,0,0,
0,0,0,0,0,23,0,0,0,165,0,0,0,0,0,0,
0,0,0,0,0,23,0,0,0,181,182,153,0,0,152,182,
9,0,0,8,38,39,0,149,150,150,150,169,307,308,168,150,
21,0,0,23,0,0,0,165,0,0,0,0,0,0,0,0,
169,307,308,168,150,150,150,169,0,0,0,0,0,0,0,0,
0,0,0,0,0,0,0,0,0,0,0,0,0,0,0,0,
0,0,0,0,0,0,0,0,0,0,0,0,0,0,0,0,
0,0,0,0,0,0,0,0,0,0,0,0,0,0,0,0,
0,0,0,0,0,0,0,0,0,0,0,0,0,0,0,0,
0,0,0,0,0,0,0,0,0,0,0,0,0,0,0,0
</chunk>
   <chunk x="0" y="-16" width="16" height="16">
167,0,0,0,0,0,0,0,0,0,0,0,0,0,0,0,
167,0,0,0,0,0,0,0,0,0,0,0,0,0,0,0,
167,0,0,149,150,150,150,150,150,150,150,151,149,150,150,150,
167,0,0,165,0,0,0,0,0,0,0,167,165,0,0,0,
167,0,0,165,0,0,0,0,0,0,0,167,165,0,0,0,
167,0,0,165,0,0,0,0,0,0,0,167,165,0,0,0,
167,0,0,165,0,0,0,0,0,0,0,167,165,0,0,0,
183,0,0,165,0,0,0,0,0,0,0,167,165,0,0,0,
150,150,151,165,0,0,0,0,0,0,0,167,165,0,0,0,
0,0,167,181,153,0,0,152,182,182,182,183,181,153,0,0,
0,0,168,150,169,299,2147483947,168,150,150,150,150,150,169,299,2147483947,
0,0,0,0,0,0,0,0,0,0,0,0,0,0,0,0,
0,0,0,0,0,0,0,0,0,0,0,0,0,0,0,0,
0,0,0,0,0,0,0,0,0,0,0,0,0,0,0,0,
0,0,0,0,0,0,0,0,0,0,0,0,0,0,0,0,
0,0,0,0,0,0,0,0,0,0,0,0,0,0,0,0
</chunk>
   <chunk x="16" y="-16" width="16" height="16">
0,0,0,0,0,0,0,0,0,0,0,0,0,0,0,0,
0,0,0,0,0,0,0,0,0,0,0,0,0,0,0,0,
150,150,150,283,151,149,150,150,150,150,150,150,150,151,0,0,
0,0,0,0,167,165,0,0,0,0,0,0,0,167,0,0,
0,0,0,0,167,165,0,0,0,0,0,0,0,167,0,0,
0,0,0,0,167,165,0,0,0,0,0,0,0,167,0,0,
0,0,0,0,167,165,0,0,0,0,0,0,0,167,0,0,
0,0,0,0,167,165,0,0,0,0,0,0,0,167,0,0,
0,0,0,0,167,165,0,0,0,0,0,0,0,167,0,0,
152,182,182,182,183,181,153,0,0,152,182,182,182,183,0,0,
168,150,150,150,150,150,169,299,2147483947,168,150,150,150,151,0,0,
0,0,0,0,0,0,0,0,0,0,0,0,0,167,0,0,
0,0,0,0,0,0,0,0,0,0,0,0,0,167,0,0,
0,0,0,0,0,0,0,0,0,0,0,0,0,167,0,0,
0,0,0,0,0,0,0,0,0,0,0,0,0,167,0,0,
0,0,0,0,0,0,0,0,0,0,0,0,0,167,0,0
</chunk>
   <chunk x="-32" y="0" width="16" height="16">
0,0,0,0,0,0,0,0,0,0,0,0,0,0,0,181,
0,0,0,0,0,0,0,0,0,149,150,150,150,150,283,150,
0,0,0,0,0,0,0,0,149,169,0,0,0,0,0,0,
0,0,0,0,0,0,0,0,165,0,0,0,0,0,0,0,
0,0,0,0,0,0,0,0,165,0,0,0,0,0,0,0,
0,0,0,0,0,0,0,0,165,0,0,0,0,0,0,0,
0,0,0,0,0,0,0,0,165,0,0,0,0,0,0,0,
0,0,0,0,0,0,0,0,165,0,0,0,0,0,0,0,
0,0,0,0,0,0,0,0,165,0,0,0,0,0,0,0,
0,0,0,0,0,0,0,0,181,153,0,0,0,0,0,0,
0,0,0,0,0,0,0,0,0,181,182,153,0,0,152,182,
0,0,0,0,0,0,0,0,0,149,150,169,297,298,168,150,
0,0,0,0,0,0,0,0,0,165,0,0,0,0,0,0,
0,0,0,0,0,0,0,0,0,165,0,0,0,0,0,0,
0,0,0,0,0,0,0,0,0,165,0,0,0,0,0,0,
0,0,0,0,0,0,0,0,0,165,0,0,0,0,0,0
</chunk>
   <chunk x="-16" y="0" width="16" height="16">
182,182,182,182,182,182,182,153,0,0,0,0,0,0,0,0,
151,0,0,0,0,0,0,165,0,0,0,0,0,0,0,0,
168,151,0,0,0,0,0,165,0,0,0,0,0,0,0,0,
0,167,0,0,0,0,0,165,0,0,0,0,0,0,0,0,
0,167,0,0,0,0,0,165,0,0,0,0,0,0,0,0,
0,167,0,0,0,0,0,181,182,182,153,0,0,0,0,152,
0,167,0,0,0,0,0,149,150,150,169,0,0,0,0,168,
0,167,0,0,0,0,0,165,0,0,0,0,0,0,0,0,
0,167,0,0,0,0,0,165,0,0,0,0,0,0,0,0,
152,183,0,0,149,150,150,169,0,0,0,0,0,0,0,0,
183,149,150,150,169,0,0,0,0,0,0,0,0,0,0,0,
150,169,0,0,0,0,0,0,0,0,0,0,0,0,0,0,
0,0,0,0,0,0,0,0,0,0,0,0,0,0,0,0,
0,0,0,0,0,0,0,0,0,0,0,0,0,0,0,0,
0,0,0,0,0,0,0,0,0,0,0,0,0,0,0,0,
0,0,0,0,0,0,0,0,0,0,0,0,0,0,0,0
</chunk>
   <chunk x="0" y="0" width="16" height="16">
0,0,152,182,153,0,0,152,182,182,182,182,182,153,0,0,
0,0,167,149,169,299,2147483947,168,150,150,150,151,149,169,299,2147483947,
0,0,167,165,0,0,0,0,0,0,0,167,165,0,0,0,
0,0,167,165,0,0,0,0,0,0,0,167,165,0,0,0,
0,0,167,165,0,0,0,0,0,0,0,167,165,0,0,0,
182,182,183,165,0,0,0,0,0,0,0,167,165,0,0,0,
150,150,151,165,0,0,0,0,0,0,0,167,165,0,0,0,
0,0,167,165,0,0,0,0,0,0,0,167,165,0,0,0,
0,0,167,181,182,182,182,182,182,182,182,183,181,182,182,182,
0,0,168,150,151,0,0,0,0,0,0,0,0,0,0,0,
0,0,0,0,168,151,0,0,0,0,0,0,0,0,0,0,
0,0,0,0,0,167,0,0,0,0,0,0,0,0,0,0,
0,0,0,0,0,168,150,150,150,150,151,0,0,0,0,0,
0,0,0,0,0,0,0,0,0,0,168,150,151,0,0,0,
0,0,0,0,0,0,0,0,0,0,0,0,168,151,0,0,
0,0,0,0,0,0,0,0,0,0,0,0,0,167,0,0
</chunk>
   <chunk x="16" y="0" width="16" height="16">
152,182,182,182,182,182,153,0,0,152,182,182,182,183,0,0,
168,150,150,150,151,149,169,299,2147483947,168,150,150,150,151,0,0,
0,0,0,0,167,165,0,0,0,0,0,0,0,167,0,0,
0,0,0,0,167,165,0,0,0,0,0,0,0,167,0,0,
0,0,0,0,167,165,0,0,0,0,0,0,0,167,0,0,
0,0,0,0,167,165,0,0,0,0,0,0,0,167,0,0,
0,0,0,0,167,165,0,0,0,0,0,0,0,167,0,0,
0,0,0,0,167,165,0,0,0,0,0,0,0,167,0,0,
182,182,182,182,183,181,182,182,182,182,182,182,182,183,0,0,
0,0,0,0,0,0,0,0,0,0,0,0,0,0,0,0,
0,0,0,0,0,0,0,0,0,0,0,0,0,0,0,0,
0,0,0,0,0,0,0,0,0,0,0,0,0,0,0,0,
0,0,0,0,0,0,0,0,0,0,0,0,0,0,0,0,
0,0,0,0,0,0,0,0,0,0,0,0,0,0,0,0,
0,0,0,0,0,0,0,0,0,0,0,0,0,0,0,0,
0,0,0,0,0,0,0,0,0,0,0,0,0,0,0,0
</chunk>
   <chunk x="-32" y="16" width="16" height="16">
0,0,0,0,0,0,0,0,0,165,0,0,0,0,0,0,
0,0,0,0,0,0,0,0,0,165,0,0,0,0,0,0,
0,0,0,0,0,0,0,0,0,165,0,0,0,0,0,0,
0,0,0,0,0,0,0,0,0,165,0,0,0,0,0,0,
0,0,0,0,0,0,0,0,0,165,0,0,0,0,0,0,
0,0,0,0,0,0,0,0,0,165,0,0,0,0,0,0,
0,0,0,0,0,0,0,0,0,165,0,0,0,0,0,0,
0,0,0,0,0,0,0,0,0,165,0,0,0,0,0,0,
0,0,0,0,0,0,0,0,0,165,0,0,0,0,0,0,
0,0,0,0,0,0,0,0,0,181,153,0,0,0,0,0,
0,0,0,0,0,0,0,0,0,0,181,182,182,153,0,0,
0,0,0,0,0,0,0,0,0,0,0,0,149,169,0,0,
0,0,0,0,0,0,0,0,0,0,0,149,169,0,0,0,
0,0,0,0,0,0,0,0,0,0,0,165,0,0,0,0,
0,0,0,0,0,0,0,0,0,0,0,165,0,0,0,0,
0,0,0,0,0,0,0,0,0,0,0,165,0,0,0,0
</chunk>
   <chunk x="-16" y="16" width="16" height="16">
0,0,0,0,0,0,0,0,0,0,0,0,0,0,0,0,
0,0,0,0,0,0,0,0,0,0,0,0,0,0,0,0,
0,0,0,0,0,0,0,0,0,0,0,0,0,0,0,0,
0,0,0,0,0,0,0,0,0,0,0,0,0,0,0,0,
0,0,0,0,0,0,0,0,0,0,0,0,0,0,0,0,
0,0,0,0,0,0,0,0,0,0,0,0,0,0,0,0,
0,0,0,0,0,0,0,0,152,153,0,0,0,0,0,0,
0,0,0,0,0,0,0,152,183,181,182,182,182,182,153,0,
0,0,0,0,0,0,0,167,0,0,0,0,0,0,165,0,
0,0,0,0,0,0,152,183,0,0,0,0,0,0,181,153,
152,182,182,182,182,182,183,0,0,0,0,0,0,0,0,181,
168,151,0,0,0,0,0,0,0,0,0,0,0,0,0,0,
0,168,151,0,0,0,0,0,0,0,0,0,0,0,0,0,
0,0,167,0,0,0,0,0,0,0,0,0,0,0,0,0,
0,0,167,0,0,0,0,0,0,0,0,0,0,149,150,150,
0,0,167,0,0,0,0,0,0,0,0,0,0,165,0,0
</chunk>
   <chunk x="0" y="16" width="16" height="16">
0,0,0,0,0,0,0,0,0,0,0,0,0,167,0,0,
0,0,0,0,0,0,0,0,0,0,0,0,0,167,0,0,
0,0,0,0,0,0,0,0,0,0,0,0,0,168,150,151,
0,0,0,0,0,0,0,0,0,0,0,0,0,0,0,167,
0,0,0,0,0,0,0,0,0,0,0,0,0,0,0,168,
0,0,0,0,0,0,0,0,0,0,0,0,0,0,0,0,
0,0,0,0,0,0,0,0,0,0,0,0,0,0,0,0,
0,0,0,0,0,0,0,0,0,0,0,0,0,0,0,0,
0,0,0,0,0,0,0,0,0,0,0,0,0,0,0,0,
0,0,0,0,0,0,0,0,0,0,0,0,0,0,0,0,
153,0,0,0,0,0,0,0,0,0,0,0,0,0,0,0,
181,153,0,0,0,0,0,0,0,0,0,0,0,0,0,0,
0,165,0,0,0,0,0,0,0,0,0,0,0,0,0,0,
0,181,153,0,0,0,0,0,0,0,0,0,0,0,0,0,
150,150,169,0,0,0,0,0,0,0,0,0,0,0,0,0,
0,0,0,0,0,0,0,0,0,0,0,0,0,0,0,0
</chunk>
   <chunk x="16" y="16" width="16" height="16">
0,0,0,0,0,0,0,0,0,0,0,0,0,0,0,0,
0,0,0,0,0,0,0,0,0,0,0,0,0,0,0,0,
0,0,0,0,0,0,0,0,0,0,0,0,0,0,0,0,
0,0,0,0,0,0,0,0,0,0,0,0,0,0,0,0,
151,0,0,0,0,0,0,0,0,0,0,0,0,0,0,0,
167,0,0,0,0,0,0,0,0,0,0,0,0,1610612750,0,0,
167,0,0,0,0,0,0,0,0,0,0,0,0,89,0,0,
167,0,0,0,0,0,0,0,0,0,0,0,53,73,0,0,
167,0,0,0,0,0,0,0,0,0,0,53,73,0,0,0,
167,0,0,0,0,0,0,0,0,0,0,69,0,0,0,0,
167,0,0,0,0,0,0,0,0,0,0,69,0,0,0,0,
167,0,0,0,0,0,0,0,0,0,0,69,0,0,0,0,
167,0,0,0,0,0,0,0,0,0,0,69,0,0,0,0,
167,0,0,0,0,0,0,0,0,0,0,69,0,0,0,0,
167,0,0,0,0,0,0,0,0,0,0,69,0,0,0,0,
167,0,0,0,0,0,0,0,0,0,0,85,57,0,0,0
</chunk>
   <chunk x="32" y="16" width="16" height="16">
0,0,0,0,0,0,0,0,0,0,0,0,0,0,0,0,
0,0,0,0,0,0,0,0,0,0,0,0,0,0,0,0,
0,0,0,0,0,0,0,0,0,0,0,0,0,0,0,0,
0,0,0,0,0,0,0,0,0,0,0,0,0,0,0,0,
0,0,0,0,0,0,0,0,0,0,0,0,0,0,0,0,
2684354573,0,0,0,0,0,0,0,0,0,0,0,0,0,0,0,
88,0,0,0,0,0,0,0,0,0,0,0,0,0,0,0,
72,55,0,0,0,0,0,0,0,0,0,0,0,0,0,0,
0,72,55,0,0,0,0,0,0,0,0,0,0,0,0,0,
0,0,71,0,0,0,0,0,0,0,0,0,0,0,0,0,
0,0,71,0,0,0,0,0,0,0,0,0,0,0,0,0,
0,0,71,0,0,0,0,0,0,0,0,0,0,0,0,0,
0,0,71,0,0,0,0,0,0,0,0,0,0,0,0,0,
0,0,71,0,0,0,0,0,0,0,0,0,0,0,0,0,
0,0,71,0,0,0,0,0,0,0,0,0,0,0,0,0,
0,56,87,0,0,0,0,0,0,0,0,0,0,0,0,0
</chunk>
   <chunk x="-32" y="32" width="16" height="16">
0,0,0,0,0,0,0,0,0,0,0,165,0,0,0,0,
0,0,0,0,0,0,0,0,0,0,0,165,0,0,0,0,
0,0,0,0,0,0,0,0,0,0,0,165,0,0,0,0,
0,0,0,0,0,0,0,0,0,0,0,165,0,0,0,0,
0,0,0,0,0,0,0,0,0,0,0,181,153,0,0,0,
0,0,0,0,0,0,0,0,0,0,0,0,181,182,182,182,
0,0,0,0,0,0,0,0,0,0,0,0,0,0,0,0,
0,0,0,0,0,0,0,0,0,0,0,0,0,0,0,0,
0,0,0,0,0,0,0,0,0,0,0,0,0,0,0,0,
0,0,0,0,0,0,0,0,0,0,0,0,0,0,0,0,
0,0,0,0,0,0,0,0,0,0,0,0,0,0,0,0,
0,0,0,0,0,0,0,0,0,0,0,0,0,0,0,0,
0,0,0,0,0,0,0,0,0,0,0,0,0,0,0,0,
0,0,0,0,0,0,0,0,0,0,0,0,0,0,0,0,
0,0,0,0,0,0,0,0,0,0,0,0,0,0,0,0,
0,0,0,0,0,0,0,0,0,0,0,0,0,0,0,0
</chunk>
   <chunk x="-16" y="32" width="16" height="16">
0,0,167,0,0,0,0,0,0,0,0,0,149,169,0,0,
0,0,167,0,0,0,0,0,0,0,149,150,169,0,0,0,
0,0,167,0,0,0,0,0,0,0,165,0,0,0,0,0,
0,0,167,0,0,0,0,0,0,0,165,0,0,0,0,0,
0,152,183,0,0,0,0,0,0,0,165,0,0,0,0,0,
182,183,0,0,0,0,0,0,0,0,165,0,0,0,0,0,
0,0,0,0,0,0,0,0,0,0,165,0,0,0,0,0,
0,0,0,0,0,0,0,0,0,0,165,0,0,0,0,0,
0,0,0,0,0,0,0,0,0,149,169,0,0,0,0,0,
0,0,0,0,0,0,0,0,0,165,0,0,0,0,0,0,
0,0,0,0,0,0,0,0,0,165,0,0,0,0,0,0,
0,0,0,0,0,0,0,0,0,165,0,0,0,0,0,0,
0,0,0,0,0,0,0,0,0,165,0,0,0,0,0,0,
0,0,0,0,0,0,0,0,0,181,153,0,0,0,0,0,
0,0,0,0,0,0,0,0,0,0,165,0,0,0,0,0,
0,0,0,0,0,0,0,0,0,0,181,153,0,0,0,0
</chunk>
   <chunk x="0" y="32" width="16" height="16">
0,0,0,0,0,0,0,0,0,0,0,0,0,0,0,152,
0,0,0,0,0,0,0,0,0,0,0,0,0,0,0,167,
0,0,0,0,0,0,0,0,0,0,0,0,0,0,0,167,
0,0,0,0,0,0,0,0,0,0,0,0,0,0,152,183,
0,0,0,0,0,0,0,0,0,0,0,0,152,182,183,0,
0,0,0,0,0,0,0,0,0,0,0,0,167,0,0,0,
0,0,0,0,0,0,0,0,0,0,152,182,183,0,0,0,
0,0,0,0,0,0,0,0,0,0,167,0,0,0,0,0,
0,0,0,0,0,0,0,0,0,152,183,0,0,0,0,0,
0,0,0,0,0,0,0,0,0,167,0,0,0,0,0,0,
0,0,0,0,0,0,0,0,0,167,0,0,0,0,0,0,
0,0,0,0,0,0,0,0,0,167,0,0,0,0,0,0,
0,0,0,0,0,0,0,0,0,167,0,0,0,0,0,0,
0,0,0,0,0,0,0,0,0,167,0,0,0,0,0,0,
0,0,0,0,0,0,0,0,0,167,0,0,0,0,0,0,
0,0,0,0,0,0,0,0,0,167,0,0,0,0,0,0
</chunk>
   <chunk x="16" y="32" width="16" height="16">
183,0,0,0,0,0,0,0,0,0,0,0,85,57,0,0,
0,0,0,0,0,0,0,0,0,0,0,0,0,69,0,0,
0,0,0,0,0,0,0,0,0,0,0,53,54,73,94,94,
0,0,0,0,0,0,0,0,0,0,0,69,0,0,0,0,
0,0,0,0,0,0,0,0,0,0,0,69,0,0,0,0,
0,0,0,0,0,0,0,0,0,0,0,69,0,0,0,0,
0,0,0,0,0,0,0,0,0,0,0,69,0,0,0,0,
0,0,0,0,0,0,0,0,0,0,0,69,0,0,0,0,
0,0,0,0,0,0,0,0,0,0,0,69,0,0,0,0,
0,0,0,0,0,0,0,0,0,0,0,69,0,0,0,0,
0,0,0,0,0,0,0,0,0,0,0,85,86,57,0,0,
0,0,0,0,0,0,0,0,0,0,0,0,53,73,302,303,
0,0,0,0,0,0,0,0,0,0,0,0,69,0,0,0,
0,0,0,0,0,0,0,0,0,0,0,0,69,0,0,0,
0,0,0,0,0,0,0,0,0,0,0,0,69,0,0,0,
0,0,0,0,0,0,0,0,0,0,0,0,69,0,0,0
</chunk>
   <chunk x="32" y="32" width="16" height="16">
56,87,0,0,0,0,0,0,0,0,0,0,0,0,0,0,
71,0,0,0,0,0,0,0,0,0,0,0,0,0,0,0,
72,54,55,0,0,0,0,0,0,0,0,0,0,0,0,0,
0,0,71,0,0,0,0,0,0,0,0,0,0,0,0,0,
0,0,71,0,0,0,0,0,0,0,0,0,0,0,0,0,
0,0,71,0,0,0,0,0,0,0,0,0,0,0,0,0,
0,0,71,0,0,0,0,0,0,0,0,0,0,0,0,0,
0,0,71,0,0,0,0,0,0,0,0,0,0,0,0,0,
0,0,71,0,0,0,0,0,0,0,0,0,0,0,0,0,
0,0,71,0,0,0,0,0,0,0,0,0,0,0,0,0,
56,86,87,0,0,0,0,0,0,0,0,0,0,0,0,0,
72,54,55,0,0,0,0,0,0,0,0,0,0,0,0,0,
0,0,72,55,53,54,54,54,55,0,0,0,0,0,0,0,
0,0,0,72,73,0,0,0,71,0,0,0,0,0,0,0,
0,0,0,0,0,0,0,0,71,0,0,0,0,0,0,0,
0,0,0,0,0,0,0,0,71,0,0,0,0,0,0,0
</chunk>
   <chunk x="-16" y="48" width="16" height="16">
0,0,0,0,0,0,0,0,0,0,0,181,182,182,153,0,
0,0,0,0,0,0,0,0,0,0,0,0,0,0,181,153,
0,0,0,0,0,0,0,0,0,0,0,0,0,0,0,181,
0,0,0,0,0,0,0,0,0,0,0,0,0,0,0,0,
0,0,0,0,0,0,0,0,0,0,0,0,0,0,0,0,
0,0,0,0,0,0,0,0,0,0,0,0,0,0,0,0,
0,0,0,0,0,0,0,0,0,0,0,0,0,0,0,0,
0,0,0,0,0,0,0,0,0,0,0,0,0,0,0,0,
0,0,0,0,0,0,0,0,0,0,0,0,0,0,0,0,
0,0,0,0,0,0,0,0,0,0,0,0,0,0,0,0,
0,0,0,0,0,0,0,0,0,0,0,0,0,0,0,0,
0,0,0,0,0,0,0,0,0,0,0,0,0,0,0,0,
0,0,0,0,0,0,0,0,0,0,0,0,0,0,0,0,
0,0,0,0,0,0,0,0,0,0,0,0,0,0,0,0,
0,0,0,0,0,0,0,0,0,0,0,0,0,0,0,0,
0,0,0,0,0,0,0,0,0,0,0,0,0,0,0,0
</chunk>
   <chunk x="0" y="48" width="16" height="16">
0,0,0,0,0,0,0,0,0,167,0,0,0,0,0,0,
0,0,0,0,0,0,0,0,152,183,0,0,0,0,0,0,
182,153,0,0,0,0,152,182,183,0,0,0,0,0,0,0,
277,169,0,0,0,0,168,278,0,0,0,0,0,0,0,0,
0,0,0,0,0,0,0,0,0,0,0,0,0,0,0,0,
0,0,0,0,0,0,0,0,0,0,0,0,0,0,0,0,
0,0,0,0,0,0,0,0,0,0,0,0,0,0,0,0,
0,0,0,0,0,0,0,0,0,0,0,0,0,0,0,0,
0,0,0,0,0,0,0,0,0,0,0,0,0,0,0,0,
0,0,0,0,0,0,0,0,0,0,0,0,0,0,0,0,
0,0,0,0,0,0,0,0,0,0,0,0,0,0,0,0,
0,0,0,0,0,0,0,0,0,0,0,0,0,0,0,0,
0,0,0,0,0,0,0,0,0,0,0,0,0,0,0,0,
0,0,0,0,0,0,0,0,0,0,0,0,0,0,0,0,
0,0,0,0,0,0,0,0,0,0,0,0,0,0,0,0,
0,0,0,0,0,0,0,0,0,0,0,0,0,0,0,0
</chunk>
   <chunk x="16" y="48" width="16" height="16">
0,0,0,0,0,0,0,0,0,0,0,0,69,0,0,0,
0,0,0,0,0,0,0,0,0,0,0,0,69,0,0,0,
0,0,0,0,0,0,0,0,0,0,0,0,69,0,0,0,
0,0,0,0,0,0,0,0,0,0,0,0,85,57,0,0,
0,0,0,0,0,0,0,0,0,0,0,0,0,85,86,86,
0,0,0,0,0,0,0,53,54,4,54,54,55,0,53,54,
0,0,0,0,0,0,0,69,0,0,0,0,72,54,73,0,
0,0,0,0,0,0,0,69,0,0,0,0,0,0,0,0,
0,0,0,0,0,0,0,69,0,0,0,0,0,0,0,0,
0,0,0,0,0,0,0,69,0,0,0,0,0,0,0,0,
0,0,0,0,0,0,0,69,0,0,0,0,0,0,0,0,
0,0,0,0,0,0,0,69,0,0,0,0,0,0,0,0,
0,0,0,0,0,0,0,85,57,0,0,56,86,86,86,57,
0,0,0,0,0,53,54,4,73,0,0,72,54,54,54,73,
0,0,0,0,0,69,0,0,0,0,0,0,0,0,0,0,
0,0,0,0,0,69,0,0,0,0,0,0,0,0,0,0
</chunk>
   <chunk x="32" y="48" width="16" height="16">
0,0,0,0,0,0,0,0,71,0,0,0,0,0,0,0,
0,0,0,0,0,0,0,0,71,0,0,53,54,54,54,54,
0,0,0,0,0,0,0,0,71,0,0,69,0,0,0,0,
0,0,0,56,57,0,0,0,71,53,54,73,0,0,0,0,
86,86,86,87,69,0,0,0,71,69,0,0,0,0,0,0,
54,4,54,55,69,0,0,0,72,73,0,0,0,0,0,0,
0,0,0,71,69,0,0,0,0,0,0,0,0,0,0,0,
0,0,0,71,69,0,0,0,0,0,0,0,0,0,0,0,
0,0,0,71,69,0,0,0,0,0,0,0,0,0,0,0,
0,0,0,71,69,0,0,0,0,0,0,0,0,0,0,0,
0,0,0,71,69,0,0,0,0,0,0,0,0,0,0,0,
0,0,0,71,69,0,0,0,56,57,0,0,0,0,0,0,
0,0,56,87,69,0,0,0,71,69,0,0,0,0,0,0,
0,0,72,4,73,0,0,0,71,85,86,86,86,86,86,86,
0,0,0,0,0,0,0,0,71,0,0,0,0,0,0,0,
0,0,0,0,0,0,0,0,71,0,0,0,0,0,0,0
</chunk>
   <chunk x="48" y="48" width="16" height="16">
0,0,0,0,0,0,0,0,0,0,0,0,0,0,0,0,
54,54,55,0,0,0,0,0,0,0,0,0,0,0,0,0,
0,0,71,0,0,0,0,0,0,0,0,0,0,0,0,0,
0,0,71,1610612750,304,305,2684354573,0,0,0,0,0,0,0,0,0,
0,0,71,21,0,0,23,0,0,0,0,0,0,0,0,0,
0,0,71,21,0,0,23,0,0,0,0,0,0,0,0,0,
0,0,71,21,0,0,23,0,0,0,0,0,0,0,0,0,
0,0,71,21,0,0,23,0,0,0,0,0,0,0,0,0,
0,0,71,21,0,0,23,0,0,0,0,0,0,0,0,0,
0,0,71,21,0,0,23,0,0,0,0,0,0,0,0,0,
0,0,71,37,38,38,39,0,0,0,0,0,0,0,0,0,
0,0,71,0,0,0,0,0,0,0,0,0,0,0,0,0,
56,86,87,0,0,0,0,0,0,0,0,0,0,0,0,0,
87,0,0,0,0,0,0,0,0,0,0,0,0,0,0,0,
0,0,0,0,0,0,0,0,0,0,0,0,0,0,0,0,
0,0,0,0,0,0,0,0,0,0,0,0,0,0,0,0
</chunk>
   <chunk x="0" y="64" width="16" height="16">
0,0,0,0,0,0,0,0,0,0,0,0,0,0,0,0,
0,0,0,0,0,0,0,0,0,0,0,0,0,0,0,0,
0,0,0,0,0,0,0,0,0,0,0,0,0,0,5,6,
0,0,0,0,0,0,0,0,0,5,6,6,6,6,25,0,
3221225486,9,0,0,0,0,8,3221225485,5,25,0,0,0,0,0,0,
0,21,0,0,0,0,24,6,25,0,0,0,0,0,0,0,
0,21,0,0,0,0,0,0,0,0,0,0,0,0,0,0,
0,21,0,0,0,0,0,0,0,0,0,0,0,0,0,0,
0,21,0,0,0,0,0,0,0,0,0,0,0,0,0,0,
0,21,0,0,0,0,0,0,0,0,0,0,0,0,0,0,
0,21,0,0,0,0,0,0,0,0,0,0,0,0,0,0,
0,37,9,0,0,0,0,0,0,0,0,0,0,0,0,0,
0,0,37,38,38,38,38,38,9,0,0,0,0,0,0,0,
0,0,0,0,0,0,0,0,37,38,38,38,38,38,38,38,
0,0,0,0,0,0,0,0,0,0,0,0,0,0,0,0,
0,0,0,0,0,0,0,0,0,0,0,0,0,0,0,0
</chunk>
   <chunk x="16" y="64" width="16" height="16">
0,0,0,0,0,69,0,0,0,0,0,0,0,0,0,0,
0,0,0,0,0,69,0,0,0,0,0,0,0,0,0,0,
6,6,6,7,0,105,0,0,0,0,0,0,0,0,0,0,
0,0,0,24,7,37,9,0,0,0,56,86,86,86,86,86,
0,0,0,0,24,6,25,0,0,0,104,0,0,0,0,0,
0,0,0,0,0,0,0,0,0,0,23,0,0,0,0,0,
0,0,0,0,0,0,0,0,0,0,23,0,0,0,0,0,
0,0,0,0,0,0,0,0,0,0,23,0,0,0,0,0,
0,0,0,0,0,0,0,0,0,0,23,0,0,0,0,0,
0,0,0,0,0,0,0,0,0,0,23,0,0,0,0,0,
0,0,0,0,8,38,38,38,38,38,39,0,0,0,0,0,
0,0,0,8,39,0,0,0,0,0,0,0,0,0,0,0,
8,38,38,39,0,0,0,0,0,0,0,0,0,0,0,0,
39,0,0,0,0,0,0,0,0,0,0,0,0,0,0,0,
0,0,0,0,0,0,0,0,0,0,0,0,0,0,0,0,
0,0,0,0,0,0,0,0,0,0,0,0,0,0,0,0
</chunk>
   <chunk x="32" y="64" width="16" height="16">
0,0,0,0,0,0,0,0,71,0,0,0,0,0,0,0,
0,0,0,0,0,0,0,0,71,0,0,0,0,0,0,0,
0,0,0,0,0,0,0,0,71,0,0,0,0,0,0,0,
86,86,86,86,86,86,86,86,87,0,0,0,0,0,0,0,
0,0,0,0,0,0,0,0,0,0,0,0,0,0,0,0,
0,0,0,0,0,0,0,0,0,0,0,0,0,0,0,0,
0,0,0,0,0,0,0,0,0,0,0,0,0,0,0,0,
0,0,0,0,0,0,0,0,0,0,0,0,0,0,0,0,
0,0,0,0,0,0,0,0,0,0,0,0,0,0,0,0,
0,0,0,0,0,0,0,0,0,0,0,0,0,0,0,0,
0,0,0,0,0,0,0,0,0,0,0,0,0,0,0,0,
0,0,0,0,0,0,0,0,0,0,0,0,0,0,0,0,
0,0,0,0,0,0,0,0,0,0,0,0,0,0,0,0,
0,0,0,0,0,0,0,0,0,0,0,0,0,0,0,0,
0,0,0,0,0,0,0,0,0,0,0,0,0,0,0,0,
0,0,0,0,0,0,0,0,0,0,0,0,0,0,0,0
</chunk>
  </data>
 </layer>
 <layer id="20" name="Стены верх (должно исчезнуть)" width="100" height="100">
  <data encoding="csv">
   <chunk x="16" y="32" width="16" height="16">
0,0,0,0,0,0,0,0,0,0,0,0,0,0,0,0,
0,0,0,0,0,0,0,0,0,0,0,0,0,0,0,0,
0,0,0,0,0,0,0,0,0,0,0,0,0,62,63,63,
0,0,0,0,0,0,0,0,0,0,0,0,0,0,0,0,
0,0,0,0,0,0,0,0,0,0,0,0,0,0,0,0,
0,0,0,0,0,0,0,0,0,0,0,0,0,0,0,0,
0,0,0,0,0,0,0,0,0,0,0,0,0,0,0,0,
0,0,0,0,0,0,0,0,0,0,0,0,0,0,0,0,
0,0,0,0,0,0,0,0,0,0,0,0,0,0,0,0,
0,0,0,0,0,0,0,0,0,0,0,0,0,0,0,0,
0,0,0,0,0,0,0,0,0,0,0,0,0,0,0,0,
0,0,0,0,0,0,0,0,0,0,0,0,0,0,0,0,
0,0,0,0,0,0,0,0,0,0,0,0,0,0,0,0,
0,0,0,0,0,0,0,0,0,0,0,0,0,0,0,0,
0,0,0,0,0,0,0,0,0,0,0,0,0,0,0,0,
0,0,0,0,0,0,0,0,0,0,0,0,0,0,0,0
</chunk>
   <chunk x="32" y="32" width="16" height="16">
0,0,0,0,0,0,0,0,0,0,0,0,0,0,0,0,
0,0,0,0,0,0,0,0,0,0,0,0,0,0,0,0,
64,0,0,0,0,0,0,0,0,0,0,0,0,0,0,0,
0,0,0,0,0,0,0,0,0,0,0,0,0,0,0,0,
0,0,0,0,0,0,0,0,0,0,0,0,0,0,0,0,
0,0,0,0,0,0,0,0,0,0,0,0,0,0,0,0,
0,0,0,0,0,0,0,0,0,0,0,0,0,0,0,0,
0,0,0,0,0,0,0,0,0,0,0,0,0,0,0,0,
0,0,0,0,0,0,0,0,0,0,0,0,0,0,0,0,
0,0,0,0,0,0,0,0,0,0,0,0,0,0,0,0,
0,0,0,0,0,0,0,0,0,0,0,0,0,0,0,0,
0,0,0,0,0,0,0,0,0,0,0,0,0,0,0,0,
0,0,0,0,0,0,0,0,0,0,0,0,0,0,0,0,
0,0,0,0,0,0,0,0,0,0,0,0,0,0,0,0,
0,0,0,0,0,0,0,0,0,0,0,0,0,0,0,0,
0,0,0,0,0,0,0,0,0,0,0,0,0,0,0,0
</chunk>
  </data>
 </layer>
</map>
